P2
400 400
255
23 21 14 23 22 21 20 69 167 220 223 226 230 226 225 224 221 216 211 201 177 138 87 47 48 56 44 43 37 24 34 41 40 32 33 48 43 34 34 48 57 49 35 34 42 44 42 39 33 30 34 22 22 50 56 38 36 42 41 48 65 39 45 85 96 77 73 103 115 90 56 28 26 40 42 41 68 110 127 119 115 109 116 118 81 45 55 101 125 87 109 163 139 84 64 99 117 86 54 45 36 34 50 101 102 49 63 73 80 98 66 35 33 45 42 30 37 61 87 111 120 112 85 83 82 64 60 89 95 51 34 43 37 37 50 48 54 71 100 98 49 30 43 78 94 67 38 31 29 23 26 32 48 42 41 34 27 35 44 48 35 32 31 26 29 33 27 29 37 45 49 47 45 50 51 40 26 22 41 59 56 44 30 20 20 24 26 41 48 40 40 42 50 45 37 44 34 23 22 26 25 21 20 51 90 110 95 79 80 83 110 126 123 115 105 112 93 73 77 104 108 88 57 22 26 30 34 46 59 54 35 23 16 16 16 15 16 18 18 18 17 18 17 17 20 24 27 28 37 77 109 141 164 177 203 220 228 235 240 240 238 237 236 234 235 233 231 229 227 225 222 221 219 218 213 208 207 206 203 199 197 194 190 188 185 185 186 185 184 182 182 183 183 181 179 180 179 178 177 178 179 180 181 182 177 179 181 180 179 178 177 177 173 176 178 176 173 175 177 176 172 171 174 172 173 176 173 170 172 173 172 171 173 175 172 169 174 174 175 175 172 172 171 170 173 172 170 170 172 172 172 173 171 170 168 168 169 169 168 169 172 169 169 170 169 171 173 171 167 172 174 169 170 174 170 167 168 171 172 170 168 168 171 173 171 171 173 176 176 174 173 174 174 173 173 172 170 170 172 172 
31 27 22 22 25 22 27 64 156 216 226 227 228 224 223 221 221 216 207 199 192 175 139 104 68 48 52 51 39 35 34 37 32 25 41 49 49 32 37 42 47 46 35 31 46 51 42 36 25 25 40 36 27 42 50 40 52 52 39 41 55 39 37 58 70 70 81 114 133 118 85 51 29 34 37 35 53 90 102 89 116 120 92 70 59 45 51 80 92 68 81 124 125 78 45 69 89 84 61 45 42 31 39 91 114 59 48 59 67 75 62 46 38 55 66 51 52 98 123 105 92 85 56 53 62 57 46 56 77 72 49 49 45 44 66 65 41 48 54 85 75 32 28 46 52 40 25 24 23 23 35 47 48 45 45 42 41 45 39 31 26 29 34 33 31 29 23 21 41 54 55 51 58 72 69 46 34 32 48 54 39 25 17 11 25 33 37 46 50 41 34 29 31 35 33 44 40 31 27 30 20 18 22 44 73 86 64 57 79 88 116 129 119 107 104 111 103 71 60 89 113 104 72 37 32 36 44 55 61 50 29 15 15 17 18 16 15 16 17 18 15 20 23 22 22 21 25 33 65 105 135 161 183 197 219 229 236 240 242 240 239 238 237 234 234 232 230 229 227 225 222 220 218 216 212 208 206 205 202 198 195 192 190 188 185 185 184 183 184 182 181 182 183 181 180 180 180 180 179 179 178 178 179 180 175 177 178 177 177 176 176 175 176 177 176 174 172 174 176 175 171 170 173 172 171 173 171 169 173 174 172 170 171 173 172 171 172 172 173 173 171 171 170 169 171 171 170 169 169 169 170 172 171 170 168 168 169 168 168 168 171 169 169 170 169 170 172 171 170 170 171 169 170 171 169 170 170 170 169 169 170 171 171 171 174 174 175 176 175 173 173 173 172 172 172 172 170 171 174 175 
29 25 28 25 28 21 32 70 160 218 228 226 225 225 224 219 217 216 209 197 188 180 165 148 119 77 57 46 48 53 40 38 34 26 35 47 39 35 41 45 37 44 45 37 40 45 41 47 34 30 50 49 28 28 32 27 48 55 43 44 52 46 33 37 38 41 59 87 93 80 79 86 78 58 51 62 93 116 95 61 81 95 67 41 38 38 47 51 42 48 63 80 100 75 37 44 56 80 70 46 55 51 50 79 105 67 33 33 40 55 76 72 67 58 61 59 63 104 111 63 52 61 48 42 44 50 47 47 71 109 97 86 76 83 108 85 30 32 37 86 101 45 25 26 33 35 31 29 31 37 44 43 45 48 51 48 48 48 33 20 29 37 44 43 34 33 42 45 52 53 50 51 63 80 82 66 50 53 69 62 30 11 10 11 24 33 36 40 44 42 35 27 33 47 49 54 47 38 31 35 29 29 29 32 48 64 54 65 93 104 123 130 112 97 98 96 92 75 58 73 104 113 92 62 48 44 48 61 66 50 28 18 16 17 18 17 16 17 18 18 19 19 18 20 23 22 35 58 102 138 163 183 202 218 233 237 241 242 241 238 237 238 236 233 233 231 228 228 227 224 221 220 216 215 211 207 205 204 201 197 193 191 189 188 186 185 184 182 182 182 181 181 181 181 180 179 180 180 180 179 177 176 176 178 177 177 177 177 177 177 176 174 177 175 174 174 173 174 174 173 171 170 173 172 171 171 170 170 172 174 172 170 171 171 171 171 172 173 174 173 172 172 172 170 171 172 172 171 170 169 170 173 171 170 168 168 169 169 168 168 170 169 170 170 169 170 171 171 172 168 168 168 169 168 167 173 171 169 169 170 172 172 171 171 172 173 173 172 171 170 170 169 171 171 172 172 171 173 175 176 
29 25 35 31 30 25 37 99 183 227 229 225 225 227 226 221 218 212 204 195 185 176 167 161 151 129 92 67 58 52 49 47 38 34 37 50 43 43 39 39 32 41 58 53 42 38 36 49 43 35 50 48 28 26 28 21 44 63 54 52 52 48 33 37 41 37 44 58 51 34 48 79 97 72 57 68 118 154 114 56 38 60 53 38 44 52 55 42 33 29 45 46 86 97 62 49 65 98 99 72 78 65 54 59 72 65 37 31 42 75 108 88 76 60 53 48 43 58 64 41 48 55 51 45 33 39 46 46 62 108 104 93 96 106 117 96 55 31 42 82 91 38 16 22 34 48 47 37 38 51 54 40 43 51 53 43 39 40 32 27 29 36 42 48 43 45 60 62 52 47 50 58 55 55 68 74 64 58 65 56 25 9 11 14 27 33 36 39 45 46 38 28 43 59 59 58 52 43 33 38 46 48 43 48 71 94 82 74 95 99 102 101 87 84 95 83 71 78 71 74 92 98 91 81 78 66 61 76 85 61 31 21 18 17 17 17 19 20 20 19 22 20 18 21 26 31 59 98 134 162 183 199 216 230 240 240 241 241 239 236 236 237 236 233 233 231 228 227 227 224 221 218 216 214 210 207 205 203 199 196 193 191 189 187 186 185 184 183 180 182 181 180 179 181 180 178 179 179 179 178 177 175 176 177 179 178 177 176 177 177 175 173 174 172 173 175 175 174 173 171 172 170 173 173 172 172 172 173 170 172 173 172 172 172 170 169 172 173 174 173 171 173 173 171 171 173 173 173 171 170 170 173 170 169 168 168 170 169 169 169 169 169 170 170 169 169 170 170 172 167 167 168 169 168 166 172 170 169 170 173 173 171 171 173 172 173 174 172 172 173 172 171 171 171 172 173 173 173 174 173 
36 34 37 29 26 31 34 114 203 232 229 226 226 227 225 222 218 213 205 195 183 171 163 159 154 152 132 111 80 56 54 45 38 36 44 49 57 47 45 42 42 46 57 52 46 40 34 46 48 40 51 46 31 37 37 26 35 59 52 51 51 42 24 31 39 34 30 33 38 36 36 45 57 57 57 54 92 154 142 78 56 85 79 42 57 90 102 92 52 27 44 39 80 128 109 84 91 120 121 98 93 61 42 47 47 53 45 44 55 93 117 80 47 47 40 31 28 38 45 30 36 36 47 60 40 30 35 41 54 80 68 61 92 98 83 92 93 58 44 40 45 29 23 28 42 57 53 33 23 38 54 51 51 54 48 33 29 34 34 36 30 30 33 45 48 50 59 55 42 45 53 51 35 39 66 79 61 40 35 33 23 20 21 21 32 38 47 54 60 57 44 33 53 66 65 61 55 45 30 35 54 72 75 92 118 135 110 70 68 66 55 51 50 69 95 85 85 91 89 94 97 81 70 76 89 87 84 99 111 82 37 19 18 18 18 18 18 18 19 19 15 20 22 24 34 53 90 129 158 180 199 215 230 239 243 243 241 240 239 238 237 237 236 235 233 231 229 228 226 224 220 218 216 214 210 207 204 201 198 195 193 190 188 186 184 184 184 183 179 181 182 179 178 179 180 178 179 179 178 178 178 177 176 176 177 176 174 174 175 176 174 172 173 172 173 176 174 172 171 171 173 170 173 173 172 173 172 174 171 172 171 171 173 172 169 168 170 171 172 170 169 171 172 170 169 170 171 172 172 170 169 170 169 168 167 168 170 170 170 171 170 170 170 170 170 169 169 169 170 168 169 168 169 170 167 169 169 168 169 172 172 170 170 172 170 172 173 172 173 174 173 171 171 170 171 173 174 174 173 170 
31 32 32 24 27 41 38 117 208 230 229 229 225 224 221 220 215 215 207 193 179 167 157 151 150 150 140 128 110 80 55 46 43 41 42 46 51 46 44 49 48 54 52 43 45 43 37 50 51 48 59 52 39 43 41 32 44 54 37 33 43 33 19 28 34 35 36 38 47 49 46 51 52 49 50 38 46 111 141 100 76 121 131 71 62 106 140 129 78 63 73 49 72 136 124 78 78 106 92 66 68 51 33 35 37 44 55 59 52 71 89 64 33 41 42 35 23 30 47 39 36 26 32 54 41 24 25 35 45 62 52 39 75 92 70 71 91 71 37 23 31 32 45 55 59 55 41 24 13 24 50 65 60 52 41 29 29 37 36 34 29 30 37 46 44 40 45 48 49 61 54 33 30 55 74 65 35 23 26 33 34 35 35 37 42 52 67 73 70 63 48 40 57 72 76 68 51 36 26 40 68 101 111 131 149 149 117 71 61 58 45 39 40 63 92 89 94 98 95 101 105 89 71 63 87 100 107 118 127 99 49 21 18 19 21 19 15 14 16 20 18 23 26 36 63 100 135 157 179 195 214 230 240 244 243 244 239 239 239 238 237 236 234 233 233 231 229 228 226 223 219 218 216 213 210 206 203 200 196 194 193 189 186 184 182 182 183 182 179 181 181 178 177 178 179 178 180 179 179 179 179 177 176 175 176 175 173 174 175 177 176 174 175 173 173 174 171 170 171 172 173 171 173 171 170 172 171 172 173 172 170 169 171 171 170 171 170 171 172 170 168 171 172 170 170 170 170 171 173 171 170 170 169 168 168 169 171 171 170 171 170 170 169 169 170 169 168 169 169 169 170 168 170 171 167 168 169 167 167 170 172 172 170 169 169 170 171 172 172 172 171 170 170 169 170 173 174 174 173 170 
38 39 34 25 29 35 45 120 209 228 228 228 224 223 221 221 217 212 201 190 183 173 157 146 145 147 141 129 121 98 68 64 55 49 41 51 45 44 38 44 43 46 49 50 49 46 46 51 46 47 61 58 45 41 37 37 56 53 36 34 50 37 23 24 29 42 60 68 68 61 62 84 92 72 57 47 46 88 119 85 67 103 121 76 57 81 118 106 77 92 94 61 53 94 89 50 60 81 58 38 46 51 42 38 41 49 68 73 49 46 64 56 40 36 37 37 25 39 78 88 70 58 36 40 47 46 34 27 49 69 57 34 50 77 73 49 60 74 45 29 38 54 68 71 56 41 28 27 26 33 56 72 56 43 36 31 34 39 35 28 24 31 46 51 43 34 40 58 83 92 67 38 45 62 53 29 17 27 47 58 59 55 52 54 63 80 100 95 78 65 53 50 53 61 64 58 41 32 32 55 87 112 112 125 142 134 98 71 74 69 56 45 35 42 63 67 84 100 105 106 110 111 100 81 91 104 118 128 127 101 57 26 19 20 20 19 16 14 17 21 21 23 37 65 101 137 165 179 201 214 230 238 243 245 242 242 239 238 238 237 236 235 233 231 231 230 229 228 225 222 219 218 215 212 209 205 202 198 196 194 193 189 186 183 181 181 182 181 180 180 179 178 178 179 178 177 178 178 178 179 177 176 175 175 175 175 174 174 176 177 176 174 174 173 173 173 171 170 172 172 171 170 173 169 167 170 171 172 172 172 170 169 170 170 170 172 170 172 172 170 168 171 173 170 172 172 170 171 172 171 170 171 170 170 169 169 171 170 169 170 170 170 168 168 170 170 169 169 172 170 170 169 170 170 167 169 169 168 169 170 172 173 171 170 173 172 172 173 174 173 173 172 171 170 171 172 172 172 173 171 
35 32 27 18 24 24 61 143 213 229 226 225 222 226 225 224 215 211 204 195 183 165 151 148 145 143 144 137 122 108 91 70 62 45 43 47 51 46 49 50 49 34 40 56 50 49 58 54 43 44 59 60 46 34 28 35 51 44 33 35 54 42 33 30 48 63 82 85 80 70 68 88 117 99 64 48 57 91 103 57 52 62 64 57 70 64 72 57 58 73 64 55 45 56 57 46 47 53 41 44 42 46 46 49 56 59 67 68 43 39 61 58 44 35 30 35 33 53 97 108 98 101 60 36 55 82 78 69 83 103 67 34 36 51 62 44 37 67 65 66 71 78 65 50 39 29 28 40 43 43 56 66 45 34 34 36 36 38 33 25 38 37 45 46 43 43 56 84 114 116 80 50 53 46 26 18 25 45 69 81 84 80 70 67 75 101 127 116 92 77 68 69 60 50 43 41 37 40 43 64 86 101 89 87 97 89 67 76 91 81 65 49 30 25 40 52 73 95 109 108 100 99 100 92 82 88 107 124 120 94 56 27 21 19 17 18 19 19 20 21 29 38 71 113 139 156 181 202 219 230 241 241 242 244 242 242 240 240 239 238 238 237 235 233 230 230 229 228 225 221 219 218 214 211 208 204 201 198 195 194 193 189 186 184 182 182 182 181 182 180 178 177 178 179 178 176 175 176 177 177 176 174 173 174 174 174 173 173 174 174 173 171 171 171 173 174 172 172 172 171 169 170 173 169 166 170 172 173 170 171 171 171 171 170 170 172 169 170 170 168 166 169 171 169 171 171 168 168 168 168 168 170 172 171 170 170 171 170 168 168 170 170 167 167 171 171 169 170 175 170 169 169 170 169 167 171 168 171 173 173 172 172 173 173 172 170 169 171 172 171 171 172 172 172 173 172 170 170 172 172 
35 26 27 20 21 26 75 177 228 231 229 225 225 226 224 222 214 209 203 192 176 165 155 143 141 142 143 139 131 120 102 84 64 44 41 41 46 50 53 50 54 36 39 53 51 44 48 53 49 44 43 50 49 36 29 35 37 33 39 47 55 53 44 51 58 48 67 87 77 72 75 65 82 84 63 53 63 73 65 33 32 42 50 44 50 57 59 54 62 83 64 50 43 48 47 44 43 38 47 47 54 52 51 65 74 68 52 44 36 31 48 63 53 40 26 36 48 53 65 72 78 98 81 41 47 96 121 108 107 117 91 51 28 36 53 43 36 71 87 89 85 62 38 30 33 32 26 30 40 48 51 39 30 39 37 39 41 36 36 41 53 40 31 34 44 61 81 93 84 89 71 61 43 27 20 36 50 69 95 111 103 98 77 71 82 116 140 130 96 87 100 96 68 52 43 45 51 52 56 71 95 97 83 76 78 82 74 74 97 77 52 45 44 28 21 36 63 98 112 97 85 85 79 62 65 71 80 106 110 78 50 30 21 19 20 21 17 18 25 21 35 75 113 143 167 184 203 218 233 239 245 247 246 244 241 239 242 240 237 235 234 234 233 232 231 230 228 226 224 220 216 215 213 210 207 205 202 199 195 190 189 188 186 184 182 181 181 182 181 176 175 178 177 177 176 175 176 177 177 176 175 173 173 175 175 174 172 174 176 177 174 171 173 172 171 171 171 171 172 174 169 167 169 172 172 171 172 172 170 171 173 172 170 168 170 173 168 168 167 167 170 171 171 170 173 169 169 171 170 168 168 169 168 169 168 167 167 167 169 171 169 168 168 170 170 169 168 168 173 168 167 170 170 168 168 172 173 169 167 170 172 172 171 172 171 170 172 172 169 172 173 169 171 171 172 172 173 174 173 170 
30 26 28 26 29 34 84 181 223 228 228 226 225 224 220 218 216 209 202 192 177 163 152 143 138 139 140 138 134 127 112 95 77 46 35 29 31 40 52 53 61 53 45 50 58 48 36 38 47 42 43 50 50 40 35 37 38 29 36 46 45 43 48 56 55 41 59 87 89 85 76 57 53 49 52 50 54 59 48 39 52 69 72 47 41 47 53 47 49 70 64 55 41 40 57 67 47 53 77 78 72 70 72 70 86 71 46 38 30 24 45 62 63 52 36 36 64 68 50 60 56 69 85 60 36 77 112 88 69 83 74 53 34 30 42 41 47 82 99 94 74 44 28 30 33 35 31 34 45 50 46 37 36 41 38 35 37 45 52 48 47 47 41 42 54 73 78 60 51 51 65 71 45 21 41 67 77 95 111 107 84 78 81 86 80 98 123 105 66 84 116 100 73 63 65 63 65 65 57 64 95 94 75 83 97 100 88 76 90 74 42 43 48 32 32 37 58 93 115 109 100 95 74 51 52 66 79 95 97 68 40 34 27 23 18 19 23 18 24 46 78 113 143 168 190 205 221 234 241 244 246 246 245 243 241 240 241 240 238 237 236 235 233 231 230 229 227 226 224 220 217 215 214 210 206 203 200 198 195 192 188 186 184 183 182 181 181 182 179 177 178 179 175 173 174 175 174 175 175 175 174 173 173 175 173 172 171 173 174 174 173 172 170 171 173 174 173 171 171 171 170 168 170 172 171 170 170 171 169 169 169 169 168 167 167 168 170 170 168 167 169 170 169 169 173 170 170 172 171 170 170 170 171 171 171 170 169 168 169 169 170 169 169 170 170 169 168 168 171 169 168 170 169 167 168 171 172 169 168 169 170 170 171 171 170 169 172 172 170 172 173 169 171 172 172 172 173 174 172 170 
25 26 30 34 32 30 82 179 222 227 228 227 226 223 220 218 217 208 201 193 177 161 149 142 134 135 136 136 137 136 126 110 96 73 44 20 24 26 31 41 49 62 60 55 55 42 34 46 46 43 49 56 53 45 41 39 42 27 27 42 46 41 44 45 49 43 59 85 101 108 99 78 56 55 59 45 44 50 42 47 68 103 105 64 45 39 39 38 31 45 54 65 69 75 103 105 89 95 123 122 99 89 90 70 73 64 36 27 26 25 51 82 73 60 60 50 57 62 45 55 55 59 80 75 46 53 68 49 57 54 45 44 36 23 26 30 53 75 83 74 56 39 37 42 40 40 38 40 52 55 43 38 35 36 38 40 41 54 63 52 39 33 38 49 56 61 56 43 46 56 66 52 40 37 71 94 104 107 97 77 61 57 76 86 77 67 66 52 41 69 100 100 82 80 95 95 94 87 60 53 75 75 56 76 98 101 96 83 78 66 36 32 34 23 28 36 54 86 109 108 109 105 78 48 51 67 85 89 81 58 36 37 34 28 22 20 26 28 44 85 118 145 167 187 206 219 232 241 246 247 247 246 244 242 241 240 240 239 239 238 237 235 232 230 229 228 227 226 223 220 217 216 212 209 206 203 199 197 195 192 188 186 184 183 182 181 180 180 178 177 178 178 174 172 174 175 174 174 174 173 174 172 172 173 173 171 171 172 173 172 171 172 171 172 173 173 171 169 170 172 171 170 171 171 170 168 169 170 170 169 168 168 169 169 168 167 170 171 169 167 168 168 168 168 171 170 170 171 171 171 171 169 167 167 168 169 169 169 169 169 170 168 168 170 170 169 169 169 169 170 171 171 169 169 171 173 170 170 170 169 169 170 171 171 168 168 171 171 170 172 173 170 172 172 172 172 173 174 173 171 
28 23 23 32 34 28 79 173 226 227 227 226 224 222 220 220 215 208 201 192 178 162 149 140 131 131 133 134 137 141 136 125 111 100 71 36 31 22 16 23 24 37 49 55 56 48 42 44 49 47 50 52 46 45 49 50 37 34 30 44 50 39 35 34 45 43 41 53 81 105 112 108 94 89 69 48 44 39 30 34 46 85 109 86 59 44 47 44 26 40 62 79 88 99 135 133 111 102 121 132 117 104 103 80 52 56 42 32 41 46 65 106 102 78 71 58 49 55 48 41 48 46 52 56 49 47 49 46 44 38 36 46 42 20 17 26 49 60 58 44 29 27 40 49 52 42 38 42 58 64 45 34 35 34 43 55 57 60 65 58 33 24 44 53 47 45 43 51 60 59 48 39 55 73 101 119 119 100 66 51 61 59 81 88 67 54 41 27 38 72 95 108 94 84 96 114 124 111 66 35 49 53 48 78 104 106 96 84 87 70 47 28 25 22 19 33 64 97 108 106 112 113 93 58 58 73 87 81 63 51 46 42 39 31 32 26 30 53 85 122 152 174 191 208 226 236 245 249 245 246 246 245 244 243 241 239 239 238 238 237 236 234 231 228 229 227 226 225 223 220 217 216 210 207 206 204 200 197 193 189 188 186 184 182 181 180 178 177 179 176 175 175 175 175 175 174 175 175 174 173 174 172 171 172 174 172 171 172 173 171 171 172 172 172 172 171 170 169 170 171 170 169 170 171 169 168 169 170 169 169 168 169 171 172 171 170 169 170 169 167 167 167 168 169 168 169 170 170 169 170 170 167 165 166 166 167 168 169 169 168 168 167 167 169 169 169 169 170 167 169 170 169 170 171 172 173 170 171 171 169 169 171 172 171 167 168 170 171 170 172 173 171 172 173 173 172 173 174 174 173 
27 25 24 28 29 30 88 185 227 226 225 223 222 221 219 218 213 210 204 192 177 164 149 136 128 127 129 131 135 141 141 136 119 106 96 70 47 29 22 17 13 16 27 41 47 47 45 43 45 47 54 53 45 45 53 55 39 36 31 43 50 44 40 34 52 48 32 29 45 58 79 114 118 87 61 53 53 47 40 45 48 59 89 89 56 46 68 62 40 64 102 108 86 78 116 129 93 68 77 105 112 100 105 103 64 57 50 38 45 46 43 70 99 88 58 49 53 54 55 43 41 38 42 43 39 41 45 43 37 29 34 51 51 34 33 44 62 55 42 33 28 31 41 45 50 43 47 50 53 56 46 40 36 36 43 58 64 60 58 54 49 45 68 88 72 46 43 56 67 51 36 58 85 108 126 143 137 112 85 80 79 68 92 97 72 42 36 47 65 95 114 120 111 86 77 99 116 108 80 48 38 50 63 93 113 116 101 94 92 75 53 32 28 26 17 24 61 104 114 113 116 115 102 66 60 82 87 76 56 50 58 53 44 36 41 39 51 90 125 151 175 194 209 224 238 245 249 248 245 245 244 244 243 243 241 240 239 238 237 236 235 233 230 229 228 227 225 224 222 219 216 215 209 206 204 202 199 196 192 187 187 185 183 182 181 179 177 176 179 176 174 174 176 176 175 174 176 175 174 173 174 173 171 172 174 172 170 171 172 172 171 172 169 170 171 172 172 170 168 167 169 168 169 170 168 168 169 170 166 167 167 168 169 171 170 169 169 170 169 167 167 167 168 169 166 168 171 170 167 168 168 167 171 171 170 169 169 169 168 168 168 167 168 169 169 169 169 170 167 168 167 166 169 172 171 169 170 171 171 169 169 172 173 171 167 168 170 171 170 171 172 171 171 172 172 172 172 174 174 173 
38 32 28 25 30 42 99 190 228 226 226 225 223 223 221 217 213 213 205 192 178 164 148 134 126 123 125 128 131 137 142 142 130 117 111 92 69 41 25 18 15 14 16 22 24 24 30 40 48 52 56 53 44 44 51 55 45 33 31 40 44 50 53 43 46 38 28 38 52 42 53 93 79 46 50 58 62 71 63 54 43 45 63 72 56 45 61 57 49 65 99 99 64 49 77 103 64 41 46 67 71 54 72 108 98 70 55 41 42 44 33 40 64 73 47 41 46 41 50 46 36 30 36 46 44 36 36 40 34 26 34 53 59 57 65 77 68 49 30 31 36 36 37 36 34 34 43 43 35 36 37 36 33 37 40 50 59 56 50 43 59 60 70 99 88 52 51 54 60 52 44 83 111 110 109 139 148 133 126 116 75 57 94 105 74 47 58 94 112 117 119 119 108 79 63 86 110 116 107 79 68 78 89 109 123 124 103 89 70 69 54 38 28 20 19 24 52 99 119 124 120 105 89 61 70 105 108 96 79 60 59 58 51 44 45 55 84 121 149 173 196 214 228 238 246 248 249 246 247 246 244 242 242 242 242 241 240 238 237 235 234 233 231 229 228 226 224 223 220 217 215 214 210 206 201 199 196 194 191 187 184 183 182 182 180 178 177 177 178 178 176 174 174 174 173 174 175 175 174 173 174 173 172 173 171 170 169 170 171 172 172 171 170 170 169 170 170 169 168 167 168 167 168 169 168 169 170 169 167 168 168 168 169 170 169 167 169 170 169 167 167 167 167 168 166 168 171 170 167 168 168 167 171 170 169 169 168 168 169 169 170 169 169 170 170 169 169 170 170 169 167 167 170 173 171 168 169 171 170 169 169 171 172 170 167 168 169 170 170 170 171 172 170 171 171 170 170 172 173 172 
40 33 36 32 31 40 93 189 227 227 227 225 223 224 223 219 215 213 205 192 179 164 147 136 126 121 121 125 127 132 139 142 143 136 125 107 96 67 38 26 19 14 11 12 12 9 10 16 33 43 52 55 51 47 45 44 40 34 42 45 37 40 49 54 41 39 39 51 58 45 41 59 49 36 52 61 61 72 70 55 32 42 56 66 67 62 74 67 52 48 65 67 48 49 62 87 74 44 39 53 66 50 53 86 118 101 72 44 35 38 34 33 43 52 43 37 38 38 45 43 44 40 48 60 56 44 45 54 38 26 37 61 71 73 71 66 53 50 45 47 46 40 38 37 40 37 33 33 33 36 40 35 37 42 41 44 49 52 53 49 51 57 54 57 59 58 59 50 46 47 45 81 110 82 65 97 121 123 128 114 61 53 89 100 88 93 108 131 139 127 111 97 80 73 73 81 88 105 116 105 106 114 111 124 133 130 105 78 74 83 77 55 32 20 26 40 51 81 106 117 111 86 64 55 97 131 138 127 108 76 57 57 56 50 50 71 107 137 164 190 212 229 240 246 247 246 247 244 246 246 245 243 242 241 241 241 240 238 236 235 233 232 230 229 227 225 223 222 219 216 214 213 209 205 201 198 195 192 189 186 182 182 182 181 179 177 176 176 177 178 176 173 174 173 173 174 174 174 173 173 173 172 171 172 169 171 171 169 169 171 171 170 172 170 168 168 168 168 168 169 168 167 168 169 168 169 169 167 168 169 169 168 169 170 169 166 168 169 168 167 167 167 167 167 167 167 169 169 168 168 169 167 165 166 166 166 166 167 169 170 168 168 169 170 170 168 169 170 170 170 168 167 169 172 172 170 170 171 172 170 169 170 170 170 167 168 169 169 170 170 171 173 171 172 171 170 170 171 172 171 
37 24 33 37 36 36 83 183 225 226 226 223 220 223 224 219 216 212 203 193 180 163 148 139 128 121 120 123 125 128 135 140 151 143 138 122 116 99 68 38 28 19 16 15 8 6 10 10 10 24 38 47 52 49 42 39 38 36 46 48 41 36 36 48 54 51 42 39 47 53 45 34 34 39 47 64 60 48 52 47 33 43 71 83 73 75 90 62 35 33 51 56 45 53 50 68 78 56 56 66 80 61 48 70 110 126 93 48 34 33 36 37 53 62 59 42 37 37 31 40 56 69 92 91 70 68 75 67 52 42 57 72 65 54 41 28 28 44 52 57 59 54 45 34 34 40 32 26 23 25 37 42 43 43 38 34 34 43 58 65 58 54 56 44 49 59 45 42 47 53 50 52 74 64 54 49 53 59 53 42 20 51 99 118 117 131 142 142 115 88 90 96 88 98 113 102 88 102 114 107 102 126 124 126 120 117 118 107 110 111 107 71 41 31 30 51 62 70 96 113 114 93 72 84 122 140 151 141 117 84 58 59 58 53 56 81 113 140 173 201 223 239 248 251 249 247 248 247 242 244 245 244 243 242 240 239 238 237 235 234 233 231 229 228 227 225 223 221 219 216 214 213 207 204 202 199 195 192 188 184 181 182 182 181 178 175 174 175 177 176 173 171 174 175 173 173 174 174 173 173 172 170 169 171 170 173 173 170 168 170 170 169 168 169 169 170 169 168 167 168 169 168 168 168 169 169 168 165 167 168 167 167 168 170 168 165 167 168 167 166 168 168 168 168 167 165 166 168 168 169 168 167 166 167 168 167 166 165 166 167 165 165 167 169 169 168 169 170 166 166 166 165 166 169 170 170 171 173 174 172 170 169 170 171 167 168 169 169 170 170 171 174 173 173 173 171 170 171 172 172 
43 30 32 36 36 34 67 169 215 229 226 227 222 223 222 218 216 210 205 195 179 167 153 137 125 123 119 119 123 126 130 136 145 149 146 139 130 120 100 71 44 25 21 19 13 15 17 13 13 17 21 37 58 62 51 46 34 33 39 45 48 46 40 41 53 53 41 41 46 43 58 50 47 52 60 67 64 51 49 59 51 50 79 86 59 67 84 65 29 22 54 78 56 41 37 51 81 87 100 105 93 64 43 48 77 117 101 63 46 34 38 49 72 84 70 44 37 33 30 35 69 81 100 118 105 84 77 62 50 68 77 62 43 35 29 21 29 50 54 66 68 56 54 48 46 49 43 28 22 31 39 38 35 33 41 44 34 37 57 71 71 62 54 49 56 67 53 28 49 64 63 47 47 58 51 30 24 17 2 10 41 86 129 143 129 119 114 100 66 45 89 111 115 127 125 115 91 102 105 82 76 82 87 91 88 98 124 133 133 138 135 103 79 61 45 60 78 82 105 125 116 109 97 109 128 144 137 123 110 80 58 61 59 54 56 79 114 148 181 207 234 245 249 250 248 247 249 245 245 244 243 243 242 241 240 238 237 236 235 234 233 231 229 228 228 226 223 220 218 216 212 209 205 203 200 197 194 190 186 183 182 182 180 177 176 175 175 177 174 174 174 174 172 170 171 173 173 171 169 169 171 171 170 172 170 172 172 170 168 168 169 170 168 169 170 171 170 169 168 167 167 168 167 166 167 167 167 168 169 168 168 168 168 167 168 169 169 166 167 169 169 169 168 165 167 168 166 166 169 170 169 169 167 168 169 169 168 168 168 168 167 169 169 167 167 170 172 172 167 167 168 169 169 169 169 169 171 167 168 170 169 169 170 170 171 172 173 173 173 173 174 175 172 171 171 171 171 172 171 166 
43 34 35 33 32 30 54 143 212 226 224 225 221 221 220 217 218 214 207 196 183 167 150 136 120 118 115 115 118 120 126 134 140 147 152 151 144 134 121 100 69 41 27 25 22 18 17 23 19 18 19 32 54 61 54 48 45 42 42 39 39 40 39 41 44 57 49 49 54 39 53 67 68 62 66 71 61 44 42 52 46 49 64 60 45 66 90 80 49 31 58 93 82 41 22 69 101 92 100 125 115 77 54 41 43 81 99 75 46 41 45 44 55 72 65 45 35 28 25 35 65 66 72 98 99 63 45 46 47 52 49 38 32 34 31 24 29 57 65 57 52 53 57 58 62 59 46 38 43 45 42 42 31 35 48 53 41 37 53 70 67 60 49 50 67 68 50 41 62 80 76 52 45 49 40 24 8 9 15 34 78 129 149 141 113 85 58 44 31 27 76 107 118 129 130 114 85 90 99 79 64 63 59 55 55 76 111 123 126 127 135 131 124 109 88 84 86 100 118 128 117 115 110 124 128 117 118 126 109 77 61 59 59 59 58 71 103 140 178 207 228 241 247 248 247 246 249 248 245 245 244 243 242 241 240 239 237 236 235 234 232 230 228 227 225 223 221 219 217 215 212 208 205 201 198 196 194 191 187 184 182 183 180 177 175 174 174 176 173 173 173 172 172 171 171 171 170 169 169 170 172 170 168 168 170 171 172 171 169 169 169 170 168 168 169 169 169 168 167 166 167 168 168 167 168 168 167 167 166 168 168 166 165 167 167 166 167 165 167 168 168 167 167 165 166 169 169 167 167 167 167 169 167 167 167 167 168 169 168 167 168 169 168 166 167 169 170 170 166 167 168 168 168 169 169 168 170 167 169 171 169 169 171 172 171 170 170 171 173 174 173 171 173 172 173 173 173 174 174 171 
36 34 38 34 34 37 58 140 213 227 224 227 223 222 221 218 215 214 206 196 186 170 151 138 121 117 112 113 116 117 123 131 136 144 152 158 155 146 137 122 99 70 44 31 29 26 23 28 30 26 25 34 49 60 60 53 47 46 46 39 37 41 41 43 45 59 55 57 61 39 49 70 63 48 50 63 57 39 34 40 38 46 54 46 35 49 73 81 51 31 49 84 98 74 47 96 105 77 64 99 113 106 105 76 39 60 85 72 50 52 48 38 33 54 59 45 33 30 39 55 62 46 38 65 75 43 28 40 38 39 32 21 19 24 28 29 34 52 57 41 42 60 67 69 59 50 43 45 49 45 37 33 28 40 55 62 56 48 53 63 53 51 49 48 47 44 47 55 66 73 64 41 32 39 35 19 15 22 38 49 80 120 121 102 83 60 37 35 33 30 73 109 105 107 116 114 100 100 105 78 56 63 68 64 57 69 97 109 118 115 127 142 142 129 115 106 110 121 125 129 126 123 116 120 123 123 129 130 115 88 66 56 55 56 57 62 81 120 166 196 220 235 245 249 247 245 247 247 246 245 244 243 242 241 240 239 236 235 234 233 231 230 228 226 222 221 219 218 216 214 211 208 204 200 196 194 193 191 187 184 181 181 179 176 175 174 173 175 172 173 172 171 171 172 171 169 169 169 169 170 171 170 167 167 170 169 170 171 170 168 168 168 168 168 168 168 168 167 166 166 165 167 167 167 168 168 166 166 163 167 168 165 164 166 166 164 166 165 167 168 166 166 167 167 166 168 169 167 167 166 166 168 169 168 166 167 169 170 170 168 168 168 167 166 166 168 168 167 166 168 169 168 168 169 169 167 170 169 170 171 170 169 170 172 172 171 171 172 173 174 172 171 172 172 172 171 170 172 173 171 
40 38 42 36 33 36 62 150 216 230 225 227 225 223 221 220 214 211 205 197 186 171 153 138 127 117 110 112 115 117 120 126 134 140 148 159 163 160 151 137 125 103 73 44 35 39 35 29 40 36 37 41 47 57 61 57 47 45 46 42 38 40 41 45 45 46 50 54 48 30 43 62 56 39 36 51 57 45 40 47 44 37 37 42 38 36 48 62 54 38 39 57 79 82 62 83 97 63 39 69 95 102 113 99 54 54 73 69 54 60 56 38 30 41 51 50 45 51 62 67 59 36 25 41 46 32 28 30 30 38 35 22 15 20 28 35 37 42 40 33 42 60 63 61 49 39 46 53 43 34 31 23 20 32 44 53 60 56 48 46 44 49 51 44 33 33 45 52 49 52 54 43 31 33 33 19 25 47 72 71 67 73 66 50 45 45 30 21 26 48 90 112 105 92 97 105 106 102 106 82 54 69 95 104 88 81 98 114 127 126 130 137 123 104 105 109 121 131 133 138 137 129 126 131 135 140 146 147 136 105 70 57 55 53 60 63 65 95 145 178 205 224 238 247 248 246 246 245 245 244 243 241 240 239 239 239 235 234 233 232 231 229 228 226 222 222 220 218 216 214 211 208 204 200 196 193 192 189 186 184 180 180 177 175 175 175 174 175 171 173 173 171 170 172 171 169 170 170 169 169 170 170 169 170 170 168 167 169 169 166 165 166 168 168 169 168 168 167 166 166 164 165 165 165 166 166 165 165 164 167 168 166 164 165 165 164 166 166 166 167 167 166 168 169 167 167 166 167 169 170 168 167 169 168 166 165 167 169 168 166 168 168 167 166 166 167 167 166 167 170 170 168 168 170 169 167 172 170 170 171 170 169 169 169 171 172 172 172 171 170 171 172 173 173 172 170 168 170 171 169 
54 43 40 34 29 28 57 152 215 229 224 225 223 222 220 218 218 210 207 199 183 171 155 136 128 116 108 109 112 114 117 121 124 132 140 152 163 168 165 153 144 128 105 72 49 46 43 36 44 43 45 46 47 54 59 56 53 45 43 41 37 35 39 48 54 33 35 47 46 32 41 53 67 55 44 50 57 47 44 59 53 37 37 45 33 20 32 54 62 48 36 45 59 63 53 63 91 60 36 51 65 60 76 106 86 68 61 52 45 63 69 42 38 43 60 67 60 62 65 55 40 29 25 30 29 30 31 22 36 50 49 34 27 32 40 48 45 44 37 35 40 45 46 41 40 35 45 50 35 27 27 20 22 25 29 42 58 56 43 39 47 58 47 35 32 34 45 56 52 59 65 54 32 23 31 40 52 86 111 103 74 52 44 32 35 32 22 27 46 77 105 113 97 79 81 94 100 87 92 84 60 65 96 122 114 99 106 123 129 139 137 132 106 76 77 88 98 112 124 134 138 134 139 143 151 148 154 154 144 120 81 55 64 62 64 64 59 71 112 155 186 209 227 239 246 246 247 245 244 244 243 241 240 239 238 238 235 234 233 232 230 229 227 226 223 222 220 217 215 212 209 206 204 200 196 193 190 186 184 184 180 179 176 175 176 175 174 173 170 172 173 171 170 170 171 169 169 170 169 169 170 170 169 170 171 167 166 167 167 165 164 165 168 168 168 168 167 166 166 165 164 165 164 163 165 166 165 165 167 166 167 167 166 163 163 165 166 165 165 165 167 167 167 168 166 166 166 167 169 170 170 168 167 166 165 164 164 165 165 164 168 168 168 167 166 166 166 167 166 169 169 167 168 170 170 168 172 171 169 169 170 169 168 167 170 171 170 169 168 168 169 170 176 175 173 171 170 171 172 170 
67 47 38 34 32 30 54 146 211 228 224 224 222 222 219 218 219 209 207 201 184 174 160 140 126 117 111 110 109 110 115 120 117 127 135 146 158 167 170 165 158 141 128 105 72 51 44 45 49 47 49 51 52 57 60 58 58 45 44 47 44 40 44 55 56 36 43 58 59 38 36 54 65 65 60 62 63 45 36 51 44 37 47 51 29 16 36 60 59 53 34 41 56 58 48 54 65 52 38 39 48 40 46 87 103 106 81 46 39 50 50 40 50 45 57 71 70 66 55 34 28 27 24 21 24 31 33 29 52 67 66 51 44 46 53 64 63 54 40 37 39 42 42 33 37 37 40 41 37 33 33 35 36 29 27 40 54 50 43 48 47 48 41 43 45 48 58 57 47 55 54 44 32 24 37 64 82 109 121 116 96 72 59 45 41 42 34 42 62 90 101 98 94 81 79 102 117 100 97 101 76 54 64 91 97 90 92 105 110 129 133 129 111 78 63 64 81 92 115 122 125 132 147 149 146 152 154 143 137 119 87 76 84 84 72 63 62 60 84 130 169 196 217 230 240 244 246 245 244 244 243 242 240 239 238 238 237 235 233 231 229 227 225 224 222 221 219 215 212 209 206 204 203 199 195 192 188 184 182 183 181 179 176 174 175 174 172 171 169 171 173 171 170 169 169 169 166 168 169 169 170 169 168 167 171 168 166 166 167 166 165 165 166 166 167 167 166 165 164 164 166 166 164 163 165 166 166 166 167 164 164 167 166 162 162 165 166 164 162 163 166 166 165 166 165 166 168 168 166 167 168 168 167 167 167 165 164 165 166 166 166 167 168 168 167 166 167 168 165 166 167 166 167 170 171 170 169 169 168 168 171 171 169 168 173 171 169 169 170 171 170 169 174 173 172 170 170 172 172 170 
70 50 41 37 39 36 50 129 204 227 226 225 222 222 221 220 217 209 206 201 188 178 163 144 127 119 112 110 107 109 114 117 119 127 134 144 154 162 171 174 169 156 145 128 100 71 52 49 51 51 53 54 55 58 61 63 61 48 49 55 53 49 50 58 52 36 44 56 63 46 36 47 58 56 56 67 72 51 35 42 35 32 44 51 39 35 46 52 50 47 33 32 41 46 34 40 55 54 45 39 46 41 34 54 101 111 90 49 43 48 35 35 44 40 50 67 68 55 40 32 31 34 34 31 36 41 37 35 53 63 61 56 58 57 57 65 68 52 44 44 49 53 45 37 36 37 37 36 34 31 35 43 42 37 33 37 41 39 39 47 53 36 31 47 58 74 89 74 46 36 25 22 28 41 65 89 105 107 107 115 119 96 62 41 41 45 43 62 75 82 81 92 105 94 77 100 120 106 94 106 88 51 39 50 60 67 74 85 106 123 128 128 124 100 72 58 59 74 120 129 120 123 143 148 156 160 156 139 124 93 71 92 105 101 79 63 65 62 72 100 139 174 202 218 231 238 243 244 244 244 243 242 240 238 237 237 236 235 233 231 229 227 225 224 221 220 217 213 210 208 205 203 201 197 193 190 187 183 181 182 180 179 176 174 173 172 170 170 169 170 171 170 170 169 168 168 167 169 169 168 168 168 167 166 168 167 166 166 166 166 166 165 165 165 166 167 166 165 164 164 166 166 165 164 166 166 165 165 166 164 163 165 165 164 164 165 166 164 162 162 166 166 164 165 164 164 166 166 164 165 167 167 166 167 167 166 166 167 168 168 166 166 167 168 168 168 168 168 166 166 166 166 166 168 169 170 167 168 167 168 171 172 170 170 172 171 170 170 171 172 170 169 170 170 170 169 168 169 170 168 
58 45 40 37 40 39 46 115 197 224 226 225 221 221 220 220 217 213 207 200 190 177 160 143 128 118 110 107 106 108 111 111 116 120 126 138 149 156 168 176 179 172 159 139 121 97 65 49 49 52 54 53 52 53 59 67 67 53 52 56 53 49 49 54 43 31 42 45 51 49 46 50 61 44 37 54 68 56 42 44 40 39 50 53 43 37 38 33 36 29 29 28 24 28 25 44 57 54 52 53 55 42 34 45 67 68 86 70 53 56 42 33 34 33 42 62 69 48 29 31 26 34 46 54 60 62 49 36 42 40 36 46 66 67 56 54 55 41 51 58 62 59 42 39 47 45 50 48 33 27 36 46 41 44 41 34 31 33 36 39 37 35 33 49 66 84 104 97 66 43 35 38 42 63 89 97 89 67 62 83 108 88 39 20 27 39 39 60 76 82 79 99 109 104 78 94 110 97 81 99 90 60 50 54 61 73 82 91 122 131 130 126 125 110 80 59 49 47 92 107 101 109 137 147 154 155 155 131 105 89 80 94 111 99 76 58 56 60 64 71 104 147 184 206 223 234 242 244 242 243 242 241 239 237 236 236 234 233 231 230 229 227 226 225 221 219 216 213 210 208 206 204 200 194 190 189 187 183 181 181 177 178 176 174 172 170 170 171 169 168 169 170 170 168 167 167 169 170 169 166 166 167 167 167 165 166 166 165 166 166 165 164 165 166 167 167 167 166 165 164 164 165 164 164 166 166 164 163 165 165 164 164 165 167 167 166 166 165 163 163 166 166 164 165 164 162 162 163 163 166 167 164 163 164 164 164 165 166 168 168 165 165 165 167 168 169 168 168 170 168 167 167 167 167 168 169 166 168 168 168 171 172 171 172 167 168 169 169 168 167 167 167 169 170 171 170 167 168 169 168 
61 42 37 39 38 43 48 114 201 225 225 225 222 221 219 217 215 212 206 201 192 179 163 144 129 118 112 108 105 106 108 113 114 120 124 129 139 149 162 175 181 178 167 156 139 115 86 57 53 51 50 57 56 53 62 64 61 54 55 58 49 46 53 49 38 34 36 43 60 56 42 57 63 39 33 48 65 62 48 51 52 45 46 56 43 32 41 32 28 27 27 24 25 24 32 63 86 78 71 63 59 58 53 50 49 45 77 84 69 59 43 41 46 59 74 84 76 48 28 28 25 30 42 57 75 72 60 40 30 20 25 40 58 62 48 45 42 41 55 69 63 51 51 56 58 64 64 52 37 34 35 33 37 44 44 35 32 37 38 33 30 31 32 37 54 69 76 87 71 53 53 57 72 97 98 84 44 43 46 53 76 85 56 31 29 38 35 64 98 82 70 90 115 108 82 85 101 83 66 69 81 91 87 85 97 100 100 110 129 117 124 119 109 107 81 52 42 34 43 56 62 89 126 143 148 156 143 119 105 91 88 103 109 90 77 62 53 61 66 62 73 115 160 189 209 223 233 243 242 244 242 241 239 236 236 234 232 231 232 233 230 228 226 224 223 219 216 214 211 208 205 202 200 195 192 189 185 185 184 178 177 175 173 173 171 171 171 171 169 170 169 167 168 170 169 166 166 167 168 169 169 169 168 168 164 164 163 164 165 166 165 163 166 166 164 165 167 167 165 164 166 167 165 164 166 163 161 164 167 162 163 166 166 167 168 164 164 167 168 165 165 166 166 164 169 165 162 162 164 166 166 166 167 164 165 166 165 166 167 164 166 165 166 168 165 163 166 172 166 169 167 166 169 169 167 169 169 170 168 167 169 170 169 169 168 171 172 173 174 170 167 168 169 169 168 168 169 169 169 169 
79 53 41 46 44 40 48 125 203 226 225 224 221 221 219 219 217 214 208 204 196 183 169 150 134 121 113 107 104 103 103 108 111 117 122 127 136 145 156 168 177 184 180 166 148 130 102 68 55 52 52 57 59 60 64 62 67 66 60 51 42 42 53 56 41 33 36 47 59 48 37 61 65 43 39 52 62 54 44 54 54 54 54 56 42 33 38 27 28 28 36 31 34 39 45 78 104 107 103 80 64 71 78 73 52 46 72 91 77 51 40 50 71 79 104 121 87 47 39 33 26 27 40 49 60 72 73 44 28 18 20 30 43 45 38 43 46 45 49 42 44 54 55 66 73 73 70 59 42 32 32 33 34 42 45 41 39 44 46 44 27 29 31 33 38 40 39 47 56 52 56 66 83 93 71 40 39 49 55 51 55 74 81 71 61 71 72 93 110 82 60 71 106 107 88 86 102 100 81 62 76 112 126 107 94 99 102 100 98 99 105 101 98 105 88 53 29 31 32 31 39 71 108 127 145 147 136 112 89 89 105 110 97 79 61 50 51 56 57 62 63 86 126 163 186 207 226 235 240 243 242 241 239 236 237 234 233 231 231 231 228 226 225 223 221 218 215 213 209 206 204 202 201 195 190 186 181 181 181 178 176 175 174 174 172 171 171 171 170 170 170 169 170 171 170 168 167 167 167 166 166 167 168 167 166 165 165 164 165 166 165 164 165 165 164 165 167 166 165 164 165 164 164 165 163 162 162 162 166 165 166 167 166 166 167 167 163 165 164 162 162 164 165 165 164 163 163 164 166 166 164 162 166 165 166 166 165 166 167 167 167 165 165 168 168 167 166 166 167 167 169 169 168 168 169 169 169 169 167 166 168 170 169 169 169 170 170 171 172 170 169 171 169 170 169 169 171 171 171 172 
74 62 44 41 41 42 51 118 201 224 223 224 222 221 220 220 216 214 209 205 197 185 171 153 133 119 110 105 103 104 104 107 108 113 118 123 131 139 150 162 171 185 189 177 160 145 120 88 59 53 54 56 59 63 62 60 70 74 69 54 38 40 52 52 42 35 40 54 59 38 24 47 58 39 42 57 60 44 32 47 56 52 53 63 51 30 33 39 32 26 37 35 37 40 41 76 107 117 121 98 71 79 97 98 67 60 80 112 101 54 37 54 85 73 67 91 88 58 50 41 40 43 47 34 34 57 71 49 35 29 32 39 42 37 33 42 50 56 48 32 38 50 52 59 66 63 62 60 51 41 37 39 38 39 43 48 48 45 43 43 36 29 30 37 42 36 30 37 41 50 61 73 72 50 35 34 40 55 63 56 49 75 108 105 101 108 100 92 79 52 49 68 101 114 95 78 91 99 89 78 80 117 138 111 70 63 73 72 69 85 100 104 98 100 94 67 49 48 46 47 49 56 90 132 150 149 136 112 88 99 125 121 92 70 51 46 52 55 56 64 60 63 88 128 162 190 213 225 234 240 240 240 239 237 237 235 234 231 229 228 226 225 224 222 219 216 214 212 208 205 203 201 197 192 189 187 182 179 178 175 175 174 174 174 172 172 171 170 168 168 167 168 168 168 166 165 166 166 165 165 165 166 166 165 167 167 165 165 165 166 166 165 164 165 164 165 166 165 164 164 165 162 165 165 162 163 165 161 164 166 166 166 166 165 165 168 163 163 163 162 162 162 163 164 165 165 165 164 165 167 167 165 164 165 167 167 165 165 167 168 167 166 165 167 168 168 166 164 168 166 169 171 167 167 171 170 169 169 167 165 167 169 170 170 170 170 169 169 171 170 170 171 168 169 169 169 170 170 170 171 
72 61 40 40 44 43 53 122 198 222 222 224 223 223 220 220 216 214 209 205 196 185 171 153 134 119 109 104 103 104 104 108 107 110 113 117 124 133 146 158 165 177 185 184 170 152 132 109 69 57 57 57 58 61 60 63 66 66 68 59 40 42 54 45 42 35 42 59 67 48 32 47 54 34 38 57 62 43 30 45 56 45 46 64 58 31 32 52 41 28 34 42 46 39 37 68 102 113 133 127 84 60 74 86 81 72 85 116 114 68 40 51 64 57 38 53 72 59 53 57 62 77 73 36 23 35 49 45 43 45 52 57 52 38 35 46 73 77 49 35 37 40 54 57 52 48 51 57 56 47 38 35 40 40 47 56 51 38 36 44 52 43 46 53 54 45 37 42 57 66 57 56 58 43 35 39 47 57 58 60 65 91 117 97 72 86 86 67 43 39 67 101 119 120 110 91 81 88 100 102 108 115 125 104 62 49 58 56 57 78 112 128 110 91 87 86 84 78 67 63 67 71 92 123 143 146 134 120 111 119 134 127 95 68 52 48 48 53 57 59 64 61 66 95 138 172 196 213 226 235 238 239 239 237 237 235 235 231 228 228 226 225 223 221 219 216 213 211 207 204 202 199 194 190 188 188 184 180 177 176 174 173 173 173 171 171 171 169 170 169 169 169 169 168 166 166 165 165 166 166 166 166 164 162 167 166 165 164 165 166 165 164 163 164 164 165 166 165 164 164 165 164 165 165 163 164 165 161 163 165 162 162 166 165 163 166 163 163 164 165 164 162 161 161 166 167 166 163 164 167 169 168 164 165 167 167 166 165 166 167 166 167 167 165 164 166 168 169 168 165 167 170 168 167 169 170 168 169 167 166 168 170 170 169 171 170 169 170 171 170 168 167 168 169 169 169 170 170 170 171 
88 74 47 44 44 41 54 129 199 224 223 223 223 223 219 219 218 216 211 207 198 187 173 156 140 123 111 104 102 103 101 103 105 107 111 115 120 128 140 152 160 170 180 187 178 160 141 124 88 66 59 58 60 62 62 68 66 61 63 62 51 53 62 54 37 36 44 61 64 45 39 59 58 33 33 53 65 52 39 52 54 43 39 53 56 38 35 49 54 38 32 44 49 36 34 51 57 75 118 142 102 54 53 68 65 53 56 74 86 66 36 35 51 45 38 44 56 61 64 65 68 91 94 55 31 23 26 32 35 51 70 80 69 49 44 54 80 75 48 38 40 44 57 54 43 42 44 49 51 45 36 32 37 46 57 58 44 32 39 54 67 65 67 61 54 52 52 56 70 78 62 57 63 50 37 34 44 54 51 63 87 115 118 75 47 43 36 28 38 76 117 140 137 135 123 114 117 112 109 119 97 93 100 88 51 39 52 58 62 70 108 126 106 80 79 102 119 118 113 107 100 91 98 117 127 126 117 116 118 119 119 110 104 81 62 48 43 52 57 58 64 63 60 71 104 144 177 199 218 230 236 239 240 237 236 234 234 231 229 228 227 225 223 220 220 216 212 210 207 204 201 197 195 189 186 184 182 179 178 178 174 172 172 171 168 169 171 168 168 167 168 169 169 167 166 166 165 166 166 166 166 166 164 162 166 165 164 164 166 167 165 163 163 164 164 164 166 165 164 164 164 167 165 162 164 165 163 163 162 163 161 161 165 164 162 165 163 163 164 166 165 162 161 162 162 165 165 164 164 166 166 164 164 165 166 167 167 166 164 164 166 168 167 164 163 166 169 170 167 166 165 166 169 167 166 169 167 169 168 167 169 171 169 169 171 170 169 170 170 169 168 166 170 171 171 171 172 171 171 172 
91 76 51 42 40 39 50 123 199 226 225 222 221 222 218 218 217 215 211 207 199 189 176 159 143 126 113 105 102 102 100 102 103 105 110 116 119 123 132 142 156 166 179 188 184 171 153 133 108 76 57 57 62 63 63 67 67 64 59 61 64 60 59 59 56 43 43 64 74 56 45 54 55 33 32 51 64 55 42 52 55 37 29 46 57 46 39 50 54 41 27 32 36 29 28 32 38 41 59 83 72 45 46 54 54 40 35 42 60 62 39 27 40 46 51 50 53 61 65 64 52 67 86 64 37 22 20 24 38 59 78 85 72 52 50 58 58 52 51 50 56 64 56 42 37 39 40 41 41 39 37 38 44 54 58 48 37 36 44 50 65 72 76 64 59 69 70 63 85 90 78 73 80 70 49 40 36 57 61 77 108 138 133 83 34 19 15 24 57 110 145 154 134 118 113 124 140 142 122 102 79 62 66 74 53 34 48 71 76 75 104 119 110 95 91 111 118 131 139 133 115 98 101 117 119 103 98 105 108 108 107 104 113 102 77 47 40 48 53 59 59 60 61 61 73 111 158 184 207 224 232 237 240 236 235 233 233 230 229 228 226 224 222 220 220 215 211 209 207 204 200 196 193 189 185 183 182 179 176 175 173 171 171 170 166 168 170 167 164 164 165 166 166 166 166 166 167 167 166 164 164 164 165 165 164 163 163 163 165 166 165 162 163 164 163 164 165 165 164 164 163 166 162 160 164 164 161 163 162 163 163 162 163 162 163 166 163 162 162 163 163 162 163 165 164 165 164 163 163 165 166 166 164 165 165 165 167 166 164 163 167 167 166 165 165 167 168 166 166 167 164 165 169 167 164 168 167 169 169 168 170 171 169 168 171 169 169 169 168 168 169 169 171 171 170 170 171 171 170 171 
91 66 45 42 43 40 41 110 189 223 225 222 221 221 219 218 216 214 210 207 200 189 177 161 144 127 114 106 103 102 100 101 101 103 108 114 116 119 127 135 152 162 174 184 186 178 163 143 122 88 59 57 62 62 63 62 61 60 52 55 62 56 53 55 54 43 41 62 73 61 51 54 53 39 42 54 61 51 39 48 56 38 33 47 59 53 47 56 46 32 19 18 23 26 29 34 52 47 34 45 63 69 72 67 57 43 32 36 48 54 44 27 39 60 67 76 86 77 60 49 33 38 66 63 44 31 30 32 38 50 54 57 56 52 61 67 50 46 56 58 64 71 56 42 39 39 40 41 42 39 38 41 56 60 55 42 35 39 43 42 51 65 79 71 62 66 62 51 66 90 92 75 82 92 72 47 56 74 80 90 110 137 143 111 50 31 35 58 94 135 150 146 117 108 99 107 138 142 104 75 65 47 52 74 68 44 54 89 91 93 110 122 124 120 114 114 120 128 139 139 108 66 67 101 91 72 80 95 100 104 105 114 119 115 91 52 36 41 47 54 56 59 63 61 61 86 132 166 192 213 225 233 238 236 234 232 231 229 228 227 225 223 221 220 217 213 210 208 205 203 199 196 191 189 185 183 183 180 175 172 173 170 171 170 166 167 169 165 165 166 167 166 167 168 168 167 166 166 165 163 162 163 164 165 163 163 163 163 164 164 164 163 162 163 162 163 165 165 163 163 163 162 160 160 162 162 162 164 164 162 163 163 162 162 164 164 162 162 161 161 162 162 163 165 167 165 163 162 163 165 166 167 165 165 164 164 166 166 164 165 168 167 165 165 167 168 167 165 167 167 166 166 167 167 166 166 168 169 168 168 170 170 169 167 170 168 169 170 168 168 169 169 171 170 168 167 170 170 170 170 
108 85 59 40 40 48 36 83 177 216 224 223 221 222 219 219 217 216 212 209 201 191 179 162 147 130 116 107 102 100 97 98 100 101 106 111 112 115 125 133 149 156 166 180 184 180 168 151 131 100 67 61 62 60 64 59 58 54 49 52 56 57 60 61 49 47 47 58 66 61 60 64 62 53 56 60 58 47 40 52 54 53 50 48 54 60 57 55 47 27 16 12 15 21 25 39 49 59 46 52 83 105 111 100 65 51 36 41 45 47 52 37 47 66 74 101 118 98 70 42 24 27 60 67 58 47 44 46 41 45 40 43 50 52 56 53 52 51 53 57 58 56 49 41 41 39 40 48 53 48 44 47 58 61 59 48 37 36 41 46 49 64 82 73 51 43 47 53 69 85 84 62 68 95 96 86 93 94 90 88 92 115 137 129 98 80 90 112 132 148 144 134 123 117 111 110 129 130 92 60 56 49 53 75 88 76 73 91 104 105 102 103 109 117 124 119 120 130 135 131 107 62 39 50 49 40 63 84 94 93 87 103 128 123 105 66 38 40 49 51 55 60 62 62 63 74 109 149 180 203 219 229 236 235 233 232 230 228 227 226 223 221 221 220 215 211 209 207 204 201 199 196 193 190 184 180 181 181 178 175 172 170 172 171 166 167 169 163 164 166 166 164 164 166 166 164 163 165 165 164 163 162 163 164 162 164 164 163 162 162 164 165 162 162 161 162 165 165 163 162 164 159 159 161 160 162 165 164 167 161 160 162 161 163 164 160 161 162 163 163 163 163 163 163 163 162 162 164 165 164 163 162 166 166 164 163 165 166 165 167 167 166 165 165 166 167 168 169 168 166 168 168 165 167 169 166 168 169 168 167 169 169 168 167 168 167 170 172 170 168 168 167 172 171 168 168 171 172 172 172 
110 89 56 44 42 45 43 85 172 218 225 223 222 222 221 219 219 215 214 210 200 193 182 168 147 132 116 106 101 99 98 98 95 101 103 107 110 114 125 133 139 146 159 171 180 184 174 155 139 119 87 67 61 60 62 61 52 46 49 49 46 53 63 61 46 42 49 65 60 50 59 62 53 61 67 50 43 46 40 47 57 63 60 45 45 53 52 59 53 35 18 15 21 26 30 35 52 56 53 56 77 87 87 101 75 56 50 55 51 53 55 38 43 60 72 87 108 105 72 43 27 29 46 64 59 53 62 63 55 49 42 43 47 45 43 45 48 55 64 58 52 52 44 41 36 38 41 49 60 61 57 58 55 59 59 58 52 37 36 52 58 83 88 84 67 47 51 61 72 71 68 54 62 95 110 111 122 105 74 69 93 111 121 130 135 139 138 141 135 140 142 138 136 135 122 116 127 118 85 67 68 69 65 87 108 96 85 89 98 99 75 66 78 94 113 118 128 134 137 136 119 75 38 31 32 33 48 84 95 82 82 87 110 124 109 72 51 54 48 56 55 56 62 61 65 68 83 127 165 189 210 223 229 232 236 231 231 230 227 224 224 223 220 215 213 211 209 207 204 200 198 197 190 187 184 181 179 177 175 174 172 171 170 170 169 169 168 165 166 164 165 164 164 168 168 164 167 164 162 162 162 162 162 162 163 162 163 163 162 159 160 162 160 161 160 162 163 161 160 164 161 162 162 160 160 162 162 160 163 159 159 163 166 165 162 158 161 161 162 162 161 163 165 163 163 163 162 163 165 165 163 163 164 163 164 164 163 163 165 163 166 166 165 164 164 166 166 166 166 166 165 166 168 168 166 165 168 169 169 167 167 168 169 169 168 168 168 168 170 170 169 169 170 171 171 170 170 171 171 170 
83 77 58 48 45 44 45 104 180 222 226 222 220 222 221 219 219 214 213 208 200 193 182 166 150 134 117 106 99 95 93 92 95 100 102 106 108 110 120 127 135 142 154 166 176 183 178 164 151 127 100 75 62 58 54 57 47 45 47 50 49 50 55 59 53 41 54 59 53 50 45 53 40 49 59 49 38 41 44 50 55 61 59 38 29 36 42 52 49 37 32 33 32 32 38 41 41 47 47 39 38 39 42 52 51 56 71 79 65 54 49 35 35 44 46 42 52 66 59 36 21 22 36 59 63 57 69 85 75 56 39 40 49 48 44 46 51 53 54 54 49 44 44 45 43 46 48 55 62 60 55 55 52 58 65 62 52 42 43 63 85 94 87 82 70 57 68 81 75 71 63 51 63 92 109 120 123 108 77 71 93 109 113 114 134 146 135 119 102 103 118 138 131 116 102 102 110 105 88 80 91 93 94 109 127 128 111 91 79 59 39 40 60 76 98 128 131 133 133 135 124 85 47 35 32 34 38 67 104 109 94 84 104 118 113 91 78 78 60 54 60 53 54 56 61 62 71 103 143 171 195 213 227 231 231 230 232 230 227 224 223 222 220 217 213 211 208 205 202 198 194 193 190 188 184 181 178 175 173 172 171 169 168 169 169 169 168 166 165 165 165 163 163 166 167 165 165 164 162 163 163 163 162 162 165 163 162 163 163 161 160 161 162 162 161 162 163 161 159 161 161 162 162 161 162 163 163 163 159 161 165 165 161 160 162 164 162 161 161 160 159 161 162 160 162 162 161 161 163 162 162 163 165 164 165 165 163 163 164 162 166 167 167 166 167 168 168 167 167 167 165 165 167 168 167 167 169 169 169 168 167 168 169 168 171 170 168 168 171 172 170 170 166 168 169 170 170 170 170 169 
82 72 59 50 45 45 41 97 185 225 226 221 220 222 221 218 220 215 212 208 202 195 183 167 152 135 118 108 102 97 95 94 94 98 100 104 106 107 115 123 129 136 149 161 172 182 181 173 158 137 118 86 66 63 54 58 51 48 46 48 49 45 44 50 52 52 59 66 58 47 46 45 37 46 57 54 43 44 51 54 57 67 69 47 26 26 34 41 36 30 38 45 37 31 35 38 35 34 41 42 35 29 23 22 37 46 59 67 61 55 48 32 35 35 38 35 30 38 43 35 24 27 34 51 57 48 55 75 77 57 44 56 72 71 64 64 70 55 40 47 50 42 43 40 48 48 46 47 50 48 44 46 51 50 55 53 50 49 52 64 93 87 69 59 53 56 78 94 88 77 64 59 76 87 86 99 122 122 93 67 71 86 96 97 120 133 113 95 84 79 87 115 112 93 86 97 108 111 112 113 121 124 125 125 138 147 127 102 74 39 27 36 53 55 59 102 121 124 124 127 124 98 63 45 34 31 26 45 94 120 98 72 92 117 119 103 94 92 79 81 67 54 49 51 59 61 63 81 115 152 180 200 219 227 229 230 232 229 227 225 223 222 219 217 214 212 209 206 202 198 194 192 189 187 184 181 176 173 171 171 171 167 166 169 169 168 167 166 163 166 165 162 162 163 165 166 165 164 163 163 163 162 161 161 165 162 161 162 163 162 161 161 162 162 161 161 163 162 160 159 161 161 161 161 162 163 164 164 161 161 161 162 161 162 163 162 164 163 162 161 160 161 162 161 161 162 161 161 161 161 161 163 165 164 165 165 163 163 163 162 164 165 166 167 167 167 167 166 168 167 165 165 167 168 168 169 166 167 168 168 168 170 171 171 172 171 169 168 170 171 171 171 168 170 171 171 172 173 172 171 
114 89 72 54 41 49 46 92 182 223 225 222 222 222 220 217 220 216 213 210 204 198 186 171 155 137 120 111 105 100 97 96 94 96 97 103 106 106 114 120 123 131 144 156 168 179 182 178 161 147 130 96 72 66 59 57 57 50 44 44 45 43 41 42 50 55 57 64 56 47 54 51 42 47 50 49 44 45 57 62 60 68 71 50 25 23 34 40 23 22 35 50 44 33 34 40 44 41 50 54 46 37 32 34 45 41 33 34 42 51 51 37 29 39 49 43 33 41 45 33 26 31 33 41 47 44 47 55 62 51 47 59 74 76 74 78 72 56 43 46 45 38 42 45 48 46 41 41 45 44 40 41 51 55 58 58 52 51 59 63 58 65 62 55 48 58 87 104 104 92 76 72 86 79 59 68 110 134 118 70 46 60 86 98 121 130 111 101 101 90 79 93 108 103 102 111 124 135 143 141 141 146 141 126 128 129 115 111 90 53 37 46 70 67 47 65 95 112 121 122 125 117 93 73 53 41 37 36 55 86 89 76 86 122 126 114 104 94 77 83 85 69 56 50 54 57 57 64 88 131 165 186 205 218 227 230 229 227 227 226 225 221 217 216 213 211 208 205 202 198 195 193 188 185 182 179 176 173 172 171 170 166 165 168 169 167 167 166 162 165 164 162 163 163 163 166 165 164 163 163 162 161 161 160 163 160 159 161 163 162 161 161 161 162 161 160 162 162 161 160 160 160 160 161 162 162 163 164 162 159 157 158 162 166 164 158 162 162 162 162 162 162 163 162 162 162 161 162 163 162 162 164 164 164 164 164 164 164 164 163 164 164 166 166 167 167 167 166 165 166 166 166 168 168 168 168 166 167 168 169 169 170 170 171 169 171 171 169 169 168 169 172 171 170 170 169 170 171 172 172 
115 99 87 62 42 49 49 96 179 222 226 224 223 222 220 219 219 217 215 211 206 200 188 175 158 140 121 111 104 98 94 92 96 96 95 101 105 105 111 116 119 127 139 150 161 173 180 181 169 157 136 107 77 62 58 53 54 48 45 43 42 45 46 41 42 41 54 54 52 55 50 51 58 58 49 41 35 34 45 56 62 65 69 57 34 28 37 38 20 20 32 50 53 38 32 40 50 50 55 56 53 47 41 43 52 49 37 31 37 48 53 47 35 42 43 36 35 44 47 40 23 27 29 35 41 44 45 41 38 43 46 51 54 53 51 54 56 45 44 43 41 42 42 46 41 40 38 42 51 52 46 43 51 58 58 65 63 60 69 62 44 47 47 47 51 67 96 114 110 105 86 70 81 79 57 59 85 123 131 95 59 62 91 106 121 127 107 102 110 108 86 76 111 128 124 116 128 148 158 152 145 148 145 128 116 107 99 107 112 87 60 52 68 68 45 36 59 95 121 123 125 126 110 88 66 46 45 40 39 60 75 75 79 114 122 105 79 71 73 86 96 84 64 48 48 55 58 61 68 101 138 169 190 205 221 227 226 226 226 226 223 219 216 215 211 208 205 203 200 197 193 191 187 184 180 178 176 174 171 170 170 165 165 168 168 166 166 166 162 164 164 163 163 163 162 164 164 163 162 162 161 161 161 161 162 160 160 162 162 161 161 162 160 161 161 160 160 161 162 161 161 160 160 161 161 161 162 163 159 161 162 161 160 162 163 161 159 159 160 162 162 162 162 161 163 162 161 163 166 165 164 165 163 164 164 164 164 164 164 164 166 166 166 167 167 168 168 168 162 165 167 168 168 167 166 167 171 171 170 170 169 167 167 167 168 170 170 169 169 168 168 170 171 170 169 169 169 171 171 171 
97 97 84 61 46 47 43 95 180 222 227 224 222 221 221 221 217 216 215 212 207 200 189 178 161 142 122 113 106 100 95 94 97 97 94 97 101 101 106 110 117 124 132 141 152 166 177 183 177 161 139 115 81 59 58 55 50 49 49 46 41 44 46 40 36 38 46 51 55 57 53 46 56 57 51 40 34 31 36 49 55 55 60 63 50 41 44 42 30 32 37 48 52 39 29 34 42 47 48 45 48 49 40 39 48 51 47 44 45 50 54 50 48 41 33 31 36 39 38 37 28 29 36 48 49 44 39 29 32 45 51 45 40 39 40 42 43 38 45 43 43 50 44 40 39 38 35 40 51 56 52 51 58 60 53 58 61 62 68 59 46 43 45 52 56 59 75 96 104 107 86 59 70 85 66 52 56 84 114 114 81 63 74 82 82 104 103 98 95 99 89 79 113 141 126 99 104 126 139 133 122 124 131 126 112 103 95 90 105 112 96 65 44 38 42 47 61 93 112 104 100 107 107 97 77 66 61 53 43 51 70 84 77 105 122 108 69 70 95 107 113 102 74 49 45 51 55 58 60 74 104 147 177 194 211 223 226 226 225 223 220 218 216 216 211 208 205 203 200 196 192 190 187 183 179 177 176 173 170 167 169 165 165 167 166 165 165 165 162 162 163 164 163 162 162 162 162 161 161 161 161 161 161 162 162 160 160 162 162 160 160 162 160 160 160 160 159 159 161 161 161 161 161 161 162 162 162 162 162 163 164 163 161 161 162 161 160 159 161 163 163 162 162 162 162 161 161 163 166 165 163 164 163 164 164 163 164 164 162 163 165 165 165 165 166 166 167 168 161 164 166 167 168 166 165 165 169 169 169 169 168 168 168 169 170 170 168 169 171 171 169 169 169 169 170 171 172 173 172 170 
104 102 81 62 52 48 43 94 179 221 226 224 222 221 220 221 216 216 215 212 207 201 190 179 165 145 125 115 109 103 99 97 95 96 93 95 97 98 104 107 115 120 127 135 146 158 170 178 176 159 141 111 75 59 58 56 50 50 49 46 44 44 42 40 41 45 39 45 48 50 60 53 52 51 55 48 41 38 35 42 43 37 39 51 50 44 49 50 44 47 48 46 44 40 37 37 35 41 44 40 37 34 33 40 46 45 44 47 49 52 52 44 41 42 37 31 34 38 33 23 31 36 47 60 57 46 39 31 33 53 63 54 43 40 43 46 42 50 59 55 49 54 55 49 49 47 40 40 48 53 53 55 62 64 61 53 48 51 54 58 52 51 60 76 78 59 44 49 81 95 87 56 55 71 58 42 42 51 89 112 82 47 45 46 67 95 106 106 91 82 73 68 107 135 118 88 87 105 123 122 109 111 118 127 125 117 103 81 64 91 109 94 59 40 52 70 79 96 108 104 96 96 98 96 89 92 86 74 62 61 72 79 98 109 109 95 69 84 111 116 116 104 71 48 47 50 53 60 58 61 77 119 160 183 202 217 224 226 225 221 218 217 216 215 211 208 205 202 200 196 192 190 186 182 179 176 174 171 168 166 166 165 165 165 164 163 164 164 163 160 162 164 160 161 163 161 161 161 161 162 162 161 160 160 159 158 158 160 161 160 160 162 160 157 159 161 160 159 160 159 160 161 162 161 161 162 161 160 166 162 160 161 162 163 162 160 163 161 162 164 163 163 163 163 163 162 161 163 165 163 162 164 161 163 163 163 164 164 162 163 164 163 163 164 164 164 164 166 163 165 165 165 166 166 165 165 166 166 166 167 168 168 169 171 169 170 169 169 170 170 170 170 167 168 169 169 171 171 170 168 
107 103 89 79 64 51 44 86 175 218 225 224 223 221 219 219 217 217 216 212 208 202 191 180 170 149 128 117 109 101 96 94 92 95 92 93 95 97 105 109 112 118 125 133 143 154 164 172 171 156 142 101 63 57 53 49 49 47 42 43 49 47 42 45 39 38 43 38 38 47 52 58 54 49 58 56 53 56 53 56 41 32 32 48 50 39 40 39 44 49 50 40 34 42 50 48 36 32 40 50 51 43 36 41 51 46 42 46 48 49 48 38 38 36 38 41 39 35 33 31 28 36 46 54 49 39 36 34 43 62 67 50 34 32 41 51 55 62 62 63 62 67 72 59 54 53 46 42 44 46 45 48 53 51 56 45 45 52 46 54 67 69 75 80 75 52 36 44 53 81 93 62 39 42 43 44 52 50 86 112 78 39 38 41 47 75 97 110 93 71 63 72 114 138 124 99 91 100 117 120 106 107 105 118 129 119 96 70 62 65 83 90 75 60 62 76 82 90 105 115 111 100 94 94 105 122 122 104 85 85 103 108 115 121 102 79 65 86 115 128 116 100 64 45 47 46 47 55 57 59 64 96 143 174 195 212 222 225 226 222 219 218 216 214 208 205 202 200 197 194 190 188 183 181 178 176 173 170 167 166 164 164 165 164 162 162 164 164 163 158 162 164 158 159 164 160 161 161 162 163 162 160 158 157 156 154 155 158 160 160 160 162 159 155 157 161 161 160 160 158 158 161 161 160 160 161 160 158 164 160 159 160 159 160 162 163 162 160 161 162 161 161 162 163 164 163 162 163 164 162 162 165 159 162 162 162 165 164 163 164 165 164 164 165 166 165 165 166 166 165 163 163 165 166 165 165 168 167 167 167 166 165 166 168 167 170 171 169 167 166 169 173 173 172 171 171 172 172 172 170 
106 101 94 84 69 53 51 96 177 219 223 222 223 222 220 221 218 217 215 211 207 202 194 186 170 151 136 118 105 101 92 89 84 88 95 96 96 98 100 105 111 114 119 125 134 145 156 162 159 152 125 80 58 57 50 47 47 46 47 47 48 50 48 44 43 38 39 39 34 36 45 51 58 59 62 61 52 51 60 59 49 41 41 51 45 29 27 32 34 32 43 41 41 48 48 53 41 29 34 49 49 42 40 38 46 48 47 50 55 50 41 39 36 46 42 36 43 42 30 24 26 34 46 45 37 32 32 39 46 49 46 39 34 31 37 50 54 58 58 54 55 63 67 65 65 54 42 37 44 52 48 45 45 52 44 46 53 48 53 63 77 79 84 90 82 59 48 54 66 84 102 72 41 31 30 55 67 65 89 116 88 40 33 43 32 39 59 89 110 105 96 106 123 123 118 111 105 98 103 117 116 119 119 121 120 114 96 70 64 67 80 97 95 75 62 66 81 94 110 123 125 112 93 82 96 121 133 120 103 97 106 121 127 114 90 66 56 60 90 134 127 98 64 47 42 43 47 47 54 54 57 80 124 161 187 205 217 224 222 220 219 217 215 212 208 205 202 199 196 193 190 186 184 180 177 175 172 171 169 166 165 163 166 167 164 163 164 161 162 159 159 163 164 161 160 161 162 162 160 161 164 162 158 161 158 157 158 160 161 161 161 163 160 158 157 158 159 160 161 159 159 162 161 159 161 162 159 157 160 160 160 159 158 158 159 161 163 159 157 161 164 163 162 162 163 164 164 159 160 164 162 162 164 164 162 162 163 163 162 162 166 167 167 167 165 164 164 165 164 164 165 166 167 166 166 166 168 166 166 167 169 169 168 166 168 168 169 170 170 169 170 172 175 170 169 170 172 173 170 173 
115 111 100 88 75 58 57 106 184 223 223 221 222 223 221 220 217 217 216 213 208 203 196 188 174 154 138 121 110 105 98 96 91 89 91 91 93 97 99 104 110 113 116 122 130 141 151 156 148 137 103 66 56 55 47 44 48 44 43 46 48 48 46 45 43 40 39 38 34 34 38 43 49 62 68 67 57 49 52 57 55 51 52 57 43 25 28 37 26 21 35 42 42 44 43 50 39 33 35 43 47 45 41 34 41 42 42 49 57 53 43 39 38 46 46 45 49 45 34 29 30 39 46 38 31 35 40 46 45 45 41 34 29 28 38 50 53 48 43 39 38 42 50 55 56 50 41 36 45 52 45 38 38 43 42 46 53 53 62 77 91 97 96 97 96 75 60 68 76 81 97 87 64 50 45 59 67 62 86 123 108 58 37 39 37 45 63 94 112 116 122 125 103 88 92 114 121 108 104 115 127 131 124 115 117 122 107 76 78 85 94 109 109 91 77 71 83 97 112 125 131 118 98 89 89 99 108 103 92 95 116 136 136 122 89 62 51 48 85 152 146 117 76 56 46 42 49 49 53 50 56 71 110 150 174 196 214 222 221 220 220 217 215 211 208 204 201 199 195 192 188 184 182 179 176 174 172 171 169 167 165 165 164 164 164 163 161 161 162 160 160 162 162 160 159 160 161 160 159 161 163 160 157 158 159 158 158 160 161 160 160 162 160 158 158 159 160 160 160 158 155 160 161 160 162 163 162 162 162 160 160 160 160 160 160 161 159 160 160 160 162 164 164 163 162 163 164 160 161 164 163 164 160 161 162 162 164 164 163 163 163 165 166 165 163 163 164 165 163 163 164 165 165 165 165 166 168 167 167 168 170 171 171 170 167 168 170 172 171 171 170 170 171 169 169 169 171 172 169 171 
114 117 111 106 99 72 56 100 184 223 224 221 222 223 221 220 216 217 217 215 209 204 196 188 171 154 140 127 115 108 98 94 95 90 89 88 89 92 94 100 107 109 114 120 127 136 144 146 136 122 83 57 56 53 47 45 49 43 41 45 47 44 42 43 42 42 39 37 36 34 34 36 36 56 65 67 64 51 49 57 54 50 48 49 43 37 44 49 42 30 40 46 43 42 40 45 42 41 42 46 50 49 42 35 40 42 45 53 60 56 47 43 40 43 42 41 44 44 43 43 41 47 52 43 37 42 45 46 39 39 40 39 33 32 39 45 40 37 38 41 40 37 35 35 40 41 35 34 48 55 50 44 37 38 45 48 49 50 58 73 91 97 84 81 98 88 65 64 63 66 82 86 73 61 57 61 55 41 58 104 114 80 53 45 55 73 87 102 101 98 111 108 88 64 68 105 128 120 109 108 122 129 123 114 118 131 124 96 99 108 107 104 95 80 70 58 74 93 97 96 111 119 110 100 94 92 79 58 47 58 94 130 141 117 87 66 51 49 79 123 130 114 88 70 59 52 52 46 54 48 54 61 92 136 164 189 207 217 219 219 219 217 214 210 207 203 201 198 195 192 188 184 179 177 176 174 171 170 169 167 164 166 162 160 164 162 159 160 162 161 160 160 161 160 159 159 160 157 158 160 160 159 157 156 159 158 158 159 159 158 158 159 160 159 159 160 160 160 159 157 152 156 157 157 158 159 160 162 162 160 159 161 161 160 159 160 159 163 164 160 160 163 163 159 162 163 164 161 161 164 163 165 162 163 164 165 166 166 165 165 161 164 165 163 161 163 165 166 163 163 164 165 165 165 165 166 166 166 167 167 168 169 170 170 167 169 170 171 171 171 170 169 169 169 170 169 170 171 168 169 
102 111 113 121 122 91 60 93 175 219 225 223 223 222 220 221 217 217 217 214 209 204 196 188 173 157 142 130 117 106 97 92 96 91 92 91 90 90 92 99 102 105 112 118 123 130 135 134 125 109 73 56 55 49 48 47 53 49 46 48 49 45 42 42 41 43 39 36 38 36 34 36 31 46 52 58 64 56 52 56 52 48 41 37 36 42 52 52 51 40 45 47 41 42 45 45 44 45 45 49 52 45 37 35 37 41 48 56 58 55 51 52 50 48 42 36 34 39 42 42 40 42 48 48 47 49 47 46 33 32 37 40 36 34 36 35 34 36 40 42 43 41 36 30 30 35 30 32 46 53 52 53 51 45 53 51 42 41 47 60 84 90 72 62 82 85 62 49 61 59 56 58 64 71 70 58 51 30 28 59 88 90 85 85 98 111 100 79 65 67 88 100 86 72 70 95 125 135 127 118 127 133 131 128 131 138 134 114 106 113 112 93 70 55 46 43 50 61 55 55 84 107 107 104 101 78 46 32 29 23 55 114 124 107 85 70 57 49 50 49 46 66 91 92 81 72 62 57 57 53 53 56 78 118 153 179 197 211 217 218 218 215 212 208 206 203 200 199 196 193 189 184 178 176 175 174 170 168 167 165 163 164 162 161 163 162 159 160 161 160 159 158 159 160 160 158 159 156 158 160 157 157 159 157 159 158 158 158 158 157 157 157 159 158 159 160 160 160 160 158 158 159 159 157 156 157 159 161 160 158 158 161 161 159 158 159 158 163 164 161 160 162 162 159 163 163 164 161 161 162 161 164 163 163 163 163 162 161 161 161 161 164 165 163 162 164 166 166 166 165 165 166 166 166 166 167 165 166 167 167 166 166 167 167 168 169 168 168 168 169 169 168 170 170 172 169 169 171 168 169 
106 111 110 115 116 88 59 91 170 217 225 224 223 222 219 219 220 218 216 213 210 206 198 190 181 164 145 130 115 105 100 97 92 88 89 89 88 88 89 97 99 103 110 116 118 124 128 126 112 92 65 58 53 47 50 48 51 52 50 48 47 44 40 39 43 43 38 35 38 37 35 37 36 39 40 47 55 56 55 53 53 53 50 45 39 40 54 60 53 46 52 52 40 37 43 47 48 47 45 47 51 46 38 38 32 34 42 50 51 50 52 54 53 56 56 50 48 53 50 41 39 39 46 47 45 47 45 44 40 36 39 42 41 40 41 39 35 37 41 41 38 37 36 35 34 39 35 39 47 46 48 51 47 43 55 57 46 42 43 50 70 80 69 54 65 79 71 54 52 57 47 46 62 75 69 49 50 35 26 39 69 95 108 114 133 139 106 59 45 53 71 97 108 109 102 108 130 139 134 133 135 133 129 131 137 142 136 118 100 102 117 108 83 59 45 56 54 57 53 62 85 91 95 114 118 85 39 17 18 14 35 81 103 98 78 73 78 67 51 44 36 60 108 122 115 103 79 78 74 71 56 53 65 94 136 162 186 204 214 217 217 214 212 208 206 203 200 198 195 192 187 182 178 176 175 173 169 167 165 163 162 160 162 163 161 161 161 159 159 159 158 157 159 161 160 159 160 158 160 160 156 156 159 159 158 158 158 158 158 158 158 158 157 157 158 159 159 159 161 160 161 160 159 158 157 157 158 158 158 158 159 161 161 158 158 160 157 158 160 161 162 162 162 163 163 162 163 161 161 161 159 163 163 162 162 162 160 160 161 161 163 166 166 163 164 166 167 165 168 167 166 166 167 167 167 167 165 166 168 168 167 166 166 166 168 168 168 167 168 169 169 168 169 169 171 168 169 171 170 172 
118 115 109 106 97 73 55 89 172 217 223 222 222 222 219 217 220 218 216 213 211 209 202 194 182 168 147 132 117 106 103 96 92 86 85 84 86 89 90 95 99 101 107 111 113 119 122 118 99 77 60 58 54 51 53 50 48 52 51 48 47 45 41 39 44 41 37 35 36 35 34 34 37 35 33 38 46 53 60 58 57 55 56 60 52 46 57 68 59 53 54 52 37 26 35 49 52 49 42 41 48 51 47 44 40 35 37 44 46 47 49 49 53 61 65 61 62 64 56 43 43 47 56 53 46 48 47 43 43 39 40 43 43 42 41 39 40 40 42 42 35 29 30 36 41 46 44 53 60 57 56 53 49 48 60 65 56 51 53 54 73 75 68 54 57 77 78 57 46 54 52 54 65 70 63 52 43 36 34 43 69 94 97 92 107 121 100 60 53 64 83 117 136 139 131 128 133 123 115 126 126 121 113 116 127 138 134 115 96 90 110 121 103 74 58 75 83 77 60 62 85 94 93 101 114 95 55 21 18 34 55 71 85 75 64 85 104 86 63 49 40 59 115 143 142 124 96 101 103 95 65 51 52 68 113 145 171 193 207 214 216 213 212 208 206 202 198 196 193 189 184 179 178 175 173 171 168 166 164 162 161 158 162 163 160 160 162 159 159 158 157 157 158 160 160 158 160 160 161 159 156 155 158 158 158 158 158 159 159 160 160 160 156 156 158 159 158 159 161 161 158 156 157 159 159 158 157 156 157 158 160 161 160 159 159 160 160 158 159 162 162 159 159 162 162 160 161 161 162 162 159 163 163 161 162 163 162 164 166 165 165 166 166 164 165 167 166 164 168 166 165 165 166 166 166 167 163 165 167 167 166 165 165 165 168 167 168 170 171 170 168 167 167 167 169 167 169 171 170 173 
120 116 116 115 101 80 66 94 169 215 222 220 221 222 219 217 220 218 216 214 212 210 204 196 180 169 148 134 121 109 103 92 95 91 90 87 88 91 92 96 98 99 104 108 110 115 116 108 90 70 59 57 57 55 52 53 51 53 51 50 51 47 42 43 41 36 35 36 36 34 33 32 33 33 31 34 40 50 59 59 61 58 58 63 58 51 56 60 57 52 47 46 38 30 38 52 51 45 39 40 46 50 51 51 54 43 40 45 47 49 50 48 43 50 51 49 55 61 58 52 44 47 58 58 53 54 53 49 47 47 47 49 50 47 44 44 50 45 42 39 33 29 30 34 38 45 48 65 79 82 79 64 54 55 62 68 64 68 80 84 73 65 59 53 56 77 84 65 51 56 68 80 85 74 56 45 46 44 52 57 63 70 63 57 72 89 86 72 73 88 115 139 143 136 121 117 115 96 83 93 116 116 110 110 117 127 127 113 101 93 99 111 101 77 71 79 97 102 84 67 84 106 107 101 110 91 64 49 56 72 89 100 101 80 63 86 107 94 70 48 52 57 92 127 140 129 109 106 112 103 73 53 49 54 87 123 155 178 196 207 213 213 212 207 205 200 196 194 191 188 183 178 177 174 172 169 167 166 164 161 160 159 160 160 160 160 161 160 160 158 156 157 158 159 158 156 158 160 159 157 157 156 155 157 157 157 158 158 159 160 160 160 156 157 159 160 159 159 160 161 160 157 158 161 161 160 160 159 156 157 159 159 159 160 160 159 162 161 160 162 160 157 157 159 162 159 160 161 163 163 160 164 160 157 158 161 161 163 165 163 164 165 165 165 165 165 165 164 167 165 164 164 165 166 166 167 163 164 165 165 165 164 165 166 168 166 167 170 172 170 168 168 168 166 168 168 170 171 169 172 
126 122 130 134 119 98 80 99 161 211 222 221 220 220 219 219 219 218 217 214 211 208 203 195 185 172 149 134 121 111 106 93 91 91 92 88 84 85 85 90 96 97 103 108 111 114 111 100 84 68 60 55 56 54 48 54 50 48 45 46 48 42 38 41 37 31 33 38 37 35 35 33 33 36 32 32 38 45 53 53 61 65 66 65 58 56 62 62 56 55 48 48 49 47 50 53 53 44 42 49 51 49 53 60 57 46 43 48 50 53 56 55 48 50 45 41 47 54 55 56 50 44 50 55 51 50 48 48 49 50 49 49 50 47 44 48 52 48 42 37 36 37 33 25 33 40 46 67 88 99 96 70 57 62 67 74 70 69 80 80 66 55 52 49 48 64 76 66 59 66 88 99 86 64 46 41 51 61 83 83 61 42 32 36 51 67 80 99 109 120 135 130 106 93 79 82 93 91 84 87 104 111 114 115 112 114 120 117 114 113 102 106 98 84 89 83 107 123 114 93 98 113 111 102 86 78 66 76 108 121 113 108 101 94 66 75 106 104 85 72 68 71 85 111 122 112 98 85 98 94 76 61 55 50 66 101 143 167 187 201 210 212 211 206 203 199 195 193 190 188 184 179 176 173 170 168 167 166 165 162 160 161 158 157 161 160 158 160 161 158 157 157 158 158 156 155 154 157 156 155 158 157 154 156 155 156 156 156 157 158 159 159 156 158 161 162 159 159 159 159 161 157 156 158 157 157 159 160 154 156 157 157 158 161 160 158 158 159 160 160 159 159 160 162 163 159 160 161 163 163 160 163 162 158 160 162 162 164 165 162 163 163 164 165 165 164 163 163 166 164 163 163 165 166 167 167 167 167 167 166 166 166 167 168 169 165 164 168 170 168 167 169 170 167 169 170 172 171 167 170 
146 133 133 137 121 110 97 93 143 203 221 221 221 222 221 220 219 217 215 212 210 210 204 197 184 174 158 140 124 112 102 96 94 90 90 85 82 86 88 88 94 95 99 108 111 113 112 99 78 62 60 59 54 54 51 46 48 49 50 42 41 43 35 34 35 38 37 36 39 41 36 33 35 38 37 38 42 43 47 47 53 58 59 62 60 58 65 65 62 62 51 49 62 62 54 58 56 50 46 49 55 55 55 57 57 52 49 47 43 43 53 64 57 61 58 49 47 49 54 58 54 51 50 55 58 53 48 48 53 48 41 38 41 47 48 45 46 45 40 38 41 40 33 29 40 47 48 62 81 89 85 71 61 61 71 79 77 70 64 64 64 53 54 67 63 48 46 49 52 60 79 83 69 57 51 50 57 88 120 112 65 41 34 37 50 74 97 114 112 111 119 108 77 66 75 80 84 81 73 88 102 102 108 113 114 119 123 120 129 128 114 106 96 90 95 87 98 129 127 104 97 109 103 69 52 49 65 99 130 141 124 98 92 92 82 75 98 116 105 99 102 104 102 108 108 90 71 61 65 72 73 72 67 54 52 75 120 151 175 189 203 207 205 207 203 200 196 192 189 187 184 181 176 173 170 168 165 164 164 163 162 161 158 156 156 157 159 160 157 157 156 156 156 157 157 156 155 157 158 158 157 154 154 157 157 157 157 155 155 158 159 156 158 158 158 160 161 160 158 157 158 155 155 157 157 159 159 156 155 157 158 158 160 163 162 160 161 160 158 158 161 161 158 156 159 159 159 160 161 161 161 159 162 165 163 160 160 162 162 162 165 160 165 165 164 165 162 165 163 163 165 167 166 165 164 166 168 169 168 166 167 169 169 166 166 166 167 168 168 170 169 166 164 167 169 168 168 170 169 168 
135 124 130 134 119 118 102 87 146 204 221 222 222 222 221 220 219 218 216 213 211 210 206 199 187 176 159 141 125 112 102 96 94 90 90 86 84 88 89 90 90 93 94 99 105 106 103 94 80 64 59 59 55 56 52 46 48 47 46 42 43 43 39 39 37 36 36 38 39 35 33 36 36 36 35 36 42 49 53 57 57 61 56 57 59 61 66 63 57 57 58 59 59 58 58 57 63 54 45 44 50 53 57 61 52 51 54 51 43 44 51 52 57 60 61 58 54 52 51 51 56 51 47 51 57 55 50 50 51 46 41 40 46 52 48 42 40 43 41 40 41 37 33 34 44 52 51 53 57 60 66 65 58 63 74 92 108 96 69 60 53 51 60 75 65 44 41 48 55 55 51 48 48 50 54 57 61 83 113 114 72 48 45 55 79 99 107 107 95 86 94 93 72 52 57 73 82 82 80 92 95 110 109 107 121 127 121 122 124 133 131 126 109 95 96 89 82 107 95 70 65 74 76 63 50 52 68 97 120 128 122 113 104 111 118 106 100 113 118 115 105 117 128 127 104 76 58 47 44 45 74 116 104 77 56 61 97 132 163 180 194 202 204 205 204 201 197 192 186 184 181 179 176 173 170 167 164 163 163 162 160 160 159 157 157 158 160 161 160 159 157 155 155 156 158 158 154 156 156 157 157 156 155 157 157 157 157 156 156 158 159 157 156 156 157 159 159 158 158 158 157 156 156 157 156 158 159 157 156 157 158 158 159 161 162 160 160 161 161 160 161 161 158 157 161 161 163 164 164 163 162 160 161 163 162 160 161 162 161 160 161 160 165 163 163 166 164 165 162 162 163 164 164 164 164 165 167 169 170 168 166 166 167 167 166 167 168 168 167 169 169 167 168 169 169 168 170 172 171 169 
126 125 134 136 131 123 97 99 156 208 222 223 222 222 221 221 220 219 217 215 212 211 206 200 190 179 161 142 126 113 103 97 92 87 88 84 83 86 86 86 91 96 94 98 105 103 97 89 78 62 56 56 55 55 50 43 47 46 42 44 45 41 41 41 35 34 34 36 35 31 31 36 40 37 39 40 52 66 72 81 76 72 51 44 48 52 59 58 64 61 62 60 53 53 59 60 58 52 45 44 47 48 45 44 47 46 53 54 46 47 54 53 46 47 54 59 58 58 58 56 51 46 41 44 49 50 51 54 55 49 43 42 48 52 49 43 37 40 43 46 46 39 36 40 51 54 49 47 46 45 49 52 55 62 75 97 123 118 90 79 64 58 58 63 50 35 49 71 76 63 42 32 31 41 56 56 49 53 70 78 55 49 63 84 111 125 112 94 89 92 100 98 81 62 56 71 90 108 117 118 111 123 121 114 119 123 120 121 128 136 138 135 118 105 108 103 84 76 57 40 35 55 82 80 67 59 68 96 123 133 131 125 119 125 143 137 116 117 125 123 126 121 130 136 111 77 65 60 52 43 73 144 144 110 69 63 78 111 146 168 183 196 202 202 198 196 194 189 184 181 179 177 175 172 169 167 164 163 163 161 159 160 160 158 157 157 158 159 159 159 157 155 155 156 157 157 154 156 156 155 157 157 156 156 157 157 157 156 155 157 157 155 155 156 157 157 156 156 157 158 156 156 158 157 155 156 158 158 157 158 159 158 158 159 160 160 158 161 162 161 161 159 158 158 160 160 162 163 162 161 161 160 161 162 161 161 162 162 161 160 160 162 166 163 162 166 166 165 162 161 161 162 163 163 163 164 166 168 169 168 166 165 166 168 168 168 169 169 167 168 169 168 167 168 167 166 167 169 169 168 
120 117 130 138 130 109 84 109 171 216 223 223 222 222 222 222 221 220 219 216 212 210 206 201 192 180 163 145 129 115 104 98 95 90 90 87 84 86 85 84 90 94 95 99 103 100 91 80 71 59 56 56 55 55 49 44 45 46 42 45 44 38 40 37 36 38 39 38 37 37 38 39 38 36 42 44 62 88 96 105 113 90 45 23 24 29 43 53 58 58 57 55 54 54 57 62 59 54 47 45 48 48 45 43 45 42 46 51 46 43 49 56 49 48 53 55 53 56 59 55 54 53 52 52 49 45 46 51 60 54 45 40 40 45 46 45 35 35 37 44 45 39 35 38 51 51 46 45 46 44 45 48 56 65 81 96 114 124 117 111 98 78 57 48 35 28 53 85 85 65 44 38 28 36 60 55 41 35 43 57 54 66 84 106 130 130 103 85 94 101 101 100 101 82 65 83 118 143 149 136 129 126 123 122 121 117 112 108 116 116 116 118 112 109 113 107 96 86 78 63 39 51 97 115 88 70 72 94 115 128 126 114 111 117 132 140 133 124 122 124 136 140 146 141 116 90 74 58 53 42 52 111 144 123 84 78 63 89 126 155 173 189 198 199 199 198 196 191 185 181 179 176 173 170 168 166 163 163 163 162 160 160 159 158 157 155 155 155 156 157 157 156 155 155 154 154 155 157 156 155 156 157 156 155 157 157 157 156 154 155 155 153 155 156 157 156 156 156 155 155 156 157 158 156 155 156 157 158 157 159 160 158 157 158 158 159 157 160 161 160 159 158 158 159 161 159 159 159 158 160 161 160 162 162 161 161 163 163 162 162 162 163 166 165 163 164 165 164 163 162 162 163 164 164 163 163 167 166 165 167 167 167 166 166 170 169 169 169 168 168 169 168 168 170 171 169 168 168 170 171 
99 82 98 107 93 85 80 107 179 219 223 223 223 223 222 221 220 219 218 216 213 210 207 202 192 181 165 149 133 118 106 99 96 90 90 87 84 85 84 82 89 91 94 99 99 97 90 76 64 58 59 59 58 56 51 49 42 46 42 42 40 37 40 36 37 38 39 39 39 41 41 39 37 38 46 51 76 110 122 131 135 97 41 17 17 15 23 32 35 41 49 56 59 61 64 67 55 53 51 52 56 57 55 53 51 50 49 50 48 40 39 48 61 60 59 53 46 50 54 48 48 51 55 54 47 39 39 43 57 55 49 41 36 37 41 45 40 37 37 41 41 36 35 38 46 48 47 42 39 38 43 54 54 68 83 89 101 120 127 127 116 92 66 58 50 39 52 74 71 51 38 45 42 48 68 64 41 36 47 70 78 87 96 115 126 127 106 86 73 58 62 84 104 93 77 101 142 154 140 118 112 107 103 104 103 96 93 99 95 87 82 81 84 96 107 103 106 118 120 106 73 56 76 95 72 63 74 88 93 106 117 108 99 104 112 124 132 130 128 128 130 152 159 145 122 107 102 98 84 67 50 60 94 96 93 88 69 88 120 149 165 178 189 195 198 196 193 189 184 182 180 178 172 169 167 165 163 163 162 161 161 159 158 158 158 156 154 153 155 156 157 156 155 155 154 153 154 157 157 155 155 156 156 156 156 156 156 156 155 155 155 154 155 156 156 157 157 157 155 153 156 157 157 156 155 157 157 157 156 158 159 159 158 158 158 159 158 160 159 158 158 158 159 161 164 160 160 160 159 161 162 160 163 162 160 160 163 163 163 163 165 164 165 168 166 162 164 165 164 164 164 164 165 166 165 163 166 166 166 167 167 166 165 165 170 168 168 168 168 168 169 168 168 169 170 169 169 169 170 170 
100 81 71 63 58 70 79 108 177 216 222 223 223 223 222 219 218 217 217 216 213 211 208 204 193 182 168 153 137 121 108 100 93 88 88 86 82 83 82 81 87 87 90 95 94 93 89 74 59 58 60 60 58 56 50 51 43 44 41 39 38 39 42 39 37 34 35 38 38 37 37 38 39 40 49 61 93 129 144 149 139 92 35 20 22 14 11 12 14 15 26 33 32 40 52 55 53 51 50 51 54 55 55 58 54 59 56 53 54 47 40 45 58 61 61 54 46 46 48 44 49 48 48 47 41 38 42 46 51 53 53 48 41 38 40 43 45 43 41 41 38 36 39 45 47 49 49 42 38 38 41 50 52 67 76 77 95 119 130 134 120 101 82 82 78 59 52 58 52 39 31 47 58 57 59 56 40 44 63 95 103 91 80 98 114 122 104 69 43 34 47 70 103 116 107 110 132 136 115 88 67 51 57 76 81 84 88 85 81 76 74 71 72 85 91 82 98 115 124 121 97 69 53 39 26 35 65 86 87 97 107 99 101 99 94 98 113 130 134 122 124 131 122 114 115 115 119 125 114 97 80 54 56 69 104 99 90 101 121 140 152 164 180 192 192 191 189 186 182 180 178 176 173 169 167 165 163 162 161 159 160 158 157 158 158 157 156 155 156 156 155 154 155 156 156 155 153 155 155 154 155 155 156 158 155 154 155 156 155 156 157 157 154 155 156 157 158 158 156 154 155 157 157 155 156 158 157 156 155 156 158 159 159 159 159 160 159 160 159 158 158 159 160 162 164 160 161 162 161 162 161 157 161 161 160 159 161 163 163 163 166 163 162 168 167 162 165 167 165 166 166 165 166 166 166 165 165 167 169 168 165 163 164 165 169 166 166 167 167 168 168 167 169 167 166 167 169 170 169 167 
118 106 75 55 57 65 72 109 173 214 221 222 221 222 222 219 219 217 216 216 214 211 208 204 196 185 170 156 140 123 109 101 94 88 89 87 83 84 83 83 81 83 84 88 89 87 81 69 59 59 61 59 57 54 49 50 47 42 43 42 41 42 40 39 36 36 38 39 37 38 40 41 38 39 47 73 110 140 152 153 136 85 29 15 19 14 13 11 12 9 12 12 10 17 29 34 33 35 40 44 45 40 37 38 40 42 40 40 43 39 36 41 47 54 59 58 51 44 43 44 52 48 45 40 34 34 39 44 48 49 50 48 45 43 41 40 40 40 41 40 38 39 43 47 50 51 50 42 41 43 39 41 44 49 55 58 74 102 119 126 127 116 103 105 99 71 51 49 44 36 34 46 54 48 39 36 40 55 78 110 114 84 53 63 83 98 90 54 32 44 70 89 102 115 104 93 109 126 117 96 66 29 38 81 98 102 96 76 64 60 60 59 68 91 95 80 87 115 134 136 120 99 77 46 32 37 55 74 83 93 94 84 93 93 81 75 88 116 131 118 106 104 79 59 64 81 105 122 126 123 112 81 60 64 104 110 106 113 122 132 142 153 165 174 176 179 184 185 182 179 175 171 172 169 166 164 162 161 160 158 158 156 155 157 157 156 156 157 155 155 154 154 155 157 156 155 153 153 153 153 154 154 155 157 154 153 154 155 155 155 157 158 154 156 157 156 157 158 157 155 153 157 157 155 157 158 157 156 157 157 158 159 159 159 159 160 159 160 160 158 158 159 159 161 162 158 160 162 160 161 161 157 159 162 161 159 161 163 163 163 165 164 161 166 166 163 167 165 165 166 165 164 164 166 167 167 164 167 169 167 165 164 165 165 167 165 165 167 167 167 168 168 171 169 168 168 170 171 171 171 
107 96 76 70 66 60 67 106 173 214 221 221 219 221 222 221 221 218 217 216 214 211 207 202 199 188 172 157 141 124 109 101 92 87 87 85 81 81 80 81 80 86 85 88 92 87 77 66 63 62 62 59 59 56 49 50 52 42 46 47 46 44 36 36 31 37 40 36 33 39 44 42 40 40 50 86 127 149 156 154 124 78 29 17 19 15 14 9 10 13 10 9 12 10 8 13 9 12 17 22 22 17 16 20 19 11 9 13 16 14 18 26 35 45 56 62 59 49 46 53 50 50 51 49 43 41 45 48 47 44 41 41 43 43 39 36 35 37 41 43 44 47 49 48 48 51 51 39 37 41 38 40 47 42 52 58 63 89 114 119 125 123 117 121 113 80 55 50 48 39 44 47 42 39 36 35 36 54 70 91 97 70 38 46 56 63 66 52 44 60 87 109 120 99 74 72 98 118 115 104 69 30 28 62 73 58 46 46 52 45 44 47 64 92 90 65 74 122 140 136 134 119 94 74 57 57 66 83 98 99 84 67 74 90 82 71 78 103 129 133 118 94 60 48 53 59 77 99 122 143 139 122 101 85 101 117 104 111 114 117 123 126 122 119 140 151 166 177 180 179 176 173 171 168 166 164 162 162 161 158 156 155 154 155 155 154 155 157 153 152 153 154 156 157 155 153 154 153 151 152 154 154 153 155 154 153 153 154 153 153 155 156 155 157 158 156 155 156 156 155 152 157 157 155 157 158 156 156 160 159 159 159 158 158 158 159 158 160 160 158 158 157 158 159 162 158 160 162 160 162 165 161 159 162 163 161 162 164 164 163 165 166 162 164 164 163 167 163 164 165 164 163 163 165 168 169 164 166 167 166 166 167 167 165 167 165 167 168 168 168 169 170 168 168 169 168 166 166 170 173 
71 72 62 65 74 68 65 107 172 211 220 218 218 221 221 220 221 221 219 216 213 209 203 197 194 186 176 161 142 126 112 98 93 87 85 81 79 80 80 82 83 81 81 86 89 85 74 65 59 58 57 57 57 56 55 53 50 50 50 50 49 47 43 40 38 37 36 35 36 37 38 39 42 42 58 95 129 151 155 141 120 63 28 22 19 16 12 8 9 11 12 11 10 9 9 8 12 11 11 10 7 6 7 7 9 8 8 10 9 8 9 11 15 26 41 53 58 56 56 60 59 53 46 49 49 44 47 54 53 45 35 32 38 45 43 35 35 38 45 49 47 46 44 39 46 48 44 40 44 47 41 35 42 48 65 75 74 76 85 89 107 126 126 128 124 98 70 48 54 56 60 56 46 43 47 48 42 39 48 56 60 55 43 44 43 47 53 55 62 81 102 121 119 92 74 64 81 100 85 74 64 40 22 18 15 14 26 41 59 58 54 56 63 77 80 59 75 122 139 124 124 113 106 83 67 56 56 81 107 103 75 53 76 96 92 88 91 100 122 133 121 87 55 53 56 55 71 92 126 142 151 146 135 120 120 133 124 112 116 107 97 91 71 67 92 115 146 167 172 173 173 172 169 164 165 165 161 160 160 157 155 155 155 155 154 154 155 155 155 153 155 155 153 155 156 152 152 155 154 152 154 155 154 155 153 154 154 154 155 155 155 155 155 157 157 155 154 154 155 157 156 151 156 157 158 158 154 159 158 160 158 160 160 157 158 157 158 158 158 157 157 157 158 159 158 160 161 160 159 161 161 161 164 165 164 164 165 164 163 162 162 163 165 164 163 162 164 165 164 165 164 163 165 166 166 166 165 164 167 168 166 166 166 165 164 164 167 167 166 169 170 165 167 169 169 169 170 169 168 169 
50 56 62 69 77 72 65 103 165 209 221 222 219 220 220 222 221 220 217 213 208 201 195 192 187 180 171 159 142 125 111 101 94 87 85 83 81 83 82 85 81 79 79 83 85 82 74 68 58 59 58 56 57 58 56 51 51 50 50 50 49 48 45 44 38 39 40 39 36 35 37 41 40 46 61 95 130 147 146 134 114 58 23 18 16 15 11 7 11 11 10 9 9 10 10 10 12 10 10 10 9 8 8 9 8 7 7 8 8 7 7 9 10 16 25 35 43 45 50 56 60 56 48 47 48 46 48 49 52 48 42 35 33 36 39 39 36 41 46 50 49 41 34 33 34 41 43 43 46 48 45 41 37 49 74 94 92 80 76 78 94 126 134 135 132 109 87 73 69 70 70 61 48 43 57 74 63 39 32 38 44 50 48 48 40 37 46 58 75 98 115 125 115 110 102 71 55 55 47 52 66 53 28 15 21 36 50 57 68 72 78 87 87 85 90 86 98 122 128 116 117 106 103 95 62 47 51 66 92 107 83 56 65 93 100 81 91 106 105 125 112 89 73 74 65 54 67 86 105 128 144 148 148 141 136 140 143 132 118 108 99 81 65 63 70 91 117 145 161 163 167 169 167 165 164 163 161 159 158 156 156 156 155 155 154 153 154 154 152 151 152 153 151 153 154 151 154 156 155 153 154 154 153 153 155 155 154 154 155 155 156 157 155 157 156 155 155 154 155 157 155 153 156 158 159 159 158 160 156 158 157 159 159 157 158 157 155 156 158 159 159 158 158 157 156 158 159 158 158 159 160 160 163 163 163 163 164 165 164 164 163 164 165 165 163 163 164 165 165 166 164 163 164 166 167 169 165 165 166 167 165 165 167 167 167 165 167 168 167 169 170 166 167 169 169 170 171 170 168 169 
30 41 58 65 66 61 54 96 165 208 222 223 220 221 220 222 221 218 214 209 202 191 183 181 174 169 160 151 140 124 109 102 94 85 82 81 80 80 78 80 79 78 79 82 83 79 72 68 55 59 59 56 57 60 57 51 50 49 47 46 46 45 44 44 40 41 44 43 39 36 38 43 41 51 66 96 128 139 132 121 98 49 19 15 13 12 10 8 10 10 9 9 10 11 11 10 11 9 9 10 11 9 9 11 9 7 6 7 8 7 7 8 7 7 9 15 22 28 36 45 52 56 53 51 52 51 50 46 47 46 46 44 40 37 35 33 36 41 45 48 47 35 24 25 26 36 42 46 50 52 49 46 45 48 61 82 95 92 88 90 96 123 133 133 122 106 104 107 95 95 85 65 51 57 80 101 77 47 39 46 52 62 63 56 43 43 58 71 81 98 105 99 105 117 107 58 33 41 43 48 64 75 61 51 65 83 94 93 100 111 117 118 116 116 123 125 125 133 129 116 119 115 113 110 87 65 67 71 93 121 106 83 59 59 82 92 78 87 110 114 118 119 114 105 83 63 67 80 80 95 112 132 149 148 143 150 157 157 129 112 103 86 84 88 77 70 97 135 137 137 154 155 163 164 162 161 161 159 156 155 156 156 155 154 153 153 153 153 153 151 153 154 153 154 155 152 155 155 154 154 154 153 152 153 154 153 152 152 152 153 154 155 154 156 155 154 155 155 155 156 155 156 156 158 159 158 160 159 156 158 156 158 160 157 158 158 158 157 157 157 157 158 159 160 158 160 161 161 161 161 162 162 163 162 162 162 163 164 165 165 164 164 164 164 164 164 164 164 165 165 164 163 165 166 166 168 164 164 166 166 164 165 166 167 168 165 166 166 165 167 168 166 167 169 169 170 171 170 168 168 
18 28 47 51 51 48 46 100 170 210 220 222 221 223 221 220 220 217 210 202 194 181 168 162 159 158 151 143 138 127 112 103 95 84 82 82 82 81 77 79 78 79 81 84 82 76 68 62 53 57 58 57 56 58 56 53 50 48 46 44 43 42 42 42 43 42 44 45 44 41 41 44 45 56 71 97 123 130 121 106 80 40 18 15 12 10 10 11 8 9 10 11 12 12 11 9 11 9 8 10 11 9 8 10 10 8 7 8 9 8 8 8 9 7 5 5 8 13 21 31 40 50 52 53 53 52 54 52 47 47 49 49 41 36 37 39 37 40 42 43 41 34 26 24 28 35 39 43 48 50 46 43 46 47 50 62 80 86 85 89 100 115 126 120 95 82 107 133 125 120 101 72 60 74 90 91 79 63 60 65 67 73 75 67 63 69 84 80 69 78 86 79 83 93 82 40 25 40 50 60 77 103 102 99 112 121 129 132 137 146 147 140 132 127 134 144 152 146 138 128 128 127 125 129 111 90 93 97 111 129 120 107 86 74 86 101 84 79 103 114 128 147 144 126 108 91 79 73 81 103 124 140 148 142 137 145 164 177 151 120 105 102 115 122 105 88 91 109 111 102 115 148 157 161 161 159 161 159 155 155 156 155 155 154 153 153 153 153 154 153 154 155 154 155 155 153 154 152 152 153 153 152 152 154 153 153 152 151 151 152 153 154 153 155 154 154 155 156 155 155 155 159 156 157 157 155 158 155 158 159 157 159 160 158 159 158 160 158 156 156 157 159 160 161 158 159 161 161 160 160 160 160 163 162 162 163 163 163 164 164 163 163 163 163 164 164 164 164 163 164 164 164 166 165 164 164 163 164 166 166 166 166 166 166 168 166 166 166 165 164 166 166 168 169 168 169 170 169 167 167 
13 18 30 34 37 34 31 87 164 206 218 220 220 223 221 220 219 216 205 192 181 165 147 137 138 144 141 132 128 122 110 102 92 83 81 82 82 81 78 80 78 79 80 82 80 73 63 57 55 56 58 57 55 53 52 53 49 48 46 45 43 43 42 41 42 42 43 45 45 44 45 48 54 61 76 98 115 121 114 94 69 34 15 13 11 11 11 12 9 10 11 11 12 12 11 10 12 11 9 10 12 9 7 9 11 9 8 8 9 9 9 9 10 9 8 7 6 6 13 22 34 40 41 43 46 49 55 58 53 47 45 46 42 38 39 39 38 37 38 38 37 41 41 33 29 33 34 35 39 40 39 39 41 51 58 62 65 64 71 86 110 114 117 115 102 92 104 124 134 114 92 74 69 84 92 84 94 86 75 72 71 73 80 86 86 92 104 92 65 58 58 54 61 93 96 51 27 46 65 74 97 121 124 125 135 136 134 135 135 135 135 129 111 93 105 136 146 137 134 136 132 128 130 143 127 119 123 130 133 134 131 127 119 117 128 121 111 109 103 110 121 144 151 136 117 105 95 79 70 112 145 147 134 121 116 120 137 156 150 122 107 113 126 130 117 110 117 115 107 98 100 128 147 156 160 159 160 158 155 155 155 155 155 154 153 153 153 153 153 152 152 153 153 153 153 152 154 152 152 153 152 152 153 155 154 154 154 154 154 154 154 155 153 155 154 153 155 156 155 154 154 159 155 156 155 154 158 155 157 159 156 158 160 158 159 158 159 158 158 159 160 160 159 158 159 160 161 162 161 160 160 161 161 161 162 163 162 163 164 163 161 161 161 162 163 163 163 163 164 163 163 164 166 165 163 163 164 165 164 164 165 167 166 166 168 167 168 168 166 165 167 169 169 169 168 167 168 168 167 167 
20 17 21 25 31 28 22 65 149 198 217 220 218 221 221 221 220 214 199 182 164 141 121 115 118 129 132 123 116 111 105 99 91 83 82 81 79 77 74 75 78 77 77 77 75 69 62 56 58 58 58 58 54 49 48 50 47 46 45 44 43 42 41 41 38 41 44 45 44 45 50 55 62 67 79 97 107 112 106 85 63 30 12 11 11 12 11 11 12 12 12 10 10 11 11 11 12 13 11 11 12 10 8 9 10 9 8 8 8 9 9 9 7 9 10 11 9 7 12 20 28 29 28 33 40 45 50 52 46 44 46 44 33 28 33 39 36 33 34 34 35 46 51 41 33 36 35 33 33 34 37 42 46 53 59 60 53 48 65 95 108 119 122 125 128 114 98 98 103 78 67 75 81 84 86 84 101 91 69 61 64 63 72 86 108 105 106 94 70 50 38 36 50 85 104 74 43 50 77 97 109 111 104 99 107 111 104 100 97 97 105 106 93 78 88 120 136 133 119 108 102 118 135 145 133 132 135 135 126 125 135 143 143 137 141 140 130 134 139 122 104 106 116 117 103 101 105 94 79 106 135 141 124 107 104 110 126 127 122 99 84 89 91 90 83 103 135 139 135 134 121 119 128 143 156 159 159 157 155 154 154 154 154 153 153 152 153 153 153 152 152 152 153 152 152 152 156 154 153 153 152 153 154 155 153 154 154 154 154 154 154 153 154 156 155 153 154 156 155 154 153 156 155 155 155 156 159 158 156 157 155 157 159 157 159 158 160 159 159 159 159 159 159 159 161 161 162 163 163 161 162 163 160 160 162 164 162 163 164 163 160 160 161 161 162 163 163 163 166 164 163 163 165 164 164 165 167 166 163 161 164 167 167 167 164 165 166 166 165 166 167 169 168 169 167 166 167 167 167 169 
42 33 30 31 34 39 39 67 138 193 217 219 216 219 220 220 219 211 194 174 148 115 99 105 109 116 121 117 108 102 98 93 88 83 83 81 78 77 74 76 77 75 74 74 72 67 62 58 59 59 59 57 54 49 46 45 46 46 45 43 42 40 40 40 38 43 47 46 45 49 56 62 68 75 82 92 100 100 92 74 54 26 11 11 11 12 10 10 15 14 12 10 10 11 11 10 11 14 12 10 12 11 9 10 9 9 9 8 7 8 10 10 7 8 9 10 10 8 11 18 23 26 24 29 37 42 45 42 47 42 42 39 30 29 37 42 36 34 35 36 40 49 52 44 41 42 40 37 36 36 39 45 48 49 50 48 40 38 61 91 100 105 112 125 139 130 103 85 84 75 78 96 103 90 76 73 87 78 50 39 52 62 71 76 98 96 93 85 76 58 36 31 37 68 92 80 64 81 108 118 98 82 78 78 88 99 95 94 81 86 104 112 102 88 91 113 141 140 117 102 96 120 134 127 116 116 133 134 120 122 139 153 148 140 115 122 127 131 153 138 102 83 79 94 99 100 106 103 100 104 122 136 128 118 120 124 121 102 82 63 58 65 65 64 56 61 100 130 126 137 143 117 103 123 147 157 156 155 155 152 153 153 153 152 152 152 152 153 154 153 152 153 154 153 153 154 154 153 154 154 152 153 154 152 153 153 153 153 153 153 153 152 155 157 156 153 154 155 155 154 154 154 156 155 155 157 157 160 157 158 155 157 158 156 157 156 160 159 158 157 157 158 159 161 158 158 159 160 160 159 160 162 161 160 162 163 161 162 164 162 160 161 162 162 162 163 163 164 164 164 163 164 164 163 164 167 166 167 164 162 165 167 166 166 163 166 166 165 166 167 167 166 166 168 168 167 167 167 168 170 
67 54 44 38 32 43 53 73 136 193 216 218 214 219 220 218 219 208 191 171 138 99 88 104 102 100 104 106 99 92 87 81 76 74 77 76 75 76 77 79 75 75 74 74 72 67 62 59 58 60 59 56 54 52 47 43 50 49 47 45 43 41 41 40 41 45 48 47 48 54 62 66 71 81 83 88 94 91 80 66 43 21 13 14 12 10 9 10 16 15 13 12 12 12 10 8 8 13 12 9 11 11 9 10 9 10 9 8 8 9 10 11 10 9 7 8 8 7 9 14 24 28 25 26 31 39 44 42 42 41 47 49 41 38 43 46 41 41 40 43 48 52 50 46 48 47 42 39 41 40 41 44 43 45 45 38 29 35 65 95 92 86 104 125 132 132 121 106 107 114 115 119 125 110 88 82 89 82 48 32 52 80 95 91 81 83 71 57 58 54 36 32 30 48 73 84 87 107 129 131 105 75 71 71 76 89 93 106 105 99 114 120 98 75 83 119 131 117 91 96 98 111 115 105 82 85 128 145 131 132 140 154 152 138 120 123 133 149 160 143 118 107 97 105 108 95 97 111 116 126 143 144 133 133 132 119 94 77 58 54 64 74 71 64 59 51 57 93 107 105 115 107 82 107 138 153 153 153 154 150 152 152 152 151 151 151 151 152 153 152 151 152 153 152 152 154 151 152 153 153 151 153 153 150 154 154 154 154 154 154 154 154 156 158 157 153 153 154 154 154 157 154 158 154 153 156 153 158 160 160 156 157 158 156 156 155 156 157 159 159 159 158 158 158 159 159 160 161 161 160 162 164 163 161 163 163 159 160 163 161 161 162 163 163 163 163 164 165 160 162 164 165 164 162 163 167 163 167 166 165 167 168 165 164 168 170 169 168 169 170 168 166 164 167 168 168 168 168 169 172 
73 64 45 38 27 29 42 58 126 187 214 216 222 223 221 219 215 208 189 165 132 92 77 92 96 98 97 93 88 82 76 73 68 73 75 74 77 77 75 73 74 73 71 72 70 63 58 57 56 53 56 57 50 48 49 45 45 41 39 43 47 43 39 40 39 47 45 48 57 60 64 69 77 78 78 80 84 80 67 55 36 19 12 13 12 11 9 10 11 11 12 13 12 11 11 12 8 9 10 11 12 13 12 10 12 11 10 9 8 8 10 12 10 9 10 8 7 8 10 17 28 29 23 19 25 33 38 43 41 40 48 54 49 45 46 48 47 42 39 44 45 44 46 44 39 45 49 50 49 47 45 45 38 39 37 36 34 37 57 83 84 80 108 130 132 128 123 130 132 135 134 124 119 119 112 104 110 106 70 46 52 85 111 95 71 64 52 44 53 63 53 41 34 43 70 96 117 126 127 137 122 88 52 55 85 92 94 123 138 128 117 119 102 72 76 100 116 93 66 75 81 98 111 94 88 96 116 138 141 142 151 150 153 148 135 134 147 155 150 139 124 123 129 135 120 91 88 116 141 152 161 155 131 113 99 79 69 58 55 51 58 79 69 58 48 50 65 76 87 86 105 119 95 85 119 136 146 146 146 149 153 152 152 152 151 154 154 150 152 151 152 154 152 151 152 153 149 151 152 151 150 151 152 152 152 153 154 156 156 154 154 156 155 157 155 153 156 155 153 156 155 153 154 156 156 156 156 155 159 155 156 158 156 154 156 159 156 156 155 156 158 158 158 158 158 159 160 160 160 160 160 160 161 162 162 160 161 161 160 160 160 161 161 161 163 163 161 162 162 164 166 165 163 163 165 164 163 165 166 166 165 165 165 165 166 164 166 168 166 167 169 167 168 168 167 167 167 168 169 171 
42 40 41 37 20 16 25 51 119 182 212 213 215 215 216 217 213 202 183 160 126 82 65 81 86 82 81 82 78 72 64 59 61 62 64 67 71 74 74 72 70 73 74 72 69 64 58 55 55 55 55 55 53 51 50 50 48 45 43 46 49 46 41 40 39 44 42 46 54 56 62 70 75 74 72 72 73 69 58 47 32 17 11 10 9 10 10 13 11 11 12 12 12 11 11 12 12 12 11 10 10 11 13 13 11 11 11 10 8 8 9 11 9 8 10 8 8 9 10 16 25 28 24 19 21 27 33 40 45 44 48 51 48 46 50 54 49 43 38 42 44 43 45 41 40 43 47 51 52 51 48 44 39 38 36 38 41 44 51 62 64 62 97 122 121 115 116 132 150 146 137 122 114 122 127 126 128 122 95 76 76 93 112 108 84 62 50 44 47 56 56 57 47 48 87 121 136 130 117 134 139 91 49 54 83 88 88 112 136 120 90 94 111 97 94 116 108 90 77 90 85 89 106 110 121 118 129 136 141 149 151 150 161 145 136 142 146 141 127 106 103 117 138 148 137 115 107 120 143 157 151 138 122 95 71 61 58 50 44 49 70 85 102 77 71 55 85 112 111 98 93 99 91 57 73 103 115 118 129 141 152 149 154 153 151 151 150 156 153 151 152 153 152 152 152 151 151 153 153 151 150 151 152 152 152 152 154 155 154 154 154 156 154 153 154 154 154 155 156 156 154 154 155 156 157 157 157 156 159 156 157 159 157 155 156 157 157 158 157 158 159 159 159 159 160 159 159 159 160 161 161 161 163 164 164 161 161 160 160 160 162 164 163 163 164 163 161 162 162 163 165 165 163 164 165 165 165 165 166 166 166 166 167 168 166 164 165 166 166 166 166 164 165 166 167 168 167 167 167 169 
30 27 32 35 30 28 24 48 122 181 212 214 216 217 219 217 217 204 183 159 125 81 59 66 69 74 73 74 72 57 44 47 54 54 59 64 68 71 72 72 67 73 74 70 67 64 58 54 55 56 54 54 55 52 48 50 46 47 47 46 45 42 41 44 46 47 43 48 53 52 59 69 70 68 65 62 60 55 44 35 21 12 11 11 9 11 10 12 11 11 11 12 11 11 11 11 11 12 14 14 12 12 12 13 12 12 12 11 10 9 10 10 9 8 11 10 9 10 10 16 26 32 30 22 20 22 28 37 46 47 48 49 49 47 50 56 53 45 37 39 40 41 45 42 38 38 43 47 44 42 41 37 46 45 41 40 43 44 42 40 41 46 77 94 86 75 91 135 150 144 134 116 104 112 123 121 120 116 103 98 106 111 113 118 107 93 78 54 51 66 62 55 51 61 87 101 105 106 106 118 130 107 73 54 66 84 90 98 108 105 89 100 120 100 89 112 114 106 102 110 96 93 113 138 145 144 150 140 142 150 135 126 131 135 129 130 130 112 95 88 101 115 132 141 144 143 137 130 130 128 122 116 107 97 82 59 54 54 53 61 78 128 141 125 111 108 105 124 134 115 81 64 56 56 57 62 58 64 89 122 142 145 148 152 154 151 151 153 152 151 152 152 152 153 153 151 152 153 153 152 151 152 152 152 151 152 153 153 153 153 154 154 154 151 154 156 153 155 158 156 155 155 155 157 157 157 157 157 159 157 158 159 157 156 156 156 158 159 159 159 159 159 159 160 160 159 158 159 161 161 161 160 157 159 159 158 159 161 162 163 163 164 164 164 164 163 162 162 162 163 164 164 163 164 166 166 165 163 163 165 165 165 166 168 168 168 166 167 169 168 166 167 165 166 167 168 167 166 167 169 
61 67 60 47 41 39 35 61 122 174 198 201 205 208 210 206 208 200 179 153 122 84 57 50 57 62 64 65 61 50 42 44 46 51 58 64 67 65 66 70 67 71 71 68 66 64 60 56 55 55 55 55 55 52 47 45 48 46 42 41 43 44 44 44 49 49 45 48 50 50 57 64 61 59 57 54 49 41 32 23 14 10 11 10 10 12 10 11 11 11 11 11 11 10 10 11 10 12 14 15 14 13 13 13 13 13 13 12 11 10 10 11 10 9 11 11 11 11 11 18 29 36 35 27 20 18 23 32 40 45 46 48 49 46 45 51 51 45 39 40 40 41 43 39 32 31 39 41 34 33 38 38 45 46 43 38 37 42 45 43 35 32 40 48 55 51 60 104 137 135 127 112 99 104 114 110 104 92 101 99 89 100 107 101 104 120 110 64 51 69 71 77 81 76 64 71 71 64 73 74 116 128 113 78 75 95 96 84 90 92 95 111 121 103 91 101 126 137 140 141 130 121 125 148 153 144 133 126 134 124 90 75 94 105 97 100 119 118 105 102 109 116 119 119 127 143 148 135 129 106 83 86 91 80 74 76 84 93 92 93 105 120 142 139 137 143 117 93 93 96 81 99 99 97 69 64 61 59 64 86 115 134 139 149 154 150 153 147 150 150 151 151 151 153 154 151 150 152 153 152 152 153 153 152 151 153 153 152 152 153 154 153 155 153 155 156 154 155 157 155 155 156 156 157 157 156 155 156 158 158 158 158 156 157 157 156 157 159 159 158 158 158 158 160 159 159 159 160 161 162 161 159 159 160 159 158 159 161 160 160 161 162 163 163 162 162 163 164 163 164 165 164 162 163 165 165 166 163 163 165 166 164 165 167 166 167 165 165 168 167 164 167 167 167 167 168 167 167 168 170 
104 115 84 53 42 39 37 59 112 162 184 184 187 190 194 195 195 190 174 150 118 81 53 42 51 43 47 51 49 53 54 44 42 48 51 56 61 59 57 64 65 66 67 68 69 65 61 59 57 53 54 56 53 52 50 45 47 48 47 44 43 43 46 49 44 46 44 44 45 47 54 56 49 46 45 42 37 32 25 18 16 11 10 7 8 12 12 13 12 11 11 11 11 10 10 10 12 11 10 11 11 12 14 16 13 13 13 12 11 10 11 11 11 10 11 10 10 11 12 18 30 37 37 29 21 16 17 25 33 39 42 44 46 44 41 45 47 45 43 44 43 40 39 31 26 26 34 38 33 36 44 46 39 42 43 36 32 39 47 49 38 29 27 32 55 67 60 70 104 114 116 113 110 112 114 106 88 91 100 85 74 88 91 82 72 87 83 52 47 69 87 109 117 108 76 62 52 44 62 69 85 112 127 116 106 99 77 59 68 86 103 111 120 126 123 117 132 150 146 142 138 126 117 136 143 127 103 105 118 101 75 71 77 94 104 112 120 122 119 114 128 137 136 125 116 123 131 122 110 101 99 105 94 79 85 98 107 124 133 130 130 115 105 108 109 128 94 71 62 90 131 138 153 136 94 88 94 101 89 73 78 99 118 133 144 148 150 149 149 150 151 150 149 151 153 151 149 151 153 153 152 153 152 151 152 154 154 152 152 153 153 152 153 155 154 154 156 155 154 155 154 155 155 156 157 156 155 156 158 157 157 156 155 157 158 156 157 159 158 158 158 158 158 160 159 159 159 159 160 160 160 160 161 162 160 160 163 164 163 162 162 162 162 162 161 162 164 165 164 164 165 164 162 163 165 164 168 166 166 168 168 166 165 167 166 168 167 166 167 165 164 167 168 167 167 168 169 169 168 168 
102 102 58 29 32 38 36 45 84 141 166 166 168 168 174 181 177 171 160 139 103 64 40 36 40 44 44 45 52 53 50 49 45 45 43 47 55 55 53 58 57 60 64 69 71 68 62 60 59 53 54 56 52 53 55 51 50 48 46 46 48 48 45 43 45 47 44 43 41 41 45 43 37 34 33 31 27 25 22 18 14 11 10 8 9 12 10 11 12 11 11 11 11 11 10 10 12 10 9 11 13 13 13 14 12 12 11 11 10 10 10 10 11 9 10 9 10 11 12 18 30 38 38 32 25 18 18 23 31 35 37 39 41 42 43 45 48 47 43 43 40 38 38 31 24 24 29 33 34 39 44 42 35 36 40 40 36 40 46 46 44 32 34 39 66 94 81 59 84 105 109 116 128 132 129 121 104 114 111 74 50 64 76 79 52 55 60 57 66 92 110 112 126 127 109 79 57 45 52 73 72 87 115 132 135 122 85 50 60 94 115 106 111 136 144 138 144 145 119 111 111 97 92 115 130 119 92 90 112 115 91 62 68 90 99 102 107 110 118 125 137 146 141 129 113 106 107 96 89 96 131 149 109 76 95 118 118 108 120 140 142 123 81 92 101 107 118 125 112 116 136 148 164 154 118 106 120 133 122 101 62 59 83 102 125 145 143 151 150 151 151 151 149 150 151 150 150 152 153 153 152 152 151 149 153 154 154 153 153 153 153 152 150 154 152 152 155 154 152 155 153 155 155 155 157 156 155 158 158 157 156 155 155 156 157 156 158 158 158 157 158 158 158 160 159 159 158 157 157 158 160 162 157 159 160 160 164 165 164 163 164 162 163 163 162 163 164 164 163 163 164 164 163 164 166 165 167 165 166 167 167 165 164 165 168 170 169 168 167 166 165 168 167 166 167 169 171 170 167 166 
46 48 34 29 36 43 35 40 77 128 142 136 140 140 147 158 155 150 141 123 91 58 44 45 42 53 51 50 58 52 44 53 52 46 44 46 48 51 52 49 47 54 60 64 68 67 63 60 59 56 56 57 55 54 54 52 47 49 49 49 48 45 42 43 49 46 43 42 37 33 35 31 30 26 25 25 22 21 20 16 10 9 11 11 12 13 8 9 12 11 11 12 12 12 11 11 12 10 11 13 15 13 12 12 12 12 12 11 11 11 10 10 11 10 11 11 11 12 12 18 29 37 40 37 32 25 23 28 35 36 37 37 37 41 46 48 50 48 43 41 40 41 42 36 28 28 28 30 35 41 42 39 33 31 38 46 46 48 49 46 38 36 44 45 60 82 79 73 104 123 109 108 131 140 142 144 129 125 122 80 28 34 62 63 65 74 83 91 98 114 121 103 102 127 125 97 89 82 59 48 64 81 115 129 127 131 111 71 60 82 106 111 121 140 144 142 137 119 86 95 104 95 101 124 120 104 85 75 96 129 119 79 75 105 108 97 97 101 112 128 130 132 121 116 113 109 107 95 78 116 149 153 122 89 92 110 119 97 89 103 123 123 137 130 119 121 138 156 148 116 100 93 113 126 106 83 113 145 143 118 86 70 75 86 102 124 136 147 151 150 150 151 150 150 151 151 151 152 153 152 152 152 152 150 153 152 153 154 154 153 153 153 151 152 152 153 154 154 154 155 153 155 155 155 158 156 155 158 158 156 156 156 156 156 157 156 157 158 157 156 158 159 159 160 158 158 157 157 158 159 159 160 157 161 162 161 162 161 159 157 164 162 163 164 164 164 164 162 163 163 164 165 164 165 166 165 163 164 164 165 164 163 164 165 167 165 166 166 165 164 166 166 168 167 167 168 169 169 168 167 
27 21 26 33 38 48 44 58 86 120 111 92 99 104 113 126 127 125 118 102 79 61 55 56 57 48 50 55 53 53 55 52 56 46 48 49 43 46 49 41 40 50 57 58 62 65 63 59 58 60 59 59 59 54 49 48 50 49 49 50 50 46 44 45 45 39 36 38 33 28 29 27 27 23 24 25 22 19 17 12 11 9 10 9 10 11 8 11 11 11 11 12 13 13 12 12 16 13 11 12 12 11 12 14 12 12 13 13 13 12 11 10 12 11 13 13 13 14 13 18 26 35 40 38 35 29 27 31 41 39 39 38 36 42 49 49 47 47 44 46 46 46 46 37 33 34 31 31 38 47 49 47 41 35 41 52 52 50 49 44 43 41 43 44 59 68 65 83 118 132 102 91 117 126 129 136 138 129 94 58 47 51 61 72 93 95 92 105 117 119 114 93 87 112 109 108 122 117 102 93 91 94 113 104 88 115 135 114 85 76 95 117 121 122 128 139 135 106 72 94 109 105 117 133 129 89 82 88 110 145 136 99 94 123 128 100 77 85 109 118 118 116 101 100 104 104 105 95 80 103 126 130 114 107 118 124 114 102 108 121 116 139 163 159 140 111 130 145 148 114 71 55 64 82 95 80 87 111 135 131 123 116 100 93 83 92 130 142 151 148 148 151 151 152 153 153 151 152 152 151 152 153 153 152 152 151 152 154 155 153 153 154 153 151 154 156 153 155 157 154 155 157 156 156 158 156 154 156 158 156 157 158 157 156 156 155 157 157 155 155 157 158 158 159 156 156 157 159 160 160 158 156 155 160 163 163 163 162 161 160 162 161 163 165 165 165 164 161 164 164 165 165 164 165 165 164 163 164 165 164 164 164 166 167 167 164 166 168 166 167 170 168 171 169 167 166 167 168 169 171 
34 33 27 27 35 37 44 59 107 104 79 71 81 82 87 95 94 98 90 83 81 68 56 60 61 57 52 56 57 58 60 55 60 44 52 49 40 45 44 41 37 40 49 56 59 62 63 61 57 57 61 57 54 56 52 46 52 48 49 47 45 47 44 41 42 40 37 35 32 27 24 26 25 26 27 24 19 18 14 8 9 9 9 9 10 12 11 10 8 11 12 11 11 12 12 10 14 13 12 12 11 10 12 13 13 14 15 15 14 12 11 11 12 11 14 18 17 15 14 14 21 28 36 36 33 31 29 26 33 39 40 36 38 44 47 48 44 42 46 50 47 41 40 41 34 37 36 38 46 52 51 49 45 43 43 47 52 51 44 41 41 37 34 40 48 48 54 68 97 109 99 100 115 115 117 125 126 105 77 69 86 91 86 104 110 101 87 90 102 103 97 91 95 99 87 91 115 125 127 133 132 125 106 79 62 85 123 135 123 111 101 106 101 93 103 144 144 107 84 104 101 89 117 135 122 90 98 119 129 138 122 89 93 126 129 100 73 96 123 127 113 117 101 107 127 112 99 85 89 111 121 128 131 128 131 131 121 98 120 127 123 144 170 154 115 92 110 109 126 130 113 88 92 107 114 112 110 100 99 122 143 149 137 107 78 81 114 138 141 137 139 143 143 148 152 151 150 150 150 151 152 152 150 148 150 152 152 152 152 153 152 151 153 153 154 155 156 154 153 155 151 153 157 157 155 156 157 154 155 156 158 159 157 156 156 157 159 161 155 157 159 156 158 158 159 160 160 159 161 162 161 157 159 160 161 163 165 163 160 161 161 164 163 162 164 164 163 166 164 164 163 162 163 164 164 163 165 166 165 164 164 162 163 167 168 167 166 166 166 166 166 167 168 167 167 166 166 166 169 171 
34 30 28 33 33 26 40 71 114 88 56 48 64 72 68 70 75 81 79 76 73 62 54 58 57 57 55 57 59 62 65 60 59 55 58 49 42 47 42 35 33 35 42 49 54 59 62 61 58 58 61 59 56 56 51 46 55 50 49 46 43 44 42 41 39 37 32 30 28 24 21 21 23 22 20 18 15 15 14 10 6 6 7 7 8 9 10 10 10 12 12 11 11 12 11 10 12 12 11 12 12 12 13 14 15 14 13 14 14 14 15 16 17 14 13 15 16 16 15 13 14 25 36 36 29 24 27 29 31 35 36 33 35 41 46 49 45 40 44 51 49 41 39 41 47 43 35 34 44 52 52 49 51 43 36 39 46 47 44 42 41 39 35 35 38 40 43 48 76 91 91 113 136 116 97 106 108 97 100 104 108 113 104 93 87 93 81 81 93 86 78 85 106 105 87 86 108 117 121 129 135 133 118 94 78 81 102 119 139 136 114 92 75 65 79 134 140 95 72 105 113 100 124 145 135 115 120 143 144 107 78 86 96 134 144 105 81 116 131 118 97 85 82 105 130 117 101 88 100 117 130 131 135 122 103 112 128 124 117 119 120 154 165 135 77 73 116 114 117 143 153 124 106 126 137 132 130 118 101 110 131 146 144 125 105 100 115 127 109 97 86 96 122 140 145 147 150 151 151 149 148 151 152 148 152 152 151 151 153 155 154 151 152 153 153 153 154 153 153 155 155 155 157 157 155 156 157 154 155 155 156 157 156 155 156 157 157 157 155 158 157 154 159 156 159 160 161 160 160 161 160 159 158 160 162 163 162 160 159 161 161 164 162 161 162 161 159 162 162 163 164 163 162 163 164 164 163 165 165 166 167 164 163 166 168 167 166 166 166 165 165 166 169 168 168 167 166 166 167 168 
29 26 31 42 41 34 54 92 108 75 51 38 39 46 48 58 59 64 67 66 61 54 52 56 58 62 61 60 59 62 66 63 57 61 56 47 46 48 43 37 30 31 38 48 55 61 63 61 55 54 58 57 56 57 54 52 52 47 48 46 43 44 42 43 40 37 31 27 26 24 20 18 20 16 14 13 12 12 12 9 5 6 8 8 8 9 11 12 12 12 12 12 12 12 11 11 12 11 11 12 13 13 13 13 15 14 13 14 15 16 17 18 18 15 14 15 16 17 16 13 12 23 36 38 30 25 29 34 34 34 33 31 33 36 41 47 44 38 41 51 50 40 36 40 45 40 33 34 42 48 44 38 35 35 36 38 39 37 40 48 43 42 39 36 36 40 41 36 48 63 77 118 146 120 95 100 100 108 123 119 107 106 99 84 85 101 97 93 94 75 62 71 109 118 98 84 105 128 127 113 106 119 128 121 100 89 107 135 146 149 115 66 53 72 84 114 121 78 63 97 107 98 123 146 139 103 104 138 139 99 71 70 95 131 136 87 69 114 120 102 99 76 84 123 139 93 72 97 129 150 131 86 78 81 73 84 101 101 100 124 129 145 155 131 77 68 110 115 120 154 176 156 127 135 155 145 121 110 109 121 130 129 129 134 134 131 129 120 88 56 35 43 70 109 138 146 147 147 149 149 149 152 152 149 151 151 151 151 153 154 154 152 153 154 153 152 153 153 154 155 156 156 156 155 154 156 156 154 155 155 155 155 155 155 156 157 155 154 156 160 156 155 160 155 157 160 161 160 159 160 161 161 160 162 163 163 163 161 161 162 163 165 163 162 163 162 160 162 162 163 164 163 163 163 164 164 163 164 165 166 167 166 164 165 165 166 166 166 165 165 165 167 168 168 168 168 167 166 166 167 
23 24 32 46 54 61 83 111 106 70 47 38 34 37 42 48 51 53 56 54 47 44 47 51 55 60 61 62 60 59 65 66 61 59 51 48 47 42 42 42 31 30 33 41 51 57 60 60 56 53 54 53 53 55 54 57 48 46 48 47 45 44 41 42 40 37 31 26 24 22 19 17 16 14 12 13 12 10 8 7 5 6 7 9 9 10 12 13 12 11 11 12 13 12 13 14 13 12 11 12 13 13 13 13 14 13 14 16 17 17 17 18 15 16 18 18 18 18 17 15 14 20 30 36 34 32 33 35 38 36 34 34 34 33 35 40 42 39 41 48 47 39 36 40 34 33 33 35 41 42 35 28 22 29 38 42 38 32 38 51 42 39 38 36 35 40 39 29 36 47 70 116 143 134 126 126 129 132 132 119 108 114 117 110 114 116 111 103 91 77 77 82 103 118 107 88 102 136 139 111 83 103 138 147 122 104 118 143 150 139 115 76 57 75 81 92 110 86 71 73 74 93 123 127 107 86 83 115 129 97 66 66 102 129 111 58 47 77 75 70 77 97 125 133 111 73 77 99 111 144 120 80 77 81 79 77 68 79 84 97 126 138 150 138 113 107 123 117 132 161 171 160 138 142 152 134 99 72 67 95 116 90 84 106 124 132 130 111 77 60 49 42 41 68 109 131 144 146 146 148 152 152 150 151 149 151 152 152 150 150 152 153 153 155 154 153 154 155 155 155 154 154 154 154 154 155 156 155 156 155 155 155 156 156 156 157 155 155 158 161 158 157 159 156 157 159 160 159 159 160 162 163 162 161 160 161 164 164 163 162 163 164 163 163 164 163 162 163 163 162 161 162 164 165 164 161 165 164 163 164 165 165 165 165 163 164 166 166 165 165 166 167 166 167 167 167 167 167 168 168 
27 25 28 36 51 75 102 120 107 73 44 39 36 34 39 36 42 41 43 41 35 36 42 45 48 53 58 66 66 61 65 71 68 59 51 51 45 37 39 40 36 31 29 35 45 53 58 60 59 55 53 50 50 50 49 52 49 48 50 47 45 43 39 40 37 35 31 25 20 17 16 13 13 12 11 12 12 9 6 7 5 5 5 7 8 9 10 12 12 11 11 12 13 13 13 14 13 12 12 12 12 12 13 15 13 14 16 17 18 18 20 21 18 19 21 21 20 20 19 16 13 14 21 30 35 36 35 32 35 37 38 40 39 34 31 32 40 42 44 44 42 40 41 43 38 36 35 37 40 41 38 33 28 31 38 45 45 40 41 47 42 35 35 39 38 37 35 28 39 47 65 102 122 121 126 128 140 139 144 139 121 123 134 129 128 115 102 92 82 85 101 106 105 112 114 108 110 132 134 102 77 99 140 158 144 124 115 122 120 118 123 109 76 71 77 94 117 111 103 85 80 112 130 108 104 106 101 99 93 67 61 87 134 144 90 38 41 56 56 73 96 106 122 110 75 78 115 104 77 82 70 83 118 131 127 121 121 100 92 76 79 103 135 144 136 128 129 129 144 144 131 134 142 149 151 105 56 53 60 60 69 73 67 58 66 93 102 81 82 64 51 54 52 41 59 99 130 146 149 146 152 152 148 152 150 151 152 152 150 150 151 153 153 155 155 154 155 156 155 155 152 153 154 154 155 155 156 157 156 157 156 156 157 156 155 156 155 157 159 159 160 160 157 158 158 159 159 159 159 160 161 162 160 159 158 158 161 162 161 160 160 160 160 160 161 161 160 160 164 163 162 162 164 165 163 160 164 163 163 163 164 165 165 164 163 164 165 166 165 164 165 166 165 166 166 166 166 168 169 169 
36 32 27 26 37 70 105 122 105 82 53 42 33 25 32 30 31 30 32 32 30 33 39 40 47 51 58 71 72 64 66 73 65 57 56 53 43 39 41 37 35 31 29 36 47 53 56 59 56 53 52 50 49 49 46 48 47 47 48 44 44 45 42 43 36 34 31 26 19 15 13 12 11 10 9 9 9 7 6 8 7 6 6 8 9 9 11 12 13 12 11 11 12 13 13 12 12 12 12 12 11 12 14 16 15 15 16 17 17 19 23 27 26 23 22 22 22 22 20 16 11 11 16 25 33 37 35 31 28 34 41 44 43 37 31 30 38 45 46 40 38 41 45 47 46 42 40 41 43 44 40 34 24 28 37 48 52 48 43 44 41 33 36 45 44 39 38 38 42 49 58 83 99 96 102 110 118 132 143 142 128 119 127 134 132 115 91 76 71 83 104 113 108 102 101 102 109 134 135 98 63 93 132 149 149 129 106 109 106 112 128 139 122 104 101 119 120 118 126 125 120 128 126 110 121 142 134 93 72 63 57 73 131 130 68 35 57 72 78 110 134 116 82 44 31 75 128 102 69 70 68 68 104 152 169 171 158 128 114 108 93 90 94 137 150 134 129 128 115 89 93 137 167 159 136 106 93 88 77 71 81 101 98 73 58 64 83 95 84 71 57 52 52 54 60 65 101 135 151 148 153 155 150 150 152 151 150 151 153 153 152 151 151 153 153 154 155 155 154 153 152 155 156 156 156 155 155 157 156 158 157 156 157 155 154 156 156 157 159 157 160 161 157 159 160 160 159 159 160 160 160 160 159 161 162 160 159 159 160 162 160 160 160 160 160 160 159 159 162 163 164 163 162 161 162 162 163 162 163 164 164 165 165 162 165 165 166 166 165 164 164 164 166 167 167 166 166 168 169 168 
37 41 41 32 37 73 111 124 114 96 67 47 38 30 26 24 24 24 25 24 24 27 32 34 46 49 53 64 68 62 65 71 61 56 60 52 40 41 38 35 29 26 25 33 46 53 55 58 53 52 51 48 49 49 46 48 44 45 46 42 44 46 43 43 37 34 32 28 20 14 12 11 10 10 8 7 8 8 6 8 7 6 7 9 9 9 11 14 12 12 11 11 12 13 13 11 13 12 12 12 12 13 14 15 16 15 16 16 17 19 23 26 28 24 22 23 23 21 17 14 10 10 13 21 31 37 35 28 24 34 41 41 38 35 33 33 39 46 45 38 35 39 44 48 48 45 45 47 47 43 34 24 16 24 37 48 52 49 45 47 39 34 39 48 45 35 35 41 44 46 50 69 84 92 108 115 126 139 130 122 123 120 126 137 140 124 96 73 64 75 99 110 110 101 96 99 108 127 122 86 62 92 125 132 127 111 93 102 132 124 125 156 161 140 125 133 128 113 108 115 138 145 116 90 99 146 138 81 79 88 69 81 115 94 42 25 51 74 91 134 135 97 48 29 55 98 138 135 122 109 107 116 140 167 173 174 134 80 68 100 130 135 91 80 99 107 123 123 92 70 100 166 188 160 129 124 125 115 108 103 116 121 109 86 70 79 104 118 114 73 46 42 55 89 104 84 90 122 144 147 149 152 150 148 152 150 149 151 153 153 152 151 151 152 152 153 155 154 152 153 153 155 155 155 156 155 155 157 155 157 156 155 156 154 153 157 156 156 160 157 157 161 159 161 160 159 159 159 160 160 160 160 160 164 164 162 160 160 162 165 162 161 162 162 162 162 161 160 161 163 164 163 161 161 162 163 163 163 164 165 164 166 167 164 165 165 165 165 165 164 164 164 166 168 168 167 167 168 168 166 
32 48 57 47 49 87 122 126 120 107 84 55 44 37 24 26 21 21 19 16 16 19 23 26 37 40 41 49 56 57 64 70 65 58 62 50 38 37 30 31 32 27 24 30 44 54 61 67 57 55 52 47 46 48 45 47 45 48 49 44 44 45 39 36 36 32 31 28 20 13 10 9 10 11 8 8 10 9 6 5 4 4 6 8 7 7 10 14 10 11 11 10 12 14 14 12 14 13 12 13 13 13 13 12 15 15 15 16 17 19 20 22 23 22 23 25 22 17 14 12 9 7 9 17 28 36 33 24 25 36 40 35 30 30 34 37 40 46 44 36 33 36 41 45 49 48 50 51 46 38 27 17 23 28 35 44 49 49 48 48 45 42 46 52 44 29 28 38 45 39 39 52 64 88 116 117 119 128 124 117 114 123 141 144 135 125 108 88 70 77 98 104 122 110 106 112 112 112 111 100 79 95 120 117 101 90 83 93 125 126 120 141 153 151 142 129 121 128 112 93 126 154 110 62 83 127 145 94 68 80 81 102 116 79 38 26 39 58 76 124 116 70 59 84 108 110 133 161 150 132 117 136 164 175 162 133 94 73 83 99 128 109 60 43 50 56 83 111 100 76 96 158 175 140 100 113 133 121 123 138 130 102 78 67 71 105 135 128 100 55 26 32 63 110 133 121 105 118 135 141 139 141 146 145 149 149 150 152 152 151 151 151 152 151 151 153 155 153 152 153 153 154 153 153 156 155 155 157 154 157 155 153 154 153 153 157 158 154 161 159 155 160 162 163 158 158 158 159 160 160 161 161 160 162 162 160 161 162 163 164 161 160 161 163 163 163 163 161 162 163 162 162 162 162 163 163 165 164 164 164 162 166 169 168 164 164 164 164 165 165 165 165 166 168 168 168 168 169 167 165 
46 44 49 51 62 93 130 133 124 114 99 78 54 38 29 22 17 17 15 14 14 17 19 19 26 32 37 43 52 55 58 66 58 51 49 45 36 33 33 30 31 28 23 31 45 54 60 60 53 56 54 47 47 45 41 44 46 46 49 48 41 38 37 32 27 33 33 27 21 15 10 8 10 7 7 10 10 9 8 6 5 5 6 8 8 10 13 15 10 11 14 15 14 14 16 15 17 14 12 12 13 13 13 13 14 13 15 17 16 20 25 28 28 26 28 23 17 18 14 8 5 6 10 11 21 36 38 33 31 41 42 33 27 28 31 35 41 46 42 33 32 38 44 49 49 50 49 49 45 33 25 27 37 38 39 40 43 47 50 51 44 37 41 43 41 34 28 36 42 39 35 42 51 77 110 108 93 116 118 103 103 122 136 140 129 139 139 119 93 92 106 106 106 110 111 113 117 111 105 108 110 109 113 104 105 92 84 103 108 101 103 119 131 135 131 116 120 122 113 116 148 157 117 80 93 121 136 111 98 99 95 111 123 78 42 35 49 67 86 110 106 80 90 110 107 85 87 139 129 81 64 88 132 165 141 93 92 109 99 115 129 76 58 76 83 76 79 92 108 90 102 136 152 118 96 126 139 113 115 129 109 68 58 82 84 112 128 117 73 40 29 37 59 97 141 135 127 109 101 101 99 109 128 135 147 149 149 151 152 151 151 155 154 153 151 152 153 152 152 155 156 156 154 153 154 154 155 156 153 154 155 155 156 156 154 154 158 157 157 157 155 157 158 157 159 156 155 158 160 160 159 160 160 158 159 162 161 158 158 160 160 163 162 161 163 162 162 163 162 163 162 162 163 162 162 164 163 164 163 164 164 163 163 167 167 165 164 165 166 167 167 168 164 169 167 164 167 168 166 167 
53 42 33 33 51 89 127 134 130 123 111 92 67 45 30 22 17 13 11 12 13 14 17 20 19 26 34 42 48 50 52 57 51 46 46 43 34 32 32 28 28 26 22 28 41 52 60 62 56 57 54 47 47 45 40 44 43 42 43 41 36 35 35 32 24 28 27 21 17 14 10 8 9 8 8 9 9 8 7 6 5 4 5 7 8 10 11 12 12 12 14 15 15 16 17 15 16 14 14 14 14 13 14 15 15 16 17 18 19 23 27 27 26 32 37 36 30 17 8 11 8 4 6 9 16 28 35 39 38 40 37 31 28 32 37 39 41 40 40 41 42 42 45 49 50 53 51 45 39 34 33 37 43 42 41 42 44 47 49 48 46 39 39 38 36 33 31 39 43 40 38 42 46 73 106 103 95 121 123 95 96 113 119 131 132 134 143 123 92 95 108 110 98 90 102 115 122 114 99 109 126 119 113 108 118 119 121 125 118 97 93 99 102 108 116 122 121 118 124 143 163 159 130 110 122 124 127 133 141 132 120 127 128 100 54 38 62 86 97 106 115 106 77 82 69 69 89 97 75 55 76 97 115 121 82 53 55 64 81 99 121 106 101 110 116 128 127 116 125 103 78 98 125 128 130 143 145 92 82 140 113 82 94 115 101 93 96 77 80 81 59 52 71 94 116 135 125 83 51 42 47 51 68 108 133 146 147 150 151 148 151 150 151 151 151 153 155 154 152 154 155 155 154 153 153 153 153 154 152 153 153 153 154 154 154 155 157 156 158 158 155 156 157 155 157 157 158 159 158 158 160 163 161 159 158 159 158 158 161 163 160 162 162 161 162 162 162 163 160 162 162 163 163 162 162 164 164 164 163 163 164 163 163 165 165 164 164 164 164 163 163 163 163 167 165 163 166 168 166 166 
66 50 28 24 42 81 119 133 136 132 123 108 88 61 37 23 16 10 6 9 11 10 14 20 18 22 29 34 36 38 44 50 47 44 45 42 35 32 33 28 23 24 20 25 36 47 58 60 57 54 51 45 45 43 38 42 44 43 45 44 39 35 31 25 24 26 24 20 18 16 12 10 9 8 9 9 8 7 6 6 6 4 4 7 9 10 11 9 12 12 14 15 16 17 18 16 14 15 16 16 15 14 15 16 15 16 17 18 20 24 27 27 42 57 63 62 59 37 14 10 10 6 9 10 13 25 38 48 43 35 31 31 33 39 42 41 40 35 36 42 45 46 48 49 45 51 49 40 35 35 38 43 45 41 39 39 41 44 46 45 43 42 44 40 37 37 39 48 44 40 38 40 42 71 109 113 105 119 125 113 118 119 106 118 126 122 128 102 77 94 109 112 104 94 103 122 129 113 98 111 120 107 103 108 117 123 141 145 120 95 87 92 104 108 98 99 121 125 134 140 140 133 124 127 120 113 114 142 158 142 127 124 131 90 58 41 49 63 76 117 133 111 86 85 75 93 90 86 78 100 118 98 106 108 72 83 89 71 85 107 124 85 59 57 80 129 136 146 138 95 74 80 96 120 150 149 118 58 77 155 132 91 126 131 91 52 44 48 74 106 100 94 103 128 120 105 90 77 62 46 46 43 33 50 101 137 147 149 151 148 152 148 151 151 151 153 156 154 152 153 155 155 154 154 154 154 154 155 154 154 153 153 155 154 155 156 156 156 157 157 155 155 156 156 157 158 159 158 156 157 159 162 160 160 159 158 158 159 162 164 159 161 161 161 162 162 162 163 160 161 161 162 162 162 163 165 164 163 162 163 165 165 164 164 163 163 164 165 165 165 165 166 164 166 164 163 166 167 166 165 
71 66 51 47 55 83 115 135 137 137 129 118 107 84 51 27 18 12 8 9 11 12 16 21 24 25 29 31 29 32 41 47 44 42 43 41 33 32 32 27 21 24 21 25 35 46 55 57 56 52 49 44 44 42 38 43 41 42 44 44 40 34 26 19 24 26 26 24 21 18 13 10 9 9 8 8 9 8 7 7 7 4 4 6 8 10 11 10 11 11 13 14 14 17 19 18 14 15 16 16 15 14 15 17 15 15 17 20 22 23 27 35 60 84 93 95 98 77 36 6 8 7 12 9 8 20 33 43 40 29 28 35 40 45 45 39 35 32 35 40 44 49 50 45 41 47 49 45 43 42 42 43 40 35 34 37 39 44 46 45 35 42 47 43 39 38 41 46 47 42 39 42 42 57 90 108 110 107 103 109 129 126 102 99 111 116 119 92 82 113 124 108 101 107 102 112 118 103 104 119 112 103 101 100 115 137 138 106 94 101 98 92 95 94 89 93 100 115 130 127 112 105 116 138 138 129 130 152 167 156 131 108 104 69 35 45 45 47 95 127 147 130 103 84 75 75 56 57 78 105 98 48 39 63 66 73 67 78 109 131 123 60 41 36 53 104 117 126 124 98 77 97 88 107 127 121 98 74 108 139 123 122 148 138 89 69 89 84 90 113 127 132 136 148 138 117 105 94 86 72 61 54 44 45 66 116 143 148 151 150 151 149 153 152 151 151 154 153 152 153 153 154 153 153 155 155 154 155 155 155 154 154 155 154 154 156 155 156 156 155 154 155 158 159 159 158 156 155 157 158 158 157 159 161 162 160 159 160 160 161 160 160 160 161 161 161 162 163 163 162 160 160 162 163 164 167 163 163 163 164 166 166 165 165 164 163 164 165 166 166 167 168 166 167 165 164 166 166 165 165 
65 80 79 77 69 81 106 131 137 141 136 126 119 103 69 38 21 17 14 14 16 19 23 25 29 32 37 38 36 35 39 44 42 38 38 35 28 27 28 23 22 25 23 26 36 46 56 58 57 54 51 47 45 44 41 45 40 38 38 38 37 36 32 28 25 26 26 24 20 16 12 8 9 9 8 8 10 10 8 7 6 4 4 5 5 7 10 11 12 12 13 13 13 15 18 19 16 16 15 15 14 15 16 16 18 17 17 22 24 22 33 52 87 111 121 126 128 114 76 34 12 8 12 11 7 13 23 31 34 26 29 40 46 48 45 38 31 32 37 43 47 50 48 43 43 44 47 51 52 48 41 38 33 31 35 40 43 46 47 44 39 46 47 43 41 42 42 41 41 38 36 45 47 43 62 95 114 127 113 115 140 143 126 113 118 127 123 93 84 126 143 105 70 104 107 102 107 102 103 115 102 94 104 107 125 139 112 64 87 112 113 94 74 72 89 93 93 97 124 132 110 102 122 144 142 131 135 147 155 156 141 122 101 68 33 41 49 70 125 148 145 123 117 94 81 58 43 63 97 89 46 26 28 23 28 32 21 39 67 89 100 78 76 58 62 93 123 126 82 75 89 87 87 102 90 70 83 103 133 147 145 148 152 121 87 117 136 125 122 133 130 124 142 137 131 141 132 112 95 90 75 65 75 77 61 90 133 149 148 149 148 148 153 152 151 151 153 153 152 152 151 152 152 152 154 154 153 154 153 153 153 154 155 153 152 154 154 156 157 156 156 157 158 159 159 157 155 156 159 160 158 155 157 162 162 160 161 161 160 160 162 161 161 161 161 161 162 162 164 163 160 161 163 164 164 165 163 164 163 164 165 165 164 163 167 165 164 163 163 163 163 163 166 166 166 165 165 164 165 166 
60 79 80 79 63 77 105 135 137 144 144 134 125 114 85 54 25 22 20 20 22 25 30 32 35 39 41 41 40 37 38 42 42 35 34 32 25 24 25 22 21 24 22 27 35 44 54 57 57 54 53 48 46 44 42 45 40 38 36 36 38 39 36 33 30 28 27 23 19 15 12 9 8 9 8 8 12 12 9 8 6 4 4 4 3 5 9 11 14 14 15 14 12 14 17 18 16 16 15 14 15 16 16 15 18 17 17 21 24 25 44 74 116 139 154 161 156 139 113 78 31 12 9 12 10 12 18 26 29 28 33 42 46 47 45 41 38 37 39 44 48 46 46 48 48 43 44 51 54 48 39 35 31 31 38 45 44 44 44 41 46 47 41 40 45 48 50 46 37 35 33 46 54 44 57 100 134 142 112 111 143 151 143 135 132 130 120 86 63 104 129 84 51 95 115 89 87 93 77 87 74 69 93 111 127 120 93 77 97 111 110 106 93 102 124 106 81 82 127 151 131 129 135 119 102 94 118 146 153 151 139 125 109 79 52 35 66 120 140 151 129 70 81 77 66 60 74 80 94 91 47 40 38 21 37 44 42 57 54 48 67 84 90 82 95 95 107 121 91 93 126 111 88 68 54 66 100 115 110 134 154 140 95 75 78 124 142 110 90 104 98 85 114 113 113 138 155 100 55 67 83 88 104 107 86 78 119 148 145 148 149 148 150 151 151 151 153 153 152 152 153 154 154 154 155 154 153 154 152 152 153 156 157 155 153 155 154 157 158 159 160 158 156 155 157 157 157 159 160 161 160 159 158 161 160 159 160 161 161 162 163 161 161 162 161 161 162 162 163 162 162 163 166 165 163 162 163 164 163 163 164 163 162 161 166 165 164 163 163 163 164 165 164 164 164 165 164 163 165 168 
51 59 50 51 44 72 105 135 138 143 147 140 129 120 99 71 36 32 30 31 32 33 38 44 46 48 44 40 42 38 36 43 43 34 32 31 25 24 25 22 19 24 26 33 39 44 52 56 55 53 52 47 46 46 43 43 38 37 36 37 40 38 33 28 32 29 27 24 20 17 14 10 6 9 9 8 12 12 8 8 6 5 5 5 4 5 9 11 12 13 14 14 13 14 16 16 15 15 15 15 15 17 17 15 16 18 17 20 26 35 63 99 131 161 184 196 186 163 139 109 66 32 13 10 10 12 15 19 25 30 36 41 43 44 44 43 45 46 41 40 44 43 44 51 54 47 45 50 52 49 44 41 39 37 42 45 41 39 41 40 47 46 37 39 45 48 50 45 44 41 36 44 54 50 62 101 136 141 127 125 138 142 148 153 141 127 115 84 62 90 108 82 74 105 121 83 73 82 65 73 75 72 84 104 127 115 92 88 90 105 113 112 108 125 142 120 96 92 130 153 142 147 137 96 69 59 85 133 152 154 149 127 116 107 62 41 94 155 159 133 69 43 35 44 51 70 110 93 64 98 76 66 64 31 29 49 49 79 86 82 68 84 106 101 86 62 100 130 126 124 111 79 74 63 83 114 113 116 102 109 139 99 70 70 90 106 100 100 79 82 72 49 53 78 108 137 132 82 31 25 52 93 123 117 105 86 107 136 144 149 150 150 148 150 151 151 152 152 152 153 154 155 154 154 155 154 154 155 154 154 155 157 158 155 153 155 155 158 158 158 160 159 156 155 159 158 158 160 161 161 160 161 159 161 159 158 161 161 160 162 163 160 160 162 161 161 162 162 162 162 162 163 164 163 162 162 163 163 162 161 164 164 162 160 163 164 165 166 165 165 167 169 165 163 164 165 165 164 166 168 
66 63 44 45 44 78 108 130 137 138 144 143 133 124 107 82 51 44 41 44 44 42 47 56 54 57 50 45 47 42 37 43 42 32 29 30 25 23 24 22 21 29 35 43 47 48 53 57 55 53 52 48 48 50 46 45 39 39 38 40 43 42 36 31 30 26 25 25 22 18 13 7 5 9 9 9 12 11 8 8 8 7 7 7 6 7 9 11 9 10 12 13 14 15 16 14 13 15 16 16 16 17 17 16 16 21 20 21 30 47 81 120 148 179 200 211 204 185 165 139 107 64 29 14 11 15 15 11 21 31 38 39 41 42 41 42 43 50 45 37 42 44 43 46 52 47 44 45 46 47 46 45 50 46 47 46 38 37 43 45 52 53 45 47 48 45 45 41 43 41 37 41 51 52 64 94 122 131 138 124 108 123 149 156 135 126 128 115 106 114 108 98 110 133 142 111 97 102 90 89 110 96 89 112 137 104 77 81 76 113 134 127 124 141 153 142 111 98 123 153 158 159 141 108 67 63 83 128 144 149 156 131 108 96 65 56 96 125 105 84 62 63 45 56 104 110 74 58 63 104 121 106 76 49 44 49 76 63 75 120 79 84 146 145 127 120 120 116 120 102 80 54 75 80 125 165 101 60 61 84 108 95 96 92 96 79 77 100 98 105 87 45 33 96 128 122 101 66 40 30 43 88 120 114 103 97 98 118 142 150 148 150 150 151 150 149 149 151 153 155 151 152 151 151 152 152 152 153 156 155 154 156 156 153 151 153 157 158 156 156 158 159 158 158 162 158 156 159 161 161 159 159 159 161 159 159 162 161 158 160 163 159 159 162 161 161 163 163 162 162 162 161 161 161 162 165 163 163 161 161 165 167 164 162 163 166 168 167 164 162 164 167 168 164 164 166 166 165 166 168 
86 85 79 61 63 77 112 126 134 138 139 138 133 123 104 79 56 49 53 48 51 57 52 63 59 56 51 46 41 36 35 38 35 30 27 27 25 20 21 25 26 32 37 44 53 58 58 58 55 56 52 49 47 44 45 44 41 43 43 40 38 40 39 34 30 27 25 24 21 16 11 7 5 8 9 9 8 9 8 7 5 8 8 7 7 7 8 10 12 14 13 11 12 13 12 11 14 15 16 16 15 15 17 19 19 19 18 26 47 74 108 137 166 195 214 218 213 201 183 164 132 107 69 34 15 12 15 15 19 33 44 47 46 43 42 45 50 50 49 42 38 39 38 42 46 51 48 44 47 45 42 45 52 50 50 45 34 28 36 47 50 50 51 50 47 44 42 42 44 38 39 38 44 50 64 102 111 107 120 128 97 100 143 143 136 127 130 131 139 141 116 99 114 130 130 114 107 102 91 90 114 115 104 123 142 110 83 92 93 122 135 131 129 139 154 161 136 126 138 144 145 153 147 129 89 82 93 115 115 111 135 131 102 101 79 54 50 63 98 114 107 96 74 132 145 113 88 91 104 138 150 124 72 49 36 57 110 69 50 89 109 106 117 122 133 108 107 97 87 73 81 72 104 85 68 97 102 65 50 61 111 103 97 90 79 67 74 90 95 100 67 40 35 69 115 106 84 65 49 52 88 98 101 106 81 97 74 65 117 142 148 150 151 150 152 152 152 153 152 155 152 154 152 151 154 156 154 154 155 154 154 156 157 157 154 153 155 155 155 155 157 158 158 158 158 157 158 159 160 160 160 160 159 160 158 160 160 160 163 161 161 161 160 160 160 161 161 161 159 163 162 160 160 158 159 165 161 163 162 161 162 164 164 164 167 165 164 166 167 167 166 166 169 166 165 167 168 167 166 166 
97 103 99 85 84 82 104 122 133 136 133 129 125 117 102 80 66 65 65 61 55 56 59 62 59 54 49 47 45 39 32 28 35 29 25 27 27 23 21 22 25 32 41 51 56 56 54 57 54 54 48 45 44 43 46 47 48 47 45 42 42 43 40 33 30 26 25 25 23 18 13 9 8 9 10 10 9 9 8 7 9 10 9 8 8 9 9 10 12 14 14 12 13 14 13 12 15 15 15 15 16 17 18 20 19 25 32 47 72 100 131 156 184 205 217 220 219 212 198 181 163 140 105 68 36 16 10 12 18 32 45 49 47 41 39 43 50 51 50 42 38 39 35 35 40 42 41 44 49 46 43 48 50 51 53 47 34 32 39 43 45 45 48 52 51 48 47 46 46 42 40 36 39 49 69 104 107 114 132 140 123 112 129 150 140 129 129 133 146 141 112 99 105 117 112 93 87 89 87 87 92 106 114 131 140 110 92 111 108 119 137 134 126 140 148 137 126 132 149 128 119 111 99 88 78 78 101 116 97 82 114 132 104 105 81 41 53 139 183 166 145 134 122 174 145 123 165 156 142 109 109 80 56 53 45 45 46 53 82 98 112 88 75 113 96 56 69 85 63 76 83 96 71 48 39 67 73 75 94 85 112 115 90 92 98 95 108 138 136 104 58 33 48 96 122 128 89 52 45 66 113 132 91 79 80 89 53 34 62 121 148 149 153 151 151 151 152 154 153 153 153 154 153 152 154 155 154 155 155 154 153 154 156 155 154 153 156 155 155 155 156 157 158 158 157 156 158 160 159 159 160 160 157 157 155 158 159 157 159 159 160 160 160 160 160 161 161 161 161 162 160 159 162 161 160 163 163 164 163 162 164 165 165 166 167 165 164 165 166 165 164 164 167 165 164 166 167 166 166 166 
90 97 102 97 90 80 99 123 131 133 126 120 114 105 92 76 69 71 69 72 61 52 61 55 60 54 48 45 43 40 32 25 27 24 22 23 24 21 18 16 25 32 44 55 58 53 52 55 54 55 49 46 45 44 49 51 51 48 46 44 43 43 40 34 31 26 25 27 25 20 15 12 10 10 11 11 10 9 8 8 11 11 9 8 9 10 10 11 13 15 16 16 17 17 15 15 15 15 15 16 19 20 20 22 21 36 54 75 101 128 155 175 197 208 211 211 212 210 203 191 177 156 129 100 65 32 16 16 16 28 41 48 45 40 39 44 49 49 49 42 39 40 32 27 33 35 36 42 50 49 46 48 47 49 52 48 41 45 48 42 40 39 45 50 49 49 51 50 43 40 34 30 32 42 67 95 97 118 141 143 144 139 127 139 138 133 128 122 126 122 105 105 98 116 117 97 87 94 103 107 113 108 113 125 117 90 86 110 130 134 140 133 118 112 107 90 79 66 97 119 119 90 94 96 106 123 131 137 99 80 116 82 65 68 70 77 133 193 159 136 123 122 142 146 137 119 94 111 104 90 71 46 54 37 67 71 42 71 93 115 88 62 81 120 88 64 88 133 139 119 48 90 121 97 111 129 148 124 116 109 102 121 131 138 112 116 133 151 151 123 83 47 52 113 136 137 110 79 63 81 95 116 100 72 66 61 41 37 42 86 131 147 152 151 152 152 151 153 153 151 153 155 154 153 154 154 155 155 155 154 152 153 154 154 154 154 157 156 155 155 156 157 157 158 155 156 158 160 159 159 159 159 158 158 156 159 160 157 160 160 159 159 160 160 161 161 161 161 162 162 160 161 164 163 161 162 165 164 162 162 165 165 165 166 167 165 165 166 165 164 163 164 166 164 164 166 167 166 166 167 
67 67 75 81 72 70 100 128 129 130 122 114 103 88 77 69 69 69 64 70 62 50 55 51 52 50 47 43 38 34 29 24 19 20 21 21 18 15 14 14 21 30 42 51 54 51 50 52 53 56 54 51 48 45 48 50 47 45 44 43 41 40 38 37 32 27 25 27 26 21 15 12 10 9 10 11 11 9 9 10 10 10 8 8 10 11 12 14 14 16 18 19 19 18 15 15 16 17 16 17 20 21 23 26 34 55 82 105 129 154 177 192 205 210 207 203 201 200 200 196 185 165 142 120 92 55 28 17 13 22 34 42 43 41 43 48 47 46 47 44 42 40 33 27 31 35 37 40 47 52 48 44 43 46 52 50 44 48 50 42 38 39 45 45 40 44 52 52 45 42 35 34 36 43 66 88 92 107 128 130 140 153 140 133 128 131 125 110 112 118 110 104 107 124 123 104 93 99 105 102 117 124 119 111 95 74 84 114 136 136 126 110 75 54 63 65 102 102 123 150 122 85 125 147 138 136 141 125 89 95 126 94 83 85 119 166 167 134 119 129 150 163 141 127 144 121 108 124 117 134 73 65 44 78 117 61 74 64 53 81 106 89 106 110 101 62 81 89 143 109 62 99 124 97 47 50 112 144 103 108 116 86 113 118 112 102 113 118 125 123 105 92 74 97 129 150 140 124 117 114 107 115 103 88 65 51 50 53 55 66 116 143 147 150 152 154 152 150 152 151 154 155 154 154 154 154 154 155 154 153 152 153 154 154 154 154 157 157 156 156 156 157 157 157 155 156 159 161 159 158 158 158 158 161 159 159 160 159 161 161 159 160 161 161 162 162 161 161 161 163 163 163 163 162 161 163 165 163 161 162 164 164 164 165 165 166 167 167 166 164 165 167 166 165 165 166 167 166 166 167 
55 49 45 50 49 60 93 123 127 126 116 107 92 71 63 65 63 69 71 69 63 52 45 40 38 40 43 41 34 28 23 18 16 18 20 18 15 13 13 15 16 25 37 44 49 50 49 45 49 55 55 53 47 42 43 43 45 42 41 41 39 38 38 38 32 26 24 26 26 22 17 13 10 9 10 11 11 9 9 11 11 11 10 11 12 12 13 16 16 18 19 21 21 18 15 16 18 19 19 19 22 22 25 31 47 69 99 126 152 177 195 204 206 204 197 191 185 183 189 190 188 172 150 131 108 73 37 16 12 16 26 37 43 44 46 48 46 44 49 49 44 39 35 37 36 37 38 41 46 49 47 43 41 46 54 51 40 37 40 40 41 46 51 45 36 42 51 52 50 48 43 44 44 46 66 89 87 88 102 115 128 142 139 121 119 133 138 122 112 118 115 104 121 127 112 98 99 103 94 75 94 123 118 114 110 80 77 105 106 96 107 111 94 90 90 79 128 152 143 138 109 104 136 152 137 115 118 105 84 98 144 165 144 128 163 149 120 104 121 152 157 160 127 129 173 169 166 158 148 119 65 47 40 45 60 147 115 90 135 113 55 105 126 112 129 154 178 190 176 102 71 108 106 33 13 34 64 154 174 131 99 62 68 73 86 89 94 103 114 127 126 136 132 128 127 122 114 137 149 135 105 85 113 128 117 97 88 94 89 66 94 132 143 149 150 153 152 148 151 152 155 154 153 153 154 154 154 154 153 152 153 154 155 155 155 155 156 157 157 157 157 157 156 156 156 156 159 160 158 157 157 157 155 162 159 156 157 159 161 158 160 161 162 162 162 162 161 161 162 163 163 163 164 163 162 163 165 163 161 162 164 163 163 165 165 166 168 168 166 164 165 168 166 166 167 167 167 167 167 167 
69 69 48 45 55 69 85 110 122 122 111 99 81 58 54 61 66 73 72 54 45 45 39 38 33 33 36 36 29 25 22 18 16 16 15 14 13 12 12 12 15 24 34 41 46 49 47 40 46 52 53 52 48 41 41 41 46 41 38 38 39 40 39 36 31 26 23 25 25 23 19 14 12 11 11 11 11 10 10 11 14 14 14 15 16 14 15 17 21 22 23 25 24 21 19 22 20 23 22 21 23 22 26 35 52 73 103 134 165 190 204 207 202 195 184 176 167 163 170 175 177 169 152 133 113 81 45 23 14 15 21 32 42 47 48 46 45 45 54 53 44 39 39 45 41 36 38 45 46 44 44 47 47 46 46 47 44 40 38 39 47 53 56 49 43 44 49 50 52 54 52 49 46 45 62 91 105 97 91 103 123 141 135 105 103 123 140 134 121 118 113 99 117 116 90 76 88 102 106 97 98 122 121 116 110 93 89 94 82 95 132 123 107 113 106 113 153 133 126 158 156 146 126 135 128 110 126 137 133 142 157 143 126 152 167 117 136 164 174 165 152 162 155 166 177 168 179 149 92 48 35 27 24 16 103 163 91 94 175 194 154 142 153 145 178 173 115 122 121 65 54 87 102 55 34 50 82 99 137 109 88 112 152 147 102 96 122 115 111 104 128 152 150 138 116 86 69 107 154 147 70 72 175 167 158 151 129 127 98 57 54 92 131 147 148 149 153 150 152 152 155 152 152 153 154 154 154 153 152 153 154 155 156 155 155 155 156 157 157 157 157 156 156 156 157 157 159 160 158 157 158 158 155 163 160 156 157 159 160 158 161 161 162 162 162 162 161 161 164 162 161 162 164 164 163 161 164 164 163 163 164 164 163 165 165 166 168 168 165 163 164 166 167 167 168 167 167 166 167 167 
88 103 84 77 87 97 94 103 116 121 110 92 72 50 45 52 56 60 61 47 37 36 32 30 31 29 31 30 25 21 21 20 17 14 12 12 12 11 11 11 16 21 30 36 38 40 39 36 40 47 49 52 51 46 44 41 44 40 36 35 36 39 39 36 31 26 24 23 24 24 20 14 12 13 13 12 12 12 13 13 15 15 15 18 19 18 17 18 23 23 24 26 26 23 23 27 23 26 24 23 24 23 27 37 55 76 108 140 167 187 197 198 196 187 174 162 145 135 145 154 159 156 145 129 109 80 49 32 22 18 19 27 38 47 49 45 44 45 52 50 44 44 44 45 38 33 37 46 45 41 45 51 51 45 38 41 51 50 44 44 49 51 51 50 51 47 44 45 54 59 59 50 49 50 60 91 120 119 114 114 120 135 142 129 105 108 110 115 124 127 114 92 104 108 80 60 68 88 117 135 116 112 110 103 111 128 123 112 125 118 111 99 132 170 164 167 152 144 166 187 163 134 111 129 116 105 144 146 143 141 115 104 152 167 173 112 131 186 191 170 172 190 173 173 180 169 169 137 57 34 42 33 12 90 156 52 49 41 108 139 99 94 105 121 136 149 110 78 52 84 108 130 82 48 58 77 99 125 120 119 117 111 111 73 52 80 149 142 78 44 80 118 123 102 94 90 63 71 129 126 56 113 217 184 166 180 146 105 67 43 32 41 103 141 149 148 152 151 153 151 155 152 152 154 153 153 154 154 153 153 155 156 155 155 155 155 157 157 157 156 156 156 156 157 158 157 158 159 158 158 159 159 158 163 160 159 160 159 160 160 161 161 162 162 162 162 161 161 163 161 161 162 163 163 163 161 163 165 164 163 164 164 163 164 165 165 166 167 166 164 164 165 166 167 167 167 166 166 166 167 
89 116 111 107 108 115 103 98 112 122 111 89 67 47 39 41 43 41 46 48 40 33 29 24 23 23 28 29 22 17 16 16 18 15 14 14 13 11 12 14 15 16 23 28 27 27 29 30 32 40 45 51 54 49 45 40 40 38 36 33 32 35 38 37 32 28 24 23 23 24 20 13 12 14 14 13 13 15 16 16 15 15 15 18 21 20 18 19 20 20 20 22 23 21 22 26 26 28 25 23 24 23 27 38 52 76 110 139 158 172 179 180 179 171 157 139 114 99 111 124 132 133 126 116 101 76 50 37 29 21 18 23 34 46 51 47 43 42 46 44 44 50 47 39 32 31 38 44 42 42 48 53 48 48 41 40 48 47 44 50 49 45 42 47 54 47 39 41 53 60 60 48 50 55 58 86 119 108 115 130 135 139 143 141 136 119 90 81 101 120 116 100 99 117 99 81 79 85 110 132 102 79 92 121 149 141 118 147 159 141 112 115 155 185 179 154 142 140 145 149 146 130 127 158 148 143 151 165 176 130 100 137 187 194 186 153 151 173 177 147 166 184 176 187 170 157 162 101 30 38 45 56 85 143 108 25 22 103 130 104 90 114 154 150 97 77 122 104 105 105 79 73 89 66 46 90 112 121 132 92 111 125 68 38 58 127 122 109 74 96 124 110 117 107 102 91 80 105 121 119 73 104 171 158 136 143 110 60 46 37 37 29 76 134 152 148 151 151 153 151 154 152 153 155 153 153 155 155 154 154 155 155 155 154 154 155 158 157 157 155 155 155 157 158 159 157 157 158 158 159 160 160 159 161 158 160 161 157 158 162 160 160 161 161 162 162 161 161 161 161 163 163 161 161 162 163 162 165 165 163 163 163 163 163 165 164 164 166 167 167 166 165 165 166 167 166 165 165 165 166 
76 106 113 106 104 107 96 92 111 123 112 91 72 52 39 36 40 42 43 42 40 34 28 24 21 22 23 23 21 17 16 17 16 15 14 14 15 16 15 13 13 14 14 19 25 22 19 22 26 36 46 51 52 49 46 44 42 37 34 34 36 39 39 37 31 29 24 22 24 23 20 21 18 19 17 14 15 15 15 15 16 16 18 18 18 21 24 23 20 20 20 22 23 24 24 23 28 25 23 24 24 24 27 31 47 71 97 116 132 144 153 161 154 151 141 124 103 83 79 88 96 103 104 92 78 66 53 42 35 28 25 24 29 42 47 48 41 42 41 42 46 50 48 41 32 30 39 47 44 44 47 43 43 43 45 47 51 52 49 42 45 34 31 39 46 48 47 41 54 57 56 53 51 56 61 87 114 103 100 119 144 155 147 136 134 131 93 73 73 83 102 94 98 115 120 108 97 81 97 122 105 75 84 131 157 135 122 149 158 148 138 125 137 175 166 134 132 134 141 151 158 147 138 147 161 154 170 173 173 151 108 134 193 189 178 174 162 160 165 169 186 196 166 153 139 142 129 61 21 35 59 91 86 129 103 66 21 41 85 137 55 41 59 72 100 71 80 107 126 95 110 74 87 97 60 95 106 108 96 59 82 97 98 73 54 64 81 108 113 117 135 94 85 115 139 83 88 101 68 70 78 75 97 112 117 95 62 54 76 68 43 35 60 124 141 143 152 147 150 152 152 153 151 154 150 154 152 154 153 153 155 156 153 152 153 154 156 157 156 156 156 156 157 156 159 157 155 156 157 156 156 158 157 161 161 160 161 162 160 158 164 161 159 160 162 164 163 160 164 162 162 162 161 161 164 165 164 166 165 162 161 163 164 162 162 162 166 167 163 163 166 165 163 166 165 164 166 168 167 165 
57 75 85 83 74 74 70 74 107 121 115 98 80 57 42 38 42 38 37 40 39 31 24 23 20 20 21 21 19 17 16 17 17 17 16 14 12 11 13 14 14 15 14 16 19 17 15 18 27 33 40 48 55 56 49 43 39 36 34 33 34 37 39 39 36 31 26 26 28 28 24 21 19 19 18 16 16 17 16 15 16 16 17 17 16 18 20 19 19 19 19 20 21 21 21 21 24 21 20 20 21 21 22 23 26 36 46 63 88 111 126 135 135 130 119 105 89 73 67 70 69 69 68 66 63 58 51 44 33 31 28 26 27 35 45 47 41 42 42 41 45 51 49 42 37 37 43 49 47 46 47 44 40 41 48 52 52 54 49 37 32 27 33 45 49 49 51 52 56 56 53 52 52 56 56 78 109 119 98 101 140 157 145 127 121 108 98 97 81 76 90 86 89 106 109 99 103 91 99 132 135 118 105 124 145 119 126 141 148 168 179 146 123 133 144 149 129 125 143 161 160 146 144 164 168 154 149 158 158 157 169 155 152 155 162 143 129 155 181 200 201 183 145 133 117 117 98 31 15 29 55 37 59 143 124 43 13 13 71 111 48 26 90 93 78 140 90 56 49 60 92 116 120 125 107 130 122 120 123 124 117 111 109 100 37 31 66 87 108 75 66 80 105 102 147 81 72 91 52 78 69 61 70 92 95 84 70 60 95 85 54 50 62 94 119 123 133 140 145 145 149 151 158 150 157 152 152 153 152 153 155 156 154 154 154 155 154 156 157 157 157 158 158 158 158 158 158 158 158 157 157 159 154 157 157 157 160 163 162 160 160 160 161 161 160 161 163 163 162 161 163 164 164 164 164 163 162 163 163 163 163 163 164 164 162 163 165 166 163 163 164 164 164 166 165 164 166 167 167 166 
52 66 60 47 39 39 39 61 105 121 118 104 88 66 51 47 44 39 37 38 35 28 22 21 18 18 17 18 16 15 15 16 16 16 15 14 11 11 12 13 14 16 15 15 16 15 15 17 24 33 42 49 54 55 50 45 38 35 34 34 34 37 40 40 38 32 30 30 29 29 28 24 22 22 21 19 19 18 17 15 15 15 15 15 15 16 17 15 17 17 18 18 17 17 17 17 18 17 16 17 17 17 16 15 13 15 12 15 37 69 96 110 114 109 99 87 74 62 56 57 61 57 54 55 56 54 51 48 42 42 35 32 27 29 40 43 46 47 45 42 44 47 45 40 42 42 43 44 44 44 43 43 40 41 50 54 52 54 51 37 31 32 42 53 52 47 50 56 55 53 49 49 49 52 51 72 112 127 85 79 132 155 150 143 131 106 110 126 112 96 97 93 95 103 93 79 107 120 127 148 151 125 133 147 151 115 118 134 144 162 182 167 140 115 128 150 125 124 151 159 143 153 173 176 161 155 153 160 171 167 177 178 159 161 147 131 128 169 177 173 151 114 111 110 104 109 63 19 16 22 52 82 34 84 143 87 69 112 193 186 120 66 90 131 98 100 74 58 96 73 84 102 160 127 90 121 132 129 99 104 121 84 103 105 60 49 93 120 122 59 40 106 141 100 85 99 133 122 56 48 45 70 83 57 74 97 118 74 69 84 80 64 69 69 83 84 105 118 128 142 150 151 152 149 155 160 152 156 151 152 155 157 156 155 156 155 153 155 157 157 157 158 158 158 157 160 160 159 159 159 158 159 157 158 157 157 160 162 160 158 158 158 160 161 159 161 163 164 162 161 163 165 165 165 164 162 162 162 163 165 165 163 164 167 164 165 164 164 165 164 164 165 165 165 164 164 165 166 166 167 
62 78 73 55 47 50 48 66 99 119 123 115 103 80 61 53 48 49 49 43 36 31 26 22 18 15 14 13 13 13 14 15 13 12 12 13 14 14 13 13 13 16 17 17 18 18 19 22 25 35 45 51 55 55 50 45 41 37 34 34 36 39 41 40 35 30 31 30 25 26 29 27 25 24 23 22 20 18 16 13 12 12 13 13 14 15 15 15 14 15 15 15 14 13 13 13 14 14 14 13 13 13 12 10 12 11 12 16 16 19 41 69 82 83 78 67 55 46 44 45 48 48 48 47 47 47 49 51 50 51 39 36 30 27 39 40 45 45 44 44 45 45 46 46 50 51 46 42 44 45 44 47 41 42 48 50 49 49 48 43 43 45 52 56 51 46 48 54 50 49 44 42 43 49 53 78 123 133 90 77 122 149 147 138 144 125 120 140 138 114 100 91 92 104 101 96 119 129 135 144 148 129 137 139 143 149 156 147 146 137 159 147 152 154 148 135 128 140 156 150 134 154 179 165 162 163 159 167 177 180 174 148 133 133 137 140 166 173 177 113 79 94 96 111 122 93 37 17 17 21 95 94 17 66 88 125 174 169 109 86 128 140 130 170 120 60 56 78 87 116 147 109 117 122 75 83 97 158 113 115 121 98 104 126 92 41 106 133 133 78 41 101 118 91 100 120 145 119 54 31 62 105 116 80 87 105 117 67 92 102 96 82 63 60 55 50 81 94 112 136 144 158 150 160 152 150 157 150 152 154 156 157 156 155 156 155 154 155 156 156 156 157 156 156 158 161 161 159 159 159 158 158 160 161 160 159 160 161 160 159 159 159 159 160 160 162 163 162 163 162 161 162 162 164 164 161 165 165 165 166 165 164 165 166 166 167 165 164 167 167 164 166 165 165 164 165 166 165 165 167 
75 85 103 97 77 81 78 78 101 120 124 118 110 93 77 70 59 59 58 52 44 38 32 25 18 15 11 10 10 11 13 14 14 12 12 13 14 15 15 15 14 16 17 18 19 22 26 30 34 39 45 51 58 59 50 42 44 37 32 33 37 41 40 36 35 30 29 28 22 23 27 27 25 23 22 22 19 17 14 11 9 9 10 11 12 13 13 13 11 12 13 12 11 10 10 10 10 11 12 10 9 9 9 8 13 11 10 10 10 11 16 22 49 55 58 53 43 38 38 39 38 43 45 42 40 44 51 54 48 50 40 38 33 29 40 43 46 44 46 48 45 41 42 47 54 57 49 43 46 47 44 45 40 44 45 46 47 44 43 49 53 52 52 52 50 50 51 53 49 46 38 35 40 52 62 89 135 145 118 86 99 129 133 119 115 107 100 125 132 109 100 90 85 114 132 139 141 118 120 136 134 131 104 121 141 156 174 177 139 110 136 137 147 167 176 163 132 153 157 160 149 145 172 178 178 170 179 176 176 189 159 149 112 116 137 153 156 154 183 126 93 123 134 162 141 70 25 17 13 24 55 46 26 32 67 138 174 80 34 50 94 133 132 105 102 97 85 158 128 121 107 90 88 152 113 72 84 129 152 124 114 127 93 102 84 64 129 149 154 127 49 71 42 52 105 123 135 125 80 30 62 142 134 55 52 57 94 88 55 64 79 73 75 77 63 62 90 108 124 117 149 143 154 154 153 149 157 154 155 155 157 156 155 155 155 154 156 156 155 155 156 157 156 155 159 160 159 157 158 159 158 157 159 161 161 160 161 162 162 163 161 161 161 160 160 162 163 161 164 162 162 162 162 164 164 161 165 167 167 164 163 165 166 165 167 168 164 163 168 167 165 166 164 165 165 166 167 165 164 166 
68 78 108 117 101 97 86 87 99 121 127 125 122 109 93 84 75 66 60 58 52 44 35 28 21 16 11 9 10 11 13 15 17 16 16 15 13 12 14 18 16 16 17 18 20 25 33 39 41 46 51 55 58 56 51 47 44 37 32 33 36 39 38 34 38 32 28 25 23 23 25 23 22 19 18 19 16 14 12 9 8 8 7 8 10 10 9 10 9 10 10 10 9 9 9 9 8 9 9 8 7 6 7 8 8 7 7 9 9 9 13 19 20 26 33 35 32 31 32 31 35 38 38 34 33 39 44 46 47 50 44 42 36 30 37 43 48 47 49 49 44 38 38 42 50 55 50 45 48 48 42 39 42 48 49 49 51 45 44 54 57 52 48 47 50 51 50 49 53 47 36 33 42 59 67 90 121 137 134 104 82 87 101 108 101 87 75 99 107 98 106 96 88 120 137 143 155 134 122 129 139 145 100 109 135 143 139 162 165 152 122 111 112 140 185 138 88 124 159 178 148 124 154 169 158 146 194 181 157 161 126 135 142 140 139 166 166 174 155 117 124 153 157 142 93 53 39 25 20 20 43 33 80 149 175 199 168 115 134 156 194 103 31 39 88 92 61 90 110 121 92 76 57 71 94 53 96 112 125 92 94 129 93 87 119 116 123 130 118 135 97 51 42 50 97 108 121 133 124 50 70 126 109 29 32 33 57 68 57 81 74 50 61 88 109 111 103 118 122 88 106 120 142 148 151 154 152 154 155 155 156 155 154 155 155 153 157 157 156 156 157 158 158 157 159 159 157 156 158 159 158 157 160 162 162 161 161 160 160 161 160 163 164 162 159 160 162 162 163 163 164 164 164 165 164 161 162 165 164 161 162 166 166 163 166 166 163 163 166 167 165 165 163 165 166 166 167 166 165 165 
45 54 79 99 101 97 78 86 103 125 130 125 125 120 111 105 93 80 70 65 58 51 42 33 23 17 11 9 10 12 15 17 18 18 18 18 15 13 15 18 17 17 19 23 27 32 40 46 49 55 59 59 56 52 51 54 46 42 39 37 36 36 36 35 39 34 29 26 25 24 23 23 21 16 16 17 14 12 11 8 8 8 5 6 8 7 6 8 8 8 8 8 9 9 9 8 8 7 8 8 7 6 6 8 3 9 11 8 8 12 12 8 13 16 22 25 25 28 31 30 31 31 31 32 34 38 40 40 45 46 45 42 37 31 30 36 41 45 48 47 43 41 40 40 44 50 50 47 51 51 44 37 44 51 53 52 53 49 47 51 54 48 45 50 53 49 44 43 56 51 40 36 46 61 63 79 105 120 117 106 89 75 93 121 127 106 85 89 89 96 118 116 101 119 136 133 147 141 127 138 147 143 119 123 132 130 125 154 175 185 143 137 133 145 179 117 88 121 164 177 146 139 166 172 169 171 183 161 145 103 104 143 147 148 150 158 175 169 127 106 163 185 148 119 79 43 42 37 31 33 36 58 107 191 167 116 42 100 167 183 190 81 28 44 64 74 80 75 81 93 79 104 59 74 107 78 107 135 141 102 87 101 86 111 161 123 72 57 70 127 124 79 53 68 103 71 110 151 153 65 84 119 108 60 15 29 60 35 63 67 66 62 57 55 76 89 79 95 100 119 110 135 106 131 153 148 154 157 152 153 155 155 154 156 156 154 156 157 158 158 157 157 157 158 157 157 157 158 159 159 158 159 162 163 162 161 160 159 158 158 161 163 164 162 159 161 163 162 161 162 165 165 165 166 165 161 161 161 161 162 164 166 165 163 166 164 163 165 165 166 166 164 163 166 167 166 166 167 166 165 
42 31 46 63 69 78 68 74 102 127 132 128 130 127 121 116 108 98 86 73 63 59 52 40 25 18 12 9 11 14 17 19 16 16 17 20 20 18 16 16 17 17 22 30 34 38 45 51 60 60 59 59 58 54 52 54 49 48 47 43 37 35 36 37 36 36 31 27 26 24 22 25 22 17 16 16 13 11 11 7 9 8 5 6 8 7 6 8 7 6 7 7 9 9 9 8 9 7 7 9 9 7 6 8 11 9 9 9 8 8 11 13 14 13 16 16 16 20 27 29 28 26 28 33 35 34 33 33 38 36 37 37 37 32 25 28 39 47 49 45 41 42 40 34 36 42 44 42 47 49 43 35 42 50 54 51 49 49 48 45 48 42 44 54 58 48 41 43 56 54 45 41 48 59 56 68 93 110 99 109 130 123 127 141 128 118 103 90 85 106 142 157 129 100 106 106 119 118 106 127 127 134 151 174 135 94 123 146 152 147 156 179 185 179 161 142 110 127 144 147 155 171 178 182 170 154 142 104 121 107 130 146 139 150 159 148 132 132 128 140 176 144 124 107 63 40 37 38 36 42 51 56 48 148 142 85 43 114 198 209 174 142 133 159 111 84 126 165 115 85 81 109 80 87 121 94 105 91 156 175 107 84 100 112 113 122 74 78 98 120 134 124 75 49 103 113 117 105 110 79 55 71 76 57 52 75 101 59 55 71 66 74 47 55 66 56 58 92 73 111 128 163 124 74 120 156 143 131 149 151 154 155 155 157 157 154 154 158 160 159 156 155 155 157 155 156 158 160 161 159 159 161 160 160 160 160 162 162 161 161 162 162 161 160 161 164 164 160 160 162 164 164 163 165 165 162 161 159 160 164 167 166 164 163 167 163 164 166 165 167 168 165 164 167 167 165 166 167 166 166 
68 45 31 22 37 44 44 55 99 125 135 134 134 135 131 122 119 115 107 92 76 68 58 46 30 26 13 12 13 12 17 18 20 16 18 22 21 18 18 18 17 23 29 33 39 48 54 55 64 62 58 55 54 55 55 53 50 49 49 47 42 40 40 38 35 31 27 27 26 19 17 22 23 20 16 14 12 11 9 8 8 8 6 5 4 5 7 8 7 7 7 7 7 7 7 8 8 7 7 7 8 7 7 10 11 9 8 9 9 9 10 11 9 12 15 16 16 16 17 18 21 19 20 24 26 27 29 30 28 30 30 29 29 26 24 24 32 40 52 50 42 42 41 30 33 37 44 47 51 48 36 33 42 51 51 49 51 53 52 44 36 39 49 54 53 51 48 51 55 48 50 47 46 53 58 67 89 99 107 118 136 139 134 142 141 116 114 108 106 123 153 169 137 115 139 112 124 151 135 127 133 154 178 193 137 91 111 120 125 120 141 149 170 166 161 154 118 75 121 163 167 170 203 178 142 128 110 81 62 125 147 123 157 159 144 150 120 127 144 145 142 117 122 81 64 50 30 45 45 36 35 52 110 188 175 142 135 160 163 103 58 97 157 179 117 58 55 82 101 81 64 96 141 121 129 82 58 90 112 140 136 99 113 109 83 135 130 97 118 119 93 91 124 78 106 157 113 105 146 108 91 59 57 69 55 65 57 39 38 61 56 60 35 25 59 69 52 54 93 143 157 163 131 84 119 116 145 166 149 154 156 150 154 152 155 155 154 157 157 157 157 158 159 161 157 158 159 160 158 157 158 160 158 160 160 160 159 159 162 164 159 160 161 161 160 162 163 161 161 160 162 162 160 163 165 161 163 163 162 164 166 166 166 167 164 164 165 165 165 168 169 165 166 167 166 164 164 166 168 168 
88 74 65 36 29 38 54 72 100 124 136 138 138 137 138 136 130 127 122 111 97 84 66 49 37 28 14 13 13 12 18 19 22 19 21 22 19 17 19 21 19 24 31 38 45 53 59 64 63 61 56 53 52 52 52 52 51 50 50 47 42 39 39 37 34 34 31 28 27 25 24 26 23 21 18 15 12 8 6 6 6 6 6 5 5 5 6 7 7 7 7 7 7 7 7 7 7 6 5 6 7 6 6 8 8 8 8 9 8 7 8 10 10 11 11 12 12 13 14 15 15 13 14 17 18 19 19 18 22 24 24 24 24 22 20 20 24 32 44 47 43 41 41 37 39 40 45 47 49 45 37 38 44 48 46 46 49 51 54 52 42 44 54 55 50 50 52 56 57 50 49 43 43 52 68 92 107 105 121 130 123 112 116 138 147 122 114 138 135 142 162 161 121 141 157 139 148 149 105 112 141 165 177 161 156 126 73 87 103 120 112 128 145 144 165 173 158 115 142 159 163 176 204 161 128 120 122 143 111 121 150 137 160 150 145 156 128 131 147 138 128 137 140 71 41 57 46 39 31 35 49 75 70 86 145 180 170 161 73 14 44 60 82 92 64 116 70 36 74 111 152 136 133 127 121 100 69 110 106 116 131 123 122 128 114 129 129 117 124 109 92 95 128 142 118 125 89 122 151 128 140 144 140 83 44 86 86 30 22 40 46 49 28 19 61 80 44 51 98 99 135 113 98 133 146 91 143 201 166 117 135 157 154 151 157 156 156 158 158 158 159 160 160 160 157 158 159 159 159 159 159 160 159 160 161 161 161 161 161 161 159 159 161 161 160 161 163 162 162 161 162 162 161 164 166 162 166 165 164 165 167 168 168 168 165 164 165 166 165 167 167 163 166 167 166 165 165 167 168 168 
78 81 97 79 65 70 81 87 99 120 132 137 138 138 143 147 141 139 136 129 118 104 83 63 44 27 13 14 14 14 19 21 21 20 20 20 18 18 20 21 25 28 36 45 51 55 60 66 62 58 54 51 50 49 49 50 52 52 52 50 45 41 40 39 35 37 34 28 25 25 23 21 22 21 19 16 11 6 4 4 4 5 6 6 6 6 7 7 7 7 6 7 7 7 7 6 7 6 5 5 7 7 6 8 6 7 8 9 8 6 7 8 9 9 10 10 11 11 11 11 14 14 14 15 15 17 17 14 15 17 18 18 19 17 16 16 16 23 34 42 44 41 41 45 42 41 44 45 44 39 35 41 48 48 45 48 52 52 57 60 54 54 62 57 43 43 49 52 52 51 51 46 48 53 72 110 128 101 111 128 117 109 118 130 152 137 118 121 133 154 173 151 92 118 128 138 143 143 135 116 112 127 141 136 148 153 123 110 148 174 143 116 153 153 157 201 186 150 165 175 175 177 188 143 118 129 138 167 138 133 161 151 148 140 138 160 152 141 150 140 119 137 119 65 52 67 47 40 21 49 100 71 23 16 84 184 170 88 89 87 153 139 136 92 67 96 129 97 93 108 158 139 127 105 83 81 72 106 123 103 141 169 120 110 104 100 86 123 140 130 124 119 125 115 130 133 86 92 105 97 133 152 121 80 34 51 63 36 20 19 26 70 61 30 60 64 35 48 58 50 67 112 119 90 108 107 78 117 163 107 89 155 155 152 155 159 156 157 157 156 158 159 158 158 156 158 159 159 159 160 160 158 160 160 161 161 161 161 161 161 160 160 162 162 160 160 163 165 163 161 162 163 162 166 167 164 164 164 163 162 163 165 165 164 166 166 166 165 165 167 167 164 166 166 165 165 166 167 167 167 
75 75 104 103 90 89 95 97 96 116 128 134 138 140 145 148 153 150 149 145 138 127 111 94 62 37 18 16 15 15 18 18 19 19 18 18 19 21 21 20 23 29 39 51 59 63 65 67 60 55 51 50 48 47 47 49 50 51 52 51 48 44 42 41 37 38 35 29 24 23 21 18 22 21 19 16 11 7 5 5 5 6 7 8 8 8 8 8 8 7 6 6 8 8 7 6 8 7 5 5 8 8 7 8 7 7 8 8 7 6 7 7 7 8 10 11 11 10 9 8 11 11 12 12 12 14 15 13 12 14 15 15 16 15 13 13 11 18 25 35 43 43 43 48 43 41 45 46 42 36 35 43 48 49 47 50 53 52 56 58 56 55 63 57 42 44 51 52 49 51 50 45 48 52 74 123 138 94 97 131 126 116 132 136 145 142 134 113 141 154 174 162 88 96 103 119 141 160 200 170 95 125 141 143 191 197 150 144 167 176 138 86 140 161 187 229 169 156 178 206 195 181 167 128 138 145 129 123 126 153 167 159 150 150 141 126 143 150 141 127 143 130 79 61 55 57 41 29 25 55 114 70 38 31 86 175 143 123 131 138 147 122 74 55 94 92 125 179 163 116 120 114 99 148 126 60 78 109 132 132 140 135 110 104 113 105 99 133 142 149 117 97 131 142 97 109 146 80 73 109 120 139 138 83 74 33 82 96 56 22 30 71 41 24 40 38 10 15 18 9 28 107 150 83 122 128 80 79 108 116 94 150 158 156 153 155 156 158 157 156 158 158 157 157 154 157 159 158 158 160 160 158 161 160 160 159 159 160 162 163 162 160 161 163 162 162 164 166 163 161 162 162 163 166 167 165 164 164 164 162 161 164 165 164 168 167 166 165 165 167 168 168 165 165 164 165 167 167 167 165 
75 58 81 94 90 82 78 76 89 114 129 134 138 142 148 149 156 157 160 158 153 146 133 119 92 62 34 21 15 15 15 14 19 21 20 18 18 20 22 23 27 36 47 57 65 69 67 63 59 54 50 49 48 46 45 45 46 47 50 51 50 45 41 40 38 36 34 32 29 25 23 22 24 22 19 16 12 8 6 5 7 7 7 8 8 8 8 8 8 7 6 6 8 8 7 6 8 8 6 5 8 8 8 8 7 7 7 6 6 6 6 6 6 7 9 10 10 9 8 8 8 8 9 8 8 11 13 11 12 13 13 14 15 14 12 12 10 15 19 27 38 43 44 48 43 41 47 49 45 40 38 45 42 46 45 47 50 51 53 53 53 52 61 58 46 49 53 51 52 54 53 47 48 48 66 112 124 112 118 143 128 117 141 137 131 139 136 121 146 146 164 156 115 137 136 130 150 151 172 171 104 118 139 162 197 164 125 149 148 165 101 79 141 156 196 192 134 140 174 220 183 167 157 137 140 121 114 137 170 179 161 162 164 167 175 150 144 136 126 123 171 162 67 46 55 50 42 41 29 40 98 71 44 48 124 178 155 120 73 45 85 73 46 79 90 87 116 141 121 89 128 185 107 133 157 116 91 119 129 128 147 135 122 108 88 95 93 112 144 138 135 109 103 132 108 98 137 83 41 83 70 50 75 54 46 44 99 92 97 53 37 29 6 34 42 16 20 59 42 17 50 64 51 71 72 74 106 74 86 99 93 118 154 155 152 151 158 160 160 159 159 159 158 159 155 158 160 159 158 159 160 159 160 161 161 160 159 159 161 163 162 160 160 162 162 162 164 165 163 162 162 162 162 164 164 164 163 164 165 163 160 163 165 164 167 167 166 165 166 166 167 168 166 165 165 166 168 168 166 165 
50 34 54 63 58 47 48 57 76 109 130 134 136 140 147 149 154 160 168 169 165 161 150 135 118 89 54 26 17 19 18 19 22 25 25 20 17 17 22 27 37 46 55 61 65 67 63 56 56 53 50 49 47 45 42 42 44 46 48 52 53 49 43 42 40 36 35 35 32 26 23 22 26 23 20 17 15 11 7 5 7 7 7 7 8 8 8 8 8 7 6 6 8 8 8 8 7 7 5 4 6 7 7 7 7 6 5 4 4 5 5 4 6 6 7 6 5 6 7 8 8 8 8 8 7 9 11 10 10 11 11 11 12 11 10 10 9 13 14 19 30 38 42 45 41 39 45 47 44 42 41 44 39 44 43 44 47 50 54 52 48 47 55 56 50 53 53 48 53 53 55 50 49 48 61 94 114 123 129 148 138 119 130 125 126 130 107 121 138 141 158 140 133 153 123 135 150 139 147 134 94 107 127 132 138 104 91 114 148 170 138 116 133 144 144 162 152 130 143 200 170 163 168 166 137 129 136 149 165 175 169 164 160 161 162 180 153 115 153 152 188 156 54 52 60 38 41 52 34 29 64 63 45 41 142 180 115 47 16 56 127 96 55 99 128 133 146 87 107 80 93 165 127 89 106 120 82 98 129 108 131 144 154 165 96 87 73 86 131 136 128 143 99 101 133 127 132 106 28 56 60 34 72 83 87 43 17 32 85 56 54 74 26 13 14 8 14 56 36 11 34 18 16 52 89 107 88 57 75 101 94 119 159 155 156 156 157 159 159 159 159 159 158 159 158 160 161 160 158 159 160 161 159 161 162 162 160 159 159 160 162 160 159 161 161 162 163 162 164 164 163 162 162 162 162 162 163 163 165 164 160 162 164 163 164 166 167 167 167 165 164 164 168 167 167 168 169 168 167 166 
36 30 44 41 37 33 31 37 66 102 127 134 135 137 145 148 156 164 173 177 178 178 169 154 138 115 77 39 27 30 27 30 31 34 34 31 28 27 29 34 41 46 53 56 58 58 56 54 48 49 50 49 46 44 42 41 42 43 45 50 54 51 45 44 41 37 36 36 33 28 24 20 26 23 21 20 18 14 9 6 8 7 8 8 9 9 8 8 7 7 7 7 7 8 9 10 5 7 5 4 5 6 6 6 5 6 6 5 4 4 4 3 5 5 4 4 4 4 5 6 6 5 6 6 6 5 6 6 7 8 7 7 8 8 8 8 10 10 11 14 20 27 35 42 40 38 42 41 40 44 43 43 40 44 43 44 46 48 51 51 43 41 48 52 54 59 57 53 52 49 52 48 47 53 66 89 112 119 122 145 152 123 109 118 130 117 81 114 144 150 155 127 119 121 85 111 143 158 180 150 87 63 104 106 104 101 92 95 149 160 117 106 78 81 133 171 180 169 166 189 152 130 148 171 151 144 158 159 165 184 184 166 160 179 169 186 159 129 179 172 169 163 74 52 58 34 33 60 46 41 37 53 54 38 155 200 110 75 75 149 184 115 66 79 104 126 129 107 131 103 80 70 90 89 118 127 74 38 98 126 119 141 155 151 144 124 97 92 113 129 135 148 143 106 120 119 87 62 16 37 41 81 135 79 100 89 22 8 39 48 43 75 76 70 15 9 7 11 11 0 21 24 29 69 70 77 65 73 71 111 95 127 155 155 159 154 156 157 157 157 159 159 158 157 161 161 160 159 158 158 159 161 158 160 162 162 161 160 160 160 161 160 161 161 161 162 163 161 163 164 164 164 163 162 162 164 167 165 167 167 164 164 166 163 163 166 166 166 167 164 163 165 168 167 168 169 168 167 166 166 
46 51 62 44 39 42 42 44 64 98 124 135 137 138 144 147 154 162 171 176 181 188 182 168 153 137 100 55 40 41 35 37 42 44 44 45 46 43 40 42 46 47 49 50 47 44 44 47 41 45 49 48 46 44 43 42 37 37 39 45 51 49 45 44 39 36 36 37 36 34 30 24 23 23 22 22 20 16 11 8 8 8 9 10 11 10 9 8 7 7 7 7 7 8 10 11 5 7 6 4 5 6 6 6 4 7 8 7 5 5 4 3 5 4 4 4 5 5 4 3 5 4 5 8 7 5 5 5 5 5 4 4 6 7 7 7 11 8 9 12 13 18 29 39 43 40 41 38 39 46 47 45 42 44 42 44 45 43 46 47 50 47 50 54 58 62 59 55 54 52 59 56 51 55 61 72 96 130 138 132 144 133 109 114 126 149 135 127 140 147 160 143 115 139 143 126 157 172 183 190 155 89 109 148 166 162 136 66 75 113 114 134 120 91 130 180 199 219 205 189 168 143 145 152 153 149 181 179 172 183 177 170 181 191 191 182 179 176 175 180 173 152 66 42 56 35 30 60 49 41 51 43 61 75 141 164 119 118 116 132 146 93 43 101 102 55 117 115 116 136 126 100 81 123 171 163 124 61 76 151 136 143 170 149 142 117 105 105 124 139 132 147 142 96 56 65 47 37 48 23 42 119 94 24 66 88 69 29 13 38 16 4 34 94 70 47 18 5 12 24 54 54 37 43 49 39 60 114 107 91 87 132 162 152 154 160 157 158 157 158 160 161 159 158 162 160 158 158 157 157 158 159 159 159 160 161 161 162 162 163 161 162 163 162 161 162 163 162 161 163 164 164 164 163 164 167 167 163 164 166 164 163 163 160 164 166 165 164 165 165 165 169 167 167 167 168 167 165 165 166 
62 68 82 77 69 69 63 58 64 86 117 133 138 140 142 148 155 158 167 175 180 185 185 178 167 146 122 86 57 51 50 50 57 59 56 54 54 50 47 50 48 49 45 38 32 29 30 33 29 39 47 48 47 45 43 42 36 35 38 45 49 51 50 49 43 43 40 37 36 34 30 28 27 25 24 26 26 19 12 10 6 7 9 10 8 6 6 8 5 6 6 5 5 8 9 5 6 8 9 7 5 7 7 7 6 8 7 6 7 5 3 4 4 3 3 3 3 4 5 4 3 3 4 5 5 6 6 4 4 5 6 7 6 5 7 10 9 8 7 7 8 10 19 31 45 45 41 35 36 42 49 50 40 40 43 42 45 45 38 43 48 56 48 47 55 59 62 57 56 50 53 57 54 62 69 54 73 121 125 124 133 125 117 123 140 144 123 129 128 149 174 143 142 152 140 142 152 162 174 214 189 146 148 177 187 184 137 70 82 97 150 174 175 111 121 161 210 239 201 173 181 177 172 171 170 196 177 160 165 172 159 172 181 181 179 189 179 168 164 181 178 129 49 53 66 53 48 47 37 31 69 61 63 77 118 139 84 92 43 27 82 88 33 90 142 106 151 134 86 145 186 178 141 120 164 146 122 51 72 119 113 128 144 164 171 152 104 94 86 135 146 140 148 75 32 62 41 39 45 37 89 111 51 49 85 135 121 83 71 65 20 30 49 21 94 109 49 14 4 24 38 34 36 36 33 72 118 81 99 113 106 147 158 154 156 154 156 154 154 156 158 159 160 159 159 161 161 160 159 159 159 159 160 159 160 162 162 161 161 163 160 161 162 163 163 163 162 161 164 165 163 162 163 165 165 165 164 165 165 164 164 165 165 164 163 165 167 166 165 165 166 165 165 165 164 165 167 167 167 168 
74 87 101 96 89 94 89 75 69 87 114 130 135 136 139 148 153 158 167 175 180 186 188 183 172 154 136 106 77 65 62 66 64 67 71 69 64 61 58 54 53 48 38 26 17 13 13 16 27 38 47 49 48 47 46 46 45 42 44 50 54 54 51 48 50 47 43 39 36 33 30 27 22 24 24 25 26 22 16 11 10 8 8 9 9 7 6 5 7 7 8 7 6 9 9 6 7 9 8 7 6 8 9 8 5 7 7 7 8 7 5 6 4 3 3 4 4 5 5 4 4 4 5 5 4 4 5 4 5 5 5 6 6 6 7 8 8 8 8 8 8 7 12 20 42 46 45 38 36 40 43 41 41 39 40 41 47 50 43 45 53 60 52 50 57 62 64 60 52 47 50 57 58 66 72 64 57 75 96 119 126 134 116 123 138 139 126 124 132 162 165 99 132 118 106 138 142 145 176 168 152 155 172 164 179 161 136 154 131 62 76 126 151 124 119 125 135 151 140 131 141 151 173 193 193 202 173 156 163 179 180 180 173 184 174 183 195 169 176 188 164 111 59 60 62 70 69 55 32 34 60 83 117 88 87 84 84 99 48 57 91 127 64 61 125 151 168 130 91 117 140 157 154 127 107 81 94 60 67 116 126 150 142 149 157 125 131 102 87 113 157 127 86 35 28 34 34 54 41 47 121 93 68 131 132 134 135 141 138 130 109 59 32 0 84 113 28 13 7 6 25 42 56 42 21 88 183 100 103 148 151 150 156 159 155 159 156 155 156 158 159 158 156 154 157 159 161 161 160 160 162 163 161 160 161 163 164 162 162 164 163 163 162 161 162 163 163 163 166 167 166 164 164 164 163 163 166 166 165 164 165 166 166 165 166 166 166 166 166 166 166 166 166 166 165 165 167 167 166 168 
93 89 96 107 103 97 93 80 71 88 114 131 135 135 138 147 150 155 165 173 177 184 187 185 180 164 150 129 101 82 75 76 75 76 81 80 75 76 74 63 61 50 33 19 10 8 12 17 23 31 38 40 42 45 50 55 53 50 51 57 61 62 59 55 51 46 44 43 38 37 36 31 24 25 21 17 18 20 18 14 12 9 8 9 9 8 7 6 9 9 10 9 8 9 10 8 9 9 8 7 8 10 10 9 6 8 8 8 9 8 7 7 5 3 4 6 5 4 4 4 5 5 7 6 3 4 5 5 7 5 4 5 7 7 6 6 6 7 8 9 8 5 6 10 28 37 41 38 37 42 46 45 41 40 41 41 48 52 48 48 53 58 51 48 54 58 60 57 57 53 55 59 60 63 71 76 72 72 73 102 132 107 97 116 129 150 123 114 143 163 141 80 96 86 107 128 128 128 122 84 115 138 129 128 121 87 112 134 104 89 104 142 115 101 129 109 92 81 96 121 126 125 155 195 190 190 161 158 177 187 184 183 187 190 166 171 193 177 187 195 161 99 62 68 73 69 45 36 45 62 63 52 133 98 82 71 56 95 93 111 142 166 105 65 64 111 124 98 113 123 137 123 108 148 146 87 99 97 63 120 130 139 138 112 111 101 124 108 88 95 138 166 75 21 17 15 29 30 44 76 133 84 70 54 34 38 49 80 123 155 149 142 60 13 31 120 58 12 9 8 35 51 53 35 54 81 175 185 114 123 151 156 158 157 151 154 153 152 154 157 159 159 158 157 160 160 161 162 160 158 160 163 162 161 162 164 164 162 163 164 165 164 162 161 162 164 164 164 162 165 165 164 165 165 165 165 166 166 165 165 165 167 166 166 168 166 166 166 166 166 165 166 167 166 165 166 167 167 166 168 
101 87 81 91 91 87 83 65 64 85 116 132 135 136 137 143 149 155 163 171 176 182 186 185 185 171 158 143 122 104 91 85 86 82 82 81 81 84 84 75 65 54 43 34 26 20 17 17 24 33 41 47 50 53 56 60 61 59 61 65 67 68 66 63 56 48 47 47 40 38 37 29 29 28 24 22 24 24 19 14 10 10 10 10 9 7 9 11 10 11 12 11 9 10 11 9 9 10 9 8 8 9 10 9 8 9 9 9 9 8 6 6 6 4 5 7 5 4 4 5 6 6 7 5 3 4 6 5 7 5 5 5 7 8 7 6 5 7 8 9 9 6 4 6 16 27 38 42 43 44 44 42 41 43 45 44 47 49 49 50 53 56 51 47 50 55 57 58 57 56 56 56 56 58 70 91 113 107 103 106 123 110 126 122 134 146 105 96 112 142 155 133 90 80 86 85 91 106 116 90 75 84 121 133 118 74 67 78 102 139 182 195 115 96 144 174 150 120 127 136 163 139 149 154 166 158 110 107 151 191 183 189 186 183 176 179 179 182 171 172 139 89 72 78 75 57 33 40 45 48 51 64 102 79 93 95 49 71 92 97 85 100 89 82 47 79 101 88 135 158 147 138 108 130 157 129 129 121 64 102 118 137 151 164 141 154 148 137 121 94 120 159 107 33 18 14 31 30 45 96 125 100 100 63 38 47 24 137 203 106 112 140 86 10 57 130 45 4 9 8 29 51 42 49 102 134 85 150 138 101 146 157 151 155 157 157 156 156 155 155 157 157 156 157 161 160 160 161 159 157 158 161 162 162 162 162 162 161 161 162 164 164 163 163 164 165 164 162 160 163 164 164 164 164 164 166 165 165 165 164 164 165 165 165 167 165 165 167 167 165 165 167 166 166 165 166 167 166 166 168 
78 55 42 54 56 53 55 45 56 84 117 130 133 136 138 141 151 155 162 170 177 183 186 186 183 175 164 153 139 126 115 104 97 90 84 83 84 85 85 84 73 64 57 52 45 39 35 31 37 41 46 50 54 55 57 61 71 71 74 76 73 70 66 63 56 47 47 48 43 40 37 28 32 27 23 25 28 25 19 15 11 11 11 11 10 9 11 13 11 11 12 11 10 10 12 11 9 10 11 10 9 8 8 8 9 9 10 10 9 8 7 6 8 6 7 7 4 3 5 7 7 6 6 5 4 5 6 6 6 6 6 6 7 8 8 7 5 7 7 7 8 7 6 7 5 13 27 41 50 51 45 40 43 47 48 48 47 47 49 51 52 53 50 45 47 52 56 59 57 57 56 52 52 51 61 89 116 130 114 100 131 140 114 115 125 138 153 153 107 143 171 149 139 163 141 101 127 151 161 170 158 117 117 151 161 141 134 93 93 132 155 164 114 125 177 217 170 137 120 135 158 138 126 114 103 94 97 103 97 176 198 186 174 176 187 184 172 183 173 169 116 79 83 82 62 62 67 59 46 36 51 84 101 57 91 104 74 87 85 71 57 50 109 91 101 91 118 164 148 164 168 165 158 112 106 128 126 70 42 108 134 125 125 143 138 136 130 128 158 116 113 138 173 96 12 11 8 30 34 67 101 69 108 114 113 112 107 194 241 162 44 47 51 6 76 88 5 12 17 29 45 57 113 159 79 113 105 113 150 103 145 154 156 157 154 159 157 157 155 155 157 157 156 158 159 157 157 159 160 160 161 163 162 163 163 162 161 161 161 161 162 162 162 163 164 164 162 160 163 166 166 165 164 161 161 162 165 165 165 165 164 163 164 165 163 163 164 167 166 164 165 167 166 166 166 166 167 167 166 168 
47 24 19 36 39 33 41 51 65 90 119 130 132 138 141 144 149 153 159 167 175 181 183 183 182 180 171 161 150 140 132 121 110 104 97 93 90 85 83 86 85 76 69 64 59 57 56 54 55 55 54 56 60 63 69 75 76 78 82 83 80 74 68 63 54 47 45 46 44 42 39 32 32 26 21 23 28 25 20 18 15 12 10 11 12 13 12 12 12 12 12 12 11 11 12 11 10 11 12 11 9 8 8 9 10 9 10 11 10 10 10 9 9 8 8 7 5 5 7 8 8 7 6 5 5 6 7 5 5 6 7 7 7 7 8 8 6 8 7 6 6 6 6 7 9 8 14 28 43 49 46 41 47 48 46 48 48 47 51 52 52 50 49 45 47 53 55 59 61 59 58 54 55 52 54 77 110 124 121 115 127 130 119 108 124 136 161 147 110 156 156 135 148 168 155 131 150 159 160 180 194 164 80 109 100 137 187 135 87 111 117 134 120 135 173 194 136 109 131 161 128 117 134 117 85 73 116 134 100 173 205 192 178 182 185 176 177 175 172 152 103 74 83 78 56 61 74 57 37 34 50 68 56 59 89 152 138 112 96 84 126 62 74 92 140 144 135 135 98 105 97 125 131 106 115 116 91 43 40 123 141 126 101 150 130 138 128 131 140 160 134 114 130 136 62 11 11 16 13 65 100 46 96 105 101 103 126 127 195 239 121 57 21 8 66 123 30 28 29 57 64 80 111 98 58 122 112 88 128 112 154 152 153 157 154 154 154 156 156 157 159 159 158 160 161 159 158 159 160 161 161 161 162 163 163 161 161 161 162 161 161 161 161 161 161 162 162 161 164 165 166 165 164 162 162 164 166 165 165 166 165 164 165 166 162 163 165 167 166 164 165 166 165 166 166 167 168 167 167 168 
24 25 34 42 47 53 60 69 83 99 121 131 134 138 141 146 146 151 157 165 172 177 178 178 181 182 174 167 157 147 142 132 124 117 113 107 98 92 88 83 86 82 80 78 72 70 67 62 64 64 65 69 72 73 76 81 80 80 83 84 83 80 74 68 62 55 49 47 44 40 37 35 33 32 30 32 36 32 24 19 16 13 11 12 14 14 13 13 14 13 13 13 12 12 12 10 12 12 12 11 10 9 10 11 11 10 12 13 12 12 13 12 10 10 10 8 7 9 10 8 8 7 7 6 5 5 6 5 5 6 7 6 6 7 7 6 6 9 8 6 5 6 7 8 7 5 5 12 26 42 50 51 49 48 44 47 46 44 51 53 55 51 51 48 53 59 58 61 59 58 60 57 60 59 56 74 99 107 111 113 118 136 160 131 129 145 150 131 135 144 114 110 116 136 96 88 119 127 127 138 158 154 101 103 71 131 169 186 155 107 113 153 173 148 114 131 118 142 178 162 151 134 151 150 135 123 133 136 142 185 187 185 180 188 188 193 200 183 168 129 87 69 81 75 63 57 58 55 59 48 46 43 78 80 66 136 126 126 123 75 130 156 75 37 73 96 121 91 87 136 88 96 140 118 144 141 114 76 34 80 76 130 123 167 178 151 133 129 152 166 142 107 93 123 117 21 11 19 8 49 60 33 85 103 104 98 102 115 116 139 117 89 78 23 36 105 66 42 22 70 119 93 54 68 77 106 87 73 126 121 152 156 157 156 156 157 158 160 159 157 159 157 156 159 162 161 159 159 159 159 159 159 161 163 163 161 160 162 163 162 162 162 162 161 161 162 163 164 162 163 163 164 164 164 164 167 167 165 164 165 167 167 167 167 164 165 166 166 165 165 165 165 166 167 168 168 169 167 167 168 
30 36 55 68 74 76 79 93 94 103 119 130 134 135 136 143 148 152 158 165 172 175 175 176 180 180 172 170 165 155 151 142 135 125 121 116 105 101 95 80 86 84 86 86 83 84 84 80 83 82 81 82 82 81 84 89 87 84 82 82 83 82 77 70 64 59 52 47 45 42 40 42 39 39 36 33 33 33 27 21 15 14 14 14 14 13 14 16 15 13 13 13 12 12 12 10 15 13 11 11 11 11 12 12 14 12 13 14 13 14 15 14 11 11 11 9 9 12 12 8 8 8 9 7 5 4 6 5 5 6 7 6 6 7 6 5 5 9 9 7 6 7 8 8 6 10 10 7 15 31 44 47 50 48 43 45 42 39 49 54 53 47 48 48 53 60 56 57 59 59 63 59 60 58 54 70 108 112 107 116 122 144 134 131 137 133 123 117 127 93 73 75 106 139 145 117 90 74 61 100 147 152 165 174 99 68 118 146 144 131 161 194 197 136 96 119 126 150 159 156 154 178 170 174 133 130 156 142 138 181 211 199 188 195 192 206 195 181 159 125 86 66 78 71 74 73 61 51 53 51 36 54 82 76 71 105 85 107 127 128 136 168 153 48 92 67 94 121 77 138 147 125 127 128 109 116 152 119 24 46 86 116 162 145 133 139 158 152 149 140 121 106 114 81 110 133 73 38 36 36 63 25 82 87 84 86 90 90 94 76 84 128 98 46 42 37 77 42 38 92 99 124 110 94 84 107 134 83 99 130 157 154 157 155 155 158 158 160 157 155 158 158 159 163 157 158 158 158 158 160 161 160 159 161 162 160 160 162 163 162 162 164 165 164 164 164 165 165 165 164 163 163 163 162 162 165 167 164 162 164 168 168 167 167 167 167 167 165 165 166 166 165 167 168 169 169 170 168 167 168 
38 52 65 83 89 86 91 95 95 112 125 130 133 135 136 139 144 152 158 163 170 174 176 178 178 172 169 169 165 159 155 152 143 135 130 124 113 105 98 91 87 83 84 88 88 87 87 87 86 86 87 86 84 85 87 86 84 88 86 86 88 82 74 76 68 63 58 49 41 40 41 38 40 38 35 31 31 31 27 23 17 14 15 14 11 14 15 12 13 14 14 11 9 11 12 11 13 13 13 13 14 17 16 13 14 15 16 17 20 20 19 19 19 13 12 16 14 11 9 8 8 9 8 6 6 7 7 5 6 8 7 6 8 6 5 9 8 7 6 6 8 9 9 9 11 10 9 9 10 17 30 43 49 52 51 46 43 42 45 49 52 50 46 47 54 58 58 60 55 56 59 62 59 60 54 84 117 131 114 124 130 141 118 134 140 145 163 140 123 87 51 106 150 151 166 171 128 116 101 142 157 158 169 159 65 41 81 122 104 122 143 176 197 142 130 125 136 146 142 181 160 135 163 143 119 154 193 165 145 182 198 187 185 188 188 190 182 168 181 123 81 65 81 66 75 72 56 50 52 53 32 59 79 103 86 94 66 77 110 114 126 166 142 76 124 61 77 167 99 98 163 170 143 144 124 83 98 114 41 12 75 130 140 154 125 119 141 149 148 143 141 161 167 105 70 110 106 43 9 55 119 58 62 85 81 80 67 64 50 55 74 45 22 21 44 40 54 51 86 109 59 111 138 112 93 166 162 104 104 125 154 157 158 158 159 156 153 156 158 153 157 159 159 160 158 159 157 155 155 157 160 162 157 161 162 161 162 161 160 162 162 165 164 163 165 164 163 164 164 164 165 164 164 167 167 163 165 166 166 167 168 164 162 167 165 165 165 164 165 166 168 169 169 171 168 165 168 169 166 167 
38 52 64 75 76 74 88 99 105 119 128 130 133 135 136 139 144 151 156 160 167 172 173 174 172 167 165 163 159 155 155 156 148 140 133 125 117 112 105 94 88 84 84 87 87 86 86 85 86 86 87 86 85 85 86 85 83 84 85 85 86 83 80 79 76 70 63 53 42 38 37 34 33 33 31 28 27 25 21 16 16 14 15 15 12 14 15 11 11 13 13 12 10 12 14 14 13 15 18 20 23 26 26 24 28 29 31 36 42 45 47 50 47 42 40 39 34 27 21 16 9 8 7 7 7 7 6 5 7 8 6 6 7 6 5 6 7 7 8 9 10 11 10 10 11 11 11 10 10 13 22 31 41 49 56 55 48 43 45 48 43 46 46 46 52 57 58 59 54 51 57 62 58 54 61 96 113 126 101 115 126 113 90 119 127 153 187 167 139 143 88 109 141 138 142 152 167 150 113 143 162 152 155 137 104 63 136 169 150 91 92 112 155 154 154 157 151 140 138 161 149 132 177 161 145 150 166 154 164 187 178 187 196 192 187 190 186 180 196 134 78 56 61 74 77 57 63 55 48 59 21 46 54 95 126 77 62 82 84 84 91 112 84 76 87 66 144 171 144 72 128 147 162 174 126 116 96 120 74 23 61 116 124 152 172 159 132 136 162 129 157 157 168 126 68 62 69 78 97 86 102 57 57 82 83 88 90 74 56 59 51 16 8 28 41 47 61 61 147 158 76 74 106 105 121 167 154 116 107 140 159 153 153 159 159 158 155 156 149 157 160 159 159 157 160 161 160 159 159 160 162 164 160 162 162 161 162 162 161 162 161 162 162 162 163 161 161 164 164 164 164 164 164 166 167 166 167 166 163 165 169 167 163 164 165 166 166 164 164 166 168 168 167 170 169 166 168 168 167 168 
29 40 50 57 57 61 83 105 118 126 130 129 131 134 135 137 143 148 153 157 164 169 171 170 166 162 158 156 153 151 152 152 146 142 137 128 121 118 109 97 93 88 86 88 88 87 86 85 85 85 86 86 85 86 87 86 86 85 87 87 85 87 88 84 80 72 63 52 38 29 26 24 28 28 26 24 22 20 17 14 13 12 13 13 11 11 11 8 7 9 10 11 10 11 14 18 18 23 30 36 41 46 48 48 53 55 60 67 74 79 85 91 92 87 83 76 65 53 41 29 17 11 7 7 6 6 5 5 10 8 8 9 9 9 9 7 8 9 9 9 10 10 10 10 12 12 12 12 11 11 15 20 26 35 50 56 50 47 49 47 44 50 51 49 52 56 56 56 54 50 57 63 61 56 74 102 117 123 93 89 121 139 122 119 132 157 161 141 151 170 108 99 125 121 136 157 183 156 104 141 148 146 138 122 105 134 171 170 166 143 123 127 130 150 162 174 190 162 119 125 148 162 182 196 164 136 149 163 188 208 195 204 196 190 203 194 177 179 174 108 70 65 61 73 76 51 65 64 58 45 26 46 58 61 99 72 60 113 108 130 151 144 56 46 71 57 125 171 151 98 117 128 117 123 111 140 137 119 127 24 65 156 155 141 171 168 143 146 142 118 137 140 130 124 115 110 102 95 106 83 66 95 102 82 95 93 122 105 60 48 29 5 13 19 39 30 52 96 169 149 139 150 123 101 124 145 118 94 120 130 151 157 154 157 157 155 161 161 157 159 155 160 157 156 156 158 158 157 158 158 158 159 161 162 161 161 163 163 161 160 160 161 161 162 162 159 160 164 163 162 162 163 162 163 165 166 167 166 163 164 168 168 164 162 166 167 167 164 164 166 167 166 165 169 169 167 167 167 166 168 
16 22 30 37 43 56 84 111 124 129 130 129 131 133 134 135 140 144 150 155 163 168 169 167 164 158 153 151 149 147 144 140 137 138 136 130 122 116 107 98 97 93 89 89 90 89 88 88 85 85 86 86 86 88 90 88 88 88 89 88 87 90 90 86 84 74 64 51 34 22 18 17 18 18 16 14 12 13 13 13 12 10 10 10 9 9 8 5 7 7 9 11 11 12 17 24 29 36 46 53 60 65 70 73 82 86 93 100 106 111 118 127 129 126 121 112 98 85 69 54 37 25 15 12 9 7 7 7 10 6 8 11 9 10 11 8 11 11 10 9 9 10 11 12 13 12 12 12 12 11 13 15 15 19 34 45 47 52 57 53 51 56 55 52 54 56 55 55 60 57 59 59 61 60 86 98 112 138 131 112 136 154 139 127 141 157 131 132 134 174 136 76 116 134 153 168 165 122 55 99 97 116 105 98 93 143 147 145 144 161 170 178 165 147 172 176 187 188 157 134 144 176 186 198 182 154 173 192 198 206 198 197 174 185 185 188 175 177 193 119 79 63 65 77 77 54 58 67 61 46 31 41 54 78 87 90 105 136 126 132 171 168 81 21 25 64 104 142 147 114 132 172 149 144 134 140 145 161 155 62 60 150 154 138 116 140 159 151 153 158 149 119 133 150 166 123 110 102 81 69 90 158 148 78 82 76 64 25 16 15 1 31 48 21 12 5 66 151 130 117 158 184 159 159 157 119 107 132 126 128 157 156 156 154 153 159 137 108 110 138 155 160 157 154 157 160 161 160 160 159 158 159 159 160 161 162 164 163 160 158 162 160 161 163 162 160 161 165 164 162 163 165 163 162 164 165 163 166 165 164 165 166 164 164 165 167 167 164 164 166 166 165 164 167 168 167 166 165 165 167 
10 12 18 27 37 55 87 118 125 127 129 130 132 133 134 134 139 143 149 155 162 167 166 162 161 156 150 146 143 141 137 132 131 130 129 127 120 112 105 100 98 94 91 90 91 90 89 89 88 87 87 87 88 90 91 90 88 91 89 87 90 90 88 86 87 76 63 48 29 15 11 10 11 11 10 9 8 9 11 12 14 11 10 9 8 8 7 6 9 10 11 13 16 19 25 34 41 50 59 67 74 80 86 91 102 106 112 121 130 135 141 148 152 152 149 140 128 116 100 83 60 43 30 24 17 12 10 9 12 9 11 13 10 11 12 10 11 11 11 11 12 13 14 14 14 13 12 12 12 13 14 14 14 13 21 32 39 51 62 61 56 55 52 53 57 56 55 57 56 58 63 62 63 66 93 96 111 154 145 130 150 138 125 126 145 136 130 134 140 158 171 87 120 141 158 173 152 122 86 78 76 115 159 130 87 136 134 146 162 164 200 189 166 172 193 173 162 179 169 158 179 188 193 180 179 177 191 204 199 187 184 194 189 187 172 178 175 180 189 125 83 55 67 80 73 69 70 58 54 42 47 52 69 85 97 85 106 122 97 107 139 148 124 133 102 70 65 80 91 75 133 165 164 166 147 112 131 104 109 87 63 91 112 142 157 152 158 148 164 168 156 125 149 155 162 170 133 130 119 104 115 104 95 65 52 31 32 21 8 3 14 59 148 122 23 31 72 78 65 102 154 173 151 156 165 112 121 152 109 108 160 155 154 152 142 116 113 131 107 97 140 157 163 159 159 162 163 163 163 161 160 160 160 160 161 162 162 162 161 159 163 161 160 163 163 162 162 164 165 163 165 167 166 164 165 166 162 165 166 164 164 165 165 165 164 166 166 164 164 165 166 165 166 167 167 167 167 166 166 166 
9 9 15 22 31 51 84 119 125 126 128 130 132 134 135 135 140 143 149 155 160 164 163 158 155 152 147 140 134 132 131 129 128 124 120 119 117 111 105 102 96 94 91 89 90 90 88 89 92 90 89 89 89 91 91 89 89 92 90 89 93 92 89 88 87 75 60 43 24 10 6 5 8 9 10 10 10 10 11 11 14 11 8 7 6 6 6 6 9 11 12 16 22 27 35 45 51 60 70 79 89 96 104 112 117 121 127 138 151 160 164 168 174 175 173 164 151 139 121 102 77 59 46 39 31 23 18 14 16 14 15 15 13 12 12 11 10 10 10 11 13 14 14 14 16 15 13 12 13 14 15 15 16 14 17 21 26 39 53 57 59 56 53 55 59 56 54 57 57 58 58 56 58 75 110 120 121 150 121 126 141 110 117 128 127 113 123 127 101 111 145 90 120 141 143 146 149 157 175 127 91 148 168 166 127 146 154 181 169 155 189 196 168 170 184 186 160 186 159 149 157 166 198 191 169 180 192 204 196 177 184 203 214 192 180 179 179 177 153 118 72 65 74 81 74 79 83 63 50 50 55 61 59 90 97 72 79 105 128 100 135 89 119 148 170 111 72 103 103 109 122 113 153 145 120 78 99 105 93 97 48 44 85 127 180 199 165 105 152 171 140 114 151 187 155 130 141 147 123 96 110 74 45 47 49 31 21 12 7 12 36 79 139 126 99 56 81 98 117 108 111 147 151 167 137 128 177 150 110 116 156 152 158 139 104 61 51 49 45 32 99 165 154 159 158 160 161 160 160 159 159 159 162 162 162 160 159 161 163 163 163 160 160 163 162 162 162 162 163 161 163 166 165 164 164 165 164 164 164 163 165 167 166 164 163 164 165 165 165 165 166 165 169 167 167 168 168 168 167 167 
10 7 13 18 27 47 80 118 125 125 127 130 130 131 134 136 140 143 148 153 157 161 161 156 151 149 143 134 126 124 124 122 121 119 115 113 112 110 106 103 95 95 92 91 91 90 89 90 92 91 91 91 92 92 92 89 91 89 90 91 91 91 90 88 83 71 56 39 21 10 8 7 6 6 8 9 10 10 11 11 13 10 7 7 8 7 7 8 9 13 16 21 31 39 48 57 65 74 84 92 102 109 116 125 130 137 145 154 166 176 183 187 192 193 191 183 169 155 134 114 94 77 64 58 49 42 37 32 29 28 26 25 25 24 22 22 20 18 15 14 14 15 15 14 17 16 15 14 15 16 16 16 16 16 17 16 17 24 35 42 53 55 55 56 58 56 53 55 55 57 55 56 64 94 116 115 127 129 85 94 111 93 107 122 111 78 95 94 104 133 157 62 82 94 107 135 157 149 162 148 108 83 73 109 134 148 160 190 173 162 162 159 158 146 158 174 180 172 148 154 140 152 185 189 192 180 173 177 182 191 202 203 199 170 123 140 175 177 159 125 84 79 77 84 81 77 78 81 51 41 56 51 68 95 118 80 85 99 148 127 109 54 116 149 171 142 84 125 131 136 140 137 98 98 111 123 145 161 155 121 74 102 126 125 126 168 140 113 144 126 87 95 151 181 160 104 82 131 152 134 124 124 92 44 34 20 25 29 20 28 78 140 138 94 117 82 104 126 174 144 102 148 165 164 121 151 162 102 85 119 130 138 132 64 22 36 37 22 20 44 68 128 153 156 160 161 161 159 159 160 160 162 162 161 161 161 159 161 164 164 162 160 161 162 161 161 162 161 162 160 161 163 163 163 163 163 166 164 163 164 165 167 166 164 164 164 165 166 166 165 166 167 169 167 166 168 168 168 168 168 
12 6 11 16 26 48 81 120 126 125 127 128 128 129 132 135 140 142 147 151 155 159 161 157 151 147 140 130 123 121 118 114 112 116 115 110 107 107 105 102 96 97 95 93 94 92 91 92 91 90 91 93 93 94 93 89 90 84 86 90 86 87 88 83 74 62 47 31 16 8 7 7 9 8 9 10 12 13 15 17 16 13 10 10 12 12 11 12 11 16 21 28 41 51 60 69 80 88 95 101 107 111 115 123 130 141 151 157 164 174 183 190 197 199 199 193 181 166 145 125 110 93 80 74 66 61 58 53 51 51 47 46 49 47 44 45 36 31 23 18 17 17 17 17 17 17 17 17 17 18 18 18 16 19 18 16 16 19 24 30 40 48 52 53 55 55 54 55 56 61 55 58 72 108 107 85 120 148 115 103 140 159 146 142 140 123 113 115 154 177 163 71 47 49 107 146 136 154 160 138 114 122 90 83 98 124 146 169 177 187 152 124 133 174 170 175 199 184 172 157 162 159 159 176 192 194 189 172 171 188 191 184 186 158 99 108 153 169 160 143 106 87 80 77 73 81 78 76 48 41 57 62 65 82 138 87 53 96 148 163 130 68 86 118 151 151 64 100 135 160 186 184 113 99 156 175 171 149 163 156 108 84 128 149 125 94 122 166 171 100 72 136 152 146 128 111 54 85 123 151 162 150 141 110 65 65 124 133 63 47 108 158 140 116 97 89 105 127 168 171 119 125 178 143 104 144 113 88 111 130 83 57 40 42 52 49 62 47 24 46 106 180 143 162 160 161 160 158 158 159 160 162 159 159 161 162 160 162 163 161 162 161 163 163 161 161 162 160 165 163 163 164 164 165 165 164 166 165 165 165 165 165 165 164 165 164 165 167 167 165 166 168 168 165 165 167 167 167 168 168 
14 10 10 18 31 50 85 121 124 125 124 128 132 131 133 134 137 139 145 151 157 159 158 153 153 145 136 130 125 120 114 111 109 109 109 108 105 103 100 97 98 97 97 96 93 92 92 90 93 95 92 91 92 92 91 85 83 79 74 71 73 75 71 66 62 51 36 21 10 6 7 11 11 12 13 11 13 18 20 17 16 14 17 15 14 16 15 16 20 23 30 39 48 62 74 78 89 98 102 103 107 110 113 117 121 133 143 149 157 168 177 182 191 195 193 188 178 164 148 130 113 104 97 89 86 83 77 75 70 69 70 70 66 66 69 68 67 63 51 38 30 21 16 19 19 18 19 22 21 18 20 24 27 25 22 20 22 24 21 17 30 36 44 53 60 59 58 60 58 56 60 60 90 124 127 114 133 162 141 139 148 146 136 145 158 167 122 128 152 140 128 133 87 72 139 144 145 162 156 134 157 171 136 108 66 74 108 133 134 131 123 131 145 203 204 171 178 177 179 148 158 165 158 181 168 149 175 192 148 130 139 153 165 123 117 136 161 174 150 152 142 112 93 84 68 72 78 70 51 47 65 46 60 67 84 73 53 80 138 172 174 125 109 134 160 137 32 42 86 116 120 109 94 118 124 156 154 92 89 112 125 97 100 137 159 97 112 179 190 137 128 163 166 158 143 128 69 26 49 131 154 149 162 150 110 108 133 139 99 81 90 133 127 134 68 72 118 139 177 163 159 157 154 109 120 133 108 145 143 74 32 46 54 45 38 42 54 38 44 39 87 141 128 164 158 157 159 160 160 161 162 162 161 161 160 162 164 164 163 164 161 161 162 162 163 164 163 162 163 166 165 164 165 166 165 165 163 166 166 163 165 166 166 165 167 167 167 167 167 167 166 165 169 168 166 165 167 170 169 166 
16 11 8 15 33 60 95 123 126 129 127 130 132 131 134 135 135 138 144 150 155 157 157 154 152 145 135 128 120 113 109 110 110 109 107 104 101 101 101 99 98 96 95 95 95 96 95 93 92 94 92 93 94 94 92 85 78 69 59 54 57 60 55 48 46 34 20 12 10 10 12 13 11 11 14 16 19 23 25 23 18 15 17 17 18 21 21 22 25 31 41 50 58 70 81 87 92 99 101 101 106 109 110 113 118 128 138 145 153 162 170 175 187 191 190 185 175 161 145 127 115 111 110 103 98 95 92 94 90 88 89 89 88 90 93 93 97 98 90 76 63 49 33 23 24 22 21 21 23 24 26 27 29 28 26 25 27 28 26 24 24 30 37 45 56 62 60 57 51 57 58 65 90 117 134 129 148 144 120 142 144 113 137 130 150 141 69 95 119 131 157 163 135 75 107 144 153 149 108 120 153 176 163 126 123 132 122 118 111 143 167 145 139 167 182 158 167 176 200 194 161 145 150 147 123 109 128 175 140 109 131 134 128 115 126 149 175 158 155 148 156 153 100 83 80 85 76 68 54 37 46 42 57 58 74 79 61 63 114 144 151 150 164 160 183 167 67 64 117 116 95 51 117 152 130 145 153 90 107 115 115 83 73 120 143 137 111 131 166 150 152 172 171 192 174 99 90 130 85 116 160 150 184 143 91 63 90 105 147 75 39 118 137 130 74 51 67 97 166 168 180 193 126 124 137 152 142 107 59 34 29 9 16 18 56 80 58 77 87 80 74 74 126 160 158 156 157 159 159 159 160 160 162 162 160 160 161 162 163 165 162 162 162 162 163 163 163 162 164 165 165 164 164 165 165 166 165 165 164 165 166 165 165 167 166 166 166 166 166 167 167 166 168 168 168 167 168 170 170 168 
13 10 11 20 42 76 107 124 126 130 128 129 131 130 133 133 133 137 143 149 152 155 157 156 153 145 135 128 119 111 108 109 106 106 107 105 102 101 101 99 98 96 96 96 96 97 98 96 96 98 96 96 96 92 87 79 73 61 45 36 34 36 35 32 24 17 11 11 14 16 15 14 15 16 20 27 31 33 33 31 24 19 20 21 23 26 27 30 37 43 53 62 70 80 90 95 96 99 100 101 105 107 108 110 115 122 130 137 145 153 162 168 181 186 186 182 172 159 145 127 116 111 111 110 111 113 109 109 105 104 104 105 107 112 118 119 128 130 129 121 108 93 74 57 47 43 37 33 34 37 37 34 32 32 32 32 33 35 36 35 40 47 52 58 70 80 79 73 58 50 60 67 98 127 121 134 145 109 117 140 127 105 106 119 121 134 124 117 85 118 141 166 140 60 65 117 142 148 102 99 98 145 143 141 174 177 163 155 170 196 184 139 145 145 127 116 124 119 155 204 183 152 154 137 140 118 136 160 146 118 122 134 126 127 159 170 180 177 158 149 177 181 133 73 81 81 56 47 42 29 34 36 47 55 68 72 73 77 103 125 105 134 142 116 159 189 103 102 147 123 162 117 126 159 171 181 156 129 158 150 158 69 26 120 161 175 168 123 143 162 171 138 150 180 149 90 119 169 169 145 139 146 152 147 101 61 56 51 129 66 12 47 79 114 72 17 9 99 114 147 170 189 141 153 154 135 59 42 79 41 50 70 23 56 80 64 73 79 83 138 97 78 75 138 161 158 158 161 162 161 161 161 162 162 161 160 160 160 161 164 163 163 163 163 162 163 163 163 164 164 165 165 164 164 165 166 166 164 163 166 167 164 164 168 166 166 166 165 166 167 167 167 167 169 169 168 167 168 169 169 
16 15 20 33 57 89 116 125 125 129 128 128 129 130 133 132 134 137 142 147 150 154 157 157 153 143 133 128 122 114 108 108 105 105 107 106 104 103 102 101 99 99 99 98 96 96 98 99 94 96 95 97 97 93 89 81 73 54 31 19 17 19 17 13 12 11 12 14 16 16 17 18 21 24 30 36 39 42 39 34 23 17 21 26 30 35 38 45 52 54 60 69 79 89 94 96 98 99 100 102 106 108 108 109 114 117 121 127 136 145 155 164 173 179 181 178 169 158 145 129 116 111 111 112 115 118 114 114 114 115 114 115 120 128 137 143 149 149 153 155 146 133 121 109 95 88 78 69 65 63 60 57 59 60 62 62 63 65 68 71 78 84 89 92 98 106 107 103 91 72 81 101 108 120 124 126 156 108 79 129 136 157 131 102 131 156 174 159 94 110 137 157 147 104 76 73 110 167 161 120 79 125 114 140 169 173 179 189 216 207 153 118 147 184 152 148 132 109 100 152 179 142 145 157 141 133 139 151 136 128 125 122 125 150 190 192 206 197 161 185 189 163 130 64 65 65 51 41 42 36 37 37 38 59 81 87 85 86 83 109 112 142 134 120 152 154 91 67 121 147 175 131 111 145 147 149 130 142 157 192 187 127 24 103 158 150 125 144 147 121 146 138 161 183 151 79 90 112 146 148 108 142 143 144 127 48 80 126 148 100 24 78 92 97 53 104 154 147 107 104 139 181 165 140 118 41 41 68 50 19 63 53 62 89 67 103 57 28 22 50 78 49 57 135 160 156 157 160 160 159 160 160 160 162 162 161 161 161 160 161 163 164 164 163 162 163 164 164 162 163 165 167 166 163 164 165 166 164 163 165 167 165 165 168 168 168 167 166 166 166 166 165 167 169 170 168 166 166 167 168 
25 23 30 50 76 102 120 126 126 129 127 128 131 132 135 133 136 137 141 145 149 154 157 157 153 143 132 126 120 113 108 108 108 107 106 103 101 101 103 103 100 99 99 99 98 98 99 99 95 97 96 97 98 95 92 86 74 60 41 26 17 12 11 11 14 14 15 16 16 18 23 28 32 38 44 48 51 53 49 40 28 24 28 34 38 41 45 52 62 63 68 76 86 93 95 95 98 99 101 104 106 107 107 108 113 115 118 123 130 138 148 157 165 172 175 173 165 155 144 129 116 116 119 116 113 113 113 118 117 119 119 119 125 135 148 159 169 170 177 181 173 163 155 147 136 128 121 116 112 107 105 107 104 105 106 106 107 109 113 116 122 125 128 131 133 136 137 136 130 117 103 102 100 104 107 130 165 159 100 122 127 188 177 119 151 154 155 160 138 154 168 146 132 167 159 111 110 159 174 158 148 137 103 109 140 165 171 170 168 167 144 135 141 152 111 128 194 149 110 158 189 141 142 126 128 148 134 137 133 152 144 151 166 169 175 181 198 166 172 203 142 139 83 37 46 52 35 23 43 42 46 49 38 52 75 87 79 74 64 76 116 120 125 155 152 130 137 124 102 89 88 97 144 108 90 135 143 147 132 152 151 137 43 93 141 109 98 156 168 146 121 132 174 193 178 140 155 147 128 162 150 164 158 145 125 78 138 134 153 144 103 131 146 134 83 109 142 121 170 143 94 89 70 74 43 11 17 14 11 20 14 45 81 49 63 128 40 58 82 111 101 76 84 119 158 156 157 160 160 159 160 161 160 162 162 161 162 162 161 161 163 164 164 163 163 163 164 165 162 162 165 167 164 163 164 165 164 165 165 164 166 166 166 167 168 168 168 168 167 167 165 164 168 169 169 168 167 167 167 167 
26 28 41 69 99 117 123 124 125 127 125 127 131 132 134 133 138 138 140 144 148 154 157 156 154 146 136 127 118 111 110 111 109 107 106 104 102 101 102 100 102 99 98 99 100 102 101 98 99 101 99 100 99 96 95 91 87 74 59 48 40 31 25 21 23 22 23 26 28 31 36 41 46 52 58 61 63 64 58 48 33 31 37 44 48 53 58 66 69 74 80 87 93 95 95 97 99 101 103 104 105 106 107 106 111 114 118 121 126 132 140 148 160 168 171 170 162 153 144 130 117 115 117 115 114 115 115 119 116 119 119 119 125 133 147 164 180 190 200 201 196 190 182 173 171 164 158 155 150 143 141 144 143 143 143 143 143 144 147 150 158 157 160 164 165 165 164 163 164 134 115 119 124 140 130 140 156 167 139 135 151 175 137 120 138 138 103 125 146 165 177 129 145 154 169 163 145 155 152 180 189 175 140 91 88 120 174 179 144 144 170 169 139 107 67 48 116 118 94 156 191 128 136 145 142 154 144 135 154 172 176 182 182 182 163 169 168 138 129 133 116 107 67 29 29 32 27 25 41 53 57 51 38 46 66 77 72 75 64 69 128 137 116 124 112 120 100 141 156 71 26 122 139 121 124 141 163 170 119 87 103 105 74 63 130 164 148 169 186 177 101 96 120 119 97 158 216 195 179 176 163 163 143 146 103 81 82 99 143 111 44 90 156 151 147 78 67 92 79 86 94 62 5 27 54 68 39 9 60 86 52 77 71 44 57 51 40 90 209 120 52 67 69 119 159 158 160 161 160 161 162 162 161 163 162 160 161 163 163 163 163 164 164 163 163 164 164 164 164 162 164 164 162 162 166 166 163 165 165 164 166 167 167 167 166 167 168 168 168 168 166 164 167 168 168 169 168 168 168 169 
37 46 62 88 116 126 124 125 125 126 124 127 130 129 132 133 137 137 139 142 147 152 156 155 153 148 139 129 120 114 111 111 107 106 106 106 105 104 102 99 103 100 99 100 101 102 102 99 96 99 98 101 101 100 101 99 93 87 79 71 62 51 46 46 41 41 43 47 50 52 55 58 62 64 69 74 75 72 65 58 52 49 54 58 60 65 68 74 81 86 91 94 96 96 97 101 101 103 104 103 104 107 108 107 109 114 117 118 122 127 134 141 153 162 166 165 159 151 143 131 119 113 112 111 115 119 116 117 118 121 120 122 127 131 145 164 180 194 208 213 215 212 206 201 195 191 186 184 182 178 176 176 176 176 176 177 178 179 180 181 185 184 187 191 191 189 188 186 183 144 96 123 139 140 135 130 151 133 123 134 159 125 83 115 115 101 73 80 112 149 132 126 148 144 156 143 131 151 160 181 192 186 191 152 111 102 165 209 162 106 138 183 173 135 118 57 66 87 80 128 135 109 135 172 168 155 140 148 169 172 189 161 171 178 133 115 124 133 84 74 89 37 34 35 22 17 22 18 32 55 55 44 41 40 52 64 75 72 67 84 128 134 99 111 84 102 87 115 163 118 39 147 153 137 142 163 185 176 127 102 168 152 90 87 129 161 159 166 178 147 132 143 103 60 17 74 143 192 200 157 134 122 92 117 105 67 54 47 59 46 8 26 79 97 111 73 25 35 56 60 47 35 39 88 91 117 67 13 36 50 70 88 120 50 72 126 58 75 105 61 105 61 49 137 158 158 158 158 158 160 161 159 161 163 163 160 161 162 163 163 164 164 164 164 164 164 164 163 163 162 164 164 162 164 166 164 163 163 164 166 167 166 165 167 166 166 167 167 167 167 166 165 166 167 168 169 168 167 168 169 
62 75 86 102 121 126 124 130 127 128 126 129 131 129 133 135 136 136 138 141 145 151 155 155 150 145 137 129 122 116 110 105 108 106 105 104 104 106 106 104 102 102 103 103 100 100 101 101 97 100 100 102 101 99 101 99 103 97 90 86 80 72 68 68 63 62 62 63 64 67 71 75 80 78 82 90 90 83 75 71 65 61 64 67 70 75 78 83 93 95 95 96 97 96 98 104 103 104 104 103 104 109 111 109 108 112 115 115 117 123 132 139 144 154 159 159 153 147 141 130 121 118 117 114 113 114 112 114 119 121 120 122 127 129 140 161 177 190 204 217 225 223 220 223 217 214 209 206 205 205 203 199 200 199 200 203 205 206 205 206 207 209 214 214 211 209 209 206 189 126 96 130 121 120 129 137 170 117 101 96 122 119 84 86 100 135 114 73 53 88 91 133 150 149 138 95 107 129 153 160 169 164 199 168 134 148 161 199 143 119 133 175 177 123 136 132 83 107 107 128 123 147 150 168 201 191 158 165 182 171 102 84 123 129 122 111 107 122 80 34 35 45 22 30 26 21 24 42 58 66 51 40 44 27 38 69 79 76 80 81 129 145 108 97 78 75 113 130 164 167 48 83 140 167 168 193 159 121 106 81 162 187 115 100 144 143 140 112 112 130 165 180 161 122 66 54 95 106 124 135 122 156 153 140 140 93 32 47 83 78 66 64 80 49 18 35 21 19 17 34 49 16 35 58 60 46 32 18 9 34 44 35 65 49 40 61 86 90 73 149 113 54 92 155 160 160 160 159 160 162 162 159 159 163 164 162 162 162 162 162 164 164 164 164 164 165 163 162 161 161 165 166 164 165 166 161 164 162 162 167 169 165 164 168 166 167 166 166 166 166 166 165 165 166 168 168 167 165 166 168 
94 100 110 121 126 125 125 128 128 128 128 126 129 133 131 132 133 135 136 139 143 149 154 156 155 147 139 130 120 114 112 109 103 106 105 107 106 104 106 105 106 104 101 102 104 98 98 105 103 102 101 101 101 100 98 99 99 102 102 98 95 92 88 85 79 80 83 81 82 87 91 97 94 97 98 95 90 86 83 81 74 77 77 76 79 85 92 96 98 96 98 98 100 102 101 103 108 106 105 104 105 108 110 109 109 110 112 113 115 119 126 132 138 142 149 153 153 148 140 131 126 117 116 119 117 115 118 120 123 121 120 123 127 130 142 157 174 191 204 215 222 224 228 229 226 226 225 224 224 224 224 223 220 221 222 223 223 224 223 222 224 222 223 221 218 218 217 213 159 122 128 134 93 94 125 141 174 120 78 124 125 145 171 152 118 148 153 150 123 111 80 130 140 159 138 101 70 107 134 150 154 173 198 174 142 154 166 163 123 101 137 135 109 95 119 104 93 118 145 137 164 183 176 164 198 224 163 151 186 174 124 95 110 117 157 133 108 76 48 30 41 38 27 29 27 46 64 74 74 57 55 32 39 25 29 53 65 72 83 76 75 100 138 129 89 73 87 83 117 125 70 76 77 115 164 137 122 141 156 132 121 186 127 84 136 167 125 81 109 122 173 183 191 174 148 138 158 127 117 130 116 135 148 127 101 72 111 159 172 173 176 169 135 75 70 64 40 12 14 48 33 19 34 32 31 15 56 75 28 20 45 56 114 98 16 110 189 57 118 189 84 51 133 161 156 159 160 157 158 162 163 161 158 160 162 162 161 160 162 164 163 164 164 162 161 163 163 162 165 164 164 164 162 161 163 166 163 165 164 164 166 166 165 165 162 165 169 169 167 165 166 168 166 166 167 168 168 168 167 166 
117 117 120 124 123 122 124 126 129 128 127 126 128 130 130 133 134 134 136 139 144 149 153 154 155 148 141 132 121 115 112 109 104 109 109 110 106 102 104 104 104 103 103 102 101 101 102 102 101 103 102 102 103 103 101 101 102 105 105 103 103 101 98 97 102 99 99 96 97 100 99 101 102 102 101 99 98 96 92 88 84 86 86 87 90 93 96 99 100 100 102 101 101 103 102 104 101 102 103 104 104 107 109 108 110 111 113 114 115 118 123 128 136 141 148 151 149 144 136 129 123 116 114 118 117 117 118 119 121 120 119 122 126 129 139 153 171 188 202 214 223 224 227 228 230 229 229 228 228 228 228 227 228 229 230 230 230 230 229 229 226 223 221 224 225 219 217 199 125 115 121 138 131 123 129 146 179 155 140 165 115 147 170 145 144 155 158 169 189 153 60 106 125 136 140 140 113 110 135 147 159 182 201 165 115 143 161 142 112 137 117 96 77 80 99 102 145 160 146 142 167 191 190 162 142 171 144 122 146 151 122 117 127 106 106 83 64 58 79 92 86 42 31 37 50 69 75 71 65 51 41 49 52 37 43 59 57 69 64 60 56 98 145 149 98 79 86 81 83 81 153 142 127 144 129 69 146 178 165 161 137 177 143 37 92 166 157 120 146 166 130 153 183 165 108 142 185 186 159 139 127 125 136 78 38 30 119 168 160 176 134 129 106 99 84 45 13 12 16 18 32 64 56 71 36 25 76 82 34 43 57 71 94 46 60 127 69 65 150 122 66 120 162 157 158 160 160 158 158 161 162 161 162 161 160 160 160 161 162 162 164 163 162 161 161 161 162 161 166 165 165 164 162 161 162 164 162 164 164 164 165 166 165 166 165 165 166 167 167 167 166 165 167 167 167 169 169 169 169 168 
123 121 124 126 123 123 125 122 130 129 129 129 130 130 131 134 133 134 135 138 143 148 151 151 154 148 142 133 123 116 112 108 106 109 109 110 108 103 105 105 105 102 104 105 101 103 104 101 101 103 103 102 103 104 103 102 100 102 102 102 103 102 101 102 105 103 103 101 101 103 102 103 104 103 102 101 102 102 99 96 95 96 96 98 100 100 99 100 99 100 103 100 99 101 100 101 100 103 106 108 108 110 111 110 110 110 112 115 116 117 120 125 131 137 144 147 143 139 133 128 124 118 116 119 119 120 121 119 122 121 121 124 127 129 138 151 167 185 200 213 222 224 226 226 229 230 230 229 230 230 230 229 229 229 230 229 229 230 229 229 229 229 225 227 225 216 223 188 106 93 109 146 138 128 131 139 148 133 146 156 96 135 140 122 135 147 147 170 173 138 93 77 87 119 144 178 176 113 142 141 160 185 178 139 100 68 113 120 129 145 144 132 103 58 133 177 160 162 156 144 167 185 169 140 127 119 96 75 86 104 105 89 56 41 41 71 94 109 136 150 88 47 58 64 71 61 51 66 77 63 45 63 48 39 50 72 71 70 68 115 105 94 114 151 116 66 79 118 134 99 133 156 164 192 171 68 112 172 205 187 157 142 138 58 36 129 172 149 168 170 161 123 121 130 122 140 126 132 188 159 117 155 147 130 88 38 56 99 124 89 85 92 78 105 56 14 49 51 13 13 38 70 61 53 19 32 60 36 7 30 38 24 41 17 62 57 53 140 156 68 87 157 159 158 159 159 159 158 158 159 161 161 162 161 160 159 160 161 162 162 165 164 163 163 163 163 163 163 165 165 165 164 163 161 162 163 163 164 164 164 165 166 165 166 166 165 164 165 167 167 166 165 168 167 167 168 169 169 169 168 
117 116 121 124 122 125 128 122 128 129 129 132 134 131 131 133 133 133 135 137 141 146 149 149 152 147 141 133 122 116 112 108 108 108 105 108 109 107 108 105 108 103 104 108 106 103 102 102 102 105 103 100 101 104 103 102 103 103 102 103 104 103 102 103 100 101 104 101 100 102 102 106 102 102 102 101 101 101 101 101 101 100 99 102 103 101 99 99 101 102 105 102 101 104 102 102 101 104 107 108 106 108 110 109 110 109 110 114 116 117 119 123 127 132 139 141 139 136 133 129 126 121 119 119 120 121 121 119 123 123 122 125 127 129 138 150 165 182 197 211 221 224 226 226 228 229 230 230 230 230 230 229 230 230 230 230 230 230 230 230 227 229 225 225 224 221 226 165 86 84 112 147 102 100 117 120 108 68 135 168 95 116 122 95 132 139 146 158 133 131 176 141 117 152 157 193 165 103 104 136 146 145 123 133 141 126 112 134 145 111 143 152 134 124 129 165 153 160 177 155 159 181 156 139 127 142 139 79 67 71 55 52 67 68 74 122 155 155 143 134 108 94 102 75 59 56 50 61 72 62 50 55 36 37 44 67 80 78 83 127 105 95 121 137 101 52 58 82 110 163 111 118 191 183 129 79 116 138 178 176 148 150 146 66 44 111 137 143 181 185 176 160 100 115 164 183 118 65 124 106 98 151 144 131 148 104 76 92 80 54 123 160 96 60 59 23 24 35 16 4 24 38 27 18 42 57 26 13 34 77 101 134 53 32 23 29 90 167 72 51 142 161 157 156 157 157 157 158 158 158 159 160 158 160 162 161 160 159 161 163 165 163 162 163 164 163 164 165 163 163 164 164 163 163 163 164 164 165 164 164 166 166 165 165 166 166 166 166 165 165 166 167 167 167 167 166 167 167 167 168 
121 119 120 120 119 124 128 124 125 127 125 130 133 130 131 130 133 134 136 137 140 144 148 150 151 146 140 133 122 116 113 110 110 108 104 107 108 106 108 106 107 105 104 106 108 104 101 104 104 106 103 99 100 103 103 102 105 105 104 104 105 104 104 105 105 105 107 103 101 102 102 105 103 103 102 102 103 103 104 105 103 101 99 100 102 100 98 99 101 101 103 101 102 105 103 102 105 106 108 107 105 107 109 110 111 109 110 113 115 116 119 123 125 128 134 136 136 134 132 128 124 121 119 118 118 119 119 118 122 123 122 123 126 128 136 148 163 180 195 209 219 223 226 227 229 230 231 231 232 232 232 231 231 231 231 231 231 231 232 231 232 231 227 225 226 226 202 116 111 115 123 142 92 88 99 123 157 95 86 129 140 166 134 99 141 150 157 124 120 135 151 139 141 123 168 202 155 134 98 118 127 118 118 144 188 202 160 146 150 118 122 145 175 218 145 144 144 133 138 135 147 161 130 129 133 161 155 109 76 52 63 75 146 145 138 155 158 161 150 147 126 117 127 110 72 74 67 56 40 54 62 56 39 36 44 56 75 71 60 80 82 82 113 122 83 63 53 63 104 195 126 106 138 113 86 112 160 143 153 123 158 177 173 79 81 153 139 133 130 106 116 103 108 146 175 183 84 109 148 115 81 95 104 94 120 141 95 100 152 105 97 124 79 60 54 20 36 49 72 47 11 10 21 59 80 78 37 22 67 101 89 103 69 95 50 89 137 90 39 106 154 157 159 157 155 155 156 158 159 158 159 160 159 161 162 161 159 159 161 163 163 161 160 161 162 161 161 163 161 162 163 163 163 163 164 164 165 165 163 164 167 168 166 166 167 167 166 166 166 166 167 168 167 168 167 166 166 166 166 168 
123 122 121 120 119 123 125 124 127 128 123 128 132 129 133 132 134 135 136 137 139 143 147 150 150 145 140 133 123 117 115 112 111 110 107 108 107 103 106 107 102 107 105 103 106 107 104 105 106 106 104 101 102 104 105 105 103 104 103 103 104 105 105 106 106 105 105 102 102 104 103 103 106 103 101 102 105 105 105 104 103 102 101 100 101 100 100 102 101 99 101 100 101 105 102 101 107 107 107 106 106 109 111 111 112 111 111 112 113 115 118 121 124 127 131 132 132 132 130 126 124 122 120 120 120 120 120 121 123 124 124 124 127 129 136 147 161 178 193 207 218 222 227 228 228 230 231 231 231 232 232 231 230 230 230 230 230 231 231 231 228 228 230 226 228 229 175 101 122 115 107 129 135 147 131 137 178 142 88 127 141 167 132 94 126 136 169 109 104 121 110 145 133 130 157 155 164 155 103 105 108 115 137 171 197 188 152 137 150 158 165 173 174 177 156 167 161 118 130 90 103 115 96 98 85 80 92 95 110 136 141 126 138 141 150 163 155 161 160 161 149 128 135 142 100 81 70 64 50 67 72 65 56 43 50 42 59 55 54 73 87 65 96 125 92 56 51 80 131 144 104 131 133 151 150 134 166 157 167 141 173 191 156 55 65 143 150 137 142 137 135 131 84 94 152 151 97 149 169 168 114 80 74 88 114 112 70 76 144 114 52 107 134 81 13 61 77 73 67 88 10 11 70 79 51 62 56 7 55 92 54 41 138 88 61 113 127 58 58 151 163 151 158 157 155 156 157 159 159 159 160 161 163 162 159 158 158 159 160 161 162 162 162 161 161 160 161 163 162 163 163 163 162 163 163 163 163 164 162 163 166 168 168 167 168 166 165 166 168 169 168 167 168 169 167 166 167 167 167 169 
118 121 121 122 124 123 122 123 127 131 125 129 131 129 135 133 132 133 135 136 138 142 146 148 149 144 140 133 123 118 115 113 112 111 109 111 109 104 106 107 103 106 106 104 105 107 107 106 106 106 104 103 104 105 105 106 105 106 105 103 105 107 106 106 104 103 105 104 105 107 105 106 106 103 102 103 104 104 104 104 101 104 103 102 101 101 103 105 105 103 104 103 104 106 104 105 106 105 105 105 106 109 110 108 111 113 113 112 113 115 118 120 123 125 128 129 129 129 128 125 124 122 121 123 125 124 122 122 124 126 126 127 128 129 136 146 158 176 191 206 217 222 227 228 228 229 230 230 230 231 231 231 232 233 233 232 232 232 232 232 230 230 234 228 228 221 145 109 106 97 111 119 142 148 141 141 174 159 119 141 142 179 125 40 70 100 140 152 128 97 133 155 139 166 151 155 173 173 144 124 127 134 178 184 194 150 131 145 161 174 197 191 167 164 158 166 146 141 149 65 97 128 87 87 73 52 53 110 156 160 147 144 159 151 148 159 157 157 163 177 159 131 139 143 107 82 75 75 68 69 76 71 56 41 47 45 55 51 81 115 111 76 104 133 105 61 79 55 64 86 97 142 162 199 183 136 177 205 183 124 139 165 139 39 43 101 144 122 136 184 164 169 133 73 98 98 83 160 186 165 120 107 126 138 144 134 125 102 104 71 70 91 103 39 39 60 54 38 24 65 41 7 39 26 21 35 30 8 12 22 53 100 100 68 166 126 73 44 108 155 151 159 159 159 157 157 158 158 158 159 160 160 161 160 160 159 160 160 160 160 161 162 163 162 161 161 163 165 162 163 163 162 161 162 162 162 162 163 163 163 165 166 166 167 167 166 166 167 168 169 168 167 168 169 166 165 169 169 168 169 
120 124 123 122 126 124 121 125 124 130 125 129 130 128 134 130 130 131 132 134 137 141 144 145 147 143 140 133 123 117 114 111 112 110 107 111 112 108 109 108 108 104 107 109 106 105 108 109 106 106 104 104 105 104 103 104 106 107 105 103 104 105 104 103 102 104 108 106 104 105 104 106 105 106 106 106 104 102 103 106 99 104 105 103 102 102 104 106 105 103 105 104 104 104 103 105 108 107 107 108 110 112 112 108 110 113 114 113 113 116 119 120 121 123 126 127 127 128 127 125 124 121 120 123 126 124 121 120 123 125 125 126 127 127 133 142 156 174 189 205 217 223 227 227 229 230 231 231 231 231 232 232 232 233 233 232 232 232 231 231 232 227 230 226 232 219 123 114 121 85 119 134 144 91 90 123 160 113 91 110 121 156 136 119 96 79 126 142 143 144 142 146 186 172 140 161 181 183 183 144 119 154 165 189 164 137 124 118 133 150 154 147 168 171 157 146 117 113 121 85 65 121 98 75 92 104 121 135 144 166 158 152 156 150 140 158 174 161 168 198 174 134 165 170 116 74 81 89 64 46 65 71 57 50 47 55 65 75 70 79 109 87 77 88 88 59 78 26 45 137 121 101 123 164 139 104 131 163 133 89 121 149 143 71 39 83 92 90 114 125 166 180 156 101 140 144 151 182 175 142 111 131 100 112 148 156 174 138 70 91 113 107 117 56 19 23 13 13 16 78 79 33 15 10 13 39 43 57 83 58 58 79 44 97 173 160 92 64 146 161 155 159 153 157 158 159 158 156 156 157 158 159 154 158 162 163 162 160 160 161 157 160 162 160 159 161 164 165 162 163 163 161 161 162 163 162 162 164 164 163 163 164 164 166 164 166 168 168 168 167 168 169 168 168 164 164 170 170 168 169 
121 120 127 125 124 125 122 126 127 129 130 129 129 132 134 132 135 133 133 134 136 141 145 146 144 142 138 131 122 117 114 111 110 112 113 110 107 108 110 109 109 106 104 107 109 107 105 106 103 108 107 105 106 105 105 107 107 105 103 104 105 107 108 106 107 106 106 103 100 101 104 106 105 106 108 108 105 104 104 105 100 101 102 103 104 103 103 105 107 105 104 105 106 105 105 106 108 109 108 109 110 110 110 111 113 114 112 112 115 119 119 116 123 123 123 125 126 126 125 124 123 121 120 123 125 121 118 121 121 126 123 122 129 129 132 145 155 173 189 202 214 222 225 227 227 230 232 231 230 230 232 233 233 231 231 232 232 232 231 232 234 231 233 230 224 221 126 110 130 102 127 133 141 91 105 132 168 115 79 126 110 130 155 171 165 111 88 114 163 141 129 138 159 144 144 166 178 189 196 174 125 106 135 147 156 177 114 98 102 112 141 142 168 135 130 171 170 168 175 129 69 109 129 145 148 157 158 142 153 188 152 145 154 144 143 149 151 178 177 178 133 150 180 181 112 72 76 88 73 41 50 58 62 65 51 55 60 66 57 64 84 81 73 81 63 57 56 45 91 121 177 111 31 44 127 136 138 121 85 133 165 149 117 104 90 90 92 123 143 94 105 160 137 74 142 183 192 168 119 96 135 131 50 86 146 131 91 79 65 134 144 148 147 46 5 37 86 43 16 25 44 37 17 16 41 78 61 68 150 116 40 52 72 130 116 165 122 113 163 155 156 160 157 158 158 157 156 156 158 158 158 160 157 156 158 161 161 159 159 161 160 162 163 163 161 161 163 165 163 164 163 161 160 161 164 166 165 165 165 164 164 164 164 164 164 165 168 169 166 166 169 170 168 169 168 166 168 171 172 170 
122 121 124 124 124 125 123 125 126 127 129 130 129 131 133 131 134 133 133 134 136 140 144 145 143 141 138 131 122 117 115 113 111 112 113 111 108 110 111 110 111 108 106 107 108 106 105 106 105 108 107 105 107 106 105 106 110 108 106 104 105 107 110 109 106 106 107 107 105 105 106 107 106 106 108 107 105 105 105 104 104 105 105 107 108 106 104 104 104 104 105 107 106 105 106 108 109 110 109 110 111 111 111 112 113 116 116 116 116 118 119 118 119 121 122 123 124 125 126 125 122 122 122 124 125 122 121 123 124 125 126 127 128 129 134 142 157 172 186 198 211 221 225 229 227 230 231 231 230 231 232 233 233 232 232 233 233 233 232 233 234 230 227 232 227 191 96 100 140 97 103 127 140 137 144 172 181 135 138 164 135 136 159 165 152 151 120 80 131 122 120 137 116 123 164 175 171 197 190 146 137 127 145 174 169 195 161 127 111 105 126 179 186 148 140 202 169 145 139 115 69 151 177 172 172 151 175 157 133 162 162 155 149 150 123 116 131 128 125 110 96 116 118 112 96 77 70 80 79 66 65 69 77 66 44 51 60 58 61 65 69 76 75 65 68 61 72 64 59 92 163 179 39 92 163 140 131 143 133 126 189 201 167 114 90 99 117 165 162 146 132 115 81 107 157 171 179 123 44 45 128 146 134 72 97 79 85 82 94 126 130 146 160 69 12 49 99 60 2 32 66 52 14 27 70 69 38 59 88 113 72 68 116 110 116 125 88 139 159 156 160 157 158 156 160 160 159 159 160 160 160 163 159 157 156 158 159 159 160 162 163 163 162 161 160 161 163 164 165 165 165 164 163 163 164 165 164 165 166 165 165 166 166 166 166 166 168 168 166 165 167 168 166 169 169 168 167 168 170 171 
122 122 120 123 125 124 126 125 126 126 128 130 131 132 132 131 133 133 134 135 136 140 142 142 142 140 137 130 122 117 116 115 115 112 109 109 112 115 113 108 111 110 108 107 107 107 107 108 107 109 107 106 109 109 107 106 107 108 109 109 108 109 109 107 107 107 108 109 107 107 107 107 106 107 108 107 106 107 107 105 106 105 105 106 108 106 103 104 104 105 106 108 108 106 107 109 110 111 110 110 112 113 112 112 113 115 116 116 116 116 117 116 117 120 122 121 122 124 125 124 121 123 123 124 125 124 124 126 126 123 128 131 128 130 137 138 155 169 183 194 208 218 224 228 227 229 231 231 231 231 232 232 233 232 232 233 234 234 233 234 234 236 228 232 227 124 74 110 145 128 96 129 140 136 143 167 175 118 103 101 88 95 116 134 151 168 154 105 133 138 151 171 133 120 152 170 170 202 197 138 129 170 195 202 136 118 168 166 155 147 152 176 172 176 162 142 120 64 86 120 126 153 168 177 166 147 175 166 131 122 133 142 125 157 131 73 113 102 62 65 68 85 79 57 54 57 65 66 61 72 69 60 59 47 39 53 58 54 54 54 64 73 68 69 73 91 62 62 51 78 123 107 49 128 151 148 150 168 174 141 149 169 144 149 61 122 133 133 172 155 160 136 90 152 164 150 148 146 142 145 123 101 120 92 85 96 136 149 71 71 126 144 117 62 28 25 49 29 46 100 81 53 30 14 42 29 41 55 72 96 107 127 164 165 165 99 76 161 156 158 159 156 158 156 158 159 159 159 160 159 160 162 159 158 157 157 158 159 160 161 163 162 161 161 161 162 162 163 163 162 163 164 164 163 162 163 162 164 165 164 164 164 165 166 167 166 167 168 166 166 167 167 167 168 169 168 167 167 169 171 
121 123 119 123 125 123 128 126 128 127 128 131 131 132 132 132 133 132 133 135 136 139 141 140 140 137 134 129 121 117 116 116 113 113 113 112 111 111 112 111 110 110 110 109 108 109 109 110 108 109 108 108 111 112 110 108 106 107 110 110 109 109 108 104 110 108 108 108 107 107 107 106 106 107 109 108 107 109 109 107 106 105 104 104 106 105 105 107 109 108 107 108 109 108 108 108 110 111 110 110 112 113 112 112 116 114 113 115 117 117 116 115 117 121 123 121 120 122 123 122 122 123 124 123 124 125 126 126 125 123 128 132 129 131 137 138 150 164 180 193 205 215 221 225 227 229 230 230 231 232 232 232 233 233 233 233 234 234 234 234 232 229 233 230 211 119 110 124 133 131 117 133 125 141 158 169 154 102 90 128 147 129 104 128 159 182 173 140 145 154 149 163 138 105 125 129 140 187 173 124 105 192 207 164 86 57 111 157 153 179 183 147 113 130 120 80 70 79 134 143 163 156 162 170 182 149 159 163 158 127 81 96 81 90 111 49 56 69 48 54 59 55 56 51 52 47 56 52 51 54 47 37 44 52 48 48 48 61 66 58 70 76 64 72 81 73 55 53 78 69 49 21 51 128 143 164 193 181 171 128 122 150 121 133 85 139 175 165 155 173 166 152 63 140 161 137 147 167 162 166 86 105 164 148 77 81 95 139 67 22 124 104 52 88 103 22 6 43 102 95 79 85 83 30 5 30 103 91 96 78 73 141 123 117 153 79 109 162 155 158 155 158 157 157 157 158 158 158 159 159 159 160 158 159 159 157 158 159 159 158 158 160 161 163 163 163 163 162 161 160 161 164 165 163 162 163 163 165 166 164 163 163 164 164 166 165 166 167 167 167 167 167 169 167 166 167 168 168 168 168 
121 124 121 124 124 122 127 126 130 128 128 129 130 131 132 131 133 132 132 134 136 139 140 138 137 134 131 127 120 116 116 116 115 113 112 112 112 113 112 109 109 110 110 110 109 109 109 109 109 110 109 109 110 111 110 109 110 109 108 106 105 108 109 106 110 108 108 108 108 108 108 107 106 107 108 108 107 109 110 109 108 108 107 107 108 107 108 110 111 110 109 108 107 106 107 108 109 110 110 110 112 113 112 112 118 116 114 115 117 119 119 118 118 122 123 121 119 121 122 121 124 124 123 123 123 125 125 124 125 125 127 129 130 131 134 139 147 161 177 190 201 211 219 223 226 228 230 230 231 232 232 232 234 233 233 233 233 233 233 232 236 234 234 233 178 112 96 105 138 131 103 133 136 148 148 151 153 137 130 149 160 150 140 153 154 154 147 139 133 137 127 126 140 156 151 128 116 142 157 127 88 142 176 125 111 126 135 150 130 131 159 152 87 65 63 73 81 128 174 161 136 139 130 119 118 119 152 143 158 182 96 66 70 57 63 40 39 37 23 28 39 36 30 24 37 40 51 52 48 46 50 41 41 47 40 39 52 59 68 59 67 88 84 75 67 68 54 66 84 54 36 125 120 80 120 145 146 148 113 108 142 164 167 134 100 108 168 161 116 144 153 123 54 110 186 125 102 157 172 172 101 108 146 145 100 39 55 109 64 19 82 120 108 137 184 91 16 50 49 67 100 78 55 26 22 56 59 97 109 91 131 176 103 82 104 67 149 155 156 157 155 158 159 157 159 159 158 159 161 162 160 160 157 160 161 159 158 159 160 159 157 159 161 163 163 163 163 163 162 161 162 164 165 164 164 165 165 167 167 166 165 165 165 166 165 165 165 167 167 167 167 167 168 167 166 167 168 168 168 168 
122 124 124 125 124 122 125 126 129 127 127 128 128 129 130 130 133 132 133 134 136 138 138 136 136 132 128 125 119 116 115 115 113 114 116 114 110 108 111 113 110 110 110 110 109 108 107 108 109 110 110 108 108 109 109 108 110 110 109 107 107 110 110 107 108 108 109 111 110 110 110 108 106 106 108 109 107 108 109 109 108 109 109 110 110 108 107 109 108 109 110 107 104 104 107 111 108 110 110 109 111 113 113 113 115 116 116 115 115 116 118 120 118 121 123 121 120 121 122 122 125 124 123 123 123 125 125 124 126 128 127 128 132 131 132 139 148 158 173 185 196 207 218 223 225 227 230 230 231 232 232 232 233 233 233 232 232 233 233 232 235 236 227 234 151 89 114 120 145 144 71 97 107 124 132 155 173 112 95 106 107 100 131 140 130 111 110 114 118 131 140 124 149 167 176 177 178 170 165 169 108 110 122 127 152 188 169 141 120 100 122 114 82 82 118 156 112 97 113 117 63 64 64 54 66 77 107 123 114 109 54 41 41 25 22 18 7 5 6 10 21 20 16 16 20 16 26 36 50 48 56 54 54 49 38 49 63 55 61 62 63 73 76 77 65 48 43 96 56 44 86 128 151 107 70 76 118 131 132 104 134 156 166 128 74 103 136 155 149 130 99 56 96 144 151 104 103 114 113 155 115 82 109 135 110 17 22 101 129 72 47 79 104 142 160 148 64 47 48 20 19 29 74 59 19 27 37 109 133 127 177 140 118 141 64 105 161 153 156 156 159 157 160 155 158 159 158 158 161 162 160 159 158 160 161 159 158 160 162 163 161 161 161 161 160 161 162 164 162 162 162 162 162 163 163 163 164 165 166 165 165 166 166 166 165 166 166 167 167 166 165 167 166 168 169 169 167 167 168 170 
120 121 125 124 123 124 123 126 127 127 128 127 127 129 130 129 133 133 135 135 134 135 136 135 134 130 126 123 119 116 115 114 115 113 113 113 112 112 112 111 113 111 110 111 111 109 108 109 110 110 109 108 108 110 110 109 109 111 112 111 110 111 111 107 109 109 110 111 110 110 110 110 110 108 109 110 110 109 109 110 108 109 109 109 110 107 106 107 108 109 108 107 105 106 109 111 107 110 111 110 111 113 114 115 113 116 116 114 113 115 117 118 118 120 121 121 121 122 123 124 125 124 124 125 124 125 126 126 128 129 128 129 133 132 133 139 147 155 167 179 191 204 215 220 224 227 230 231 230 231 232 233 233 233 233 232 232 233 233 232 233 229 233 237 136 97 145 97 103 122 108 113 88 112 132 154 179 137 81 82 117 90 79 116 124 122 105 115 151 176 148 88 131 160 165 189 212 193 168 151 174 167 127 154 142 174 173 183 144 83 59 63 109 131 152 165 143 78 72 97 78 60 62 59 63 63 41 41 24 5 4 10 11 2 10 7 4 12 11 11 18 21 20 21 15 16 17 10 27 29 34 40 44 40 43 61 58 55 58 60 52 46 64 93 86 51 43 82 97 47 71 109 147 179 124 74 154 168 184 171 149 154 156 120 80 136 153 182 171 136 125 64 138 175 140 80 130 144 121 120 138 141 104 135 161 75 45 138 180 121 12 77 96 83 75 110 92 101 150 98 31 56 144 123 25 13 103 112 120 152 163 85 79 130 80 146 158 155 157 156 161 157 159 155 156 157 157 157 159 160 159 157 157 159 160 160 159 160 161 162 163 162 161 160 160 161 162 163 160 162 163 161 160 161 162 161 162 163 163 163 164 165 166 165 165 167 167 167 168 166 165 166 166 169 170 169 167 168 169 170 
118 117 124 123 124 126 123 128 125 127 129 128 127 130 131 129 133 134 136 136 133 133 135 135 134 129 125 123 120 116 115 114 115 113 113 113 112 112 112 112 115 112 110 112 112 111 111 113 110 109 109 108 109 112 113 111 110 112 112 109 107 110 112 110 111 110 110 109 107 108 110 111 114 110 110 112 112 110 110 111 111 110 108 108 110 109 108 109 111 109 106 106 109 111 110 108 107 111 112 111 112 114 115 116 115 117 116 115 116 119 119 116 119 119 120 121 121 121 123 124 125 123 125 127 125 125 128 128 128 128 128 131 133 134 136 140 145 151 163 176 189 202 212 216 224 227 230 231 230 231 232 233 232 233 233 232 232 234 233 232 235 231 232 220 131 119 127 93 101 130 153 179 155 128 149 164 189 189 135 121 149 149 104 104 150 146 130 158 166 188 149 76 99 143 174 194 197 168 150 161 218 152 131 137 131 154 161 127 108 53 57 89 78 96 113 90 115 89 72 63 59 36 19 10 8 5 4 1 6 7 8 9 9 9 7 7 13 5 7 10 13 19 15 22 19 21 15 15 10 19 22 25 21 23 43 57 54 58 61 61 53 50 64 74 87 73 51 48 69 50 63 97 106 143 161 143 136 173 134 121 118 120 130 95 84 128 141 165 165 158 141 85 106 165 175 110 100 187 188 142 131 92 55 109 170 97 59 101 140 128 79 144 66 35 62 81 81 115 144 108 86 63 116 101 77 93 138 118 129 147 100 49 65 89 102 158 156 155 158 157 157 158 155 156 155 157 158 157 159 160 159 158 156 157 159 161 161 159 157 157 163 162 161 161 162 162 162 161 159 163 164 162 161 163 164 163 164 164 163 164 165 167 167 165 164 167 167 167 168 166 165 167 167 169 169 168 169 171 171 168 
121 120 121 123 123 123 124 126 125 126 127 130 132 131 130 132 131 131 131 131 132 134 135 134 133 130 125 121 119 118 116 113 116 116 113 112 114 116 115 113 113 117 118 114 112 111 112 114 111 110 110 111 112 112 111 110 110 114 115 112 112 113 111 110 111 112 111 110 111 110 109 109 111 109 111 114 112 109 109 111 111 108 110 110 111 111 107 108 108 107 108 109 108 109 112 112 112 112 113 113 113 113 114 114 117 115 114 116 118 117 117 120 118 119 121 122 122 121 122 123 124 126 127 126 126 128 128 127 127 128 129 130 132 133 136 141 145 151 161 173 185 195 206 216 221 225 228 230 232 234 234 234 233 234 234 234 234 234 233 233 233 230 233 197 101 111 135 155 139 131 154 163 127 132 142 151 175 164 131 128 153 174 112 82 147 115 116 132 149 154 145 142 138 128 146 165 160 148 137 165 197 135 91 104 117 114 118 82 76 90 107 98 85 60 60 56 48 53 14 2 3 6 5 2 4 4 5 5 5 5 5 6 8 7 7 9 9 8 8 9 14 17 20 20 21 22 19 14 17 16 22 26 20 19 35 55 70 69 59 57 54 56 65 56 82 70 50 37 34 41 71 85 32 112 168 132 88 100 64 99 136 144 140 131 92 109 126 144 135 115 126 85 85 91 133 121 121 168 154 123 140 45 60 103 139 156 104 66 28 85 166 169 97 123 164 152 71 71 86 98 125 75 83 121 135 114 88 109 183 139 88 86 94 56 127 165 155 157 157 155 155 157 158 157 157 158 158 157 157 158 158 158 160 160 159 160 161 159 157 158 159 156 157 159 159 161 163 160 163 162 160 161 164 164 162 162 162 167 165 161 162 164 165 166 165 164 163 165 168 169 167 163 165 168 168 168 169 169 168 169 
123 122 122 124 125 125 126 127 125 129 130 129 130 131 131 132 131 131 131 131 131 133 134 132 129 129 127 123 120 118 117 116 113 115 115 113 112 112 113 114 110 112 111 111 113 115 114 112 110 111 112 112 112 111 110 110 110 111 112 112 112 111 111 113 111 111 110 109 111 112 111 111 111 111 112 111 109 109 110 110 111 109 111 111 111 112 109 110 110 108 109 110 110 111 113 112 115 114 112 111 112 115 116 116 118 117 116 117 119 119 120 123 119 120 121 122 122 122 122 124 124 125 125 124 124 127 129 128 129 130 130 131 133 133 136 140 143 149 157 169 182 193 204 212 220 225 229 230 232 232 232 232 233 233 234 234 233 233 232 231 231 233 234 174 88 108 133 142 115 137 163 130 82 101 135 144 141 126 138 133 154 178 137 60 103 109 78 85 97 131 165 171 179 153 129 128 140 153 103 113 143 110 91 125 117 113 113 111 98 88 113 125 104 66 41 25 15 0 14 8 4 2 3 8 3 3 3 3 3 4 6 7 7 7 8 9 9 7 7 8 12 15 20 22 22 22 19 15 14 15 17 20 20 18 26 40 52 65 60 49 49 53 56 58 49 65 68 58 58 78 86 59 61 122 94 91 155 147 142 135 146 136 148 152 62 94 146 170 147 137 100 95 168 153 107 104 156 146 125 125 149 89 81 144 146 153 99 64 52 70 122 143 115 115 169 169 103 72 118 135 170 174 149 156 132 91 57 87 150 109 71 116 100 60 154 153 156 157 157 156 155 156 157 157 158 159 159 157 157 158 158 158 158 159 159 161 162 160 157 157 159 157 158 160 159 160 161 158 159 162 163 163 164 163 162 162 162 166 165 163 164 165 166 166 166 167 167 166 166 166 167 168 167 168 167 166 167 168 169 170 
122 121 121 123 124 125 126 126 125 131 133 129 128 131 132 132 131 131 131 130 130 132 132 130 126 127 126 123 120 118 116 115 112 115 116 114 112 111 112 114 114 114 112 111 113 114 111 107 111 113 114 113 112 111 111 112 112 110 110 112 112 110 111 114 111 111 110 109 112 113 112 112 111 113 114 112 109 110 111 110 111 110 112 111 111 112 110 112 111 109 110 111 111 112 113 112 112 113 113 113 115 118 117 114 115 116 116 116 118 119 120 123 120 121 122 123 123 122 123 124 125 126 125 125 125 127 128 128 131 131 131 132 132 132 134 138 141 146 153 162 176 190 200 208 218 224 229 230 231 231 231 231 233 233 233 233 232 232 231 230 227 231 226 149 92 121 132 96 118 133 140 136 126 159 167 166 148 108 139 147 158 158 148 124 126 134 129 124 101 151 172 170 156 148 131 140 176 169 150 117 112 92 93 127 130 102 74 69 79 99 101 68 25 21 9 14 12 18 11 3 11 4 6 1 2 2 2 2 3 4 6 7 5 7 9 9 8 7 7 7 7 11 18 22 20 18 17 15 15 17 16 18 25 24 22 29 40 54 56 46 50 55 52 59 57 63 80 77 83 68 106 103 115 146 105 92 149 151 165 137 143 153 164 136 43 53 88 137 161 159 142 138 155 147 121 121 134 150 147 110 147 91 86 149 144 150 89 128 158 86 47 138 146 111 175 144 58 109 122 125 160 183 190 176 160 113 72 78 90 84 147 134 72 114 163 156 157 157 157 156 156 155 155 156 158 159 159 158 157 158 158 158 162 160 158 157 158 159 160 163 159 158 159 161 159 159 160 158 160 164 165 165 165 165 164 164 161 163 164 164 165 165 165 166 165 166 166 166 165 165 166 168 167 168 167 166 167 168 169 170 
122 122 122 123 124 125 126 126 126 131 132 130 130 130 131 132 132 131 131 131 130 132 132 130 129 127 124 122 121 120 117 114 116 116 115 115 116 115 113 113 113 115 114 113 113 113 112 112 115 115 115 113 111 111 113 115 114 111 110 111 111 110 111 113 112 112 110 110 112 113 111 110 111 113 115 114 112 112 113 112 112 111 113 111 110 111 109 111 111 110 110 111 112 113 112 112 109 112 113 113 115 117 117 114 113 116 118 118 118 119 119 120 122 122 123 123 123 123 124 125 125 127 128 128 128 129 128 127 131 131 131 131 132 132 133 137 140 145 150 157 170 185 196 203 214 221 228 230 231 231 231 232 233 233 233 233 232 232 231 229 228 223 223 144 88 108 138 103 91 99 110 139 157 166 155 166 134 89 139 151 163 114 126 160 159 163 191 160 112 164 161 159 146 156 110 168 198 209 208 174 101 91 101 118 128 79 60 83 73 68 18 7 28 20 22 15 13 19 10 14 7 5 4 4 2 3 3 3 4 4 4 5 5 8 10 9 7 7 7 7 6 9 15 20 19 17 16 15 14 15 14 16 24 27 24 23 42 40 37 37 45 51 50 52 57 73 62 48 56 33 94 103 92 122 134 95 121 166 182 160 141 146 151 115 20 50 62 90 148 137 143 137 111 92 106 133 133 157 185 100 120 111 91 128 136 131 112 156 175 66 24 144 154 140 175 90 22 101 135 150 167 171 196 181 146 155 125 133 99 165 158 108 87 139 161 154 158 156 156 157 157 155 155 157 158 159 159 157 157 158 159 158 158 159 159 160 161 161 160 161 159 158 160 160 159 160 161 160 163 163 162 161 163 166 165 163 161 161 162 163 164 164 164 165 164 163 164 166 168 168 166 165 166 167 167 167 168 169 168 167 
123 124 125 125 126 127 128 129 127 128 129 131 132 130 129 131 132 132 132 132 131 132 133 131 131 129 126 124 123 122 119 117 118 117 115 116 118 117 115 114 115 116 116 114 114 113 113 115 115 115 114 113 113 113 113 114 115 114 113 111 110 112 113 111 112 112 111 111 113 113 111 110 113 112 113 115 114 112 113 114 113 112 113 111 111 112 110 111 111 111 110 112 113 113 113 113 112 113 113 111 111 115 118 118 116 120 120 119 119 120 121 121 122 122 123 124 124 124 125 126 126 127 128 129 130 130 129 128 131 131 131 132 133 133 134 137 141 146 150 155 166 179 192 200 211 219 227 230 231 231 231 232 233 234 233 233 233 232 230 228 227 220 214 120 70 99 150 157 112 116 138 146 160 138 148 171 127 65 140 142 136 79 144 144 147 139 146 132 128 151 142 153 166 154 110 143 227 224 215 198 128 102 107 103 69 79 110 67 13 10 29 67 108 46 29 31 17 18 9 14 8 7 6 6 6 5 4 4 3 3 4 4 5 8 9 8 6 6 7 7 10 10 14 19 20 19 18 18 16 15 15 15 19 28 29 22 29 39 39 47 53 48 51 50 49 60 63 49 55 63 68 114 96 62 121 128 111 133 158 125 115 127 143 75 0 66 147 144 119 136 132 86 100 139 156 128 133 150 165 93 109 107 98 126 133 120 127 94 125 142 89 136 113 107 119 59 42 80 108 109 147 184 197 134 139 124 123 162 143 151 105 97 116 156 156 154 158 156 156 158 158 155 155 158 156 158 158 157 157 158 159 158 157 159 160 160 162 161 160 161 160 160 160 160 159 160 162 162 161 160 159 159 160 163 163 161 163 161 161 163 163 163 164 165 167 165 164 167 170 170 168 166 167 167 166 166 169 170 168 166 
122 124 125 125 125 126 128 128 127 126 127 131 134 130 128 131 131 131 132 132 131 133 133 130 128 128 127 125 122 120 119 119 116 117 117 117 117 115 114 116 118 117 115 114 115 114 112 112 112 112 113 114 115 114 112 111 114 113 113 112 111 114 115 111 111 112 112 112 114 114 112 112 116 112 111 114 112 110 112 115 113 112 114 112 112 114 112 113 112 113 112 112 114 113 113 115 113 114 115 114 113 115 117 119 118 120 119 117 117 119 120 122 122 122 123 124 125 125 125 126 127 127 127 127 128 130 131 132 132 132 132 133 135 135 136 139 141 146 150 154 162 174 187 197 209 217 225 229 231 231 231 232 233 233 233 233 232 231 228 226 225 219 180 102 100 113 122 150 145 134 147 154 146 125 148 180 134 66 81 99 129 85 123 112 98 112 122 115 126 130 137 157 193 175 131 132 224 209 192 163 101 99 111 71 102 117 44 5 11 56 95 126 124 75 57 74 24 21 16 14 20 11 15 9 10 8 5 3 3 3 4 5 6 7 8 7 6 6 7 8 11 9 12 16 19 20 20 19 19 16 16 14 15 26 31 22 21 33 26 38 59 59 55 46 42 58 46 47 65 69 62 93 69 90 103 87 94 120 91 72 114 158 154 104 15 48 146 175 133 162 167 115 106 149 172 142 84 102 87 73 114 110 118 136 159 173 95 52 63 77 86 103 114 82 106 100 60 55 52 60 125 192 159 133 144 129 138 155 102 115 85 82 121 160 151 156 157 156 157 158 158 156 156 158 156 157 157 156 156 158 159 159 158 160 159 158 159 160 161 162 162 161 160 160 160 161 162 163 159 160 162 163 162 162 163 162 165 163 162 163 163 164 165 165 168 166 165 166 167 166 166 167 168 168 165 165 168 169 168 167 
121 122 123 123 123 125 126 126 127 126 127 130 132 131 129 130 130 130 131 131 130 132 132 129 128 128 128 125 122 120 118 117 115 116 116 117 116 115 114 117 114 114 114 115 117 116 114 115 112 112 113 114 115 115 114 112 114 112 113 114 113 115 115 111 112 114 114 113 114 114 114 115 115 112 112 113 113 113 114 113 113 112 114 112 113 115 113 112 113 114 113 112 113 112 112 115 113 114 116 118 118 116 116 117 117 117 117 116 118 119 119 121 121 122 123 124 125 126 126 126 128 128 127 128 129 130 131 133 132 132 132 134 136 136 137 140 140 144 148 153 160 170 182 193 206 215 222 227 230 231 231 232 232 233 233 232 231 229 225 222 214 210 145 108 106 90 102 124 126 140 156 171 119 89 111 170 174 92 79 139 168 108 77 111 132 130 124 105 96 101 142 172 170 156 117 132 196 179 183 142 71 100 99 141 131 26 11 24 46 110 113 141 114 108 117 117 88 37 27 18 13 13 13 9 11 10 7 6 5 5 5 5 6 5 6 8 8 6 7 8 9 8 10 14 18 20 21 19 17 17 13 9 12 24 27 19 17 24 22 34 53 56 49 41 37 49 47 42 57 55 51 75 77 85 70 63 84 135 77 41 109 151 161 130 38 33 114 121 96 107 152 153 77 118 145 103 127 138 128 101 87 119 122 138 177 187 115 52 44 38 73 69 97 136 165 165 135 56 27 57 142 172 106 128 163 166 171 141 77 121 78 72 136 158 154 160 156 156 157 158 157 156 156 157 156 158 158 157 157 158 159 159 155 159 161 161 162 161 159 158 161 160 159 159 161 162 162 163 161 160 162 165 163 162 164 164 165 163 163 164 163 165 166 164 167 165 165 165 165 163 164 166 167 168 167 166 168 168 167 167 
122 123 123 123 124 127 127 126 126 128 128 128 130 132 130 129 130 130 130 130 129 131 130 128 133 131 129 128 127 124 120 116 117 116 115 116 117 116 115 116 115 117 118 118 116 113 111 112 114 113 113 113 114 115 116 116 115 110 112 116 115 113 113 110 114 115 115 113 113 114 115 117 111 112 113 115 116 118 116 111 113 112 114 112 113 115 111 110 113 114 113 112 112 110 110 113 117 115 114 116 117 115 116 118 115 117 118 120 122 122 120 120 121 121 122 124 126 126 126 126 130 130 130 131 131 131 131 131 131 131 132 133 136 136 137 140 139 142 146 151 159 167 180 191 204 212 220 225 230 232 232 233 232 232 232 231 230 227 223 219 210 207 132 127 110 122 169 107 107 127 140 164 138 109 105 146 175 126 130 151 170 153 105 150 189 179 133 111 101 103 141 132 116 150 119 98 125 155 177 120 62 84 129 119 26 11 18 44 99 112 136 122 87 124 143 136 128 107 54 34 20 15 17 13 9 9 9 9 8 7 5 4 5 4 6 9 9 7 6 7 9 9 11 15 19 22 23 21 19 21 15 9 16 26 27 21 23 13 16 23 27 31 32 31 30 41 50 53 57 64 45 56 59 67 81 86 93 120 79 31 44 87 127 130 36 50 106 89 93 68 66 111 77 155 160 125 146 174 177 122 123 148 137 125 115 151 167 104 115 159 85 17 100 138 162 131 88 95 149 142 140 107 78 117 174 166 169 83 67 149 126 94 147 160 153 153 156 156 157 157 157 156 156 156 157 158 158 157 157 158 159 158 158 160 160 158 158 159 159 160 159 159 158 159 162 163 163 163 163 158 157 161 162 162 163 163 164 162 163 163 163 165 166 163 166 164 164 167 168 167 165 164 164 167 169 169 169 168 166 166 
124 125 125 124 124 127 128 126 127 128 129 131 131 130 130 130 131 130 131 131 131 132 131 128 133 133 132 128 124 123 121 117 120 117 117 118 116 116 118 116 116 115 115 116 115 113 112 114 112 113 114 115 115 114 115 115 117 112 115 117 113 115 118 111 112 116 115 112 112 113 113 114 114 115 116 116 114 113 113 114 115 115 114 115 116 113 111 113 111 114 115 113 113 115 116 115 116 115 115 116 118 118 117 115 118 119 119 119 121 122 123 122 120 121 123 126 127 126 126 126 129 126 127 129 130 131 131 129 132 133 133 135 137 136 136 138 140 143 147 151 156 163 174 185 198 208 216 222 226 229 232 233 230 231 232 229 226 224 218 210 209 170 107 130 127 153 172 114 91 122 128 136 153 162 162 169 156 90 95 146 171 167 116 155 193 156 141 166 143 104 109 101 131 155 141 133 118 137 152 115 59 112 102 15 10 30 29 67 125 118 138 96 133 175 132 132 102 86 100 79 31 23 14 11 16 12 10 15 10 12 5 8 4 5 5 7 8 8 6 6 8 8 9 13 17 19 21 25 22 18 13 8 12 25 29 21 17 14 19 20 22 23 21 31 30 24 41 53 61 77 81 42 54 40 35 67 92 99 84 44 71 86 100 99 30 50 124 125 131 117 87 63 63 113 162 174 113 153 194 137 165 159 144 143 97 79 114 115 137 192 98 10 106 153 163 73 52 132 149 189 183 116 89 116 173 147 103 72 150 150 105 120 153 154 158 154 156 157 155 155 156 157 156 156 154 157 159 157 155 158 159 158 156 159 160 157 156 158 161 163 159 161 162 160 158 158 161 164 161 162 162 162 162 164 163 161 160 161 164 165 164 163 163 163 166 164 164 167 168 167 165 164 167 165 165 167 168 168 168 169 
121 123 124 123 123 124 126 126 130 129 128 129 130 131 131 131 131 129 129 129 129 131 132 132 134 131 131 132 128 122 120 121 120 117 117 118 117 118 119 118 118 116 115 116 115 114 114 116 115 115 115 116 116 116 116 115 115 114 115 115 113 114 115 113 115 115 113 113 116 116 113 112 115 115 116 116 115 113 113 114 115 116 116 117 116 114 114 115 111 112 113 112 113 115 115 114 116 115 115 116 118 118 117 115 119 119 119 119 120 122 122 121 123 123 125 126 126 126 126 127 129 127 129 131 130 131 132 131 133 134 135 136 136 136 137 141 141 143 146 150 155 161 172 183 195 205 214 220 225 229 231 232 232 231 230 227 224 221 214 205 201 136 108 113 121 150 154 125 146 169 142 141 157 155 166 165 155 97 69 123 146 142 114 131 136 131 156 182 184 142 103 132 159 190 194 195 181 160 134 114 83 69 23 14 43 48 46 85 132 122 140 97 161 201 122 143 131 91 122 129 84 53 57 43 22 22 9 12 12 12 10 9 5 6 6 6 7 7 7 7 8 8 9 13 18 19 20 22 18 16 9 7 23 31 23 24 20 12 8 11 8 8 21 26 28 25 33 56 79 97 107 70 56 105 110 117 143 151 152 94 142 150 129 122 46 41 131 151 131 120 131 70 62 102 103 90 93 130 125 103 110 132 128 167 180 144 50 55 112 192 117 14 94 140 142 63 29 97 135 150 131 146 142 129 167 141 85 125 172 65 87 134 153 153 158 155 155 156 156 155 157 157 157 158 155 155 156 156 155 156 158 158 155 156 157 157 159 162 161 158 159 160 159 157 156 158 161 164 161 162 163 162 162 162 161 161 159 160 162 163 160 159 160 161 165 164 164 166 168 168 166 165 165 165 166 167 167 167 168 168 
121 122 123 123 123 123 124 126 127 127 127 128 130 131 132 134 131 129 129 130 130 131 133 135 134 133 134 135 130 124 122 122 121 118 117 118 118 119 120 119 117 116 116 116 116 115 115 116 114 113 112 114 115 115 114 114 114 116 115 114 115 114 113 115 116 115 113 114 117 117 114 113 115 115 116 116 115 114 114 116 116 115 117 118 115 114 117 116 113 112 112 113 115 115 115 115 116 116 116 117 118 118 117 116 120 119 119 119 120 122 122 122 124 125 125 126 125 125 127 129 128 128 130 132 130 130 132 133 132 135 137 137 136 135 138 142 142 144 146 149 153 159 168 178 190 200 211 218 224 228 229 230 231 229 227 224 221 216 208 200 193 125 114 107 101 134 140 149 171 155 116 133 128 134 141 171 177 137 63 88 114 125 110 115 116 115 135 167 189 133 153 181 203 233 212 202 180 157 131 68 35 17 12 39 59 47 61 79 117 134 114 120 130 166 150 134 141 109 91 151 155 109 96 111 83 28 17 25 15 11 14 9 7 7 6 6 6 6 7 8 7 7 7 11 17 18 16 16 15 6 11 16 26 29 17 20 17 44 70 104 128 148 169 156 164 169 144 104 98 112 118 91 86 128 125 126 135 140 144 116 105 156 161 173 97 27 89 120 99 106 126 58 72 125 119 48 78 122 99 74 92 129 149 153 166 111 36 8 76 125 111 34 83 84 60 60 18 24 61 74 91 121 123 124 162 127 99 151 119 43 90 136 153 156 153 159 154 156 157 156 157 157 157 158 157 154 154 156 156 155 157 159 160 160 160 159 160 161 158 153 159 158 158 157 157 159 161 163 160 161 162 163 162 160 161 162 162 161 162 162 161 161 162 162 165 165 165 165 167 168 167 166 163 166 168 167 166 167 168 168 
122 122 123 124 124 124 125 127 127 129 131 131 129 127 127 129 131 130 132 134 132 131 132 134 134 136 138 135 131 129 126 121 123 120 119 118 118 118 118 119 116 115 116 117 117 116 114 113 115 114 114 116 117 118 118 118 116 116 115 115 115 115 115 116 115 115 115 116 116 114 114 115 114 115 115 116 115 115 116 117 117 114 116 117 113 114 118 115 116 114 114 116 117 117 117 118 117 117 117 118 119 119 118 117 119 120 120 120 121 122 124 124 124 124 125 125 125 125 128 130 128 129 131 132 131 131 132 133 132 135 137 137 136 136 137 141 143 144 145 147 151 156 165 174 186 196 208 216 223 227 228 229 229 226 223 221 217 211 203 196 190 133 84 87 121 119 128 156 158 128 75 98 94 98 93 117 143 146 87 130 153 156 143 122 97 85 87 112 139 111 175 181 207 200 169 157 154 140 98 36 24 15 32 71 49 75 44 75 110 147 122 122 151 141 114 119 131 108 103 122 139 121 106 110 118 106 41 37 32 25 15 14 10 8 8 8 7 6 7 8 7 7 7 11 15 16 14 13 13 6 16 20 26 25 16 32 100 173 202 196 194 200 210 205 204 199 195 147 113 116 107 75 80 119 115 100 116 133 148 155 139 174 182 180 126 49 109 154 143 143 127 56 99 152 122 53 87 152 126 119 77 65 77 58 87 92 68 18 50 48 46 23 18 46 99 91 39 15 53 70 82 134 139 143 159 131 63 123 104 42 94 145 153 157 162 152 155 157 157 156 156 156 156 157 157 156 156 157 156 156 157 158 156 158 159 158 158 160 161 160 157 158 160 160 160 160 160 161 158 158 160 162 162 160 161 163 164 161 161 163 164 165 165 164 164 165 165 164 165 167 167 165 164 168 170 168 168 169 169 168 
123 122 122 124 126 126 126 127 125 127 129 131 130 130 131 133 132 130 132 134 132 131 132 135 136 138 139 137 134 133 128 121 123 122 120 119 118 117 117 118 117 116 116 116 117 116 114 113 116 115 116 117 117 117 118 119 117 114 115 116 114 115 116 115 115 114 115 115 114 112 114 117 115 115 115 116 116 115 116 117 116 113 115 116 114 116 119 116 117 115 115 117 118 117 117 120 118 117 117 118 119 119 119 118 119 121 121 121 120 121 123 124 123 124 125 126 126 126 127 129 128 129 130 132 133 132 132 133 132 135 137 137 138 138 138 140 142 143 144 146 150 154 162 171 182 193 205 213 221 226 227 228 226 224 222 218 213 206 199 192 152 101 129 131 169 121 101 139 137 136 140 144 136 107 78 98 108 135 103 154 166 176 180 125 108 125 103 120 116 112 185 192 216 176 159 153 128 113 89 30 10 16 34 66 70 61 39 75 106 130 133 96 135 139 98 136 146 137 117 115 131 117 113 130 118 133 106 74 45 24 23 15 13 10 10 10 8 7 7 7 8 9 9 11 14 15 14 14 11 16 17 14 30 28 20 55 126 128 132 125 118 138 170 181 173 182 179 138 117 106 89 80 85 117 125 115 92 135 158 161 125 117 139 130 110 70 126 159 153 138 143 103 81 142 145 66 72 128 151 137 64 63 50 50 91 99 99 40 41 110 101 42 64 122 130 81 27 13 61 82 87 131 165 149 148 113 29 73 97 70 120 116 139 152 156 154 155 156 155 155 156 157 156 156 156 158 159 157 155 157 158 157 155 157 158 156 155 158 160 160 156 158 160 161 160 159 159 160 158 158 159 161 162 161 161 162 161 160 161 163 163 163 164 164 164 165 165 164 164 166 166 165 165 168 170 169 168 170 169 167 
122 122 122 124 126 127 127 126 132 130 129 129 130 131 132 132 133 131 131 132 130 131 134 136 139 138 138 140 138 133 129 125 123 122 120 119 119 117 117 118 120 118 116 116 116 117 116 115 116 116 116 116 115 115 115 116 117 113 114 117 114 114 116 114 117 115 114 114 114 115 116 116 117 116 116 116 116 115 115 115 116 114 115 116 116 118 120 117 117 115 115 116 116 115 116 118 117 117 117 118 118 119 119 118 119 121 122 120 119 120 122 123 124 124 126 127 127 126 126 127 129 129 130 132 134 134 132 133 134 136 137 138 139 140 139 140 142 142 143 146 149 153 160 167 178 189 200 210 218 223 225 226 225 222 219 214 207 200 192 184 131 121 135 132 157 108 91 111 156 171 172 183 153 138 155 159 168 156 131 153 165 173 149 113 158 163 188 187 102 79 173 209 195 154 146 130 91 114 163 132 104 94 85 67 74 30 49 63 90 115 140 120 116 123 127 128 120 107 109 105 114 152 142 135 142 129 136 118 97 65 30 20 18 12 11 12 9 7 7 6 6 8 8 9 12 12 13 14 13 16 17 17 29 28 23 47 91 97 94 79 82 84 83 105 169 194 197 178 156 121 101 84 101 107 140 116 75 130 165 184 106 117 154 134 136 103 119 170 178 167 163 144 80 112 106 48 90 116 118 112 64 19 55 99 95 115 130 66 37 98 102 104 105 155 121 28 31 6 13 41 75 95 173 136 134 86 24 52 89 91 123 109 130 152 154 154 155 155 154 154 156 158 157 157 154 158 160 157 154 157 158 156 159 160 159 158 159 160 158 155 156 158 159 159 157 157 159 161 159 159 159 161 161 161 160 160 159 161 164 164 161 160 162 165 164 164 165 164 164 164 164 164 166 168 169 168 168 168 168 166 
121 122 123 123 125 127 127 126 128 128 128 129 130 131 134 136 133 132 132 132 131 133 136 137 139 138 139 140 138 135 131 128 124 123 120 119 121 119 117 117 120 119 117 117 118 119 118 116 119 118 117 117 117 116 116 116 116 115 115 117 116 115 115 117 118 116 115 115 115 117 118 115 117 116 116 116 116 115 114 114 117 117 116 116 117 118 117 116 118 116 115 115 116 116 116 117 118 118 118 118 119 119 120 119 119 120 121 121 121 122 123 123 126 125 126 128 129 128 128 127 129 130 130 132 135 134 133 134 135 137 137 137 138 140 140 141 141 142 143 145 149 152 158 165 175 185 196 205 213 219 221 222 221 219 214 207 199 192 183 174 125 107 87 101 140 161 138 105 144 166 172 172 119 150 162 151 164 127 121 147 177 164 123 147 173 182 182 182 126 57 125 167 148 136 127 81 94 143 150 139 162 194 206 162 63 43 45 63 83 98 130 131 143 112 126 128 118 104 112 122 122 120 146 146 150 142 112 134 120 105 60 21 23 15 12 12 10 8 8 6 4 6 7 9 11 12 12 13 14 10 17 22 22 24 23 22 36 45 50 50 62 61 61 95 148 185 195 202 198 145 112 104 94 94 126 123 126 134 165 193 91 89 135 151 162 145 112 121 137 138 132 115 87 160 125 65 120 162 153 109 36 45 113 93 106 142 128 92 47 47 36 52 76 119 82 36 38 23 13 32 99 98 193 160 121 98 35 73 98 103 108 123 141 157 158 155 155 156 155 154 156 157 158 159 156 157 158 157 155 157 158 157 157 158 158 159 162 164 162 158 156 157 158 158 158 158 159 160 158 160 160 160 160 161 160 160 161 161 162 163 161 161 163 165 163 163 164 165 164 163 164 165 165 167 168 168 167 166 166 167 
120 123 124 124 125 127 128 126 126 129 132 132 129 127 129 133 134 134 135 134 133 135 136 135 137 140 142 139 136 137 135 129 125 123 120 119 122 121 117 115 118 118 118 119 121 121 117 114 118 116 114 115 115 115 114 114 115 119 117 117 120 116 114 120 117 117 118 117 116 118 119 116 115 114 115 116 117 116 115 115 118 120 118 115 116 116 114 114 120 118 116 116 118 118 118 117 119 119 119 120 120 121 121 121 119 120 120 121 124 126 126 125 126 126 126 128 130 130 130 129 129 131 131 133 136 135 133 135 135 137 136 135 137 139 140 141 141 142 143 145 149 152 157 163 172 182 193 201 210 216 218 220 217 214 209 200 193 187 177 166 120 122 103 113 145 165 143 112 153 174 169 147 91 110 117 128 139 118 95 101 120 113 127 173 178 167 147 140 118 82 105 138 142 129 94 57 91 105 96 117 146 151 175 203 133 40 42 52 77 78 128 157 151 129 128 124 133 128 108 132 149 141 145 149 154 136 104 110 126 116 94 33 26 16 12 12 9 8 8 6 5 8 9 11 14 15 15 15 13 12 15 18 20 23 22 16 17 17 14 15 26 27 42 87 99 151 189 189 175 140 116 104 92 98 67 128 124 144 156 99 113 105 107 138 184 175 97 97 156 148 122 106 68 179 194 105 132 180 137 99 79 92 105 49 72 92 106 80 38 33 19 16 28 35 56 40 21 60 75 62 128 140 177 155 137 84 46 150 127 96 95 119 148 151 155 154 156 158 157 155 156 156 157 159 158 155 156 157 157 157 159 160 156 158 158 157 158 159 159 157 156 157 158 160 161 161 160 159 156 159 161 160 160 161 161 161 163 158 156 158 161 164 164 163 163 163 164 165 165 163 164 166 165 167 169 169 167 165 166 168 
122 124 122 122 125 125 125 128 126 128 128 128 130 131 130 131 135 134 136 135 131 132 135 134 137 140 141 140 140 140 136 131 125 123 120 119 120 120 119 117 117 120 119 116 117 116 115 115 114 116 117 115 114 115 116 118 116 117 117 118 117 116 116 116 116 116 117 117 117 116 117 117 117 115 116 117 117 117 117 116 118 116 116 117 115 116 117 116 117 119 116 115 119 120 117 118 120 120 120 120 120 120 119 119 120 120 122 125 126 123 123 125 126 124 125 128 129 130 131 130 129 131 132 132 133 134 135 136 134 135 136 138 139 138 139 142 142 143 144 146 148 150 154 159 169 178 188 195 203 212 217 217 213 207 203 197 184 182 173 153 120 142 134 136 147 162 142 104 141 156 150 141 128 128 116 119 139 153 136 124 119 73 88 147 161 141 137 140 166 196 163 143 134 101 73 100 57 70 88 100 107 110 112 142 201 116 45 48 58 56 117 172 159 118 94 102 116 130 96 109 123 145 145 140 141 134 119 129 135 113 99 47 20 20 10 12 15 9 10 11 7 5 10 17 16 14 15 16 15 15 12 16 19 22 25 13 25 18 24 19 19 25 104 148 154 178 204 203 188 128 104 84 91 156 126 111 118 122 91 94 154 118 102 125 152 140 94 126 140 163 170 132 111 154 162 126 97 104 109 132 140 110 89 102 102 74 92 59 48 92 95 22 27 84 107 33 45 91 70 62 89 153 184 148 119 103 97 119 82 104 94 107 149 152 157 153 156 158 157 156 157 156 157 160 155 157 158 158 156 156 157 159 156 155 160 160 153 156 161 155 156 157 157 156 157 160 160 159 156 159 159 159 160 159 159 163 163 161 162 163 161 161 162 159 163 164 164 164 164 164 166 167 166 169 166 165 170 169 166 167 
123 125 123 122 125 125 124 126 126 128 128 129 131 132 132 133 135 133 135 136 133 135 138 137 138 140 142 143 142 140 136 132 126 124 121 120 121 120 118 116 116 119 119 117 118 117 115 116 119 121 119 117 117 117 118 119 116 117 118 118 117 117 117 117 115 115 116 116 116 116 117 117 119 118 118 119 117 116 116 116 118 116 117 118 116 116 117 116 117 120 118 116 119 119 118 119 120 120 120 120 119 119 120 121 122 124 125 125 125 126 126 126 126 125 126 128 128 129 131 132 131 133 134 133 133 134 135 136 136 137 137 138 139 138 138 140 142 143 143 144 146 148 152 158 166 174 183 191 199 206 209 210 208 203 193 185 177 170 162 133 118 138 115 131 132 135 157 132 111 137 154 160 164 162 152 150 171 184 168 145 127 124 111 109 123 114 145 184 203 218 165 150 128 91 111 104 58 52 85 104 103 109 121 146 196 200 73 43 43 42 110 153 157 167 96 98 128 129 131 125 133 143 122 132 132 133 124 128 129 124 100 53 23 17 15 14 11 9 8 9 7 6 10 17 18 17 18 18 22 18 12 20 24 18 20 25 21 24 23 14 5 92 178 190 211 216 218 214 219 162 97 104 128 146 123 110 88 126 136 140 145 122 129 159 144 88 116 140 125 124 134 88 99 135 127 133 98 104 154 163 136 72 117 151 147 133 68 56 93 111 105 80 121 151 168 99 97 87 66 84 66 117 183 125 63 108 145 79 93 102 85 110 135 153 150 156 156 156 155 155 157 156 155 158 154 155 156 157 157 157 157 158 157 155 158 159 156 160 163 160 158 159 157 156 156 158 159 158 156 159 159 159 159 158 158 161 162 162 162 162 162 162 161 162 164 164 164 164 164 164 165 165 165 167 166 166 169 169 167 167 
123 125 123 121 124 125 124 124 126 128 128 129 131 132 132 133 135 132 134 136 135 136 139 139 139 141 143 144 143 140 136 133 127 125 123 122 121 120 118 116 117 118 118 119 119 117 116 117 120 121 118 116 117 117 118 119 117 118 118 118 118 117 118 118 115 116 116 116 116 116 117 119 119 119 120 120 117 116 116 116 118 117 118 118 117 116 116 116 117 120 119 118 120 119 118 120 119 120 120 119 118 118 121 123 121 124 125 122 122 125 126 124 126 126 127 128 128 129 132 133 132 133 134 133 133 134 135 136 136 138 138 137 138 138 139 140 143 143 143 144 145 147 151 156 163 169 178 187 195 201 203 204 200 197 188 180 176 170 138 101 125 123 88 100 123 150 169 164 126 134 159 160 157 150 138 145 184 195 149 107 150 179 178 163 123 130 185 192 207 168 143 139 124 138 138 59 40 40 56 71 79 75 91 104 115 150 85 63 72 68 102 139 151 160 150 130 122 102 126 151 125 107 92 108 134 137 124 104 95 114 85 45 26 16 20 16 10 10 6 7 7 5 10 17 18 19 19 19 18 19 11 14 25 24 20 20 17 8 32 70 75 122 125 150 168 183 212 215 221 200 130 127 138 117 98 103 105 144 180 153 113 142 154 165 144 102 129 145 137 146 147 140 89 131 157 132 127 109 140 152 175 135 133 155 167 136 44 95 126 137 148 134 132 137 181 82 73 89 88 121 121 130 123 87 88 119 150 99 98 93 101 111 106 106 151 153 155 155 154 156 158 156 154 157 154 155 156 156 157 158 158 158 159 157 156 156 157 158 159 158 156 155 155 156 158 159 160 160 158 160 160 159 159 158 158 160 160 164 162 161 164 163 161 165 164 164 163 163 163 164 164 164 164 166 167 168 168 168 168 166 
122 125 124 122 123 124 125 125 126 128 128 128 129 130 130 131 136 132 133 136 136 135 136 137 139 140 142 144 142 138 135 134 129 126 124 122 122 121 120 118 119 118 119 120 120 117 116 117 118 118 116 115 117 118 118 118 118 118 118 118 118 118 118 118 117 118 118 118 117 117 119 120 118 117 118 118 117 116 116 116 118 117 118 119 118 116 116 116 117 119 119 119 120 119 119 120 119 119 119 118 117 118 120 122 120 122 123 122 122 123 124 123 127 127 128 129 129 129 131 132 130 131 132 132 133 135 136 137 135 138 138 137 138 140 141 142 144 144 145 146 147 148 151 156 160 165 174 184 192 196 198 199 194 190 184 174 169 164 108 81 104 127 135 126 149 158 172 174 115 109 145 126 132 118 111 140 183 216 166 114 170 165 179 177 107 152 183 204 179 149 141 127 127 145 137 98 30 33 47 56 43 37 41 79 86 67 66 72 68 81 94 115 120 147 169 151 117 101 138 134 134 113 100 116 139 123 117 107 107 117 76 43 27 20 21 17 11 10 6 7 6 5 9 16 17 17 18 17 13 17 10 8 20 25 19 15 21 97 143 184 193 182 174 189 193 184 195 209 208 168 114 127 136 135 125 127 124 132 146 114 110 122 132 149 100 83 129 134 132 136 160 157 115 146 170 135 84 91 116 134 163 123 133 142 155 104 70 111 120 138 136 126 128 139 179 105 37 75 123 142 138 174 150 111 82 104 116 131 116 123 103 113 119 73 120 156 156 156 156 158 160 157 155 158 156 156 156 157 157 158 158 159 159 158 156 155 157 156 155 157 154 154 156 158 160 160 159 160 160 161 161 160 160 160 160 161 160 163 162 161 162 162 162 165 163 162 162 162 163 164 165 165 165 165 167 168 166 167 168 166 
122 124 125 123 122 123 124 125 125 127 127 127 129 130 130 132 136 133 134 136 136 135 135 136 140 140 142 143 142 139 137 136 131 128 125 123 122 122 122 122 122 120 119 120 119 117 117 118 118 118 117 117 119 120 119 119 119 119 119 118 118 118 118 119 119 120 120 119 118 117 119 120 118 116 116 118 118 118 117 116 117 117 118 119 118 117 116 117 118 118 118 119 120 120 119 119 119 119 119 119 120 121 122 122 122 122 123 125 125 124 124 126 128 127 129 130 130 130 131 130 131 131 131 132 134 136 137 136 136 139 138 137 139 141 143 143 143 144 145 147 149 149 151 155 156 161 170 179 186 190 191 192 189 181 178 165 165 144 113 110 127 152 132 143 142 145 165 155 120 98 112 122 117 106 93 130 150 170 130 101 160 169 187 175 92 92 151 174 160 142 152 181 161 154 154 151 148 146 163 154 110 24 49 113 100 97 89 81 61 87 97 106 146 162 159 162 122 128 136 129 127 127 123 132 134 121 127 113 123 126 77 24 24 25 17 16 14 8 7 7 6 6 11 17 17 17 18 17 16 13 10 11 18 18 16 19 45 97 114 130 146 156 188 206 219 218 213 212 184 126 104 98 125 156 148 145 154 145 88 124 141 136 151 120 68 84 121 148 144 126 134 131 130 134 107 92 79 115 109 103 87 94 129 130 131 120 81 84 137 146 141 134 127 104 132 156 65 66 86 142 131 159 138 104 69 131 110 124 94 135 107 97 112 67 109 158 155 156 157 158 160 156 155 158 157 157 157 157 156 156 158 159 155 158 158 158 159 158 158 162 160 158 158 159 159 158 157 156 160 161 161 161 160 161 162 161 161 161 163 163 160 161 164 163 163 163 163 164 165 165 166 166 164 164 165 166 164 166 168 167 
123 124 124 123 122 122 123 124 123 125 126 127 129 130 132 134 134 134 135 136 137 136 136 137 140 141 143 144 144 143 140 139 133 130 127 124 123 123 124 124 123 120 120 120 118 118 118 118 119 118 118 118 120 119 118 118 119 119 118 118 117 117 118 119 120 120 119 119 118 118 118 119 120 118 117 119 119 119 118 116 117 118 119 119 119 118 117 118 118 117 117 118 119 119 119 119 119 119 120 121 122 124 124 125 123 122 123 127 127 124 125 127 128 127 129 131 131 130 131 130 132 133 133 133 135 137 137 136 138 139 139 138 140 141 142 144 142 143 145 147 149 149 150 153 157 162 169 176 180 184 185 186 183 175 172 162 164 117 133 139 147 153 86 101 115 125 137 151 124 116 151 174 144 155 160 142 114 129 115 99 156 155 166 179 143 123 122 151 145 118 157 220 199 189 178 185 184 189 186 198 227 125 43 99 118 97 105 88 62 90 97 120 184 169 155 154 128 109 106 127 147 123 127 106 111 122 131 103 104 115 89 27 18 24 15 15 14 6 7 6 6 8 14 19 19 19 19 18 15 11 8 11 21 25 16 13 28 42 65 90 103 122 135 158 187 211 225 223 179 131 123 87 97 148 156 155 158 164 128 132 141 142 157 138 55 72 125 154 155 150 119 101 158 167 142 119 136 151 136 139 72 117 153 141 137 129 94 73 93 133 146 149 103 101 97 112 90 77 57 124 147 168 78 96 143 147 131 92 84 119 109 85 86 98 148 155 153 156 157 157 158 156 155 157 156 157 157 156 155 155 156 157 154 158 159 159 158 157 157 159 161 159 158 157 157 158 158 158 159 159 160 160 159 161 162 160 162 160 162 163 160 161 164 162 165 165 166 166 166 166 166 167 163 163 164 164 165 167 168 168 
124 122 121 123 122 121 122 123 121 124 125 126 128 130 132 134 132 134 136 136 137 137 137 138 140 142 144 146 147 146 143 140 136 133 129 126 125 124 124 124 121 120 120 120 119 120 120 118 118 118 117 117 118 117 116 118 118 118 118 117 117 118 119 120 119 118 118 118 119 119 119 119 121 119 119 120 120 119 119 117 118 120 120 120 120 118 117 119 118 117 118 119 119 118 119 120 120 120 121 121 122 123 125 125 123 123 124 125 125 124 125 126 127 127 129 131 130 130 131 131 132 133 135 135 135 136 136 136 139 139 138 138 140 141 142 144 142 144 145 147 149 149 150 153 156 163 169 172 174 178 180 180 177 173 166 162 149 106 132 117 131 131 138 141 119 122 155 172 152 94 133 145 149 162 198 161 112 166 182 153 168 163 170 185 184 188 169 145 125 98 130 180 174 167 152 141 136 141 138 161 168 164 76 82 124 104 112 94 76 96 92 123 155 174 151 141 113 126 136 117 110 125 115 104 107 109 110 111 98 89 79 38 14 18 18 17 13 7 6 6 7 8 14 19 19 18 18 15 11 10 8 11 28 34 23 23 24 60 74 87 84 84 89 96 113 156 195 198 145 111 119 133 136 140 156 135 144 154 130 127 144 146 169 132 34 72 133 174 182 127 91 113 142 185 154 124 155 180 152 137 79 99 160 160 139 107 90 130 144 135 104 113 123 152 159 94 100 109 73 133 171 192 101 85 120 146 136 76 102 120 102 101 87 116 153 156 153 157 156 155 156 156 155 156 156 156 157 157 156 155 154 154 157 158 159 158 156 156 156 154 156 157 157 156 157 159 160 159 158 158 159 159 158 160 161 158 161 161 162 162 162 162 163 162 164 165 166 166 165 165 166 167 163 165 164 163 167 168 167 168 
124 119 118 122 123 122 122 123 121 123 124 125 126 128 130 132 131 134 136 136 136 137 137 138 138 142 145 146 148 148 145 139 138 135 131 128 126 124 123 122 119 119 120 120 119 121 122 119 119 118 117 118 118 117 118 120 117 117 117 116 117 118 119 121 118 117 117 118 120 121 121 120 119 118 119 120 119 119 119 119 120 122 121 121 121 119 118 120 118 117 119 120 118 117 119 121 121 121 122 121 120 121 123 124 124 126 126 124 123 126 127 126 127 127 129 130 129 129 132 133 130 133 135 135 134 134 135 136 139 138 137 138 140 140 141 145 144 145 146 147 149 149 150 153 153 160 166 167 169 172 175 175 171 169 158 163 135 120 130 92 118 147 156 170 128 152 159 183 184 85 87 112 138 146 140 135 158 179 187 198 161 167 180 181 193 186 191 146 120 92 118 140 133 130 123 121 105 99 88 91 110 135 121 125 132 122 114 106 101 106 94 132 150 161 141 119 104 102 129 124 101 112 125 116 111 92 76 108 95 72 60 23 13 13 23 20 11 9 5 6 7 7 12 17 17 16 14 10 12 9 9 17 32 28 27 56 135 177 196 181 172 154 121 94 80 64 116 164 122 113 121 154 174 154 106 114 127 118 141 139 143 159 177 109 47 90 140 150 152 126 139 148 141 147 124 111 150 150 136 141 98 114 147 154 125 73 136 177 180 158 114 116 139 172 160 84 47 73 83 107 181 156 78 127 107 154 137 99 113 125 117 119 111 107 154 152 154 157 156 154 156 157 156 156 156 156 157 158 159 157 155 152 157 156 158 157 157 160 161 156 155 157 159 158 158 159 158 154 159 158 159 159 158 160 161 158 160 163 161 161 164 163 161 163 161 163 165 165 164 164 166 168 165 168 165 164 169 168 164 166 
124 123 123 123 123 121 120 121 120 122 123 126 125 126 131 130 135 131 133 138 137 134 136 140 139 141 143 145 146 148 147 143 140 136 131 127 124 123 122 122 122 120 120 120 120 121 120 119 116 117 120 121 119 118 119 119 117 118 119 119 118 119 120 122 116 118 121 122 121 121 122 122 120 118 118 118 118 118 119 120 119 120 120 118 118 120 119 116 120 120 120 118 120 121 117 118 123 123 123 123 123 123 125 126 127 124 123 126 127 127 126 127 127 127 127 128 130 132 132 131 132 132 133 134 136 137 138 138 138 141 142 139 138 139 141 144 143 145 146 147 148 150 152 152 153 156 159 162 167 169 169 169 168 162 164 157 114 114 131 126 142 149 169 147 118 156 164 144 157 145 117 120 111 112 130 166 171 175 195 181 142 171 183 183 200 176 171 142 117 97 120 120 117 110 106 94 94 87 72 70 91 110 127 146 135 115 133 115 106 94 120 147 162 166 88 85 102 124 114 125 118 112 112 109 108 77 80 114 86 58 55 22 19 20 20 18 15 8 4 6 4 8 13 18 21 16 12 13 14 4 12 26 29 27 28 98 127 144 168 179 191 211 212 197 166 146 159 120 96 125 153 147 143 108 108 144 159 141 136 138 154 163 153 113 80 131 151 145 143 155 176 157 160 134 117 149 135 120 116 135 116 109 144 151 115 82 161 185 168 166 164 122 127 174 119 77 59 65 104 111 182 155 144 153 120 156 114 98 112 116 114 69 83 108 148 158 158 159 158 156 157 157 157 157 158 158 158 157 157 157 156 154 159 157 156 159 161 159 156 157 157 159 158 159 162 160 158 160 160 159 161 160 158 160 163 160 161 161 162 163 163 163 162 162 162 162 162 164 167 165 163 165 166 167 167 166 166 168 168 166 
127 125 124 125 124 123 122 122 123 123 123 125 125 126 131 130 134 133 135 137 136 136 137 137 140 141 144 146 147 148 147 143 142 138 133 129 127 125 124 123 122 121 121 121 121 121 121 119 116 118 120 120 118 118 119 118 118 119 119 119 119 119 120 121 121 120 121 121 118 117 117 117 116 117 121 122 118 117 118 121 119 120 120 119 119 119 119 117 120 121 122 119 119 121 119 123 119 120 122 124 124 123 122 122 126 125 124 126 127 127 127 127 128 128 128 129 130 132 132 132 134 134 134 135 137 138 138 137 138 141 141 139 139 140 142 145 144 145 146 147 147 149 150 150 152 155 159 162 166 166 164 163 159 162 155 147 97 124 142 122 149 157 176 135 94 132 126 138 157 150 185 179 116 122 164 173 171 188 204 167 127 169 181 193 186 171 152 123 117 146 126 110 90 86 82 76 74 45 47 81 100 95 105 135 131 121 114 112 88 134 147 150 187 168 113 74 131 146 126 113 124 131 109 107 87 94 95 108 89 51 39 27 23 22 21 19 14 7 4 5 4 7 13 19 19 14 11 12 15 14 10 25 30 27 30 77 86 98 108 127 151 174 193 197 206 180 136 100 94 142 105 83 125 144 144 117 121 150 154 158 167 165 140 96 79 115 161 158 154 131 156 156 150 108 118 152 136 131 126 101 126 133 147 154 142 114 138 177 183 185 142 96 108 141 97 112 120 60 103 144 174 131 107 148 101 94 92 87 113 124 124 102 83 99 142 149 155 157 156 156 156 156 155 156 156 157 157 157 157 157 157 157 158 157 157 159 161 159 158 159 159 161 159 159 161 160 158 161 163 159 161 163 161 161 163 162 163 163 164 163 162 161 160 160 164 165 164 164 165 164 163 165 165 166 166 165 166 168 168 167 
125 123 122 122 122 121 121 121 123 124 122 124 124 125 130 130 131 134 136 135 135 138 139 136 141 142 145 147 148 148 147 144 144 140 135 132 130 128 126 125 124 123 123 121 121 122 121 119 117 118 119 119 118 119 120 118 121 121 121 121 120 120 121 121 121 118 118 119 118 117 118 118 116 118 121 122 119 117 119 121 119 120 121 121 120 119 119 120 120 121 122 120 121 123 121 123 121 121 122 123 124 123 124 125 125 125 125 126 126 127 127 127 128 129 130 130 131 132 133 133 136 135 135 136 138 139 138 137 139 141 140 139 140 142 143 144 145 147 147 147 147 148 149 149 152 155 157 160 163 163 161 161 163 158 160 124 112 147 116 85 119 153 145 151 134 126 123 147 150 153 194 187 96 124 164 163 176 177 164 118 94 168 180 201 160 141 124 133 153 55 54 66 51 46 47 38 20 18 61 88 89 96 103 111 114 113 112 110 75 123 138 162 195 172 109 111 146 112 125 121 126 115 120 114 107 104 82 90 95 63 46 23 26 23 22 19 11 6 5 4 4 5 12 19 16 11 11 11 10 8 19 24 31 24 32 65 78 88 84 90 105 135 173 182 198 149 109 98 86 128 81 97 113 139 165 166 114 108 142 156 147 132 70 45 89 114 152 164 133 120 136 133 121 96 119 143 169 158 142 111 136 169 129 129 140 109 140 161 159 123 106 140 176 141 83 120 129 115 114 133 180 140 61 116 160 89 117 122 105 118 129 135 118 70 127 157 153 155 156 157 157 155 155 157 155 156 156 156 156 157 158 158 158 158 157 159 160 159 158 160 159 161 160 160 161 159 157 160 159 154 155 159 159 157 158 159 161 161 162 162 162 162 163 163 166 166 165 163 164 164 164 165 166 166 166 165 165 167 168 167 
124 123 122 122 122 123 123 124 121 122 120 122 124 125 129 129 128 132 136 136 135 138 139 137 141 141 144 147 148 148 147 145 145 141 138 135 133 131 128 126 125 125 124 122 121 122 121 118 119 119 119 118 118 120 121 118 122 121 121 120 120 120 119 119 119 116 116 119 119 119 120 121 120 119 119 120 119 118 120 121 120 119 120 121 120 120 120 121 121 119 120 120 123 125 120 119 122 122 122 123 123 124 125 127 125 126 127 126 126 127 128 128 127 129 131 131 131 132 133 134 135 134 135 137 139 140 140 139 140 141 140 139 141 143 143 143 146 147 148 148 148 149 150 150 153 155 155 156 159 161 161 162 159 156 145 121 111 121 134 143 134 129 137 175 200 127 107 152 160 163 164 152 116 150 160 154 136 125 133 81 105 165 194 182 148 138 140 185 180 112 108 118 119 104 57 16 13 40 57 81 97 127 106 105 116 114 114 107 99 129 136 170 165 142 86 117 98 94 116 131 130 105 104 112 113 90 79 74 82 55 20 27 25 20 20 17 8 5 5 3 4 4 12 19 14 9 11 10 8 15 11 12 23 19 14 30 52 64 72 78 84 109 143 150 147 112 98 105 113 121 81 63 73 73 138 176 112 110 139 143 124 81 45 83 137 149 147 137 142 131 142 148 132 130 139 145 152 150 124 98 135 141 127 152 157 139 172 180 143 42 75 145 169 128 91 71 59 94 103 124 161 140 89 83 161 89 138 131 113 109 124 106 112 75 116 152 154 156 158 158 157 155 156 159 156 156 156 156 155 156 157 157 158 158 158 158 158 157 157 160 156 158 160 160 160 157 155 156 157 155 157 160 160 159 160 160 160 160 160 161 162 163 164 164 164 165 164 162 163 165 165 164 166 167 167 165 165 166 167 167 
122 122 122 121 121 121 123 124 120 122 120 122 124 124 128 128 128 131 136 138 136 135 137 139 140 140 143 147 148 148 148 147 146 143 140 138 136 133 129 128 125 124 124 123 122 123 122 120 122 121 121 119 118 120 120 118 119 119 118 118 118 118 118 117 121 118 118 119 119 119 119 118 121 120 120 121 119 119 120 121 120 119 119 120 121 121 121 122 122 119 120 120 122 125 121 119 119 120 122 124 124 123 123 123 125 126 127 126 126 127 129 129 127 129 131 131 131 132 134 135 135 134 135 137 139 141 141 140 140 140 139 139 142 144 144 143 145 146 147 147 148 149 150 150 152 154 154 155 157 159 160 161 157 158 123 113 118 139 159 191 173 99 105 137 176 106 104 169 149 151 140 144 172 185 191 147 115 152 164 102 137 150 160 151 136 186 216 213 204 210 210 211 202 197 204 145 32 31 58 102 113 132 114 104 114 105 119 94 135 141 173 179 153 135 102 131 101 99 95 80 118 95 74 71 74 88 98 86 60 47 43 23 21 17 17 15 6 4 5 2 5 4 12 17 12 9 11 10 11 4 32 96 90 76 60 40 35 29 38 58 73 75 65 55 67 96 101 116 131 99 109 98 89 119 140 116 66 104 147 162 145 90 80 109 141 163 157 134 147 140 124 119 152 156 131 132 140 134 94 99 132 130 142 151 136 138 159 168 141 74 73 112 142 73 105 120 58 66 134 153 162 142 99 139 160 116 142 122 107 136 129 122 97 84 117 139 155 157 158 158 157 155 156 160 158 157 156 155 156 157 157 155 157 158 158 157 156 155 155 158 155 157 158 158 158 156 155 156 157 159 161 161 160 161 161 160 163 162 161 161 162 162 161 160 164 164 164 164 165 167 167 164 165 167 168 166 165 165 167 169 
120 121 121 120 119 120 120 120 120 124 122 123 125 124 126 127 130 131 135 138 136 133 135 139 139 139 142 146 147 148 149 149 147 146 144 142 139 135 132 131 125 124 124 124 123 123 124 123 125 123 122 121 119 119 119 118 119 119 119 120 120 120 120 120 119 118 118 119 118 119 120 118 119 120 124 124 121 118 119 121 120 119 119 119 121 122 122 121 122 120 122 120 119 123 123 125 122 122 123 124 124 124 124 125 126 127 127 127 127 128 129 130 128 130 131 131 131 132 134 135 135 135 136 137 139 140 140 141 139 140 139 139 143 145 145 145 144 146 147 147 148 149 150 150 150 153 155 156 157 157 156 157 156 143 123 128 146 156 164 181 160 101 76 116 129 136 155 157 120 103 151 157 173 200 180 145 161 178 185 183 186 168 146 120 123 202 202 193 194 189 177 181 176 183 195 189 65 43 102 117 121 135 116 103 115 109 106 102 152 139 178 157 128 118 113 147 98 78 99 80 115 49 51 107 62 94 101 74 65 86 59 23 18 16 16 14 8 6 5 3 4 6 12 14 10 9 11 10 10 10 130 212 214 203 200 185 183 169 150 139 147 148 131 121 103 97 107 144 147 89 100 133 156 168 138 114 85 82 123 180 140 71 85 117 136 144 143 118 137 162 140 134 137 163 117 116 167 170 125 83 131 151 148 142 83 121 160 154 135 111 77 109 152 103 123 129 106 77 123 170 181 169 122 146 126 142 139 103 100 125 108 121 101 105 103 134 154 157 158 156 156 155 156 158 158 157 155 156 157 158 158 156 157 158 157 156 156 155 155 156 158 158 158 157 157 156 157 159 156 160 161 159 157 157 157 156 161 160 160 161 162 163 162 161 166 165 165 166 166 167 167 165 165 166 167 167 165 165 167 169 
123 123 123 123 123 124 122 120 120 124 122 123 124 122 126 128 131 131 134 137 136 135 137 138 139 139 142 146 147 148 150 151 150 149 148 146 142 138 135 135 128 125 125 126 125 123 123 123 125 122 122 122 120 119 120 120 121 122 122 123 122 122 122 122 118 119 119 118 118 121 122 121 120 120 123 125 122 120 120 121 121 121 121 120 120 121 122 121 121 120 123 121 119 122 123 125 126 125 123 123 123 124 126 128 127 126 127 128 129 129 129 131 130 131 131 131 131 133 134 135 136 137 137 137 138 139 141 142 140 141 140 140 143 146 145 145 146 147 148 148 148 149 150 150 151 154 156 156 157 157 156 156 158 119 136 125 144 164 146 140 159 169 121 134 159 175 168 182 124 92 161 160 159 199 153 165 181 181 183 194 197 175 139 86 101 161 180 175 176 172 172 163 151 141 138 108 68 101 121 117 135 128 95 113 102 87 91 176 191 178 160 139 130 120 118 127 88 53 69 82 88 73 70 77 58 74 87 77 55 76 51 26 18 19 18 15 12 8 5 4 3 8 11 10 9 10 10 10 5 46 159 180 198 197 199 212 212 223 225 222 226 228 200 158 114 109 135 149 126 103 96 109 125 122 133 137 132 122 114 133 99 110 133 149 158 153 148 142 142 146 139 129 143 102 95 137 162 149 116 115 138 153 135 140 108 150 170 165 133 105 110 133 125 100 157 151 145 90 117 164 161 183 156 176 137 88 117 77 91 123 103 111 101 105 96 120 152 156 157 155 155 156 156 156 157 157 157 157 158 159 158 156 156 157 157 156 157 157 157 157 159 158 159 159 158 158 159 159 160 161 161 160 159 157 156 157 156 157 159 161 162 163 164 165 165 164 166 167 165 165 167 166 166 166 166 166 166 165 166 167 
122 121 121 122 124 125 122 118 119 123 121 121 122 121 126 129 130 131 134 136 137 138 140 139 140 139 142 146 147 148 151 152 152 152 151 149 144 140 138 138 131 127 127 128 125 122 122 123 123 120 121 123 121 119 121 123 121 122 123 122 120 119 119 120 122 123 122 118 117 120 122 120 124 121 120 122 122 122 122 121 121 123 123 120 119 121 121 120 121 119 123 123 122 124 121 119 123 123 123 124 124 123 124 125 128 126 126 129 130 129 130 132 132 132 131 131 131 133 134 135 136 137 137 138 138 139 142 143 142 143 142 141 144 145 144 144 148 149 149 149 149 150 151 151 153 155 156 155 157 158 158 159 132 131 99 92 126 128 116 150 164 185 143 106 155 172 189 164 140 169 168 176 162 124 146 180 178 184 196 215 168 124 101 92 89 128 145 152 151 140 137 121 120 99 78 78 102 110 112 129 126 96 123 115 84 97 172 197 144 141 139 123 133 106 81 104 65 92 98 97 89 102 99 88 43 46 79 64 51 98 42 20 20 22 21 17 15 10 5 5 2 9 10 8 9 10 10 10 6 49 106 150 154 153 161 167 174 184 199 213 210 214 202 149 126 112 111 128 124 130 143 140 109 117 133 136 136 144 123 61 107 153 143 130 112 141 169 170 150 133 107 112 142 130 132 150 141 132 91 113 145 118 141 131 129 154 173 179 123 103 138 159 96 92 138 165 162 124 127 164 115 174 122 180 154 94 101 77 99 102 101 103 99 127 101 113 150 155 157 155 155 157 157 155 158 158 158 158 158 158 157 156 156 157 157 156 158 159 158 159 158 158 160 162 161 160 158 156 161 160 159 161 161 157 156 159 156 159 161 162 161 161 162 163 163 162 165 167 164 163 166 168 168 167 166 166 166 165 164 163 
119 121 124 122 118 119 119 124 121 122 122 122 124 126 127 128 130 130 134 134 136 138 136 138 135 137 140 144 147 149 151 152 151 155 156 151 146 141 139 137 131 131 128 125 125 126 124 119 123 122 121 121 121 121 121 122 121 123 123 123 123 120 118 121 122 122 121 119 118 119 120 122 122 120 120 122 123 122 121 121 122 121 120 122 123 124 124 124 120 120 121 122 122 123 123 121 122 122 123 125 125 126 126 124 127 128 127 127 129 130 130 131 133 133 131 131 134 132 132 138 138 138 138 139 141 142 143 144 142 143 143 144 145 144 145 148 146 148 149 149 149 151 152 152 153 153 151 157 156 158 152 151 118 134 103 69 123 127 98 153 155 178 132 71 94 130 153 135 166 172 172 184 168 109 160 179 182 194 226 177 120 87 107 108 94 109 127 111 122 103 99 97 77 47 93 110 99 99 120 115 98 99 102 108 107 131 155 143 135 181 139 115 107 91 70 103 76 98 124 117 111 110 87 67 77 50 54 95 109 69 38 18 17 22 20 12 10 12 8 2 5 7 8 9 10 12 13 13 6 41 86 93 108 111 123 138 140 149 164 185 194 206 188 116 122 78 89 130 144 161 159 150 107 88 117 130 158 163 86 63 134 152 135 144 145 124 124 140 118 127 131 127 166 161 119 131 157 123 87 95 146 159 162 127 108 133 128 155 122 125 175 151 81 125 121 162 149 129 158 183 120 138 51 148 157 103 109 117 120 126 117 127 122 132 100 112 139 154 156 160 156 159 159 153 158 156 156 156 154 156 158 158 157 158 158 156 156 157 157 156 158 158 157 157 158 159 158 157 159 161 161 159 159 160 159 157 161 162 162 163 163 162 162 162 161 162 163 163 163 166 168 167 164 165 165 166 167 167 166 166 
121 121 125 123 120 121 120 124 123 121 121 123 126 125 125 127 131 130 134 134 135 136 134 135 137 136 138 142 148 151 152 152 155 156 155 152 150 148 143 138 134 133 130 127 126 127 125 121 125 124 124 124 124 124 124 125 120 122 122 122 123 121 120 122 120 122 123 122 121 120 121 121 122 121 121 122 122 121 121 121 120 120 120 122 123 123 123 123 123 123 124 124 124 125 126 124 125 123 123 124 124 125 127 126 125 128 129 129 130 130 129 129 131 134 132 131 133 134 134 137 138 138 139 140 141 142 143 143 142 142 142 143 145 144 145 147 147 148 149 149 149 151 153 154 154 156 152 159 155 160 155 127 125 162 146 138 161 165 101 114 128 138 161 167 140 135 99 92 158 154 152 183 187 86 123 180 198 222 173 132 114 112 117 151 124 92 96 78 93 91 71 41 18 77 94 93 90 102 113 110 102 114 120 117 150 147 141 154 154 149 126 123 76 108 68 95 108 106 107 80 55 90 95 87 97 60 63 101 114 54 26 23 20 19 16 14 15 13 7 1 6 6 6 7 10 12 11 9 9 21 46 78 83 92 100 95 107 118 116 119 141 160 140 93 109 47 71 140 146 127 120 143 150 140 127 134 162 148 54 73 140 153 151 154 152 126 96 106 141 160 145 133 137 146 128 125 165 98 93 130 126 153 142 108 103 150 150 137 112 123 159 131 110 129 131 163 144 113 145 174 116 138 93 95 160 131 92 128 125 118 102 105 100 110 100 123 123 149 158 154 156 157 156 160 158 156 156 156 155 156 157 156 157 158 157 156 157 159 159 157 157 157 157 158 159 161 160 159 159 160 161 160 159 159 158 156 159 160 161 162 162 163 164 164 164 164 165 165 164 165 166 165 164 165 165 165 166 166 165 165 
120 120 124 122 121 121 120 122 125 121 120 125 128 125 124 127 131 131 134 134 135 136 133 134 139 138 138 142 147 151 153 154 157 157 156 155 154 152 147 141 138 136 132 129 127 126 125 124 122 121 121 121 121 120 120 121 120 121 121 122 123 122 121 122 119 121 123 123 122 121 121 121 122 122 122 123 122 121 121 121 120 120 121 122 122 121 121 122 122 121 122 122 122 123 124 123 126 124 124 124 124 126 127 126 126 129 130 130 130 129 128 129 129 134 134 131 133 135 136 137 139 139 139 140 141 142 142 142 142 142 142 143 145 146 146 147 149 148 149 149 150 151 152 154 156 153 151 159 156 159 145 118 141 148 150 159 163 160 140 111 127 167 183 171 152 150 161 143 129 139 162 169 178 125 109 185 223 186 128 117 124 126 144 101 50 50 47 46 39 37 11 14 69 93 74 81 97 101 113 105 112 124 132 131 135 151 163 83 67 101 111 108 135 118 56 88 122 81 47 83 61 70 99 97 93 69 75 83 81 61 31 17 23 17 13 14 14 11 9 7 6 6 6 7 9 10 10 8 9 12 15 28 42 45 89 131 141 142 143 136 116 80 68 97 103 79 81 92 86 97 127 170 170 158 161 135 159 115 76 126 139 156 151 134 120 112 100 113 147 163 150 133 141 138 128 126 132 88 93 163 159 149 133 97 119 131 138 134 142 133 84 86 150 150 132 164 157 138 156 179 129 153 115 49 63 120 103 106 131 128 115 91 77 102 87 95 110 136 154 156 158 156 153 160 157 156 156 156 156 156 157 155 157 157 156 156 158 161 160 158 157 157 157 158 159 160 160 159 157 158 159 160 160 159 158 157 158 160 161 161 161 163 164 164 164 165 167 166 163 164 165 164 165 166 165 165 166 166 165 165 
121 121 124 123 122 123 120 121 124 122 122 125 128 126 125 126 130 130 134 135 135 137 135 136 139 139 141 143 146 148 152 155 156 160 161 159 156 153 149 145 141 138 133 130 127 126 125 125 125 123 122 122 122 121 120 119 121 122 122 122 121 120 120 121 121 122 121 120 120 121 122 122 121 122 123 123 122 121 121 122 122 122 123 123 121 120 120 122 124 123 123 123 122 124 125 125 125 124 125 126 126 126 126 125 128 130 129 128 128 129 130 131 130 134 134 132 133 135 136 138 139 139 139 139 140 141 142 142 143 143 143 144 146 146 147 148 151 150 150 151 151 150 151 153 156 152 154 152 157 154 112 94 132 141 147 145 153 138 159 112 126 160 169 148 152 175 183 166 135 175 182 186 190 187 193 208 189 148 129 125 139 133 57 26 41 37 45 45 19 34 21 40 72 82 83 91 99 111 125 114 129 123 142 128 93 116 118 64 82 103 80 120 102 69 62 99 93 84 108 85 66 97 106 80 77 71 96 99 60 63 25 15 15 13 17 21 18 12 9 7 5 7 8 8 6 7 9 11 12 7 18 21 8 76 156 195 204 210 224 207 167 117 84 100 126 142 128 111 97 94 115 154 145 132 168 151 119 98 109 137 166 163 126 127 129 104 104 136 121 110 125 128 145 140 133 154 109 88 122 131 141 155 143 79 137 155 129 105 108 146 112 99 125 133 160 147 159 159 173 186 154 89 131 143 59 102 83 120 111 129 99 94 98 110 87 90 95 101 123 157 157 156 156 155 156 156 156 156 156 156 157 157 156 156 157 157 159 160 159 157 157 158 158 158 158 158 158 157 156 156 158 160 160 159 159 160 159 161 162 161 162 163 163 160 161 163 166 165 163 163 165 165 166 167 166 165 166 167 166 166 
124 123 126 125 125 126 123 123 122 124 124 124 126 128 127 127 129 130 134 135 135 137 135 137 138 139 141 144 146 148 152 155 159 163 165 163 159 156 152 149 144 140 136 131 128 127 126 126 128 125 124 124 124 123 121 120 121 122 123 122 120 119 120 121 124 123 121 120 120 122 122 122 120 121 122 122 122 121 122 122 123 123 124 123 122 121 122 124 124 123 123 123 122 124 126 125 125 125 126 126 126 126 126 126 128 129 128 128 129 131 131 132 133 133 133 135 135 134 136 139 139 139 138 138 139 141 142 143 143 145 145 145 146 147 148 149 151 150 150 152 152 151 151 152 151 156 158 153 157 152 107 87 113 104 115 127 113 118 159 138 117 127 144 172 179 170 169 137 164 176 190 182 199 230 233 189 145 126 118 175 178 171 119 82 54 40 35 8 39 55 19 46 73 91 87 101 106 121 119 131 128 145 154 155 145 95 64 115 120 82 82 100 80 90 71 90 73 80 93 78 61 82 103 81 80 73 87 103 65 54 16 11 12 13 19 22 17 15 14 8 6 7 8 7 6 7 11 14 12 10 19 14 37 117 142 156 169 179 196 173 132 101 83 96 149 139 114 146 156 114 101 127 126 129 143 135 105 112 103 98 135 125 112 136 133 126 140 136 108 116 149 154 142 149 127 130 104 107 160 152 135 131 127 104 136 175 176 164 114 88 86 128 124 72 147 159 146 153 161 198 202 109 121 156 81 87 106 97 124 154 88 113 134 119 87 80 86 71 84 150 153 157 158 156 157 157 157 156 155 155 156 158 156 157 158 158 158 158 157 157 157 157 158 157 157 158 158 158 156 157 158 159 159 159 160 161 162 162 162 162 163 164 161 158 160 162 165 164 163 164 166 165 166 167 166 164 166 167 167 166 
124 123 126 125 125 126 123 123 121 125 125 123 125 129 129 128 130 130 134 134 134 136 135 137 138 137 138 142 147 150 153 154 163 166 168 167 166 163 157 152 148 145 139 133 130 129 128 127 126 124 122 122 123 123 121 120 122 122 123 122 119 120 122 122 123 123 123 122 122 123 123 122 120 122 122 122 122 122 123 122 123 123 124 124 123 123 124 126 123 123 124 123 122 124 125 124 127 126 126 125 124 126 128 128 127 129 129 130 132 133 132 132 134 132 132 135 136 134 136 140 139 139 138 138 140 141 143 143 144 146 147 146 146 147 148 150 150 149 150 151 152 152 152 152 152 154 153 158 145 138 135 133 125 104 142 161 124 139 167 171 162 122 160 172 182 190 139 127 183 188 189 211 229 189 146 127 120 105 128 187 197 206 220 207 190 187 164 107 69 53 57 78 83 94 102 103 80 90 121 127 137 100 71 130 148 76 95 114 69 78 97 87 77 98 61 77 104 82 73 73 64 67 92 88 97 92 67 74 68 43 22 11 18 15 17 17 14 17 18 11 8 6 5 5 8 10 12 13 13 9 21 8 45 88 87 101 115 126 132 105 74 71 90 116 165 130 92 132 144 108 112 143 150 134 112 85 104 138 156 147 112 90 104 140 144 155 141 92 106 147 149 142 156 126 83 105 135 128 137 149 142 134 102 133 160 146 154 156 104 43 67 128 115 73 141 178 111 115 142 156 171 109 138 169 93 57 132 121 135 161 122 131 118 104 97 115 101 81 86 147 154 157 154 158 158 158 157 155 156 155 155 157 156 157 158 159 158 156 156 156 155 156 157 157 158 159 161 162 158 159 159 159 158 158 159 160 162 162 162 163 164 163 161 159 161 163 164 164 163 164 166 165 164 166 165 163 165 167 166 165 
123 122 124 123 123 124 121 121 123 124 123 122 125 128 128 129 130 130 134 134 134 136 135 138 138 137 137 140 145 150 153 155 165 167 169 170 170 168 162 156 152 149 142 135 132 131 129 126 127 126 125 124 124 123 123 123 123 122 123 122 121 122 124 122 121 123 124 123 122 122 122 122 122 123 123 122 123 124 123 122 122 123 124 125 124 123 123 124 124 125 126 126 125 126 127 126 128 126 126 126 125 126 129 130 127 129 130 130 132 133 133 133 134 132 132 134 135 136 138 139 139 139 139 140 141 142 143 143 145 147 147 146 147 148 148 149 150 150 149 149 150 152 153 153 156 152 150 152 126 128 154 158 147 150 155 127 127 161 168 177 152 103 124 145 167 185 102 99 151 183 215 207 159 131 119 103 94 112 129 167 185 187 181 191 198 196 212 231 143 74 80 89 97 109 103 90 107 108 134 149 92 47 52 101 110 111 156 114 68 76 89 68 80 85 43 97 85 45 67 65 61 40 72 80 82 92 59 52 50 19 10 15 19 14 18 22 18 18 17 6 7 5 3 5 8 10 11 12 10 14 15 12 28 55 52 61 62 50 36 33 42 74 118 133 130 140 135 142 118 91 113 153 159 134 125 107 105 128 167 157 129 97 92 129 158 145 109 118 120 142 147 128 110 79 93 118 138 132 102 128 122 107 115 136 177 153 152 151 97 50 116 147 161 134 146 164 131 74 114 120 110 121 158 194 145 55 85 112 137 141 114 104 113 121 127 151 109 101 123 152 157 157 152 156 158 158 156 155 158 158 156 157 156 156 158 159 158 157 156 156 156 157 157 157 157 159 161 162 158 160 160 159 158 158 159 158 163 161 161 162 162 161 161 163 162 162 163 163 162 164 165 164 163 165 165 163 165 167 166 165 
123 122 124 123 123 124 121 122 125 123 120 122 126 126 127 129 130 131 134 134 135 137 137 140 137 138 139 140 142 146 152 157 163 167 171 172 171 169 165 160 154 151 143 135 132 132 129 124 128 127 127 125 123 122 123 124 126 123 122 122 122 124 125 121 119 122 123 121 119 119 122 124 123 124 123 123 123 125 124 122 123 123 125 126 125 123 121 121 122 122 124 125 123 124 124 123 126 126 128 128 127 128 129 129 129 131 131 130 130 132 134 136 133 133 133 132 133 138 140 138 139 140 141 142 143 143 143 143 146 147 146 145 147 148 148 148 152 152 150 148 148 151 153 152 152 155 156 142 124 148 161 143 106 151 150 109 108 140 144 157 173 141 107 128 162 150 162 150 130 132 167 141 126 119 113 108 104 133 112 142 172 170 170 166 164 147 169 180 131 92 87 98 101 106 99 98 120 127 125 130 112 106 81 55 62 87 97 109 107 87 100 101 83 77 42 83 88 44 63 90 64 62 57 56 56 81 57 40 28 23 12 25 23 16 20 23 17 16 15 8 5 4 5 6 7 7 9 11 14 12 12 11 20 12 42 67 71 81 94 104 88 93 120 111 102 134 138 130 126 124 107 97 87 116 142 140 144 104 110 120 127 123 117 118 121 114 103 132 139 136 139 134 88 75 101 120 121 120 119 118 128 115 137 144 145 147 129 117 128 128 130 125 118 144 140 137 166 103 138 190 113 140 138 149 135 92 106 104 143 193 139 91 126 124 121 114 92 98 148 154 155 158 157 157 156 156 154 155 160 161 158 157 156 156 157 159 159 158 157 156 158 159 158 156 155 156 158 160 156 159 160 159 158 159 159 157 163 161 161 162 160 158 160 165 161 161 162 161 161 163 164 163 163 166 165 163 165 168 167 166 
124 124 126 123 122 125 123 123 123 122 123 126 126 125 126 129 131 133 132 135 136 136 137 136 137 139 141 143 146 148 152 156 164 169 176 178 178 175 171 167 157 154 149 142 134 131 130 129 126 127 127 127 125 121 121 126 124 122 121 122 122 122 123 125 124 121 121 123 123 123 122 120 123 119 122 123 121 123 122 123 120 122 124 125 125 124 123 123 126 122 123 126 127 126 126 127 130 129 128 127 129 129 129 130 130 129 128 128 130 132 133 132 131 136 139 137 136 139 140 137 140 139 140 143 144 143 142 143 146 145 146 148 148 148 148 150 149 147 155 149 150 159 153 152 154 156 146 121 142 141 132 126 104 122 136 153 129 106 102 154 171 143 138 152 156 170 167 193 178 137 131 133 125 114 110 106 121 146 128 159 173 177 163 149 131 111 120 103 89 103 88 70 82 106 94 94 121 111 63 110 148 113 56 54 45 39 46 53 75 76 42 87 75 58 43 64 74 73 62 104 87 61 42 49 79 52 42 46 31 19 20 25 24 19 21 27 23 17 16 10 3 3 5 8 9 7 7 8 8 11 11 9 24 70 136 152 157 167 163 125 94 88 111 130 106 90 106 117 137 151 124 62 65 124 161 165 144 96 82 120 138 149 143 141 142 137 108 111 116 122 132 139 70 81 121 136 128 118 151 120 126 148 128 128 147 144 131 101 106 130 114 86 71 107 138 104 172 128 110 168 114 108 150 145 138 102 147 95 127 155 113 85 137 124 114 87 96 95 128 155 155 156 156 152 156 156 156 157 158 157 156 155 158 156 156 158 158 158 159 159 157 157 157 156 157 160 160 156 158 160 162 161 160 159 158 158 163 159 160 162 160 159 160 160 162 165 165 163 163 165 165 162 165 165 165 166 166 166 167 168 
125 122 123 123 124 124 122 124 124 122 122 124 126 127 128 129 129 132 132 135 136 136 139 139 138 139 140 142 145 149 154 159 165 171 177 179 179 177 174 170 163 156 149 142 136 133 132 130 131 129 127 126 126 124 123 125 123 123 124 124 124 124 123 123 124 122 122 123 122 122 123 123 124 121 123 123 122 123 122 123 124 124 124 123 123 124 125 126 125 123 124 126 125 124 125 126 126 127 126 126 128 128 127 128 131 130 130 131 133 134 134 133 135 135 138 138 137 138 138 137 141 141 143 145 145 144 144 145 145 146 147 146 148 150 149 148 150 154 145 152 157 149 153 156 155 147 120 124 124 116 125 144 127 103 131 153 144 120 106 137 126 132 155 150 135 158 186 194 157 152 130 123 132 111 94 89 71 65 88 121 127 124 126 115 92 92 74 94 102 105 85 102 102 87 112 135 91 95 92 57 86 92 73 85 108 75 78 61 75 73 61 80 52 78 50 66 88 108 95 85 85 63 54 83 84 54 83 100 23 19 46 27 18 20 18 21 22 19 17 10 2 2 3 6 6 5 6 8 14 9 10 10 37 111 140 152 131 132 124 97 90 90 101 121 75 55 86 130 142 118 92 79 98 137 163 156 132 115 110 108 118 146 149 160 169 140 99 113 127 117 114 90 54 90 152 167 102 112 149 140 114 142 169 133 123 164 153 114 107 110 127 127 117 132 179 129 151 148 111 111 133 104 123 162 130 69 149 119 141 156 80 87 127 117 109 82 82 79 91 131 156 153 153 157 156 156 156 156 157 157 157 156 156 155 157 159 157 156 157 157 159 158 158 157 157 159 159 156 154 158 161 163 162 161 159 158 159 157 159 161 160 159 160 159 162 164 164 163 164 166 166 164 165 165 165 166 165 164 165 165 
124 119 121 123 124 123 121 125 124 124 123 123 124 126 128 129 129 132 133 135 136 136 140 140 139 140 139 140 144 149 155 161 167 172 178 181 182 181 178 175 167 159 150 144 140 138 134 130 132 130 127 126 127 125 125 126 123 125 126 125 125 125 124 122 125 123 123 123 121 122 125 127 126 122 124 123 122 123 122 124 124 125 126 126 126 126 126 126 125 124 126 126 125 124 126 126 126 129 129 128 130 131 130 129 131 131 132 133 133 134 134 135 138 135 136 139 138 137 137 138 138 141 143 143 142 142 143 143 145 147 147 145 147 151 150 146 149 152 154 151 148 152 155 149 146 137 137 131 130 141 133 119 114 144 138 116 132 162 174 154 102 128 170 158 148 185 181 135 124 128 122 128 130 109 97 67 52 52 46 74 83 78 89 90 88 76 68 94 107 118 114 118 103 113 121 84 48 96 113 47 52 88 118 112 98 61 74 50 83 72 82 68 86 89 71 87 90 90 102 66 76 53 96 123 48 66 101 86 42 27 39 29 18 24 22 20 22 19 14 7 4 4 4 6 6 7 8 10 7 9 10 11 24 56 86 84 72 71 78 86 110 100 87 104 106 57 56 115 135 109 99 120 125 136 132 128 135 143 144 141 138 126 104 120 140 117 97 134 139 157 117 67 81 102 114 119 96 119 123 127 117 120 144 152 150 154 114 75 93 100 99 155 157 147 202 150 136 166 157 78 101 138 121 75 132 71 103 122 156 191 168 93 121 130 99 95 100 90 61 97 153 154 151 155 157 156 156 156 156 157 157 157 154 154 157 159 157 155 156 156 159 159 159 158 157 158 159 157 153 156 160 162 162 161 160 159 159 159 161 162 162 162 162 161 162 162 163 164 164 165 165 165 164 164 165 165 165 164 163 164 
122 119 122 123 124 124 122 126 125 126 126 124 122 124 127 129 132 135 134 136 136 136 139 139 139 140 140 141 143 147 154 160 167 172 179 182 184 183 180 177 168 162 155 150 145 141 135 130 130 130 129 127 126 124 125 128 125 126 126 124 124 125 125 124 125 124 124 124 122 122 125 127 126 123 125 124 123 125 124 125 125 125 126 127 127 127 126 126 125 125 126 127 126 127 129 129 126 129 129 127 129 130 129 128 131 131 131 131 131 132 135 136 137 136 137 139 138 137 138 139 137 140 141 140 140 142 143 143 146 146 146 146 147 150 150 148 151 151 153 150 152 155 150 153 134 138 132 136 142 144 133 100 131 147 114 133 164 170 159 137 121 99 119 151 171 170 134 110 117 124 142 175 154 77 51 44 35 34 45 68 72 81 79 64 53 59 77 94 113 130 114 126 137 111 85 72 88 94 66 72 37 70 93 103 79 70 91 55 70 89 103 100 102 88 93 72 84 76 72 53 54 109 171 103 82 61 69 80 85 44 32 29 16 21 20 20 21 19 16 9 3 2 2 2 3 3 6 8 11 14 14 16 10 16 77 101 106 97 89 91 106 93 87 108 133 105 70 97 115 116 121 127 127 141 122 113 134 144 147 156 157 103 85 110 131 124 108 116 140 152 106 80 114 144 137 117 104 145 142 122 123 133 108 114 137 139 86 95 118 116 105 108 136 146 174 163 146 172 217 153 77 136 151 75 135 90 111 120 157 141 140 90 116 131 107 110 95 105 63 80 147 158 151 158 157 156 156 156 156 157 157 157 154 154 156 158 157 156 156 156 158 159 160 159 157 158 159 158 156 157 159 160 160 160 160 161 160 161 162 162 162 163 163 162 163 162 162 164 164 163 163 164 162 162 163 165 165 165 164 165 
120 121 125 123 122 125 124 125 126 126 125 123 123 125 127 128 133 135 134 136 137 137 140 139 138 141 143 144 145 148 154 160 166 171 178 183 185 185 182 179 170 165 160 154 147 142 137 133 131 132 131 129 127 125 125 126 124 126 126 124 124 126 126 124 124 123 124 125 124 124 125 124 125 124 125 124 124 126 125 127 128 127 125 124 124 126 127 128 126 125 126 126 126 128 129 129 128 130 129 127 128 128 128 128 129 130 131 132 132 133 134 136 134 136 138 138 137 139 141 141 141 142 142 141 142 145 146 146 147 145 145 147 148 148 150 153 153 152 146 153 153 153 158 140 131 157 129 117 112 128 126 121 131 131 130 121 120 140 143 155 177 156 118 104 133 112 92 79 114 151 176 177 171 160 159 140 115 106 65 37 57 51 48 35 56 79 101 104 83 89 78 126 103 65 115 125 130 76 78 113 77 81 99 100 82 81 71 84 105 89 104 108 91 78 55 61 90 68 59 43 75 115 104 81 127 93 105 130 107 63 33 21 25 19 15 18 18 17 15 6 2 1 0 0 0 1 3 5 11 15 13 9 40 120 164 187 177 139 104 93 88 66 78 107 151 151 93 83 95 108 127 131 146 131 107 113 128 127 133 143 119 81 111 135 127 129 130 128 124 109 106 110 132 163 173 159 139 126 119 115 117 164 157 134 116 100 93 101 144 163 131 135 153 141 109 142 139 171 203 166 95 133 169 108 110 142 145 110 134 103 86 86 123 115 106 99 79 85 102 139 155 151 155 154 157 157 157 157 156 156 156 156 156 155 156 157 157 156 157 157 155 157 160 160 159 158 159 159 158 157 158 159 159 159 161 162 159 160 159 158 159 160 161 161 163 161 161 163 163 162 162 164 162 162 163 165 166 166 165 166 
120 122 126 123 122 125 124 124 126 124 122 123 125 128 128 127 130 132 132 136 138 139 142 141 138 141 144 146 148 150 155 161 165 171 178 183 186 187 185 182 176 171 165 157 148 143 140 138 136 134 131 130 131 129 126 124 123 125 126 126 126 126 125 123 124 123 124 126 126 125 125 123 124 124 126 124 125 127 125 126 127 126 125 125 125 126 126 126 127 125 125 126 126 126 128 127 131 131 129 128 128 128 129 130 128 130 132 134 134 134 135 135 133 136 139 138 137 140 143 142 143 143 142 142 143 145 147 147 148 145 145 148 149 147 150 154 151 152 152 149 152 154 138 117 149 160 156 142 118 109 112 126 135 148 168 124 116 138 158 173 186 185 170 96 113 92 67 69 112 141 157 165 194 205 205 202 205 204 186 90 19 39 71 97 113 102 104 94 71 84 108 130 75 91 119 126 101 85 80 97 105 82 87 93 88 56 43 80 103 96 98 88 97 78 62 40 53 87 71 46 78 41 35 78 118 136 116 122 133 70 21 34 39 25 15 18 18 18 15 2 2 2 2 1 1 2 3 4 7 7 11 16 84 162 166 172 156 109 82 85 96 91 92 94 124 142 88 60 77 106 143 156 166 125 98 126 145 133 134 139 105 66 106 141 140 143 147 144 121 83 112 118 131 131 128 131 148 132 106 122 128 155 167 157 114 58 91 104 145 166 154 163 168 164 131 122 129 168 175 158 120 120 114 110 124 166 120 111 166 176 87 77 78 132 110 97 90 120 147 157 155 153 155 156 156 157 157 157 156 155 155 155 159 156 156 157 156 156 156 156 153 155 158 160 159 158 159 159 156 156 158 160 161 160 160 161 158 159 158 157 159 160 160 162 162 161 161 162 163 162 163 164 163 163 164 165 166 166 166 166 
123 122 124 123 123 124 122 122 125 123 122 124 127 127 128 128 128 131 131 135 138 139 142 142 140 142 143 145 148 151 155 161 166 171 178 183 188 190 189 187 182 176 169 160 152 146 143 140 138 136 132 130 131 131 128 126 125 125 126 127 127 125 124 123 125 123 124 126 126 126 126 125 124 125 126 124 125 127 123 125 125 125 126 127 127 126 125 124 127 125 125 127 126 125 127 129 129 128 127 128 128 127 128 131 131 132 133 134 135 135 135 135 135 135 137 139 139 139 142 143 142 142 142 143 143 143 145 146 149 147 147 148 149 149 150 152 151 153 154 144 161 148 107 129 158 151 144 150 149 122 139 125 132 157 153 130 153 159 174 174 174 195 177 129 107 70 89 103 109 113 138 161 170 169 181 181 179 183 197 183 99 92 114 118 119 104 98 91 110 122 144 128 109 127 117 80 38 60 102 115 90 52 80 87 94 69 43 79 91 70 87 88 83 60 63 45 47 73 84 97 85 54 63 117 133 148 152 114 107 70 14 25 33 27 20 20 22 22 18 6 1 2 2 2 2 3 3 4 2 7 9 7 49 80 100 114 95 68 72 82 115 141 123 91 92 123 108 61 59 112 170 179 150 130 111 127 139 140 151 150 111 72 85 112 134 147 154 142 92 58 111 140 138 135 133 125 127 125 98 129 156 141 119 118 121 109 133 123 133 146 135 135 105 151 173 131 143 153 135 108 117 153 97 134 178 158 73 98 140 158 95 123 92 97 114 110 122 144 156 155 153 154 156 154 156 157 157 156 155 155 155 156 157 155 155 156 156 155 156 157 154 154 157 158 157 157 159 159 157 157 158 161 162 160 159 160 160 160 159 160 161 160 160 163 162 162 162 162 163 163 163 164 164 164 164 165 166 166 166 166 
125 120 122 124 125 123 119 122 123 123 125 127 126 124 126 130 128 132 133 136 137 136 140 140 143 142 141 142 146 150 154 158 167 172 178 183 188 192 192 191 185 179 172 164 157 150 144 139 136 136 133 131 130 130 129 130 128 126 126 126 125 124 124 125 125 124 124 125 125 126 127 127 125 126 127 124 125 126 122 123 127 126 125 124 125 126 126 126 126 124 126 128 126 125 128 132 130 129 129 131 132 130 131 136 135 134 132 131 132 134 136 137 137 134 136 140 141 139 140 143 143 143 144 145 144 143 144 146 148 149 148 148 150 151 151 149 154 149 156 153 144 138 133 144 133 156 154 147 148 142 144 142 156 164 138 148 169 155 169 194 186 170 135 100 84 111 106 92 99 110 131 151 156 145 151 150 138 148 142 147 119 108 125 124 106 96 102 120 140 141 130 96 71 100 91 58 70 83 110 124 80 71 102 98 89 66 47 82 85 70 84 74 83 71 88 85 58 59 62 75 83 90 102 148 121 178 104 80 92 69 38 16 23 30 26 23 23 19 12 3 5 6 7 7 7 8 8 7 8 4 3 10 9 21 41 68 54 31 70 100 128 138 105 86 108 113 131 92 60 94 149 155 138 122 114 128 122 116 128 115 93 101 116 118 126 136 141 107 58 69 125 159 123 122 145 151 149 118 108 136 154 146 108 88 130 160 157 128 107 148 159 157 150 141 165 146 137 158 163 90 113 179 111 98 118 146 69 79 87 131 104 126 103 94 129 122 142 153 153 156 157 152 154 153 157 156 156 155 154 155 156 157 153 152 155 156 155 155 157 158 155 155 156 157 156 156 158 159 160 159 159 161 161 159 158 159 162 161 160 161 162 159 158 161 164 164 163 163 162 163 163 163 164 163 163 164 166 166 166 167 
120 122 123 123 122 122 121 120 120 124 127 126 126 127 126 123 128 130 134 136 137 139 140 142 142 143 143 145 148 151 155 159 164 171 178 183 188 191 191 190 186 184 179 170 159 152 148 145 142 138 134 133 134 131 128 128 128 128 127 126 125 125 127 127 126 125 125 125 126 128 127 124 125 127 128 127 126 125 126 128 126 125 124 124 123 123 125 127 126 127 127 128 129 127 128 134 130 130 131 132 132 130 131 132 131 134 133 133 135 135 135 138 137 137 139 139 139 142 145 143 143 143 145 146 145 144 144 147 149 147 149 150 147 149 153 152 152 149 158 147 135 138 157 122 119 149 136 148 143 141 150 162 170 165 114 155 163 187 216 213 166 134 138 143 130 120 113 67 62 52 62 103 121 116 113 107 100 88 92 100 108 121 119 109 96 86 117 119 165 193 68 86 74 44 76 93 132 92 87 92 103 105 93 87 106 74 43 76 59 37 75 80 86 69 50 63 49 43 41 66 95 91 153 137 101 145 99 93 77 59 38 29 32 28 22 26 23 20 9 6 5 1 3 2 3 10 12 10 17 14 21 25 36 60 90 90 67 63 74 99 111 132 117 114 106 100 120 126 75 58 85 114 121 137 139 131 137 136 121 83 78 114 126 132 145 140 109 64 57 93 134 142 127 107 127 139 140 113 104 131 132 103 82 98 123 127 134 144 159 165 181 163 174 165 161 147 136 181 163 87 123 172 131 121 60 83 96 99 92 118 111 122 97 101 119 132 137 155 155 153 156 154 156 155 157 158 157 156 157 158 156 154 153 154 156 157 157 156 156 157 157 158 156 157 159 157 155 157 156 158 160 160 159 156 156 160 161 157 159 162 161 160 161 161 162 162 165 165 160 161 164 163 165 166 165 163 164 167 166 163 
121 123 124 124 124 123 123 123 125 123 123 125 125 123 123 126 129 131 133 135 136 137 139 140 140 143 145 145 145 147 152 159 163 170 177 182 187 191 192 193 186 183 178 171 163 157 154 150 143 140 136 135 134 131 129 129 128 129 128 127 127 127 126 125 126 126 127 126 126 127 127 125 126 127 128 127 126 126 127 128 128 127 127 128 128 127 128 129 129 131 129 127 126 127 128 131 131 130 131 132 132 132 133 134 133 136 134 133 135 134 134 137 136 137 139 138 137 140 143 143 142 141 142 144 145 145 145 147 147 147 146 147 149 149 149 150 152 159 150 126 113 132 153 124 110 117 124 156 156 156 160 173 191 156 112 152 183 213 198 165 132 147 167 169 161 159 167 158 142 118 87 64 67 73 76 80 86 89 99 105 120 115 102 87 99 137 169 174 163 125 95 118 104 53 43 94 122 81 54 62 62 97 112 102 72 72 54 48 36 54 61 83 68 39 49 36 51 77 83 119 99 124 167 98 101 85 138 129 64 42 38 22 27 22 20 23 22 23 8 3 9 48 80 100 117 121 122 129 134 149 159 159 176 193 179 125 90 71 83 83 82 105 121 117 97 76 107 135 104 58 76 95 116 148 156 141 152 154 130 93 89 111 119 119 134 108 62 71 101 125 141 144 150 128 123 138 121 106 117 139 130 114 104 116 130 146 138 166 191 175 178 141 101 147 172 153 152 184 144 113 133 163 144 138 93 63 127 139 149 116 107 128 79 112 127 122 131 136 156 156 155 156 157 153 155 158 158 157 156 155 156 158 155 155 156 156 157 158 158 158 157 158 157 158 159 157 157 160 162 159 158 157 158 159 161 163 162 159 158 159 159 159 160 162 161 161 164 164 161 162 165 164 165 166 165 164 164 165 164 162 
123 123 125 125 125 123 123 124 123 120 120 123 125 125 127 131 127 128 130 132 135 138 141 142 141 144 146 145 145 146 152 159 163 170 176 180 186 191 193 194 192 187 181 174 166 161 156 151 145 143 141 139 136 132 130 131 130 129 128 127 127 127 126 124 126 127 128 128 126 126 127 126 126 127 127 127 127 127 128 128 127 126 127 129 129 128 127 128 125 129 129 126 127 129 130 130 130 129 129 130 130 130 132 134 134 136 135 134 135 135 134 137 136 137 139 138 137 139 143 144 143 141 141 143 146 146 147 147 148 150 148 147 151 150 149 153 151 151 136 124 131 154 148 127 142 155 149 143 147 157 138 141 157 129 93 144 177 162 139 130 123 150 150 154 175 191 196 207 206 207 204 183 151 70 42 49 51 72 106 103 111 102 89 109 151 168 175 141 105 118 106 100 97 129 113 80 98 96 77 73 62 77 83 61 36 87 60 63 60 81 83 63 65 40 65 85 100 118 120 128 86 131 96 103 119 101 100 107 59 55 41 23 25 20 21 24 23 20 2 6 79 153 196 201 203 202 203 204 203 206 202 196 196 193 178 131 97 94 105 82 58 72 96 109 104 85 111 149 141 81 59 73 94 119 135 136 143 120 98 103 113 124 134 118 100 70 59 110 136 136 125 129 155 130 109 134 140 118 111 121 128 131 113 109 126 147 146 174 195 173 176 170 120 98 152 149 166 188 165 157 132 112 120 89 142 101 95 164 154 126 105 128 73 108 150 138 129 114 149 157 156 158 157 156 155 156 156 156 155 154 155 159 159 158 156 156 157 158 158 158 158 159 159 158 158 157 158 161 160 156 157 159 157 159 161 160 161 161 158 156 159 159 159 162 160 160 163 164 162 163 165 164 162 163 163 164 166 167 167 165 
124 124 124 125 124 122 121 122 123 124 124 124 125 127 127 125 130 130 131 132 134 136 137 138 144 144 144 145 147 150 153 157 163 170 175 179 185 190 193 194 195 190 185 178 170 164 158 152 148 146 144 142 138 134 132 132 131 130 128 126 126 127 128 127 126 127 128 128 126 126 127 127 127 127 127 127 127 128 128 128 126 126 127 128 128 126 126 127 124 127 129 129 130 131 130 129 130 130 129 129 129 130 132 133 133 135 135 134 136 136 136 138 137 138 139 139 139 141 144 146 145 144 144 146 147 147 147 147 148 152 151 148 149 151 152 154 148 148 158 158 158 141 115 130 160 161 160 148 137 151 152 162 174 178 142 139 144 132 124 114 118 128 128 145 161 175 177 182 191 186 184 189 218 156 29 24 24 43 107 110 94 86 126 129 156 173 133 113 114 63 60 71 103 117 105 90 95 102 109 85 78 66 72 63 86 111 70 93 90 60 57 66 55 28 45 74 153 117 89 125 104 128 124 123 123 97 81 68 56 47 34 24 31 23 20 20 19 12 1 29 122 160 182 191 190 183 186 181 185 188 189 188 184 178 169 125 88 89 86 78 72 105 104 99 110 93 99 129 140 116 66 61 76 96 126 142 139 93 70 98 124 143 140 101 67 70 98 123 141 131 119 120 138 122 99 113 128 127 122 120 116 117 111 115 121 126 144 157 166 147 138 173 165 119 128 143 165 183 150 152 162 87 119 122 150 151 86 152 125 101 119 122 94 70 128 162 150 118 144 158 161 153 150 156 156 154 151 153 156 155 155 157 160 159 157 157 156 156 155 155 159 159 159 158 157 156 157 158 156 155 159 161 156 157 160 159 158 162 159 156 160 161 158 161 161 161 163 163 162 163 164 163 167 166 166 166 166 165 164 163 
125 124 123 124 124 123 122 121 122 124 124 125 126 127 127 125 129 130 131 133 135 136 137 137 144 144 143 145 149 152 154 157 162 169 174 179 184 189 192 193 193 190 187 181 174 168 162 156 151 148 146 143 139 136 134 131 131 131 129 128 128 129 130 130 127 126 127 127 126 126 127 127 127 127 127 127 127 128 128 128 127 128 130 130 128 126 127 129 130 129 130 132 131 128 127 127 132 131 131 130 131 132 134 136 133 134 134 135 136 137 138 139 139 139 139 139 141 142 144 145 144 145 147 148 148 148 147 147 147 149 151 147 146 152 152 143 144 152 155 141 150 133 124 138 152 158 155 141 141 169 183 181 189 186 192 173 129 102 98 106 125 109 112 137 131 139 151 152 160 156 141 151 170 163 51 44 75 107 114 84 96 138 139 149 171 159 133 120 113 78 85 72 77 75 54 54 93 62 88 76 68 89 106 95 105 86 63 57 60 25 53 74 74 74 88 105 118 136 121 92 119 131 142 138 117 89 108 95 80 28 27 24 25 24 22 20 22 14 3 40 114 138 156 168 162 155 167 167 166 170 177 175 169 164 151 101 61 75 87 84 81 123 115 89 87 80 88 113 128 139 108 69 54 89 136 153 149 113 92 106 124 142 112 67 63 104 143 144 135 131 133 128 126 133 122 110 122 121 123 146 145 124 119 140 140 129 132 138 145 134 121 154 178 156 129 145 166 155 114 146 172 114 124 139 135 104 98 155 153 87 89 84 123 70 116 125 115 124 151 153 156 157 156 155 157 154 152 154 156 155 154 157 157 157 157 157 155 154 154 153 159 158 157 156 156 156 157 156 159 158 160 160 156 157 161 161 158 162 159 157 161 162 159 161 162 162 163 163 163 163 163 162 167 166 166 166 166 165 163 162 
124 124 124 124 125 125 124 123 122 120 120 125 126 124 126 131 126 127 129 132 135 137 139 140 142 143 144 145 148 150 152 156 160 166 172 177 183 189 192 194 194 192 190 185 177 170 164 159 154 150 147 145 140 138 136 132 131 132 132 132 132 131 131 130 129 126 126 127 127 127 127 126 127 128 128 128 127 127 128 128 128 129 130 131 129 127 128 130 132 128 128 130 129 128 129 131 130 131 131 131 131 134 135 136 134 135 135 136 136 137 138 138 140 140 138 139 142 142 142 143 142 145 147 148 148 147 148 148 148 148 150 149 149 152 148 134 123 129 124 135 165 145 151 155 151 155 147 142 152 167 180 189 188 193 198 171 107 74 79 87 82 77 82 112 127 127 126 130 125 131 108 103 115 109 87 103 120 100 77 108 135 165 156 138 139 132 128 110 70 50 58 63 47 37 45 55 53 74 91 71 56 98 100 101 86 68 42 60 59 38 46 54 95 120 126 81 113 120 107 65 84 124 132 112 101 104 86 99 81 25 26 26 26 28 22 16 17 14 5 31 90 106 106 106 110 114 122 123 131 140 150 146 155 164 141 83 78 90 98 77 87 123 120 95 84 89 93 109 136 149 147 98 52 67 104 128 129 109 118 145 126 108 91 89 109 131 138 138 132 128 137 140 123 126 118 101 137 153 131 118 123 111 95 116 149 155 138 147 157 153 156 169 169 138 135 154 189 157 92 158 137 94 146 112 154 109 83 143 130 85 69 64 102 75 115 129 121 119 125 142 155 156 152 157 156 156 155 156 156 154 155 159 153 155 156 156 156 155 154 154 157 156 156 156 155 157 158 156 159 159 159 158 159 159 159 157 159 162 159 157 160 162 161 162 163 163 163 163 162 163 163 162 163 163 164 164 166 167 166 165 
122 125 126 124 124 125 126 124 127 124 124 127 125 121 122 128 129 130 131 132 133 134 136 137 142 143 144 146 147 148 150 154 159 165 170 175 181 188 192 195 197 195 192 187 179 173 167 162 158 153 151 148 143 142 140 135 134 134 134 133 133 132 131 129 130 128 127 128 127 126 127 126 128 129 130 129 128 127 128 129 128 128 129 130 130 129 129 130 131 128 127 127 127 129 132 132 129 130 131 130 131 133 134 134 135 135 135 136 136 137 138 138 139 139 139 140 142 142 141 144 143 145 147 147 147 147 149 150 151 150 150 151 151 148 144 138 131 132 114 118 143 145 158 158 161 138 142 156 160 167 183 189 195 205 179 143 88 66 64 37 35 38 38 57 95 111 118 125 120 100 104 78 87 91 99 98 83 90 125 146 175 145 130 121 108 104 101 79 89 91 99 108 68 39 56 75 90 88 78 100 97 96 92 89 52 57 55 60 79 37 53 81 109 148 151 127 132 76 92 114 77 119 122 78 94 101 78 80 55 31 32 36 26 26 21 18 14 11 3 13 33 50 67 85 94 90 100 125 148 152 166 170 177 162 130 104 109 98 89 74 90 111 101 88 78 87 98 115 144 154 150 119 73 55 67 101 119 110 126 149 131 98 106 138 154 147 128 123 126 131 131 138 127 119 108 106 110 131 113 87 105 116 88 101 132 147 123 126 142 152 155 160 167 112 135 156 133 132 97 125 130 115 142 118 167 156 97 165 121 102 110 59 85 117 129 132 134 114 107 136 150 159 151 157 156 156 156 157 157 155 155 158 153 154 155 157 157 157 157 156 156 156 157 157 155 157 159 157 156 159 159 158 161 160 156 156 160 160 160 160 161 161 161 161 162 163 163 162 162 163 163 164 166 167 166 165 165 166 166 163 
122 126 127 124 122 124 125 123 125 127 128 127 125 124 124 126 128 129 130 131 132 134 137 139 144 144 144 146 148 149 149 151 160 165 169 173 180 187 192 195 195 193 190 186 181 177 173 168 161 157 155 151 146 144 144 139 136 135 132 131 132 132 130 127 132 129 129 129 127 126 126 126 129 130 131 130 128 127 128 129 129 128 129 132 134 133 131 131 131 130 129 127 125 129 130 127 131 133 133 132 132 133 134 133 135 134 135 136 136 138 139 139 137 139 139 141 143 143 143 146 145 146 147 146 146 147 149 150 150 150 149 150 149 141 139 147 152 158 149 135 140 158 162 164 152 140 152 164 173 176 185 201 206 183 166 139 71 53 70 81 96 103 108 82 54 50 73 70 70 62 71 76 87 90 79 64 93 144 173 162 136 117 121 108 85 77 60 78 94 85 78 83 73 44 39 66 74 66 78 96 100 100 90 64 80 48 71 73 46 37 68 130 165 132 122 101 78 108 165 169 86 93 126 101 99 114 101 102 52 37 21 34 28 20 15 17 8 6 7 12 9 11 21 41 68 97 135 176 186 190 199 195 201 173 129 116 113 89 87 92 72 85 90 103 85 94 124 131 113 121 114 114 102 72 54 77 122 144 151 135 121 127 143 152 144 128 116 114 128 147 121 106 105 107 103 114 110 91 83 73 104 144 109 88 121 123 110 110 141 160 127 123 146 122 142 148 104 93 144 149 100 138 170 116 110 185 130 169 141 113 149 64 91 117 160 145 135 103 93 126 136 158 151 156 155 154 153 155 158 157 155 155 155 155 156 157 158 158 158 157 156 157 159 158 155 157 159 157 158 164 161 157 159 159 158 164 159 158 161 163 162 161 161 157 161 163 163 162 162 163 164 166 165 167 167 165 166 169 169 166 
127 126 125 125 124 123 123 125 123 127 125 122 125 127 126 125 128 128 130 129 129 134 139 138 142 143 143 144 148 148 148 152 155 158 166 173 177 184 191 195 194 195 194 191 187 182 176 171 167 162 156 153 150 148 144 140 134 136 134 131 133 133 133 135 131 128 128 130 130 131 131 129 128 130 128 129 133 129 126 130 132 131 132 133 131 132 133 131 131 131 131 131 130 129 132 134 135 132 134 136 133 134 137 136 134 135 136 138 138 139 139 139 139 141 143 143 142 142 143 143 141 145 144 145 149 150 148 150 149 150 148 149 128 117 128 148 139 141 156 163 155 151 156 165 144 125 172 176 183 184 196 190 182 176 170 172 173 171 178 193 199 202 207 210 166 66 43 45 34 43 59 75 86 69 71 102 142 166 156 133 128 121 101 85 61 77 83 84 83 63 42 41 65 39 30 43 52 51 42 78 89 85 58 44 67 31 64 64 28 112 159 113 121 106 68 53 107 158 149 143 101 70 110 100 105 114 111 105 53 41 21 34 37 24 22 16 7 6 6 9 12 12 13 13 60 116 133 152 165 177 184 187 188 165 128 114 110 88 81 85 70 86 120 133 102 104 152 124 94 79 79 87 111 103 60 74 132 150 145 134 119 119 154 145 112 114 116 114 126 131 113 78 103 120 127 127 122 115 92 98 112 143 113 73 113 127 124 109 134 156 156 136 113 127 171 152 129 92 145 167 98 98 177 136 77 119 124 159 165 105 92 94 160 116 84 118 113 148 120 110 133 155 154 156 153 158 156 155 159 159 156 157 155 155 158 158 157 155 156 156 154 157 158 157 157 159 160 158 159 160 158 158 161 162 162 164 159 157 159 161 160 160 161 161 162 160 162 164 163 163 164 163 164 163 166 166 164 167 165 164 
124 126 128 127 123 121 124 128 124 125 125 124 126 125 125 126 127 127 129 129 129 133 137 136 140 142 144 145 147 147 148 152 154 157 166 174 179 185 191 193 197 197 195 191 187 183 180 177 171 166 161 157 153 150 146 141 139 140 137 133 134 135 135 136 134 131 131 131 130 131 132 131 129 130 129 129 132 129 126 130 131 130 131 131 131 133 133 130 129 130 131 131 130 131 133 135 131 130 134 135 133 133 136 135 136 136 137 138 139 139 139 138 139 140 142 143 143 143 144 143 143 146 147 147 149 149 149 150 149 151 146 138 138 128 104 128 111 132 158 166 168 156 143 161 125 78 122 183 195 189 175 135 149 173 165 171 188 183 180 183 189 177 197 205 204 126 23 26 25 24 23 56 64 105 158 153 154 138 126 108 108 116 89 58 53 83 81 86 72 52 46 72 63 30 22 47 52 31 59 86 67 60 81 75 50 41 63 72 114 148 118 93 77 131 181 156 130 135 107 101 124 59 76 98 99 101 112 105 68 39 35 23 33 33 22 7 5 9 11 11 14 18 17 22 66 102 97 100 119 126 129 126 124 113 101 106 101 82 70 67 60 87 115 119 82 95 138 99 69 69 67 73 98 119 89 75 105 124 123 113 107 118 127 122 102 105 131 137 132 127 99 80 116 141 139 117 103 99 87 120 146 140 121 108 136 165 151 128 126 139 142 158 135 151 180 150 122 125 163 138 116 128 126 112 163 117 105 137 121 90 59 81 161 159 57 75 103 149 147 111 139 132 157 155 156 157 156 154 156 155 154 157 155 154 155 156 156 156 157 157 157 158 157 155 155 157 158 158 157 160 160 159 160 160 160 162 162 158 157 158 159 161 162 160 162 160 161 163 163 163 164 163 165 163 167 166 165 167 166 165 
125 124 123 124 125 126 125 126 124 124 124 126 126 124 124 127 128 129 131 131 131 135 137 137 138 142 145 146 147 146 148 152 153 156 164 172 178 184 189 192 197 198 196 192 188 186 183 181 176 171 166 161 157 152 147 142 141 141 139 136 135 134 133 133 133 132 131 131 129 129 129 129 129 131 129 129 132 130 127 131 130 130 130 130 132 135 134 130 129 130 131 132 131 131 133 135 130 131 134 136 133 133 135 134 132 133 134 136 138 140 140 140 139 141 142 143 143 144 144 143 145 145 146 147 146 147 149 149 147 149 128 143 151 139 134 130 104 109 142 162 165 154 136 145 153 123 87 131 136 128 118 132 133 161 162 149 137 135 150 153 150 142 156 161 165 116 23 27 24 25 46 61 114 162 163 131 126 107 111 106 95 98 84 67 77 91 86 77 70 37 49 75 68 31 30 65 62 47 73 56 60 68 86 64 51 41 46 117 193 121 60 102 133 124 138 136 131 128 121 117 130 118 93 70 64 97 106 84 64 34 41 33 24 28 24 8 5 10 7 8 7 11 17 16 29 66 95 108 114 109 105 105 110 110 103 106 83 66 58 65 66 84 96 96 84 81 95 81 61 55 59 81 116 137 108 65 68 96 109 105 113 123 122 131 119 98 117 136 136 132 101 93 115 134 137 113 95 93 102 113 150 157 134 133 142 168 157 132 123 140 140 138 147 178 187 144 110 126 151 147 108 151 161 96 143 147 141 146 118 96 84 81 91 144 89 69 97 99 146 126 152 130 146 158 156 155 155 156 155 153 154 157 156 154 154 155 155 156 157 157 158 157 156 156 155 156 157 157 156 158 159 160 161 160 159 159 159 158 158 157 158 161 163 161 162 161 161 162 162 164 164 163 165 163 166 165 164 167 165 165 
125 123 121 123 126 127 126 124 125 125 125 126 126 125 126 129 130 131 132 133 134 136 138 138 139 142 145 146 146 146 148 151 155 156 161 168 174 181 187 191 193 196 197 195 192 189 186 183 181 175 170 165 159 154 149 144 142 142 141 139 138 136 133 132 132 131 132 133 132 130 127 126 128 130 130 130 132 130 129 131 131 131 131 131 132 135 135 131 132 132 132 133 132 132 132 133 133 134 136 136 135 135 135 134 137 136 136 137 138 138 138 137 140 141 143 143 142 143 143 143 148 145 146 147 145 147 150 148 145 148 99 118 140 134 149 139 125 120 137 144 143 150 157 165 177 182 184 157 89 77 68 79 109 118 129 116 105 118 123 116 109 104 99 116 134 94 42 47 55 60 60 113 135 110 100 90 104 96 92 86 66 56 70 78 85 82 70 65 55 38 46 65 77 43 30 53 43 34 48 64 83 70 47 77 102 85 125 80 70 98 156 132 91 119 76 103 112 131 72 101 135 110 108 96 81 88 83 79 50 31 37 36 30 28 23 5 7 13 16 44 73 86 106 114 113 137 171 180 175 169 171 180 188 177 143 116 94 64 52 67 71 77 87 103 125 118 91 87 80 76 87 100 127 131 111 71 55 73 98 112 131 142 146 145 141 124 111 114 126 129 102 102 113 120 124 107 105 134 139 120 127 143 145 136 133 149 153 133 138 154 162 147 130 169 180 147 131 126 111 123 127 134 192 113 109 134 146 152 97 113 135 81 45 51 88 100 103 87 120 106 131 95 121 153 156 152 153 157 156 155 156 157 157 155 155 155 154 155 156 156 156 156 156 158 159 158 157 157 157 157 157 159 162 162 159 158 154 158 161 160 158 159 162 162 161 162 162 161 161 163 164 164 164 163 165 164 164 166 164 165 
122 124 126 125 123 122 124 127 125 127 127 125 124 128 130 130 129 130 130 131 133 134 135 136 141 142 144 145 145 147 149 151 155 157 160 166 173 179 185 190 192 196 198 198 195 192 188 185 185 180 174 169 163 158 153 148 147 145 143 142 140 138 137 136 135 134 133 134 135 133 130 128 127 130 131 132 133 132 130 131 131 133 133 132 132 134 133 132 134 134 134 134 133 132 132 132 136 135 135 135 135 137 137 135 139 138 138 139 140 140 139 139 139 141 143 142 141 142 143 145 150 146 148 150 147 147 148 145 141 143 127 121 116 128 142 142 155 165 147 130 145 163 168 169 171 176 188 174 112 49 45 42 67 90 102 92 98 107 99 99 88 74 83 82 89 82 83 85 94 91 121 147 118 104 108 97 92 72 50 41 41 57 84 98 75 55 55 66 63 34 33 69 84 41 33 46 30 33 40 46 46 56 58 83 114 89 131 140 74 47 102 119 92 118 91 125 115 117 89 65 109 95 96 82 73 95 95 70 29 34 37 31 39 27 7 7 11 5 50 141 163 182 191 194 194 193 197 199 200 198 201 203 205 193 156 123 99 72 61 66 59 62 82 116 138 134 94 91 87 84 91 103 111 110 109 96 77 63 74 107 131 146 154 143 136 132 125 132 137 136 106 108 124 131 129 110 96 118 134 135 124 132 139 134 139 155 163 148 145 136 140 143 138 167 164 125 136 134 105 108 125 132 153 130 122 123 108 137 109 99 141 89 88 58 119 103 146 89 93 112 111 101 123 163 157 153 154 157 157 157 157 156 157 156 157 157 155 154 155 155 157 156 157 159 160 159 158 158 158 158 159 160 160 160 160 159 156 161 163 161 159 160 161 162 160 163 163 161 160 162 163 164 164 164 165 164 164 166 164 165 
124 125 125 124 123 124 125 125 126 127 127 124 124 129 131 129 129 129 129 130 133 134 135 136 142 142 143 144 145 148 150 150 153 156 161 166 173 178 183 188 195 198 199 199 198 196 192 189 190 185 180 175 169 164 158 153 151 147 144 141 139 139 139 139 137 135 133 132 134 134 132 131 128 131 133 134 134 133 132 133 132 133 133 132 133 133 132 132 135 134 134 135 134 134 133 134 135 135 134 133 135 137 137 136 135 135 136 138 139 140 141 142 138 141 143 142 141 142 145 148 148 147 148 150 148 144 141 138 143 146 163 147 118 140 155 155 159 169 143 137 162 168 167 173 179 190 186 155 82 44 40 44 64 102 113 108 111 106 97 96 78 78 86 88 104 88 94 106 103 135 144 121 119 107 99 92 54 37 44 46 51 70 69 60 44 48 67 61 80 52 38 56 70 46 40 33 31 30 47 56 49 52 28 53 103 125 140 135 123 119 83 103 134 147 105 102 107 120 135 64 76 124 107 88 48 68 84 59 33 25 24 29 40 29 5 11 10 18 82 132 139 152 164 173 176 179 185 188 190 193 197 196 195 182 147 117 99 78 67 68 69 83 86 93 120 108 88 94 91 76 69 99 104 106 110 123 126 89 57 66 96 115 120 117 110 108 124 138 146 139 113 100 115 130 134 125 102 86 97 119 123 132 132 132 134 138 142 147 138 144 134 116 145 164 137 99 136 147 131 125 133 162 177 121 141 149 112 128 145 113 96 86 97 112 101 74 94 61 80 96 99 97 106 154 156 156 155 154 155 156 156 155 156 156 158 158 156 155 156 157 160 159 158 158 158 159 159 159 158 160 162 161 158 157 159 161 163 164 162 160 160 162 162 162 161 163 163 161 161 161 162 164 164 165 166 164 165 167 164 166 
129 125 122 122 125 128 126 123 126 125 125 125 125 127 129 127 130 130 129 130 133 135 136 138 140 140 142 143 144 148 150 149 150 155 159 164 171 176 182 188 195 197 198 199 200 199 197 193 193 189 185 181 175 169 162 157 153 148 145 143 140 139 139 138 137 136 133 132 134 133 132 133 131 133 135 135 135 134 134 134 133 133 133 134 136 135 134 135 136 135 135 135 135 135 134 134 134 135 133 132 134 137 136 135 137 138 138 138 137 137 138 138 140 142 143 142 141 143 146 149 147 148 148 148 146 141 138 139 152 153 141 126 117 126 128 134 146 155 136 119 138 165 176 176 179 185 158 148 79 37 14 11 22 49 75 88 90 89 88 85 85 90 93 99 108 102 112 108 131 127 108 102 96 98 83 79 78 65 79 76 57 54 48 43 49 65 73 74 87 64 36 47 53 44 47 38 39 52 62 49 60 135 102 77 87 131 141 124 124 169 131 75 129 122 85 84 98 94 81 107 105 107 109 82 60 43 73 70 46 27 35 35 37 17 5 11 2 20 76 93 99 97 112 125 127 139 151 150 155 160 165 170 175 163 131 108 89 75 70 69 72 92 84 73 96 94 86 86 93 88 68 80 92 123 143 150 147 113 70 50 68 94 98 105 112 118 134 132 129 113 108 96 108 116 117 114 107 99 84 99 112 116 151 154 137 124 126 136 136 169 167 125 140 181 161 134 139 133 146 133 136 158 188 141 125 160 117 129 162 132 95 71 78 84 58 61 60 46 76 86 124 109 136 119 146 154 157 153 154 155 155 156 156 155 157 158 156 156 157 157 159 159 158 157 157 159 158 157 159 160 162 161 158 157 159 160 163 163 160 159 161 162 161 163 163 163 161 161 163 162 161 163 163 164 166 164 165 167 163 165 
127 127 125 123 124 125 127 126 127 123 123 126 126 125 126 125 130 130 128 129 133 134 135 139 137 138 141 143 144 148 150 148 149 153 156 161 168 174 181 189 191 194 197 200 202 203 199 195 194 191 188 184 178 171 164 158 155 151 149 148 144 142 140 137 137 138 136 136 137 135 133 135 134 136 136 135 134 135 135 136 135 134 133 135 139 138 136 138 138 136 135 136 136 135 134 134 134 136 135 133 134 136 135 134 138 140 141 140 140 140 141 142 143 144 144 142 142 143 146 148 149 152 150 147 146 142 141 147 151 138 133 128 119 122 123 141 154 156 142 116 106 114 137 171 185 158 157 171 179 157 96 49 42 34 46 52 58 67 68 81 92 91 98 107 117 124 116 121 127 91 97 108 98 66 55 76 59 56 70 83 64 43 48 54 50 53 61 59 73 39 33 47 42 43 50 47 33 30 24 50 94 156 162 134 72 68 87 116 129 156 115 83 86 82 110 127 104 66 76 99 106 72 83 70 57 45 63 58 44 33 41 41 27 6 8 14 13 22 44 70 68 70 82 88 89 97 107 116 123 126 129 133 138 126 102 91 85 73 75 76 74 90 82 73 78 87 76 74 99 109 87 71 95 139 161 150 137 131 105 64 53 79 97 117 126 123 138 152 127 97 112 118 136 125 98 79 88 98 98 90 105 106 145 160 148 138 145 139 139 155 169 146 145 172 151 151 142 143 159 86 72 119 164 165 127 153 151 154 190 183 110 75 65 91 46 51 79 108 126 109 135 166 152 91 133 150 157 154 155 156 155 157 157 155 156 157 156 156 157 157 156 157 158 157 158 159 158 154 161 158 159 160 159 160 161 158 157 159 160 161 162 160 160 164 164 163 160 161 164 163 161 162 162 163 164 163 164 165 162 164 
125 127 126 124 126 128 126 123 125 126 127 125 124 125 127 128 129 129 129 130 133 136 137 136 141 141 140 141 144 148 152 153 151 153 156 161 169 174 180 186 192 193 198 201 201 203 202 198 196 194 191 187 181 176 169 163 157 154 153 151 148 147 145 141 136 137 138 137 138 138 136 133 133 137 137 134 134 135 136 136 138 136 136 138 138 135 136 138 140 138 136 136 136 135 134 133 136 138 137 134 135 137 137 137 140 137 138 140 140 140 142 143 144 143 141 141 143 144 147 151 148 148 146 148 145 130 133 144 141 117 123 137 151 156 158 164 162 160 162 156 151 124 85 141 172 137 145 182 201 203 192 190 191 129 33 17 39 57 54 45 42 45 76 114 121 126 116 119 81 71 106 98 67 56 61 78 60 58 53 49 49 42 54 60 55 50 55 41 59 41 37 32 36 36 36 29 32 68 110 76 87 114 131 148 102 69 49 54 91 116 64 93 103 104 100 113 144 111 76 97 110 81 70 79 53 43 50 53 39 41 39 39 16 13 13 16 16 15 23 34 40 51 55 61 79 89 88 88 97 102 97 92 93 89 77 62 63 64 73 89 86 89 96 76 78 77 76 76 102 126 105 72 85 120 131 121 125 127 121 98 60 60 84 108 119 108 120 137 111 88 109 135 149 132 83 69 66 91 101 108 105 102 124 136 142 145 153 153 145 150 159 157 157 166 126 117 139 148 138 65 34 50 152 170 115 139 184 166 166 161 71 44 64 102 57 34 115 128 132 113 93 169 149 108 145 148 162 157 152 159 156 154 155 158 158 158 157 156 156 159 156 158 158 157 158 158 156 155 157 157 158 160 160 161 161 160 156 160 162 160 159 160 162 163 161 163 163 161 160 162 163 163 162 165 167 165 163 162 164 166 
125 127 126 124 125 127 126 126 125 126 126 125 125 127 128 127 128 128 128 128 130 134 136 137 140 141 142 142 144 147 149 150 149 151 155 161 169 174 179 183 191 194 199 202 202 203 203 200 199 197 194 190 185 179 172 166 161 157 154 151 149 148 145 141 139 140 139 138 137 137 136 134 135 136 135 135 135 134 134 136 138 136 137 139 138 135 136 139 140 138 138 139 139 139 138 137 137 138 137 136 137 138 138 138 139 137 139 142 141 141 142 143 143 143 142 142 144 145 146 148 149 150 147 131 140 116 116 137 139 121 124 152 165 157 160 156 159 168 179 181 175 170 144 148 146 130 134 155 185 167 171 192 211 187 64 9 28 38 38 28 28 62 99 116 129 134 133 105 84 101 92 63 59 65 78 85 61 54 55 67 59 45 60 50 45 53 47 45 40 34 41 32 41 51 36 58 105 169 172 116 82 89 126 143 136 122 72 37 65 102 85 102 129 104 53 73 120 119 99 100 92 109 57 55 53 30 33 55 38 41 41 28 16 15 17 22 24 23 26 33 37 36 41 47 57 75 81 72 74 76 72 70 67 61 61 64 62 80 95 107 101 91 95 88 76 85 89 90 115 139 113 74 69 91 106 116 128 124 127 122 93 64 60 81 97 91 92 97 83 75 95 127 135 106 77 79 94 111 107 109 105 93 108 128 129 136 139 141 138 144 157 154 159 157 133 112 113 149 138 71 25 43 114 162 128 116 175 157 145 151 110 53 79 91 114 45 61 57 53 59 63 93 87 90 140 152 157 157 157 154 154 159 156 156 155 155 158 159 158 158 158 158 156 155 156 158 159 159 158 158 159 159 159 159 161 161 159 160 161 161 160 159 160 163 162 163 162 162 162 162 162 161 163 163 163 162 161 163 166 168 
125 126 126 125 126 126 125 126 125 126 126 126 127 128 128 127 127 128 128 128 129 132 135 136 137 141 143 143 143 146 148 148 149 151 154 160 167 172 177 182 190 194 200 202 203 204 205 203 203 201 199 195 190 184 177 171 167 162 157 154 152 151 147 143 142 142 141 139 138 138 138 137 141 138 136 138 140 137 136 138 137 137 139 140 139 136 137 140 138 138 138 139 139 139 138 139 137 138 137 137 138 138 138 139 140 138 140 143 143 142 143 143 144 145 145 144 145 146 147 148 146 145 131 138 157 134 145 150 141 119 140 160 162 162 155 157 166 172 176 185 183 192 181 146 126 127 137 154 152 152 166 174 165 167 118 9 27 26 27 39 70 75 96 121 133 128 101 102 105 86 83 83 91 85 76 77 71 42 56 62 56 57 57 45 43 40 31 34 19 41 69 44 54 136 139 132 122 117 129 115 108 60 83 117 81 110 120 60 66 104 94 104 106 112 86 75 85 103 109 58 60 98 93 67 52 34 21 45 38 39 30 15 21 21 23 25 27 29 35 41 47 38 39 41 37 47 66 74 65 63 56 57 63 73 95 114 138 147 134 118 106 92 92 96 86 100 112 115 123 122 95 69 61 78 108 132 136 125 132 129 112 76 54 65 76 85 84 79 72 82 103 117 108 79 64 80 119 131 128 121 110 99 111 126 140 142 130 133 140 134 142 152 150 119 109 137 122 141 146 73 33 96 113 123 136 127 170 180 141 145 147 69 91 121 88 66 36 68 71 46 31 25 34 44 74 133 152 155 158 154 157 154 156 155 154 154 158 159 158 158 159 157 155 154 156 158 160 160 158 158 159 159 157 158 161 162 161 159 159 162 161 158 159 164 162 162 162 163 164 163 162 161 164 164 162 161 162 164 166 167 
125 126 126 127 128 126 124 123 125 125 125 125 126 127 128 128 127 129 131 131 132 133 134 135 135 139 142 142 143 147 149 149 152 153 154 158 163 169 175 182 189 195 201 203 203 205 206 206 205 203 202 199 194 188 181 175 170 166 161 158 156 154 151 147 145 145 143 142 141 141 141 141 140 138 135 137 139 138 136 137 137 138 139 140 140 138 139 140 138 139 139 140 139 138 138 138 137 137 136 137 139 138 137 138 141 140 141 143 144 143 144 144 143 145 145 144 144 146 147 149 148 134 123 147 140 132 138 128 140 144 129 128 147 161 160 164 174 187 202 217 198 174 158 124 127 120 115 113 96 118 131 128 123 115 49 30 35 45 54 91 101 91 109 106 143 117 100 106 106 86 81 81 91 74 60 77 69 45 63 61 57 61 53 47 39 31 19 25 49 102 152 125 62 91 144 123 138 120 129 106 135 131 74 88 69 67 119 127 75 108 85 80 77 134 150 52 93 120 103 70 44 71 94 66 26 34 27 43 40 43 26 18 17 22 28 31 33 34 38 42 44 46 46 44 42 36 34 38 49 60 68 86 113 140 162 171 182 185 158 128 115 100 89 89 96 118 130 119 101 82 66 61 70 84 116 133 124 117 128 115 99 90 79 74 62 79 90 91 87 97 115 102 88 82 71 82 109 137 150 132 112 118 127 114 134 157 146 137 154 155 144 145 155 143 109 136 144 143 157 98 69 128 142 119 135 156 165 181 146 137 132 118 73 41 76 88 49 45 44 35 29 34 55 46 67 136 156 151 154 155 159 151 155 157 156 155 156 156 156 158 159 157 157 157 157 159 159 157 158 158 159 159 157 158 161 162 159 158 159 161 160 158 160 164 161 160 161 164 164 163 163 164 166 165 165 165 165 165 164 163 
125 125 124 125 127 127 125 124 124 124 124 124 125 126 127 129 128 130 132 133 132 132 134 135 135 138 140 141 143 147 150 149 152 154 155 158 162 168 175 183 189 195 201 204 205 206 207 208 206 205 203 201 196 191 185 179 173 169 166 162 159 157 154 150 148 146 145 145 145 145 143 142 139 140 138 136 138 140 139 138 138 138 139 140 141 141 141 141 142 142 142 143 142 140 140 140 138 137 137 138 139 138 137 139 142 142 142 143 144 144 144 145 143 144 142 143 146 147 146 145 143 117 126 128 117 135 118 112 131 143 126 97 87 124 156 170 191 192 203 210 191 170 171 166 119 66 45 41 47 60 60 61 67 53 70 76 66 90 92 87 100 118 110 137 126 109 97 111 90 87 83 85 76 53 55 52 60 52 60 69 63 49 51 39 19 27 68 124 107 85 131 126 127 124 114 91 109 137 119 88 117 129 101 66 81 79 77 112 93 93 95 82 91 125 146 69 70 90 108 92 45 48 96 58 29 36 36 38 28 33 20 18 19 23 29 32 35 38 40 41 41 40 35 32 26 13 24 57 90 121 147 162 171 179 188 190 191 195 170 135 115 100 87 81 106 124 119 99 90 87 78 67 74 77 87 96 99 100 109 94 88 102 114 106 70 67 84 100 111 105 106 88 84 102 109 115 110 122 136 125 109 113 120 118 127 152 157 149 160 164 148 142 157 168 138 136 156 148 163 124 86 123 152 146 154 184 148 116 116 134 139 99 45 28 62 82 84 67 91 111 104 129 146 116 132 154 156 153 158 156 154 153 155 157 157 155 154 154 155 158 158 157 157 159 158 158 158 156 158 158 158 159 158 159 160 160 157 159 160 159 158 159 161 162 160 160 162 164 164 163 164 167 164 165 166 166 166 165 164 162 
126 125 122 122 125 127 127 127 124 124 124 124 125 125 127 129 130 130 130 130 130 131 133 136 137 138 140 141 143 146 148 149 149 151 154 159 164 169 175 182 187 195 201 204 206 207 207 209 207 206 205 202 198 194 188 182 176 173 170 166 162 159 156 152 152 149 147 147 147 146 143 141 141 143 142 139 140 143 142 141 140 140 140 140 142 143 144 142 143 143 143 143 143 142 141 141 141 140 139 139 140 140 140 140 142 143 143 143 144 144 144 145 147 145 143 145 149 148 144 142 136 140 155 139 138 149 140 140 152 155 161 151 125 121 111 131 177 167 178 184 183 186 199 201 184 165 150 161 156 85 12 52 84 88 96 85 83 88 78 80 104 115 125 138 111 99 99 110 90 82 86 78 65 54 60 62 61 55 73 79 65 40 28 22 43 74 123 198 150 74 101 120 140 147 110 129 157 99 116 195 173 111 98 110 117 117 103 93 104 71 86 89 102 119 104 109 60 74 107 76 78 51 70 70 53 41 27 23 33 35 19 25 29 30 32 34 37 40 40 39 33 24 13 12 28 59 105 144 164 178 183 183 183 184 189 192 187 185 163 129 107 94 79 67 90 103 99 94 99 101 101 100 86 73 53 58 84 88 91 88 88 99 120 124 90 69 84 111 107 105 101 96 89 100 125 136 136 128 124 114 106 99 98 112 126 133 146 152 147 143 141 136 144 155 144 148 162 138 160 131 94 129 148 165 159 148 118 80 90 146 139 93 78 105 129 138 149 154 156 157 156 160 153 160 157 154 152 154 160 160 155 155 155 156 155 154 156 156 156 156 158 156 157 158 157 157 159 159 157 157 158 159 159 159 161 160 157 160 161 159 158 159 160 159 161 162 163 164 163 162 163 166 162 163 164 163 163 164 165 165 
125 125 123 121 124 127 127 126 125 124 124 126 127 127 127 128 130 129 128 129 129 130 133 136 136 137 139 142 143 144 147 149 149 150 152 157 164 169 175 180 186 194 200 204 207 208 208 209 208 207 206 204 200 197 192 186 181 177 172 168 165 163 160 156 156 153 150 150 149 147 145 143 143 143 141 140 141 142 142 142 142 143 143 142 142 145 145 144 146 145 144 144 144 143 142 142 143 143 141 139 141 142 142 142 141 143 143 143 145 145 144 144 148 148 147 146 143 139 138 142 144 151 134 130 133 142 163 161 167 164 156 173 170 176 151 111 133 138 164 175 186 188 194 197 201 208 198 215 216 188 106 100 88 80 69 67 78 77 78 94 107 110 141 112 106 120 117 113 127 65 82 89 65 56 55 54 63 57 74 48 35 33 29 60 128 175 148 130 130 102 110 133 125 138 114 105 107 126 162 157 101 72 94 121 95 116 129 86 140 73 72 102 43 64 91 116 92 82 84 98 96 88 60 77 53 41 28 30 51 37 21 26 29 35 40 42 39 34 30 28 14 12 26 64 110 142 157 161 173 182 184 185 184 179 178 177 182 169 143 112 94 83 71 63 70 73 68 80 95 92 94 104 108 94 65 56 77 85 97 104 92 93 113 125 110 81 78 88 88 106 117 114 99 96 114 123 142 144 138 112 105 110 97 95 118 126 130 140 134 136 148 131 133 156 151 139 150 134 146 145 121 129 129 141 137 130 146 101 106 143 162 114 144 160 149 152 154 148 152 156 148 152 154 150 152 154 155 153 154 158 158 155 156 156 154 155 157 157 156 156 157 155 157 159 156 156 160 160 156 157 159 159 158 159 161 161 160 159 159 160 160 160 159 158 160 162 163 163 162 162 162 162 162 162 163 162 162 164 165 166 
123 126 125 123 125 126 125 122 126 124 125 128 129 129 127 127 128 127 128 130 131 131 133 135 134 135 139 143 144 143 146 150 151 150 150 154 162 168 174 179 184 193 199 203 207 208 208 210 210 208 207 205 202 199 194 189 184 179 174 170 168 167 165 161 158 155 153 152 151 148 147 147 148 145 143 144 145 144 143 146 143 145 145 143 143 145 146 146 151 149 147 147 147 146 145 144 144 145 142 138 140 143 143 142 140 143 143 143 145 145 143 143 145 147 147 142 132 124 130 141 147 134 113 132 120 139 164 162 162 160 159 173 178 185 149 131 129 132 143 152 175 173 176 188 197 186 182 194 198 187 132 94 94 82 83 75 73 78 93 115 125 114 128 126 122 115 99 115 126 86 82 74 57 57 65 59 47 40 36 35 87 110 81 77 112 172 167 89 93 97 111 129 94 115 75 87 115 104 108 84 76 167 175 132 115 118 130 69 96 121 99 126 52 45 100 112 98 94 97 93 81 77 67 45 33 27 35 41 40 16 22 22 28 36 42 40 29 20 19 22 46 80 114 134 148 157 162 165 170 177 175 172 169 165 160 155 151 138 116 91 76 66 61 65 62 64 53 59 73 73 77 87 112 116 102 82 81 89 110 113 102 94 98 101 107 95 93 89 99 119 133 115 104 112 117 124 133 129 130 113 108 120 117 118 132 133 115 130 135 133 156 145 125 138 175 148 135 140 133 157 138 118 126 155 177 153 153 99 131 145 145 112 147 145 156 152 154 155 153 153 158 153 153 152 152 155 156 156 154 152 155 151 156 157 157 156 157 156 156 157 156 155 159 161 157 156 159 159 156 157 159 160 158 158 161 163 161 157 156 161 163 161 159 159 159 161 163 162 162 163 162 160 164 164 164 164 164 164 164 164 
125 125 127 128 126 124 124 124 124 125 125 125 124 125 126 127 123 126 128 129 130 129 131 135 134 137 139 141 145 145 145 147 148 151 153 155 160 165 173 180 188 191 197 203 206 208 209 210 210 211 210 207 203 200 195 192 189 183 178 175 172 170 168 165 161 158 155 154 153 153 151 150 150 147 145 144 145 146 146 146 145 145 144 145 147 147 147 149 150 148 146 147 148 148 147 147 146 145 143 140 140 142 143 144 143 143 144 144 144 143 142 147 148 142 152 139 113 111 115 131 141 147 128 132 132 132 142 156 164 168 176 181 179 152 116 107 109 108 117 142 139 146 147 155 155 145 156 165 161 149 84 76 110 104 107 81 76 92 115 129 129 138 105 121 128 120 103 122 120 104 71 60 52 56 57 49 50 57 62 110 154 124 88 100 118 139 109 141 145 114 109 132 97 80 80 46 97 107 106 111 128 151 139 104 115 140 115 85 74 141 146 128 100 71 114 92 107 113 98 88 79 70 77 68 51 47 56 39 17 19 23 27 36 37 35 26 16 17 42 81 127 150 151 146 154 157 155 153 153 155 151 145 142 140 135 131 126 111 97 80 70 65 62 72 76 72 62 51 56 60 63 83 100 119 126 102 82 96 117 117 105 97 104 111 112 121 112 111 107 123 121 116 100 117 133 128 108 107 121 115 116 122 138 139 142 154 141 128 132 143 152 151 138 148 171 179 149 128 142 156 129 105 131 152 148 131 131 110 156 144 96 88 139 149 154 156 152 153 155 153 153 155 156 153 156 155 152 153 157 156 153 154 155 156 158 159 158 156 155 155 155 158 158 158 160 159 156 156 161 158 155 155 156 157 160 162 159 161 162 163 162 161 160 160 158 161 162 161 160 162 162 161 162 163 162 162 163 163 162 163 
124 123 124 125 124 124 125 125 125 126 126 125 125 126 127 127 126 128 128 128 129 129 131 135 136 136 136 139 145 147 146 146 149 152 155 157 161 166 173 179 186 190 197 203 207 209 211 213 211 212 211 208 205 202 197 193 191 186 182 179 176 175 172 169 165 162 159 156 155 154 152 150 151 150 148 147 147 147 147 146 148 148 147 148 149 149 149 151 152 150 148 149 150 149 148 147 146 145 144 142 142 143 144 144 147 143 144 144 144 147 147 143 149 144 139 145 147 132 108 138 145 127 138 130 111 100 108 107 132 148 190 195 155 123 114 120 121 119 112 122 119 106 106 105 105 105 103 110 109 99 78 94 103 107 102 88 90 94 107 125 126 140 119 124 129 104 96 109 97 63 65 62 39 53 55 80 81 71 73 81 109 116 138 127 144 131 74 101 136 104 124 131 114 66 106 70 60 79 123 142 129 96 98 61 78 114 117 113 71 109 82 94 124 92 99 96 107 68 60 105 79 75 76 74 59 58 49 27 17 18 17 25 26 27 27 19 21 52 98 135 141 148 149 146 143 142 139 128 127 126 122 118 118 116 112 108 98 89 84 75 67 61 60 72 83 76 68 56 54 61 66 76 96 117 134 114 96 101 103 109 101 91 99 118 122 127 118 112 108 108 110 110 124 128 117 116 99 103 122 123 126 131 144 145 143 150 150 138 139 142 136 142 149 151 171 184 162 145 155 161 136 118 113 125 93 67 104 132 121 104 107 103 136 156 152 150 152 153 154 153 153 156 156 152 156 155 153 154 157 156 154 155 154 155 156 157 157 155 154 155 155 157 156 155 156 156 155 157 159 157 155 156 157 157 159 161 161 160 159 160 161 161 160 158 161 161 162 162 161 159 160 161 163 164 163 162 163 163 163 165 
124 123 124 125 124 124 125 125 127 128 128 125 125 127 127 126 128 129 129 129 129 129 131 134 135 135 136 138 144 146 147 147 147 150 153 156 160 164 170 176 184 189 196 202 206 209 212 214 213 213 211 209 207 204 200 196 193 189 186 184 182 180 177 173 168 165 161 158 156 154 152 151 152 152 151 150 149 148 148 148 150 151 151 152 152 151 151 154 154 152 152 153 154 153 151 150 147 147 146 145 145 146 145 145 145 145 145 145 144 145 145 145 142 134 139 135 147 125 113 133 127 128 148 135 124 125 128 122 124 122 149 159 128 115 131 137 125 99 92 91 80 88 86 81 86 80 74 81 94 99 98 105 102 104 104 102 85 87 105 113 130 159 131 126 125 109 94 105 84 94 95 36 61 71 73 62 93 152 116 50 90 107 84 117 144 122 114 87 115 91 122 169 138 72 85 136 134 106 101 131 115 103 114 90 83 112 85 103 78 86 66 88 122 83 59 89 55 41 62 115 85 88 79 72 65 57 32 12 12 13 11 14 15 12 16 17 34 78 108 113 121 123 124 123 120 122 122 110 102 101 100 103 105 102 94 89 89 79 72 63 55 52 55 65 86 80 73 64 64 66 68 75 108 124 138 127 102 78 75 95 84 75 78 100 105 108 111 112 100 99 107 109 133 124 107 104 90 91 114 132 143 143 142 140 130 120 132 140 134 130 128 130 126 136 159 170 149 136 146 151 152 140 115 130 142 115 89 126 98 88 108 108 136 152 152 152 152 152 153 153 154 156 156 152 155 155 154 154 155 155 154 156 153 154 155 156 156 155 155 156 157 158 157 157 157 157 157 158 158 157 156 157 158 158 159 160 161 160 158 158 159 160 160 160 163 161 161 163 162 158 159 162 164 164 163 162 163 163 163 165 
124 124 127 128 126 125 125 125 127 128 127 125 125 127 128 126 127 129 129 129 130 129 130 132 132 135 138 140 141 144 146 149 147 149 151 154 158 162 168 175 183 189 196 201 205 207 210 213 213 213 212 210 208 206 202 198 195 192 189 187 185 183 180 176 171 168 165 162 160 158 156 155 154 154 153 153 152 151 150 150 152 153 153 154 154 153 153 156 155 155 155 157 158 158 156 155 150 149 148 148 148 148 147 147 144 147 146 147 150 145 143 144 119 118 143 147 155 136 126 124 131 151 157 162 158 161 167 181 172 152 125 139 144 136 137 113 101 75 46 49 52 45 51 53 60 68 90 105 117 104 92 107 107 98 101 104 80 91 101 90 125 144 127 134 130 123 102 101 84 123 108 67 89 81 70 62 127 117 127 127 79 105 123 134 126 113 110 115 123 83 107 138 144 136 68 103 163 150 61 101 100 81 132 114 91 101 63 98 81 88 111 102 105 107 63 65 74 99 113 113 108 99 73 68 60 40 18 11 13 17 21 16 22 23 28 25 37 70 92 93 88 96 98 99 104 108 108 100 94 88 83 84 87 84 78 76 77 69 63 59 62 74 85 90 93 89 76 71 77 76 77 94 117 128 123 117 91 62 75 93 79 77 73 94 100 97 99 102 105 106 106 111 123 118 112 92 82 80 102 130 148 145 138 140 136 115 109 125 122 112 120 123 116 120 144 167 149 116 115 132 133 158 135 128 166 154 93 116 133 136 94 80 142 152 149 159 153 153 153 153 153 155 155 153 153 154 153 153 153 153 154 156 153 154 155 156 156 156 157 158 157 158 158 160 160 159 158 158 159 157 157 158 159 159 159 161 159 160 160 159 158 158 161 163 161 160 160 161 161 160 161 164 164 164 163 162 164 164 163 164 
124 125 128 129 127 126 127 127 127 127 126 125 125 128 128 126 128 128 128 128 129 129 130 132 132 136 139 140 140 142 145 146 149 150 151 154 159 163 170 177 182 188 196 201 204 208 211 213 213 213 212 210 209 208 204 200 198 194 191 190 188 186 184 180 176 174 170 167 165 163 161 160 156 155 155 155 155 155 154 153 153 153 154 155 156 155 155 158 157 157 159 161 162 161 160 159 154 152 150 149 149 148 147 147 150 149 144 144 145 148 149 138 111 140 141 130 121 136 124 125 153 160 156 163 165 178 184 185 157 139 144 139 159 172 133 125 129 119 79 38 41 28 13 31 70 90 105 106 116 105 92 104 101 105 111 109 94 101 96 102 135 115 118 128 126 109 99 90 88 93 98 109 97 96 127 158 139 96 120 99 139 104 82 127 134 101 125 132 128 101 112 84 65 104 89 53 98 113 109 61 114 140 118 97 70 103 92 113 77 63 109 107 97 113 81 78 109 96 108 104 101 87 70 53 33 14 6 11 12 17 28 26 27 36 44 42 44 56 68 80 91 93 91 92 93 92 90 85 80 74 69 71 74 71 68 68 61 64 75 96 123 143 137 114 103 94 75 67 72 79 92 108 109 110 94 83 68 65 89 94 95 108 101 108 103 92 97 110 121 121 116 119 110 110 110 100 94 93 104 124 135 135 129 133 138 135 117 121 131 117 114 128 131 135 149 175 177 148 128 129 135 154 138 132 145 120 96 123 123 132 124 120 139 148 153 148 154 154 154 153 151 153 155 154 153 154 154 153 152 153 155 156 155 155 156 156 155 155 156 157 156 155 155 157 158 158 156 155 159 158 157 158 158 158 159 161 158 159 160 159 159 159 161 163 159 160 160 159 160 162 164 164 163 163 162 162 165 165 163 162 
125 124 126 126 125 126 128 130 127 126 125 126 127 128 128 127 129 128 126 126 128 129 130 132 135 136 138 139 140 143 144 142 149 149 150 154 158 162 169 176 181 187 195 200 205 209 213 214 212 213 213 211 210 209 206 203 201 197 195 194 192 191 188 184 180 178 174 171 168 165 163 162 159 159 158 158 158 158 157 156 155 155 155 156 158 158 158 160 160 160 162 163 164 163 162 161 159 155 152 151 150 148 147 147 144 146 149 146 135 144 152 126 122 147 141 128 122 137 135 149 149 153 167 170 183 183 171 151 140 161 174 170 177 190 190 194 190 190 193 134 36 21 12 55 82 87 101 118 111 103 107 104 97 110 125 116 101 101 106 134 142 134 131 131 128 110 92 85 92 97 122 111 94 126 184 132 113 140 122 102 153 120 49 99 115 71 99 133 116 108 166 141 92 96 129 61 61 76 113 92 60 114 100 110 88 107 93 103 63 62 104 106 105 119 99 84 93 92 101 96 86 70 41 17 14 9 9 14 14 17 27 38 38 41 43 44 49 46 43 54 76 77 89 104 100 91 86 75 72 69 68 71 72 69 68 71 76 102 133 159 176 183 167 132 108 95 79 68 65 83 105 105 85 70 68 60 49 59 81 96 106 117 102 99 90 84 96 114 130 125 123 121 104 101 98 117 116 114 109 114 124 131 118 113 125 134 135 130 136 131 123 139 143 153 156 168 185 182 160 139 144 140 138 141 150 131 112 146 106 97 134 128 102 143 159 151 154 154 155 153 152 153 155 155 154 155 156 155 153 154 156 156 157 156 156 156 155 153 154 155 158 155 154 156 156 156 157 157 159 158 157 157 157 156 158 160 159 158 157 158 160 162 161 160 160 162 161 159 160 163 164 163 162 162 161 162 164 165 163 163 
125 124 124 126 126 127 129 129 128 126 126 128 129 129 128 128 129 128 126 127 129 130 129 130 133 134 137 138 139 143 145 144 148 149 150 154 158 161 167 174 179 185 193 199 204 210 213 214 212 214 214 213 211 210 208 206 203 200 199 198 196 194 191 187 184 181 177 174 170 167 165 164 164 164 163 162 161 160 160 159 160 159 158 159 161 161 161 162 163 163 165 167 167 166 165 165 164 160 157 155 154 151 149 148 149 149 145 140 130 138 148 127 132 144 141 124 135 138 131 122 116 121 148 183 193 153 134 134 141 175 194 190 188 194 196 192 180 187 208 207 71 11 36 60 49 55 87 115 99 110 117 96 105 108 120 110 97 99 118 136 128 147 133 135 129 110 93 90 103 112 104 132 143 132 128 124 109 135 123 122 144 138 54 67 102 95 99 116 77 92 121 122 138 155 126 91 61 97 97 98 45 102 93 126 109 100 71 73 68 62 97 108 107 102 106 112 105 91 85 79 52 30 17 16 10 11 16 13 13 20 29 44 49 52 53 52 53 43 35 46 54 76 107 129 128 117 109 98 97 94 89 86 85 87 95 105 134 155 175 188 192 193 178 143 111 98 85 75 69 90 112 100 77 48 50 61 70 85 89 91 94 102 96 92 76 72 88 110 120 114 108 101 97 96 96 114 118 113 100 102 113 128 117 114 122 126 141 139 125 120 123 136 145 141 140 155 168 163 149 136 150 124 108 124 169 178 127 154 130 78 109 126 78 123 151 154 153 153 154 154 153 154 156 156 155 155 156 155 153 155 156 155 157 156 157 156 155 154 155 156 159 156 156 158 156 156 158 159 160 159 158 158 157 157 158 160 160 158 157 158 161 162 161 160 163 162 162 162 162 162 163 163 161 162 162 162 163 164 164 165 
126 124 125 127 128 129 128 126 130 127 126 129 131 130 128 129 127 127 128 130 133 131 128 127 129 132 137 138 137 141 147 149 150 150 152 156 160 163 168 174 178 184 191 197 203 209 212 212 213 215 216 214 212 211 210 208 204 202 201 200 199 196 192 187 187 185 182 178 175 172 170 169 168 168 167 164 162 161 161 162 163 162 160 161 164 164 163 164 165 165 167 169 170 170 169 169 169 164 161 160 157 154 151 150 148 149 142 149 157 151 138 113 125 139 132 126 146 148 139 143 136 121 115 170 168 127 119 121 149 169 173 162 167 175 166 154 147 170 183 176 107 17 36 23 33 46 86 112 101 117 105 102 108 116 123 108 98 97 122 130 95 108 116 135 126 80 77 64 100 107 125 155 126 129 101 136 143 118 101 118 120 132 93 54 94 58 84 111 137 95 59 106 113 112 92 104 87 109 97 96 75 87 138 102 81 82 114 109 105 83 106 97 93 98 102 89 82 71 54 36 29 22 19 16 17 16 23 17 19 36 46 57 64 64 60 52 47 40 36 47 84 121 143 145 142 137 135 134 127 126 125 123 125 132 148 163 173 182 190 197 199 196 177 138 110 97 80 71 71 89 107 98 75 70 74 84 96 113 114 97 99 99 97 97 79 76 91 110 94 102 98 83 80 80 102 107 113 107 92 92 97 112 114 130 116 127 140 150 131 103 107 119 130 120 124 143 151 143 132 119 148 142 99 114 172 205 137 118 131 121 105 103 73 126 156 155 153 152 154 155 155 156 156 155 154 154 156 155 153 154 156 153 156 156 157 157 157 156 157 159 156 155 158 160 157 155 157 158 161 160 160 160 159 158 159 160 161 160 160 160 161 161 162 162 165 162 161 164 164 162 162 165 161 163 163 162 162 162 164 168 
126 126 127 128 130 130 129 128 126 127 128 128 127 127 129 131 129 128 128 129 129 129 130 131 132 134 135 135 138 143 146 146 148 150 152 154 156 160 167 172 174 183 193 200 205 209 212 212 213 215 216 214 212 211 211 210 207 206 205 204 201 199 198 196 191 188 185 182 179 176 175 173 172 170 169 169 167 165 163 162 165 165 164 164 165 168 169 169 168 169 170 172 174 174 173 172 172 173 162 160 159 154 153 149 143 129 141 163 152 145 142 112 115 130 138 153 160 157 166 167 172 168 159 155 135 122 116 128 178 179 149 141 151 152 141 121 111 132 140 145 65 13 27 26 30 61 102 108 103 112 113 106 109 121 121 101 101 97 132 136 105 84 117 135 114 81 96 98 92 109 136 137 126 134 98 91 134 140 142 153 130 122 104 79 110 94 91 90 117 104 63 106 121 103 114 103 97 109 81 81 129 100 95 85 95 80 105 114 115 107 102 91 81 77 69 62 72 59 33 32 32 21 26 24 22 33 37 32 39 51 58 69 67 62 58 52 52 47 47 77 132 149 151 147 148 145 141 137 136 139 146 154 160 167 176 184 184 188 193 195 198 194 167 135 106 97 89 73 70 77 76 84 86 98 108 109 121 134 126 119 101 96 105 118 109 100 104 103 85 102 104 101 92 90 109 116 118 109 103 85 87 100 114 125 126 137 141 154 152 115 97 114 119 128 141 148 144 150 151 127 144 163 137 127 156 171 128 98 131 151 123 110 116 144 155 156 154 152 151 154 154 153 153 155 155 154 154 155 154 153 154 157 158 155 155 155 154 153 156 159 160 156 155 156 156 155 155 154 157 158 160 161 161 160 159 159 160 159 158 161 163 161 159 162 164 165 165 163 163 164 165 164 162 164 162 162 165 164 162 164 
128 127 127 128 129 130 129 127 127 126 126 126 126 127 128 130 128 128 128 130 131 130 130 131 133 135 136 137 140 144 145 144 149 151 153 154 156 160 167 171 177 184 192 197 202 207 212 213 214 216 216 214 213 212 212 211 209 208 208 207 204 202 199 196 195 191 188 185 180 177 176 174 174 171 171 171 169 168 167 166 167 167 167 167 169 170 171 171 171 173 173 172 174 177 179 178 174 175 172 167 161 159 155 144 133 117 132 152 148 145 145 133 125 144 160 160 156 161 169 173 180 184 148 140 132 124 123 149 181 144 125 113 121 122 130 109 89 80 78 68 20 23 29 32 64 96 108 108 111 101 96 109 118 122 114 97 100 119 140 125 128 115 125 140 116 95 110 100 110 134 107 139 181 138 129 119 114 155 157 136 107 93 114 115 125 117 111 120 115 111 87 92 124 122 84 86 106 72 131 160 137 108 105 99 120 97 81 74 48 58 51 55 71 74 73 73 69 50 32 32 34 28 26 31 36 43 49 50 59 67 65 66 70 64 62 61 76 92 105 133 149 154 150 146 144 142 144 146 148 153 161 169 173 176 181 187 187 184 183 186 189 181 154 124 107 94 85 72 63 58 54 67 84 101 119 126 136 140 127 120 99 93 114 136 129 113 104 98 84 89 115 119 108 111 117 119 116 117 113 100 96 93 109 123 137 139 137 145 156 133 105 113 129 150 156 164 163 158 166 164 157 176 171 156 156 158 132 112 160 148 145 147 113 140 155 153 156 154 153 153 154 153 153 154 154 153 153 155 154 154 154 156 157 155 156 157 155 155 157 158 161 157 156 157 157 156 156 155 157 157 159 161 161 161 160 161 159 161 161 161 163 163 161 161 163 163 162 161 162 163 164 164 163 164 162 161 164 162 161 163 
128 127 127 128 129 129 129 128 131 129 128 129 129 130 131 132 127 128 129 131 132 131 131 131 133 134 136 137 141 144 145 143 149 151 153 154 156 160 166 170 176 182 190 195 200 206 211 214 215 216 217 216 214 213 213 212 211 210 210 210 208 206 203 199 199 195 191 187 183 180 179 178 178 176 175 175 173 172 172 171 170 171 172 172 173 174 174 173 175 176 176 175 177 180 182 180 183 181 175 169 168 158 149 158 154 134 141 150 149 144 128 116 121 144 156 156 163 168 170 176 185 158 144 130 128 128 146 170 123 94 90 82 86 76 79 81 71 56 50 21 24 34 42 71 99 113 102 105 117 104 100 114 124 115 110 114 116 134 130 104 122 125 124 113 105 109 112 133 148 110 132 127 171 153 109 127 121 143 141 117 104 104 111 108 119 128 129 102 115 105 97 111 93 121 93 105 105 50 118 135 112 111 111 92 93 63 46 43 38 52 67 76 77 75 67 53 42 34 40 41 43 44 36 44 58 59 68 76 89 102 103 103 124 126 131 133 144 154 154 161 156 155 149 145 142 144 154 159 164 168 173 176 175 173 175 178 172 172 174 178 174 161 138 119 98 81 69 60 56 51 49 62 78 93 114 127 132 126 116 117 110 106 133 153 140 118 95 84 76 81 101 110 116 121 116 118 111 116 120 121 114 103 122 132 145 148 148 140 143 141 126 127 146 153 148 155 151 147 166 168 172 178 165 142 158 171 149 126 135 140 163 177 118 96 149 151 155 154 153 152 152 153 153 153 152 153 153 154 154 155 155 155 156 156 158 157 156 156 157 156 160 157 156 158 157 157 156 156 155 156 158 159 159 159 159 160 158 162 162 161 162 163 162 161 162 161 160 160 161 163 163 164 163 164 162 162 163 162 161 164 
126 126 126 127 128 129 130 130 129 128 127 128 128 129 129 130 127 128 129 131 132 132 132 132 134 134 134 136 140 144 145 145 148 150 152 153 155 159 165 169 172 179 189 196 201 207 211 213 216 217 217 217 216 215 214 214 212 211 211 212 211 210 207 203 201 197 193 190 186 184 184 183 183 180 180 180 178 176 175 174 173 174 175 176 176 177 177 176 179 178 178 179 182 183 183 182 186 176 181 166 139 141 150 148 135 136 140 134 127 127 127 130 132 150 161 164 167 169 175 182 164 146 137 136 132 144 177 144 94 87 73 70 64 68 69 51 42 46 39 24 51 69 86 95 100 102 102 106 105 105 115 119 118 112 110 123 129 135 124 96 123 122 106 102 123 126 126 153 145 92 135 155 131 123 93 120 111 106 115 127 124 136 105 82 77 118 147 139 122 89 100 104 74 113 74 90 118 54 115 133 123 108 77 59 60 45 50 44 36 37 39 29 51 74 63 69 81 88 101 93 91 102 110 125 131 136 152 163 168 171 168 164 171 170 172 167 164 166 160 158 153 154 150 145 140 148 166 172 174 175 175 172 169 169 171 173 167 164 164 168 165 145 113 87 66 54 45 41 48 55 54 58 76 80 92 110 122 116 106 106 107 106 134 146 131 112 91 83 90 101 94 100 107 105 112 110 106 108 123 132 125 118 131 132 144 147 153 151 141 137 139 143 157 149 135 133 131 135 148 148 156 167 146 109 139 162 147 134 122 121 155 167 120 85 145 160 153 153 153 152 152 153 153 152 153 153 153 153 154 156 156 155 155 157 158 157 155 156 156 154 159 156 156 157 156 156 156 155 157 157 158 159 159 158 159 160 158 160 161 160 160 161 161 161 163 161 160 161 162 163 164 164 162 163 162 162 164 164 164 167 
125 125 125 126 127 128 130 131 127 127 128 129 128 128 129 130 128 129 129 130 131 132 133 133 135 134 133 134 138 142 145 146 148 149 151 153 155 159 165 169 171 178 188 196 202 206 210 213 216 216 217 217 217 216 216 216 214 212 212 212 212 211 209 207 203 199 196 193 189 188 187 186 185 183 183 183 181 179 177 175 176 177 178 178 179 180 180 180 182 180 180 183 185 185 188 191 191 181 177 151 133 153 156 131 131 132 124 121 128 139 151 153 130 126 136 138 150 176 176 163 143 136 136 185 185 172 137 111 101 56 49 50 46 43 38 66 46 49 21 49 87 104 97 94 99 99 108 105 103 116 120 113 112 116 112 118 133 136 127 97 124 113 105 82 110 131 125 125 130 112 133 154 99 141 149 105 111 109 98 120 119 123 109 77 85 129 166 141 116 98 109 79 64 119 64 101 122 109 128 115 101 72 44 53 67 58 55 49 38 25 44 88 151 179 164 173 180 182 182 178 179 185 185 182 185 183 190 190 183 180 178 177 176 173 174 170 166 165 162 159 156 155 151 143 133 138 158 167 162 162 161 157 156 158 161 163 160 159 157 153 141 115 79 54 41 38 32 28 36 45 47 49 58 70 82 96 106 107 103 103 92 91 115 126 118 107 92 92 115 114 95 99 99 100 113 91 100 110 134 137 132 126 128 128 137 132 132 153 154 135 136 144 153 149 132 113 124 139 139 148 137 143 130 98 113 136 152 160 161 128 122 152 126 101 143 153 152 153 153 153 153 154 153 152 154 154 153 153 154 156 157 156 155 157 158 156 154 156 157 155 158 156 157 157 157 156 157 156 159 159 160 161 160 160 160 162 160 158 158 160 160 159 160 162 164 162 161 161 162 163 163 163 162 162 162 162 163 164 165 167 
127 127 127 126 126 127 128 130 128 128 130 130 129 128 129 131 129 129 129 129 130 132 133 133 137 136 134 135 137 140 144 146 148 150 152 153 156 160 165 169 174 179 187 194 199 204 210 213 215 215 216 217 218 217 217 217 216 215 214 214 212 211 210 208 206 203 199 197 193 191 190 189 186 184 185 186 184 181 180 178 180 181 181 181 182 183 184 184 184 184 184 185 186 187 191 195 181 156 137 139 148 145 141 149 148 138 126 136 144 142 143 137 121 100 92 88 139 191 165 140 132 135 152 184 200 195 139 149 141 98 70 61 40 57 148 158 81 38 34 79 92 100 106 98 100 106 107 99 111 124 113 107 112 109 104 112 136 136 127 115 117 128 108 93 125 130 133 107 111 158 149 121 112 103 126 102 133 137 119 99 113 117 96 84 100 132 113 107 108 83 107 81 105 121 78 115 114 86 105 93 67 54 66 79 78 84 66 54 49 99 161 197 203 201 203 203 197 197 195 196 194 191 194 191 194 190 191 187 181 181 180 181 177 173 170 169 168 165 162 158 158 154 149 146 131 120 128 136 136 141 145 147 150 154 158 158 159 157 150 135 111 78 49 33 35 43 49 51 49 44 41 44 45 63 71 78 92 103 105 99 93 90 105 118 121 112 100 101 106 109 101 99 101 105 104 87 100 124 150 142 135 124 116 120 120 127 111 123 139 131 137 144 148 138 127 108 120 145 144 151 146 123 116 111 106 114 137 142 130 105 95 136 139 100 128 152 154 154 154 154 155 154 153 153 155 155 154 154 155 156 156 156 155 157 158 157 155 157 159 157 158 157 158 158 157 157 158 157 156 157 159 159 159 158 159 161 162 157 157 161 160 159 160 162 162 163 162 161 161 162 163 162 163 162 161 162 162 163 163 163 
128 128 128 127 126 126 128 129 128 127 127 127 126 126 127 128 128 129 129 129 129 131 132 132 136 136 136 137 139 141 143 146 148 149 151 153 155 159 164 168 174 179 186 193 198 203 209 213 215 214 215 217 218 218 217 218 217 216 217 216 213 212 212 211 208 205 202 200 197 195 194 193 192 189 188 189 187 184 183 182 183 184 185 186 186 187 188 188 187 189 189 187 189 190 183 173 153 143 144 146 132 130 147 154 149 124 114 127 132 130 135 140 143 151 155 147 163 166 134 127 136 157 158 165 193 202 201 202 201 182 163 160 147 141 196 188 56 25 62 87 96 97 112 106 93 104 105 102 108 108 105 113 112 98 97 111 127 132 118 133 117 118 113 105 123 117 117 142 96 134 144 102 134 119 128 104 116 157 120 102 124 102 86 90 138 134 82 102 93 113 90 71 117 119 77 124 119 69 71 64 46 61 69 73 75 62 45 101 169 199 207 204 204 199 197 198 201 198 195 198 196 192 194 193 191 187 188 185 183 184 181 182 174 173 169 169 168 164 159 153 157 152 148 148 136 116 109 108 115 126 138 145 149 152 153 152 144 136 119 97 72 56 61 75 101 115 128 131 114 80 51 38 40 59 67 72 80 88 98 101 99 104 107 114 124 121 108 102 93 96 94 94 112 121 105 95 115 137 156 146 131 115 108 104 102 124 112 100 108 123 141 147 157 139 130 110 108 130 144 156 166 138 119 126 118 119 139 145 129 99 123 137 144 104 98 148 155 153 153 154 154 153 153 154 155 155 155 156 156 154 154 155 156 157 158 158 156 157 158 157 157 157 159 159 157 158 158 157 155 156 158 158 157 156 157 159 161 158 158 160 161 161 161 160 161 164 164 161 160 162 163 161 164 162 161 162 162 162 162 161 
128 129 129 128 127 127 128 129 132 130 128 127 127 127 128 129 128 129 129 129 129 131 132 131 134 135 137 140 141 142 144 146 147 148 150 152 154 158 162 166 172 177 185 193 198 203 209 213 214 214 215 217 218 218 218 219 217 217 218 217 215 213 213 213 209 206 204 202 199 198 197 196 198 194 192 192 189 187 186 186 185 186 188 189 189 190 191 191 188 192 192 189 194 193 170 143 152 159 163 158 137 127 139 141 130 107 117 141 150 150 150 156 160 166 176 188 164 127 119 113 144 159 145 154 178 189 190 181 186 185 183 182 180 185 183 172 61 28 68 91 91 96 116 116 100 99 101 111 107 100 111 118 108 102 112 120 116 127 97 115 121 115 119 106 109 122 122 154 126 100 106 127 141 137 141 117 133 158 128 98 118 116 77 135 151 139 87 109 99 135 83 66 115 103 122 113 94 64 58 45 28 34 44 44 32 73 132 200 208 204 205 202 200 203 202 198 199 198 197 196 194 195 195 190 191 190 189 185 184 182 177 177 173 175 169 166 165 163 161 158 158 155 149 148 142 125 111 103 105 118 130 134 131 127 122 118 109 95 84 88 99 111 134 158 172 183 188 183 160 116 72 46 40 51 57 70 77 76 83 90 103 119 113 106 115 118 105 91 79 76 83 94 112 128 124 114 129 138 153 150 131 118 121 102 93 112 118 107 101 116 138 144 142 147 148 134 119 112 118 141 167 159 127 132 140 145 155 166 164 113 123 141 135 125 111 146 154 151 150 152 153 152 153 156 154 154 156 158 157 154 153 154 156 157 158 158 156 155 155 154 156 157 158 158 157 157 158 157 158 159 160 160 159 157 158 159 159 158 159 159 160 162 162 157 160 165 166 162 161 163 164 162 165 162 161 163 163 163 163 161 
126 127 127 128 130 129 127 127 129 131 131 129 127 129 130 130 131 131 131 131 132 132 133 133 134 136 137 137 138 141 144 145 149 150 152 153 154 158 163 164 171 176 182 189 197 203 208 213 211 214 217 218 217 218 219 220 218 218 217 217 217 216 216 216 212 209 206 204 203 200 198 200 198 198 198 197 196 193 191 190 183 189 189 188 191 195 194 193 193 193 188 194 182 161 133 128 136 154 154 144 143 145 139 127 124 125 138 164 162 160 162 162 165 166 190 173 131 93 89 126 146 138 130 150 153 157 158 155 155 160 169 163 159 161 186 194 155 70 68 95 83 97 120 119 105 100 101 103 111 118 116 122 118 106 112 121 116 135 128 112 132 121 122 117 125 166 130 128 130 127 122 115 146 122 106 110 139 109 123 105 140 108 70 141 162 128 84 117 121 123 86 119 115 113 116 75 64 71 72 50 34 37 39 63 125 185 206 200 204 202 203 203 202 201 200 198 200 198 196 196 196 195 193 192 190 188 187 185 184 182 180 178 178 174 172 170 167 164 160 157 154 151 149 148 144 137 130 123 116 122 124 122 113 105 102 96 87 95 110 129 148 161 174 188 196 203 203 199 174 133 95 60 43 46 52 62 83 79 83 82 98 113 105 99 101 94 90 88 72 76 96 93 104 136 142 145 144 141 145 140 128 121 116 115 95 93 102 102 106 122 134 142 133 144 153 154 133 114 100 118 148 170 140 127 133 146 153 155 164 140 103 112 135 136 131 150 154 150 153 152 154 157 152 153 154 157 157 154 153 156 157 155 158 156 154 156 158 157 156 156 158 158 156 156 158 157 156 157 155 156 160 158 158 159 157 157 159 160 160 160 162 162 160 161 162 163 161 163 168 166 162 164 163 162 161 162 163 163 163 164 
128 128 127 128 130 129 126 125 128 130 130 127 127 128 129 129 128 129 131 131 131 131 132 132 134 136 138 138 139 141 144 146 149 149 151 152 153 158 163 164 171 176 183 189 197 202 207 211 212 214 216 217 218 219 220 220 218 218 218 218 217 217 216 216 213 211 208 206 205 203 202 202 202 202 201 200 197 195 193 191 196 189 190 196 194 194 197 197 193 196 194 175 143 140 146 146 150 136 135 149 154 148 143 138 113 96 139 135 130 147 155 163 164 176 167 140 103 93 107 122 121 120 109 130 131 133 140 132 128 125 141 143 145 150 151 182 194 159 73 91 93 104 107 113 102 94 102 107 109 121 125 121 111 108 114 114 115 148 147 128 122 114 106 126 130 150 134 124 144 106 112 144 146 121 109 124 163 100 95 144 139 86 103 147 154 92 113 139 129 126 123 133 129 134 101 78 86 62 55 31 51 85 137 185 208 205 200 204 205 204 204 204 202 202 202 201 199 197 196 196 196 195 193 192 190 189 187 186 184 182 179 177 175 171 169 168 165 162 159 155 152 150 149 149 147 142 137 133 127 130 129 126 121 117 116 109 113 130 148 158 165 170 179 188 199 200 199 197 174 137 104 73 45 42 48 60 80 84 89 79 78 94 91 90 85 79 82 75 82 94 103 95 102 135 160 168 149 145 148 147 135 120 112 114 111 88 83 96 114 130 141 148 143 154 154 156 147 126 112 120 134 150 151 133 126 124 124 126 154 144 114 108 129 138 121 142 154 152 155 152 152 156 154 154 155 156 156 156 155 155 155 156 159 157 156 157 157 156 157 158 156 156 154 154 155 155 154 155 154 155 160 159 159 161 159 159 158 160 160 160 161 161 160 162 162 160 161 162 162 164 166 166 163 164 164 162 163 164 165 164 
129 128 127 128 131 130 127 126 127 128 128 126 126 128 129 128 127 129 131 132 132 131 132 133 135 136 138 140 141 141 144 147 148 148 150 151 153 157 162 164 171 176 182 189 195 201 205 209 213 214 216 217 218 220 220 220 218 218 219 219 218 218 217 217 214 214 211 208 208 207 206 205 205 205 204 203 201 198 196 195 192 195 199 198 196 196 199 202 202 195 165 137 144 154 159 165 154 139 142 158 153 132 119 117 126 123 116 106 104 104 114 155 183 159 136 123 125 136 112 96 93 95 92 100 101 103 102 103 97 104 107 105 112 127 124 164 212 147 79 98 97 102 109 102 106 98 106 109 107 119 123 112 110 111 118 110 114 155 158 138 120 118 101 133 134 127 128 140 143 102 106 147 131 122 109 138 142 106 97 138 99 97 134 122 114 84 112 138 98 98 137 133 129 92 78 38 67 99 96 128 172 200 214 207 202 206 206 202 206 205 205 204 201 201 203 203 199 197 196 196 196 195 193 193 191 189 188 187 185 182 178 176 174 171 170 168 166 163 160 157 153 150 148 147 145 142 139 135 135 136 132 130 129 130 129 120 122 140 156 158 155 156 162 167 170 169 169 173 157 128 101 73 44 37 44 58 72 82 89 75 66 81 76 79 84 82 88 84 89 99 92 83 85 112 149 161 159 157 156 153 143 125 113 110 111 105 91 95 119 138 146 148 148 161 152 146 150 136 139 151 151 147 161 143 138 123 103 104 130 138 125 128 135 133 110 132 152 151 156 153 151 154 155 153 155 154 155 157 157 154 154 156 159 158 157 157 156 156 157 160 156 156 155 155 156 156 155 157 156 157 160 159 159 161 160 161 157 159 160 160 160 160 160 162 166 163 165 164 159 162 166 164 162 164 165 163 163 165 165 164 
128 128 127 128 131 131 130 130 127 128 127 126 127 129 129 128 127 130 132 132 132 132 133 134 135 135 137 141 142 142 143 146 147 148 150 152 152 156 162 165 169 174 181 187 194 199 203 207 213 214 216 217 218 220 221 221 219 220 220 220 219 219 218 217 215 215 213 210 210 210 209 208 206 206 206 206 205 202 200 199 196 196 199 201 200 201 201 198 179 156 132 119 136 140 145 149 145 147 145 138 133 127 121 124 129 123 112 114 108 111 124 157 168 171 187 146 127 103 88 80 61 63 65 70 74 82 82 72 66 73 78 96 86 84 108 120 118 91 91 84 89 99 109 104 94 93 100 107 110 117 117 108 107 106 115 109 119 157 159 143 118 98 103 116 115 122 96 104 143 148 111 111 117 116 111 61 107 111 75 78 81 147 110 117 73 95 124 115 72 99 117 117 91 75 69 92 168 206 203 215 210 209 206 205 209 209 205 203 205 204 204 202 200 201 202 202 200 198 196 196 196 194 193 192 191 190 188 186 184 182 178 176 175 172 170 169 166 163 161 158 154 150 148 146 143 141 139 136 135 136 132 131 132 134 132 121 120 129 136 135 131 130 130 130 129 133 140 150 142 122 101 73 46 42 50 63 67 72 80 72 71 71 68 76 85 89 94 94 102 101 86 76 71 81 117 143 157 169 168 160 154 141 121 103 104 126 115 108 128 141 142 137 137 145 135 131 155 156 162 171 174 155 157 148 152 136 106 110 117 122 116 151 154 141 129 145 152 150 154 155 152 153 154 152 154 154 154 155 155 154 154 155 158 157 157 157 157 157 158 159 155 156 156 158 159 159 158 159 161 159 160 158 157 159 159 161 158 159 160 160 160 160 161 162 160 161 164 164 162 164 167 165 161 163 164 164 163 163 164 165 
127 127 127 127 129 130 130 132 127 128 128 127 128 130 130 128 128 130 131 131 131 131 133 136 135 134 135 140 142 142 143 145 146 148 151 153 152 155 161 165 169 174 180 186 193 199 203 207 211 214 217 218 218 219 221 222 221 221 221 220 220 219 219 218 215 216 214 211 211 212 211 210 207 208 209 209 208 206 203 201 206 201 202 202 203 210 197 168 147 139 132 122 128 123 136 151 149 147 137 122 118 118 108 105 128 130 139 140 146 160 184 173 173 200 202 201 157 133 115 112 110 121 116 105 82 67 80 78 69 76 84 89 72 97 127 35 46 84 92 84 87 102 102 101 98 92 94 102 106 114 122 120 109 103 113 107 125 159 157 143 122 95 105 124 121 134 101 48 113 144 126 115 110 130 126 68 67 119 95 82 125 158 139 111 110 131 114 98 117 91 64 78 70 113 172 208 217 206 206 212 211 209 208 210 210 206 204 206 205 203 203 202 201 201 201 200 199 198 197 196 196 195 193 193 192 190 187 185 184 182 179 177 174 171 169 167 164 161 159 156 154 151 148 147 144 143 142 141 135 135 132 131 131 132 130 121 108 106 106 109 110 109 108 107 117 127 133 135 122 103 86 62 50 53 60 71 70 68 73 75 83 69 73 78 76 80 88 94 109 102 89 73 61 61 85 118 150 172 173 162 158 153 138 115 113 126 125 130 142 143 138 130 119 124 127 127 158 168 168 174 176 161 156 162 157 147 131 140 143 129 107 139 151 145 141 154 154 152 153 156 155 152 153 154 154 155 155 153 153 155 156 154 156 155 156 157 157 158 158 158 154 156 157 158 159 158 156 157 162 160 161 158 157 158 157 159 159 159 159 160 160 161 162 162 158 163 163 162 164 164 162 162 162 161 162 165 164 161 162 166 
127 127 127 127 128 128 128 131 128 129 129 128 128 130 130 129 129 130 130 130 130 131 133 135 135 134 135 138 141 141 142 144 146 147 151 153 153 155 160 164 169 174 180 186 193 199 204 208 210 214 217 218 218 219 221 222 222 222 221 221 220 220 220 220 216 217 215 213 214 213 212 212 210 211 213 213 211 208 205 203 203 206 204 206 208 191 160 141 142 146 154 147 139 142 153 152 154 130 123 122 119 116 111 116 136 151 146 145 162 173 176 167 193 195 203 207 207 191 190 191 190 189 190 186 173 104 46 54 45 45 49 48 67 127 144 30 60 77 89 99 90 100 100 96 101 89 91 100 101 114 134 134 114 105 113 103 126 161 157 142 128 110 118 145 140 140 120 76 55 127 136 126 105 94 114 118 111 124 116 125 124 157 141 102 141 133 133 130 116 69 74 93 134 194 219 212 209 209 210 210 208 208 208 207 205 204 206 207 206 204 204 203 202 202 202 200 198 197 196 196 196 195 194 194 192 189 186 184 183 182 180 178 174 171 169 166 163 160 158 156 155 152 150 147 144 141 141 140 138 138 133 132 131 131 131 125 105 96 91 93 97 101 106 110 115 124 120 108 88 67 56 43 46 55 62 76 75 74 78 84 84 79 74 67 65 66 79 107 119 109 96 77 73 74 75 92 137 164 172 167 163 161 153 132 120 120 132 145 146 149 150 136 117 124 138 143 160 166 159 160 160 152 153 173 157 150 151 151 154 137 108 107 125 130 126 139 150 154 153 155 155 152 154 157 154 157 156 153 153 157 157 154 154 154 155 156 157 158 157 156 156 157 158 159 159 157 156 156 158 157 160 160 159 159 156 157 160 159 159 160 160 161 162 161 166 168 164 162 164 163 159 161 163 161 162 165 164 162 163 166 
127 128 127 128 129 128 127 128 127 129 130 128 128 129 130 129 129 130 130 130 131 132 133 134 135 136 137 138 138 139 141 143 146 147 150 153 154 156 159 162 169 174 179 185 192 198 203 208 210 213 216 218 219 220 221 221 222 221 221 221 221 221 221 221 219 218 217 216 217 215 214 215 215 216 216 216 214 211 209 207 205 204 202 206 194 152 125 134 134 156 157 149 146 147 141 141 140 119 125 137 138 134 132 145 144 142 151 155 165 172 142 164 194 195 204 191 186 183 174 172 183 179 176 179 209 169 80 29 28 44 62 61 87 139 121 36 60 69 93 92 91 98 102 100 97 94 96 105 104 111 125 120 112 100 107 97 127 162 157 144 125 108 128 129 132 141 117 127 72 69 130 155 145 102 114 123 117 140 144 150 138 140 129 125 142 124 103 105 73 77 150 182 213 213 210 208 208 212 212 212 210 209 207 206 208 211 209 204 207 205 205 204 202 202 202 200 199 198 197 197 196 194 193 193 192 189 186 184 183 182 179 177 175 172 169 167 163 160 159 158 154 152 149 147 142 139 137 136 139 139 135 135 133 132 133 129 115 105 97 95 95 98 104 108 110 111 93 78 64 48 45 43 46 60 67 80 76 81 84 88 77 81 64 57 59 62 88 116 117 106 87 70 80 92 87 92 128 157 173 178 175 170 159 132 116 118 139 147 141 150 155 144 136 138 148 161 163 162 144 129 138 140 153 177 165 155 164 154 146 138 118 108 125 121 112 109 132 150 153 152 153 152 154 157 154 155 155 154 154 156 156 154 154 155 156 156 156 156 156 156 158 159 159 159 160 158 157 159 157 156 159 159 160 160 157 159 160 159 160 160 159 160 161 160 165 164 163 163 164 164 164 165 162 162 162 162 162 163 164 164 
128 128 128 130 132 131 128 128 127 129 130 128 127 128 129 129 130 131 131 132 132 133 133 134 135 138 139 137 136 138 141 143 147 146 148 152 154 156 158 159 168 173 178 184 190 196 202 207 210 212 215 218 220 221 221 220 222 221 221 220 221 221 222 223 221 220 218 219 219 217 216 217 219 219 218 218 216 214 212 211 209 208 209 188 153 141 138 122 151 147 143 143 128 142 150 149 126 123 133 140 145 137 121 128 141 149 151 156 181 159 138 168 183 182 171 175 164 150 147 145 152 152 144 164 174 165 167 100 73 94 109 94 103 159 124 38 61 75 90 93 100 101 105 94 99 105 101 102 108 115 125 126 113 97 104 96 126 156 148 138 127 125 122 117 128 147 140 130 112 67 62 129 159 139 108 109 116 146 152 140 141 137 118 145 118 90 85 67 90 186 219 215 211 212 208 214 209 208 211 208 207 206 207 208 206 204 206 208 207 206 205 204 201 200 201 201 201 199 198 197 195 193 192 191 191 189 186 185 184 182 179 176 175 171 168 166 162 160 159 158 150 148 148 147 144 141 141 140 138 137 135 136 135 132 133 130 128 121 117 116 114 114 115 113 116 105 77 62 56 44 43 47 56 72 79 86 76 82 84 83 78 72 61 68 59 70 112 111 105 97 74 57 72 95 106 120 136 161 172 175 174 174 164 131 113 114 133 142 142 145 144 145 153 154 153 163 148 142 134 120 108 123 147 166 167 152 166 158 136 128 118 132 156 139 131 103 111 143 151 149 152 151 153 154 154 152 152 155 155 154 153 154 155 156 157 155 154 155 156 157 157 158 157 157 158 158 158 161 159 156 157 157 158 159 158 161 159 158 160 160 157 158 160 160 163 159 161 164 160 160 161 160 160 163 162 159 160 164 165 162 
130 127 128 131 131 131 129 126 128 129 129 129 129 129 129 129 131 131 132 132 133 133 133 133 136 138 139 139 139 139 141 145 145 147 150 151 153 156 157 157 165 170 177 183 190 195 201 206 210 213 215 217 219 220 220 220 221 221 221 222 222 222 222 222 221 224 223 219 217 218 220 219 222 218 216 216 217 211 216 208 211 211 175 145 141 146 124 122 139 142 137 120 129 157 158 146 128 120 128 118 117 114 86 85 103 111 117 144 166 144 136 164 158 165 159 142 136 129 115 114 120 116 113 130 159 160 164 121 92 109 135 104 109 193 119 34 56 85 92 92 102 109 98 105 107 111 101 104 112 119 124 112 106 100 112 98 130 160 156 135 132 123 123 123 134 130 138 140 137 113 97 72 103 150 124 113 113 139 136 126 128 120 131 121 105 55 52 137 213 216 205 215 210 212 212 212 212 210 207 207 207 208 208 207 206 208 209 206 203 204 205 205 203 200 199 198 200 200 199 198 195 194 192 189 190 190 187 185 183 180 176 175 173 170 168 165 162 161 159 155 150 150 149 146 142 140 140 141 139 137 134 134 136 134 132 135 135 124 128 130 125 125 123 124 127 123 98 77 63 69 92 89 88 89 89 84 79 81 85 84 76 79 80 68 63 86 107 102 93 77 60 58 69 83 119 139 145 144 147 146 154 166 156 134 105 95 118 137 149 146 131 142 152 157 164 145 128 117 125 124 101 107 138 142 144 126 142 151 136 134 121 135 156 153 134 109 120 144 150 151 152 148 153 157 153 152 154 155 153 152 154 154 157 157 155 156 156 154 157 157 157 157 157 156 155 156 156 155 157 158 159 159 159 160 161 161 158 158 159 160 159 160 160 159 163 161 160 161 161 159 159 163 162 162 163 162 162 163 163 162 
131 128 128 130 129 129 129 128 128 129 129 129 130 130 129 129 129 130 130 130 130 130 131 132 135 136 135 134 135 138 141 146 145 147 149 150 152 155 157 158 165 170 176 182 189 194 200 204 207 211 213 215 218 220 220 221 223 223 222 223 223 223 223 224 222 223 223 220 219 220 221 221 218 220 221 219 218 226 208 215 213 179 132 123 135 138 121 128 148 153 154 139 138 154 150 136 131 120 124 122 110 105 105 112 118 124 144 152 152 142 137 161 168 157 142 121 109 106 97 89 89 85 88 110 160 164 111 100 105 107 136 108 114 166 90 17 57 75 88 100 101 104 100 98 104 109 111 107 113 122 118 113 111 107 106 100 146 158 142 141 131 124 123 138 125 139 135 75 110 101 107 103 43 105 142 124 93 122 127 120 102 122 132 99 100 121 187 220 211 212 213 210 212 213 212 211 213 211 209 209 209 209 209 207 206 207 208 206 203 204 205 204 203 201 199 199 200 199 199 197 195 194 193 190 189 189 187 184 182 178 175 175 173 170 168 165 162 160 157 154 150 150 149 147 144 142 140 140 137 135 133 133 135 133 132 134 135 130 129 129 129 127 127 134 131 118 108 117 122 131 144 136 113 103 94 90 85 84 88 90 80 82 85 79 74 86 94 90 86 68 59 56 56 75 123 140 147 126 111 102 114 143 147 135 106 93 116 138 144 145 138 142 151 154 161 152 127 99 101 115 115 123 141 131 123 113 123 126 136 150 136 131 129 129 126 120 126 146 153 152 154 155 154 152 152 153 157 160 157 155 155 154 156 156 154 156 156 155 157 157 158 158 157 156 155 155 155 155 158 159 160 159 158 158 159 159 159 158 159 160 159 159 160 159 159 159 158 160 162 162 162 164 162 163 163 163 163 163 163 163 
130 129 129 129 128 128 129 129 127 128 129 130 130 131 131 130 132 132 133 132 131 132 134 136 134 136 136 137 139 140 142 145 146 148 150 151 152 155 158 161 164 170 175 181 187 193 199 203 206 210 213 215 218 219 220 222 223 222 221 221 221 221 222 223 223 222 222 221 221 222 223 223 221 222 219 216 217 215 215 211 186 149 122 135 150 145 125 127 147 152 147 134 133 134 127 127 125 137 135 134 135 135 143 148 159 171 175 156 146 144 148 174 185 136 106 97 90 87 84 79 79 66 58 71 119 108 101 117 115 108 88 105 143 169 73 24 62 78 84 99 102 100 99 103 102 111 112 106 113 123 121 119 117 107 102 105 152 166 147 127 130 157 123 128 146 135 126 94 73 113 110 110 105 90 126 118 116 113 119 108 87 88 82 102 179 222 221 209 215 214 213 210 213 212 211 210 212 212 211 210 211 209 209 208 206 206 206 205 204 204 204 203 203 202 201 199 200 199 198 197 194 194 193 191 188 189 187 183 181 177 175 175 173 170 168 166 163 161 158 154 150 149 148 146 144 142 141 140 139 137 134 133 133 131 130 131 131 132 132 132 131 130 131 126 91 77 98 138 154 160 165 161 132 108 88 86 87 84 85 88 85 84 83 76 73 78 81 82 85 80 68 60 63 76 115 139 141 124 108 84 87 119 133 131 128 118 131 145 146 144 144 146 144 141 146 158 137 95 77 95 132 148 153 143 122 115 131 134 137 140 120 115 109 106 110 119 127 139 149 149 151 157 155 152 153 153 155 156 154 153 155 155 155 156 154 156 157 156 158 157 160 159 158 157 156 156 156 156 158 159 159 159 158 157 158 159 161 160 161 161 160 161 162 162 161 161 160 161 162 162 161 160 162 163 163 163 163 164 163 163 
128 128 129 130 130 129 128 127 126 127 129 130 131 132 132 131 131 132 132 132 131 131 133 135 134 137 139 139 140 141 142 144 145 147 150 151 152 154 158 161 163 169 174 179 186 192 198 202 207 212 215 216 218 219 220 222 222 221 221 221 221 221 222 223 224 222 221 222 223 223 224 225 222 222 222 219 220 216 212 174 143 136 140 149 151 145 130 122 126 129 135 141 141 132 125 126 122 136 135 145 150 138 144 157 168 177 158 136 134 141 157 174 177 109 64 56 54 56 56 53 40 26 55 76 78 80 77 98 113 112 101 99 138 176 48 20 61 80 82 95 96 92 97 105 102 115 107 107 116 121 127 120 121 104 98 109 147 165 154 123 118 131 130 138 129 127 116 137 104 113 130 109 124 122 120 116 122 113 111 95 83 57 94 190 217 213 213 213 215 214 211 216 212 211 210 210 211 211 211 211 211 209 209 209 207 205 206 205 206 204 203 203 203 203 201 200 199 198 198 197 195 194 193 191 189 189 186 183 180 177 175 175 172 170 168 166 163 162 160 156 152 150 147 144 142 141 141 141 140 138 135 134 134 133 132 132 132 132 133 135 129 133 135 113 67 60 95 133 147 157 154 140 119 89 67 70 81 84 83 85 86 83 76 64 64 72 78 90 109 107 86 71 81 87 118 149 143 152 149 112 95 116 133 147 157 157 154 156 155 149 148 152 135 118 112 142 144 110 75 81 135 153 140 142 124 113 130 140 137 132 118 103 91 83 98 112 118 129 149 153 151 154 151 152 154 153 153 153 152 152 153 154 155 157 155 158 159 157 159 158 160 159 158 157 157 156 157 157 158 158 158 158 159 158 159 159 162 160 160 160 159 160 162 162 163 164 163 161 161 161 160 159 162 162 163 163 163 163 163 162 
128 128 128 129 130 130 128 128 127 127 129 130 131 132 132 130 130 131 132 132 131 131 133 134 135 138 138 136 137 139 142 145 142 145 148 150 151 153 157 160 162 168 173 177 184 192 198 201 207 212 215 216 218 219 220 222 222 222 223 224 224 224 224 224 225 222 221 223 224 223 223 224 223 221 221 219 217 217 171 135 126 131 144 142 140 148 152 145 129 133 152 165 153 142 137 126 129 133 144 154 147 143 158 170 180 163 140 132 141 163 184 186 187 159 141 135 131 122 96 71 31 24 69 99 84 85 87 95 114 114 105 114 117 107 46 17 62 79 90 102 89 92 105 102 106 114 106 110 122 123 123 113 111 105 95 118 156 154 139 127 124 104 113 136 148 106 107 130 127 98 98 124 129 100 126 117 122 108 92 77 49 91 206 216 212 215 216 212 214 217 211 209 211 211 212 212 210 210 211 211 211 209 208 208 207 206 206 206 207 205 203 203 203 203 201 200 198 197 198 197 195 194 193 190 190 189 185 182 181 178 175 174 172 170 167 165 162 161 159 156 151 150 148 145 142 140 139 139 136 134 134 134 135 136 136 136 137 133 131 133 128 132 137 121 92 61 72 100 114 122 115 105 82 63 50 57 71 78 79 81 82 76 69 58 61 70 80 104 130 125 106 94 98 100 127 150 155 162 153 123 117 135 149 168 177 179 172 167 163 153 147 143 122 92 80 122 145 131 101 101 148 157 125 121 122 110 104 131 136 136 131 99 87 86 107 104 94 114 146 155 152 154 152 152 153 153 154 155 157 156 154 153 156 157 155 158 159 157 159 157 158 157 157 157 157 156 156 157 159 158 157 159 159 159 159 159 159 158 158 158 157 158 160 160 159 161 161 160 160 161 162 164 161 162 162 162 162 163 163 162 
130 129 127 127 129 129 128 129 129 128 129 130 129 130 131 127 131 131 132 132 132 132 133 134 134 137 139 138 139 141 143 145 144 146 149 151 153 154 157 160 162 167 172 176 183 191 197 201 205 209 213 215 217 219 220 222 222 222 223 224 225 224 224 224 225 223 223 224 224 223 223 224 223 224 219 223 217 173 130 132 121 121 140 149 154 157 156 144 129 149 159 157 148 138 134 131 142 142 143 140 144 161 174 176 173 147 136 142 169 191 188 191 188 186 190 194 199 196 186 182 158 57 38 73 94 112 124 111 106 108 114 108 84 79 40 18 59 81 90 93 84 92 102 100 112 108 108 112 122 126 116 109 106 107 93 123 162 153 133 120 132 132 130 149 178 147 109 128 137 119 116 109 130 93 113 106 101 79 61 76 65 128 219 210 213 218 210 213 216 210 214 212 211 212 213 213 211 210 211 211 209 208 208 208 206 206 207 206 207 205 203 203 203 202 201 200 198 197 197 197 195 194 193 190 191 189 184 181 181 179 176 174 173 170 167 164 161 159 157 153 149 149 149 147 144 140 138 137 137 135 134 134 133 134 135 134 132 131 128 131 132 130 132 136 113 75 61 69 78 86 82 77 71 70 70 73 79 82 84 86 77 67 61 54 60 70 82 113 132 137 123 110 109 102 116 131 138 147 147 142 149 156 166 185 187 187 182 172 158 148 138 122 105 82 84 127 155 152 140 140 154 157 126 106 120 113 85 130 161 153 147 121 115 109 111 95 94 116 143 151 150 154 155 153 153 153 152 153 156 156 155 156 155 156 154 157 158 156 157 156 156 155 155 156 156 155 156 157 160 158 158 159 159 159 158 158 160 160 160 160 158 159 161 161 158 160 160 159 159 159 161 164 161 161 161 161 161 162 162 162 
130 130 128 127 129 128 127 130 130 128 129 130 128 130 130 126 130 129 129 129 130 131 132 132 134 138 139 140 143 144 143 142 147 148 149 152 153 154 157 160 162 167 171 175 182 191 197 200 204 208 211 214 217 219 220 221 222 222 222 223 224 223 223 223 225 224 224 224 224 224 224 224 223 223 224 221 193 131 126 141 141 132 148 155 158 151 146 133 131 155 154 143 136 123 119 123 125 121 117 125 148 169 171 162 137 125 127 147 183 187 165 170 169 165 166 174 180 177 182 201 200 159 43 44 82 110 133 134 120 117 106 72 52 63 22 22 63 88 92 89 91 101 100 101 107 100 105 116 124 125 117 112 111 109 93 127 158 149 136 119 125 144 151 143 139 133 131 98 128 143 149 110 102 117 113 89 64 59 66 68 94 177 216 214 214 213 219 213 213 215 207 212 213 212 213 213 210 210 211 209 208 208 208 207 205 206 207 205 206 205 204 203 203 202 202 201 199 198 197 196 194 194 193 191 191 189 185 181 180 178 175 175 172 169 167 165 162 159 156 152 150 150 149 147 144 141 139 138 140 137 136 134 132 133 133 130 127 129 130 131 134 131 128 136 133 123 105 86 92 112 118 112 125 133 133 123 107 90 82 81 76 69 66 57 66 84 94 117 137 148 137 117 112 102 107 108 114 126 134 147 158 161 168 173 176 179 177 161 144 139 134 124 112 103 117 137 148 151 159 158 143 137 122 115 133 131 108 140 167 164 157 148 138 129 117 114 127 134 140 148 152 152 154 154 153 153 151 150 152 153 154 158 155 155 153 156 157 156 157 155 156 155 155 157 157 156 156 158 159 158 158 159 159 157 157 159 161 161 162 162 161 161 162 162 161 161 161 160 160 158 158 161 161 161 161 161 161 162 163 163 
129 131 130 130 130 127 126 128 129 127 128 129 128 130 131 127 134 132 130 130 132 134 135 135 137 138 136 135 139 142 142 140 147 146 147 149 150 151 154 157 162 168 171 175 182 190 196 199 205 208 211 213 217 219 220 220 224 224 224 224 224 224 224 225 225 225 225 224 224 224 224 224 226 217 223 195 134 127 139 140 135 132 149 150 147 135 130 119 143 146 149 146 127 121 131 128 116 109 99 96 111 152 170 140 131 120 120 146 166 159 151 150 143 140 140 145 154 157 160 174 174 171 83 41 53 76 128 171 139 110 67 44 54 37 20 18 65 81 94 95 94 107 102 92 92 93 100 125 132 124 123 113 103 105 98 146 168 138 125 125 128 135 140 147 142 151 133 112 96 150 127 91 93 115 86 54 63 63 87 96 154 209 213 215 219 215 212 215 213 212 216 210 214 212 212 212 209 209 210 208 207 208 208 206 205 207 207 205 205 204 204 203 203 202 202 202 200 198 197 195 193 193 194 192 190 189 185 181 179 177 175 175 171 169 168 167 164 161 157 152 154 151 147 144 143 142 141 140 138 135 135 134 133 135 136 133 131 131 136 131 131 135 131 130 129 135 141 152 165 165 164 169 168 177 176 158 130 101 84 81 77 80 82 69 80 106 111 119 141 146 150 136 119 112 115 90 90 114 138 161 166 162 159 141 148 162 162 141 132 137 142 150 139 134 141 128 119 130 154 151 126 104 99 125 147 146 138 137 158 168 154 145 130 134 117 122 140 131 125 142 155 150 152 156 152 155 155 154 155 153 152 155 155 155 153 156 157 156 158 156 157 156 157 159 159 158 157 159 156 157 158 159 158 156 158 161 159 160 161 162 160 160 160 160 161 160 160 162 162 160 159 162 162 162 161 160 161 162 163 163 
130 128 127 130 128 128 131 127 127 127 129 131 128 126 128 130 130 130 129 131 133 132 132 134 134 135 135 134 136 141 143 143 143 146 149 149 149 151 155 158 162 165 170 175 180 186 193 197 203 207 210 212 217 220 221 221 223 226 226 223 224 224 224 225 225 224 225 224 223 222 220 224 219 226 197 149 126 124 128 135 132 126 150 152 129 129 138 143 148 149 141 133 131 128 115 118 114 108 108 95 97 133 148 134 126 125 126 135 154 139 126 119 121 127 123 123 122 113 118 133 145 134 65 40 58 62 87 114 88 61 49 38 34 29 15 22 55 75 94 99 99 100 97 91 91 86 101 125 132 130 124 114 104 107 105 155 186 148 128 118 115 122 132 146 123 124 119 135 120 121 127 98 97 80 59 158 180 175 191 211 217 216 215 217 214 215 215 215 216 217 215 212 214 213 211 212 212 212 211 211 207 209 210 209 208 207 206 204 204 205 205 204 204 203 201 200 199 198 197 195 194 192 191 191 188 186 185 183 182 179 177 176 172 171 169 166 162 159 157 154 153 151 147 144 142 140 139 138 136 134 134 135 134 132 131 131 133 131 134 132 129 130 129 129 131 135 148 166 179 183 184 185 182 192 193 172 144 113 86 80 83 90 89 86 98 117 124 122 133 146 152 149 133 129 105 85 97 121 153 164 161 159 137 107 107 130 155 149 142 141 151 159 146 146 137 113 88 89 133 152 129 86 90 115 150 167 144 146 148 157 147 144 132 129 107 111 122 128 119 136 151 150 157 150 155 154 154 155 155 156 155 153 156 157 156 156 156 155 154 157 157 156 156 156 157 159 159 158 156 159 158 159 158 156 158 156 156 156 159 159 157 158 162 163 161 158 160 163 162 160 160 159 160 161 160 160 160 160 161 163 
127 126 127 131 129 127 130 126 128 125 125 128 129 129 128 128 131 132 134 135 136 134 133 136 137 135 135 138 140 140 142 146 145 146 148 149 150 151 154 157 160 163 169 174 180 186 193 197 202 207 210 212 216 219 220 220 222 225 225 223 224 224 224 225 223 226 223 225 225 222 225 221 220 216 170 136 134 126 129 150 152 136 139 140 141 150 152 154 150 132 126 136 140 136 130 134 139 132 134 143 144 142 142 140 135 124 120 133 139 125 103 94 101 106 99 94 92 88 89 93 93 59 38 46 54 61 67 65 48 36 31 22 20 23 18 18 44 73 87 100 99 87 93 98 89 88 106 124 124 121 119 112 109 109 119 159 171 141 122 125 122 123 122 144 142 128 109 112 124 123 111 106 83 77 160 206 217 204 211 213 216 223 217 215 215 216 216 216 216 215 213 211 213 212 212 211 212 212 211 210 209 209 209 208 208 207 206 205 204 204 204 204 203 203 201 199 200 199 197 195 194 193 192 192 189 187 185 183 180 178 177 176 173 170 167 164 162 160 156 152 152 150 147 144 143 142 140 138 139 137 136 135 134 133 132 132 132 132 129 129 129 128 129 127 127 127 135 151 168 176 175 172 175 175 182 173 142 108 83 74 77 91 102 99 97 111 121 116 120 154 158 157 149 122 106 115 129 127 142 158 158 145 117 90 91 127 162 158 155 156 159 155 140 139 133 106 70 47 115 153 131 109 82 104 150 152 134 136 138 152 151 150 137 121 88 75 93 134 142 139 149 153 153 152 154 154 155 155 155 155 155 153 155 156 155 155 156 155 154 157 155 155 157 157 157 158 158 157 155 159 159 160 157 155 158 158 157 157 159 160 158 159 162 161 159 158 160 163 161 161 161 161 163 163 163 162 162 161 162 164 
124 125 127 131 130 127 129 126 128 125 125 128 129 130 129 128 131 131 131 133 134 133 132 134 136 135 135 139 140 139 142 147 146 147 148 149 150 152 154 156 158 162 168 173 179 185 191 196 202 207 210 211 214 217 218 220 222 224 223 223 224 224 224 224 224 227 223 225 227 223 224 223 220 171 133 136 143 129 128 152 152 134 124 118 129 150 151 144 123 117 130 145 145 144 147 145 146 144 146 167 173 153 142 137 137 131 141 129 79 77 85 87 85 85 80 79 81 76 67 54 40 36 40 43 52 55 44 40 30 26 25 20 18 24 23 13 32 67 90 97 96 95 101 98 90 95 110 117 110 109 116 117 110 114 125 154 159 140 109 108 144 134 114 137 135 113 115 94 121 104 88 103 83 134 154 169 199 179 203 222 219 218 212 217 216 215 215 216 216 215 213 211 212 213 212 211 211 212 211 209 210 209 208 208 208 206 206 206 205 204 203 203 203 203 201 199 200 198 196 194 193 193 193 193 190 188 185 182 179 177 176 175 172 169 166 163 160 158 155 151 151 150 147 144 144 144 141 138 139 137 136 136 135 133 132 132 132 123 100 82 74 76 87 90 101 107 117 130 141 146 143 138 144 145 158 158 132 98 75 69 76 88 103 99 88 99 110 101 126 133 146 159 154 126 124 138 132 134 138 144 149 145 133 123 119 144 167 157 154 163 169 163 143 139 127 102 74 66 124 155 155 134 93 95 123 134 138 128 131 151 163 164 145 112 81 65 96 122 142 138 135 149 157 152 153 155 156 155 154 155 155 154 155 154 154 155 156 155 155 157 153 155 158 158 157 157 158 156 157 159 158 159 158 155 158 159 159 158 159 160 160 160 161 160 158 159 161 162 160 161 162 162 163 164 164 164 164 163 163 165 
125 127 128 131 129 127 130 128 128 127 128 130 129 129 130 130 132 129 126 127 131 132 131 131 132 135 136 135 136 139 142 143 146 147 149 150 151 152 154 156 159 163 168 173 178 183 189 193 201 206 209 211 213 215 218 221 222 222 222 223 224 224 224 224 227 226 225 225 226 224 220 223 181 131 124 137 137 126 120 136 141 132 123 110 118 148 152 133 114 115 137 153 155 153 150 136 134 144 158 170 159 140 143 152 150 138 148 120 52 45 61 67 71 78 82 80 65 49 43 37 40 42 44 49 46 35 28 28 28 24 23 26 25 28 29 12 29 42 78 96 98 103 99 93 90 99 109 114 115 114 112 111 105 112 126 157 148 142 120 102 123 130 135 130 123 95 93 110 118 100 77 83 113 119 116 116 126 160 207 219 216 219 215 216 215 214 214 216 217 215 213 213 212 213 213 211 211 213 211 208 210 208 208 209 208 206 205 206 205 204 203 202 202 202 200 198 198 197 196 194 193 192 191 191 189 187 184 181 179 177 176 174 169 168 168 164 159 156 155 154 150 150 147 145 144 144 141 138 135 135 135 136 135 134 132 130 118 90 74 74 71 65 68 76 85 89 94 99 107 114 115 113 109 115 121 115 97 73 60 65 70 82 98 96 83 88 100 97 103 102 142 156 149 140 147 158 157 151 128 124 145 158 157 157 149 154 164 149 136 147 171 178 162 148 125 110 96 113 128 147 159 135 111 98 109 147 161 138 132 147 165 171 155 119 101 94 116 125 128 127 132 141 149 153 152 155 156 154 155 155 155 154 155 154 154 155 156 156 156 157 155 155 158 158 157 157 157 156 159 158 155 158 159 158 159 157 160 159 159 159 160 160 160 160 159 161 162 161 159 160 161 161 160 161 162 163 164 164 164 166 
129 130 128 130 129 128 131 130 130 129 129 130 129 130 131 130 133 131 128 128 132 134 133 134 131 134 136 135 136 139 142 142 145 147 149 150 150 152 154 157 158 162 168 173 177 182 188 192 200 204 208 210 213 215 218 221 221 221 222 223 224 224 224 224 228 226 225 229 225 225 225 203 132 131 125 126 144 150 138 132 134 144 145 124 113 127 135 131 118 113 136 148 149 138 131 124 133 144 170 170 147 142 164 190 187 156 143 116 81 46 34 44 44 63 83 90 77 63 59 53 50 51 52 46 35 25 21 24 26 25 26 32 28 28 30 11 24 32 64 89 98 104 97 87 87 106 114 116 119 113 106 111 110 116 134 171 140 129 137 122 125 138 152 135 121 109 121 130 104 104 92 79 80 87 78 88 120 187 220 216 217 218 216 218 215 214 215 217 217 214 213 213 213 214 213 211 212 213 212 209 209 207 207 209 209 206 205 205 205 204 203 202 202 202 200 198 198 197 196 195 193 192 190 190 187 186 184 181 179 178 176 174 168 168 167 164 159 157 156 155 150 149 148 146 144 142 140 138 135 135 134 134 133 133 132 131 109 88 87 84 75 74 75 76 83 79 75 76 82 85 81 75 75 75 79 76 67 57 56 69 67 73 81 83 78 76 78 80 92 112 136 133 145 145 149 167 175 156 129 134 159 170 170 166 149 146 158 141 118 127 166 188 180 152 119 121 123 127 120 137 140 129 115 94 106 151 167 158 137 142 149 152 147 130 121 117 110 110 113 125 126 122 136 146 151 154 155 153 155 156 155 155 157 155 155 156 156 155 156 157 157 157 157 157 157 157 157 155 159 158 155 157 159 158 160 158 160 160 159 159 159 159 160 161 160 162 163 161 159 159 160 161 159 160 161 162 164 164 163 165 
131 132 129 130 130 128 131 131 131 129 128 129 130 131 131 129 130 133 133 133 133 133 133 136 134 133 135 139 140 139 141 145 145 147 149 150 150 151 154 156 157 161 167 172 176 181 188 193 198 202 207 210 213 215 217 221 221 221 222 224 224 224 224 224 226 227 224 233 225 226 224 167 127 143 122 123 149 154 144 123 142 156 151 134 122 112 112 124 114 113 142 142 144 138 129 126 140 162 182 162 146 169 196 210 205 185 179 164 149 112 90 89 87 103 114 114 106 97 90 78 55 46 46 31 24 29 24 30 28 31 32 33 25 26 30 16 14 39 53 78 93 93 96 85 91 110 116 116 121 110 100 108 110 124 135 164 145 119 125 138 163 109 133 134 117 112 113 122 109 130 150 149 152 165 187 203 213 222 217 219 221 216 219 219 216 216 216 217 216 214 213 212 214 214 213 212 212 213 212 210 208 207 208 209 209 207 205 204 205 205 204 203 202 201 200 198 198 198 197 196 194 192 191 190 185 185 184 181 179 178 176 173 171 168 165 162 161 160 157 153 150 149 148 147 144 140 138 138 138 137 135 132 131 132 133 132 117 96 90 87 75 71 73 75 70 65 60 60 62 63 62 61 56 42 45 49 43 42 51 62 66 69 71 73 75 72 78 92 101 115 108 128 159 146 145 164 173 168 160 161 162 167 170 155 132 134 153 145 130 140 173 191 185 149 107 113 147 134 125 110 108 118 115 94 89 113 141 156 141 143 136 120 116 124 121 121 102 84 92 124 120 103 122 142 149 154 154 152 155 157 156 155 157 155 156 157 155 155 156 156 158 157 156 156 156 157 157 155 156 159 158 158 158 157 160 160 159 160 159 159 160 160 160 161 160 162 162 161 161 160 160 162 161 162 162 163 164 163 163 164 
131 132 129 131 131 129 131 130 131 129 129 130 130 132 132 130 131 133 134 133 133 132 132 134 134 133 134 138 140 139 140 143 145 147 149 150 151 152 153 155 156 161 166 171 175 180 187 192 197 201 205 209 212 214 216 220 222 221 223 225 224 223 225 225 224 227 227 229 225 221 194 137 138 142 136 144 153 147 144 140 156 151 136 138 148 134 119 124 89 100 149 140 135 133 129 134 152 191 189 150 147 183 204 205 196 194 200 203 203 200 197 191 196 197 188 180 173 159 140 119 81 36 23 28 28 32 33 38 52 39 29 27 24 27 30 23 13 32 37 72 89 76 85 85 97 106 110 117 126 114 96 92 100 124 133 136 146 132 112 133 144 122 129 135 124 111 110 107 116 186 223 224 224 224 224 220 220 215 218 223 215 212 220 216 216 217 218 217 216 215 214 212 215 214 212 212 212 212 211 211 209 209 208 208 208 208 206 204 204 205 205 204 202 201 200 199 198 198 197 196 194 193 191 191 185 185 183 180 178 178 176 173 172 168 164 162 161 160 157 152 151 147 146 147 144 139 137 138 139 138 136 133 133 133 133 133 129 113 85 73 66 62 68 61 48 48 51 55 56 53 54 58 52 38 41 49 49 56 68 77 85 89 86 79 71 65 77 100 115 107 103 149 167 147 148 153 165 177 175 164 151 151 156 141 120 132 152 152 151 152 168 181 178 149 111 117 160 148 128 77 71 106 131 121 100 95 110 129 136 142 131 107 102 125 119 124 125 113 97 104 110 88 86 123 148 154 155 152 154 156 155 156 156 155 156 157 154 154 156 156 157 156 156 156 155 156 157 156 155 160 159 158 157 158 161 160 159 160 159 160 162 162 161 161 161 162 161 162 163 161 160 163 162 163 162 163 164 163 162 163 
129 131 129 131 133 130 130 128 130 131 133 132 130 131 133 134 135 134 132 130 133 134 133 133 131 133 134 134 137 140 140 139 146 147 148 149 151 152 153 153 157 161 166 170 173 179 185 190 196 200 204 208 212 214 215 218 222 221 224 226 224 223 225 225 225 226 231 220 225 215 158 125 145 140 150 153 156 151 136 147 151 142 133 143 153 141 128 127 89 84 140 141 137 129 123 137 169 200 172 137 159 193 202 197 194 203 200 209 207 204 198 202 201 207 205 205 203 197 196 198 189 143 62 26 33 32 50 87 93 58 31 27 29 29 27 25 15 27 38 67 82 81 87 80 95 105 115 120 115 101 94 98 102 124 146 119 132 145 114 119 116 125 129 116 101 117 130 107 129 210 215 220 217 218 219 220 218 220 220 214 217 220 216 217 215 217 218 217 216 216 215 213 215 213 212 212 212 212 211 211 210 210 209 207 208 209 208 205 204 206 206 205 203 201 200 199 198 197 196 194 193 192 191 191 186 186 183 179 177 177 176 174 172 169 166 163 160 158 156 153 151 146 144 146 145 139 136 138 135 136 136 136 135 135 134 132 133 133 99 85 64 38 54 62 57 50 51 61 70 75 82 89 92 98 109 117 124 127 126 128 126 115 99 90 89 86 85 90 101 97 118 172 180 174 160 136 150 173 173 165 146 123 122 126 133 147 157 147 140 128 139 165 165 149 133 145 168 159 127 77 62 111 151 147 134 114 94 106 126 133 126 113 117 147 128 130 148 150 132 103 104 110 109 130 147 155 156 152 153 155 154 156 155 154 156 157 154 153 155 157 154 155 156 156 155 155 157 156 156 160 158 157 158 160 162 158 159 160 159 160 165 164 161 160 163 163 162 163 164 161 160 163 162 163 162 162 163 163 162 163 
130 132 132 129 127 127 129 130 131 127 127 129 129 129 131 131 134 133 131 132 134 133 132 133 133 134 134 134 136 140 142 142 144 146 147 147 149 151 153 156 157 161 165 169 173 178 184 191 196 201 204 207 210 214 215 217 222 222 222 223 224 226 225 224 225 229 223 226 223 196 125 134 128 134 148 153 153 144 130 133 135 130 126 143 141 131 135 112 73 108 143 134 128 131 126 145 178 179 144 130 159 183 189 180 184 191 198 200 191 187 190 190 190 190 195 199 201 200 200 210 220 212 164 58 34 73 115 124 109 48 24 27 30 29 32 26 15 25 39 59 81 81 73 85 99 103 117 123 113 108 98 100 101 127 146 127 125 134 106 112 126 138 120 104 89 118 148 118 127 209 218 219 216 220 219 219 221 220 219 218 218 218 216 215 217 219 220 219 217 216 215 214 211 213 214 213 211 211 211 211 210 208 207 208 209 207 206 207 206 203 203 204 203 202 200 198 194 195 195 194 192 190 189 188 189 186 183 181 179 176 172 169 170 168 166 164 161 159 156 154 147 147 147 145 141 139 138 138 134 136 136 134 135 136 135 133 136 128 135 129 108 59 35 39 47 55 77 107 126 134 142 151 153 158 166 170 171 173 173 170 159 146 121 108 105 100 91 81 90 96 139 177 201 200 178 153 154 165 171 160 120 87 102 134 156 160 153 136 122 93 100 127 146 148 150 149 164 162 126 84 85 134 163 171 155 133 112 120 130 134 123 119 134 135 136 130 143 158 147 114 111 135 143 139 146 158 152 152 155 154 159 154 153 154 155 156 156 155 155 155 156 158 158 156 155 155 155 155 156 159 160 159 159 159 159 161 159 161 161 160 162 163 161 159 161 163 163 162 162 162 163 163 162 162 160 165 166 164 165 163 
127 128 129 131 132 134 133 131 132 129 130 132 131 130 132 132 132 131 131 132 134 133 131 131 133 134 134 134 136 140 142 140 145 146 146 146 149 152 153 154 157 160 163 168 173 177 183 188 194 199 203 205 209 213 216 218 221 222 223 223 225 226 226 225 227 226 222 224 226 168 119 127 118 120 141 143 144 148 132 129 127 123 114 116 124 127 128 101 98 133 142 133 127 135 144 166 208 188 129 113 150 167 162 158 162 166 169 166 161 163 173 178 172 176 174 174 188 193 189 195 209 197 193 139 85 115 121 124 106 55 26 26 33 38 42 19 20 21 31 48 62 67 73 89 99 102 116 119 112 113 102 102 120 124 137 133 133 142 120 121 163 138 124 127 112 121 132 117 160 217 219 221 218 221 219 220 221 220 219 219 219 219 218 217 218 218 218 217 216 215 215 215 213 214 214 213 212 211 211 211 211 209 209 209 208 207 207 207 205 203 203 203 202 201 200 198 196 196 196 194 192 190 189 188 187 185 183 181 179 176 174 171 169 168 166 163 160 157 154 153 147 147 146 144 141 139 138 138 141 139 136 132 132 135 136 136 131 130 136 136 138 131 102 65 44 76 114 138 150 157 166 174 175 179 185 190 193 195 195 192 182 166 137 118 111 105 96 85 79 83 131 178 206 220 214 184 172 169 167 150 113 94 115 144 159 163 154 141 100 66 64 95 125 138 139 129 136 149 130 106 123 146 161 162 150 144 140 143 133 135 129 110 111 108 105 112 119 140 136 116 110 121 131 124 138 154 153 155 156 153 158 157 155 156 156 157 157 157 157 156 156 157 157 156 156 156 157 157 157 156 155 157 160 160 158 158 158 160 160 160 161 162 161 160 160 162 163 163 163 164 164 163 164 164 161 164 165 164 166 165 
128 127 128 130 132 131 130 129 130 129 131 132 131 129 130 131 130 130 131 133 134 132 131 130 132 134 134 134 136 140 141 139 144 147 146 146 148 151 153 153 157 160 163 167 173 177 182 186 192 197 201 204 208 213 217 220 220 222 223 224 224 225 225 225 224 226 224 225 204 135 115 134 133 103 103 125 146 156 151 149 132 120 109 106 120 116 119 114 116 132 140 141 131 142 161 182 207 162 98 99 145 159 148 143 133 137 140 138 137 140 144 144 149 144 144 151 163 166 163 170 182 190 184 161 105 97 120 117 107 50 33 32 38 41 37 35 31 23 32 45 51 60 77 97 98 102 118 123 114 112 102 107 125 132 149 147 136 141 125 112 132 128 117 118 121 129 123 114 199 223 219 222 219 223 220 221 221 220 219 219 220 219 219 218 218 217 216 215 215 215 215 215 214 215 215 214 212 212 211 211 211 211 210 208 207 207 207 206 204 204 204 202 200 201 201 198 197 197 197 195 192 190 188 188 187 185 183 181 178 176 174 173 168 168 166 163 159 155 153 151 148 147 145 143 141 140 139 138 136 135 135 135 136 136 135 133 133 132 121 112 111 116 97 70 64 88 110 126 143 155 159 162 169 173 178 185 190 194 194 192 188 173 143 120 108 99 89 78 71 71 115 176 222 246 249 221 186 168 159 147 128 127 141 151 161 162 149 134 94 63 63 96 129 144 132 108 100 122 125 128 142 140 136 127 131 143 153 150 131 122 134 116 109 108 91 83 112 126 119 118 114 97 99 105 132 151 153 155 157 153 155 158 156 156 156 157 158 158 157 156 157 157 156 156 157 158 158 158 160 158 156 159 163 162 160 159 159 159 159 159 161 161 160 161 161 163 164 163 163 165 164 161 164 165 161 162 162 163 166 165 
130 129 129 129 128 126 128 131 130 129 130 131 130 129 130 130 130 130 132 134 134 133 133 132 133 134 135 134 137 141 142 140 142 147 149 147 147 150 153 154 157 160 164 168 173 177 181 186 190 196 200 203 208 212 216 219 218 221 223 223 222 223 224 223 221 225 224 218 165 128 123 146 145 113 95 130 157 155 157 150 116 114 120 121 133 120 123 138 118 105 119 123 122 129 148 177 171 127 101 128 157 154 143 136 122 124 127 122 117 117 116 116 123 120 120 125 134 135 133 143 174 187 165 121 105 103 106 107 100 64 38 41 40 30 41 37 27 19 29 43 47 52 69 89 95 103 118 130 117 106 109 122 138 147 159 160 148 142 115 91 107 122 121 110 119 118 113 170 220 223 218 222 219 223 221 222 222 221 220 220 220 219 218 217 219 217 215 215 215 215 215 215 215 215 215 214 212 211 211 211 211 212 211 208 206 206 207 206 203 204 204 202 199 201 201 198 198 197 196 195 193 190 188 188 187 186 183 180 177 175 173 173 168 167 165 163 159 155 152 150 149 147 144 143 142 141 140 139 138 136 135 135 135 134 135 136 132 128 88 65 65 69 55 52 73 86 97 107 119 125 129 138 146 150 156 164 172 176 178 178 174 164 139 116 100 91 84 75 64 64 95 166 233 248 238 214 183 170 166 156 143 142 144 144 144 146 145 125 108 84 93 119 154 154 124 99 87 114 126 146 148 137 118 100 122 145 157 151 118 100 129 131 122 127 112 86 96 123 117 115 125 106 84 81 127 149 153 152 155 153 153 154 155 155 154 155 157 157 156 155 158 157 156 157 158 158 157 156 157 157 157 159 160 158 157 159 159 158 157 158 161 161 160 162 162 164 164 162 162 164 163 159 161 163 160 160 161 162 165 163 
130 129 128 129 129 129 132 136 131 131 130 130 131 131 131 132 131 131 132 133 132 133 135 134 133 135 135 136 138 142 143 142 142 146 148 147 149 152 154 155 155 159 163 168 172 175 180 185 189 195 200 204 208 211 214 217 217 220 223 222 222 223 224 223 223 222 224 198 135 136 128 136 125 127 114 133 157 155 146 124 120 131 133 117 122 127 139 158 131 98 97 93 105 108 130 152 140 135 142 153 152 147 138 120 112 108 114 110 99 94 92 95 93 104 106 105 117 119 110 115 132 138 114 97 107 108 103 125 157 79 36 32 33 32 38 30 13 12 23 37 43 44 52 71 90 107 115 131 117 108 126 139 141 140 142 153 152 143 126 126 114 111 114 119 127 114 117 204 223 220 220 223 219 223 222 221 221 221 220 220 219 219 218 218 220 217 216 216 216 216 215 214 215 215 215 213 212 211 211 210 210 211 211 208 206 206 207 206 203 204 204 202 199 201 201 198 197 196 195 194 192 190 188 188 186 185 182 180 177 175 173 172 168 166 164 162 160 157 152 149 149 147 144 142 141 141 140 139 139 137 136 135 132 131 132 133 134 125 80 67 73 69 56 66 71 80 87 92 94 94 100 115 118 121 125 131 139 144 148 153 155 149 130 108 91 84 85 84 70 63 74 130 198 214 207 194 179 170 159 142 130 132 139 143 130 126 136 126 115 105 118 133 143 151 135 120 107 126 137 159 161 149 127 103 122 149 165 158 130 109 136 145 127 122 124 110 94 118 120 118 137 128 93 76 116 142 153 152 153 154 153 151 154 153 153 154 155 156 155 154 156 155 156 158 159 158 156 155 157 158 158 159 159 156 156 158 160 158 156 157 160 161 160 162 163 164 163 160 160 163 162 159 159 163 162 162 163 163 165 162 
130 128 127 128 130 131 131 130 130 130 129 129 131 131 131 131 131 130 132 132 131 133 135 134 134 135 136 137 139 140 142 144 144 145 145 147 152 154 154 154 153 157 162 166 170 173 178 183 187 194 199 203 207 210 213 215 216 220 222 222 222 225 226 225 226 221 221 165 120 125 115 109 125 135 123 111 126 133 119 110 127 142 141 126 125 139 153 169 150 116 112 117 127 139 168 151 132 144 169 190 182 147 115 102 105 84 89 98 97 94 85 80 79 77 90 101 100 95 87 82 83 81 98 100 110 114 146 202 141 42 30 28 27 36 19 15 10 12 20 31 41 42 45 62 88 112 119 129 118 117 135 138 146 148 151 156 147 131 112 116 112 117 109 123 104 98 160 219 220 221 223 223 222 222 223 220 220 220 220 220 220 220 219 219 220 218 216 217 217 216 215 215 214 215 214 213 212 212 211 211 211 211 210 208 207 207 207 207 204 204 204 202 201 201 200 198 197 195 194 193 192 190 188 188 185 183 181 179 177 175 174 172 169 166 163 161 160 157 152 149 148 146 143 141 140 140 139 138 135 136 136 135 134 134 134 134 135 134 95 64 60 66 65 60 68 70 71 72 76 80 86 93 95 95 94 97 104 107 112 120 129 127 115 97 81 77 89 96 86 69 62 82 124 150 166 168 160 163 155 139 124 122 136 142 124 108 125 146 133 139 136 129 127 135 131 126 123 143 156 174 172 162 146 127 131 155 175 172 156 138 153 163 146 124 128 130 102 112 127 136 145 141 115 94 104 129 150 154 153 154 154 152 155 154 154 154 155 155 155 154 154 154 155 158 159 157 156 156 159 159 158 158 159 159 158 157 159 159 157 157 160 161 161 161 162 162 161 160 160 161 162 161 160 163 164 166 166 164 166 164 
131 130 128 128 129 129 127 125 128 130 129 129 130 130 129 129 130 130 132 132 130 133 136 134 135 134 135 138 138 137 140 144 145 145 145 148 152 153 153 154 153 157 161 165 169 172 176 181 185 192 197 201 205 209 212 215 216 220 222 221 222 225 226 224 216 225 210 138 112 98 106 120 144 151 133 106 106 106 97 104 127 142 144 146 131 135 139 152 141 128 134 152 154 180 194 155 144 158 179 204 212 171 107 70 55 46 81 109 100 81 64 58 54 60 89 107 99 94 94 92 97 117 116 132 172 191 196 137 67 32 34 29 19 17 15 7 11 13 17 22 32 38 44 58 92 113 122 124 116 126 137 138 154 153 164 166 146 130 108 101 114 125 116 118 96 127 206 228 221 225 224 223 224 221 223 220 220 220 220 220 220 220 220 220 220 218 216 217 217 216 215 216 214 214 213 212 212 213 212 212 212 211 210 209 209 208 207 207 206 204 204 204 202 201 200 198 197 195 193 193 192 189 188 188 185 183 181 179 178 176 174 172 169 167 164 161 159 156 152 149 148 146 143 141 140 139 138 138 141 140 138 135 135 136 137 136 132 138 126 104 81 60 61 56 46 47 52 55 56 60 65 67 67 65 62 63 68 69 70 77 91 96 95 89 77 76 92 103 96 77 68 60 70 90 117 131 152 168 167 146 107 96 128 144 131 109 121 143 141 155 148 133 112 106 110 127 147 162 159 156 160 158 153 152 153 168 179 183 178 163 170 174 163 140 132 128 98 116 146 160 153 146 135 111 101 118 142 153 153 155 155 154 156 155 155 155 155 155 154 154 155 154 156 157 158 156 156 157 156 157 155 154 156 158 157 155 158 160 159 157 159 160 161 162 162 161 161 161 161 160 161 162 161 163 163 166 165 163 165 165 
130 131 131 129 128 129 130 129 129 132 132 131 132 131 129 130 130 130 133 134 131 133 137 134 135 134 135 138 137 135 138 144 143 145 148 150 151 149 151 156 155 158 160 164 169 172 176 181 184 190 196 199 203 208 212 215 217 221 221 220 220 223 224 222 225 222 168 109 125 111 118 136 137 151 134 122 132 127 110 95 107 133 140 147 120 121 122 131 140 152 154 163 165 191 171 148 157 182 199 198 198 186 159 143 105 72 82 93 71 51 40 41 71 106 114 95 96 111 125 145 179 191 180 181 148 118 88 68 43 30 20 9 13 8 8 16 14 13 14 16 25 36 45 58 97 108 120 116 110 129 140 151 166 158 184 192 151 124 109 112 114 110 123 91 109 206 229 220 223 228 223 221 226 220 222 221 221 221 221 221 220 220 220 220 220 217 216 217 217 215 216 218 214 214 213 213 213 213 213 213 213 211 210 210 210 208 207 207 207 204 204 204 203 201 200 197 198 195 194 194 192 189 188 188 187 184 182 180 179 176 173 170 169 167 164 161 158 154 151 149 148 147 145 143 141 140 139 138 139 139 138 136 134 131 124 117 117 115 114 116 106 70 61 53 51 44 45 48 47 48 50 48 48 46 43 45 49 47 44 47 54 66 77 81 74 74 89 100 99 84 77 60 56 68 98 126 157 172 167 143 93 79 120 137 131 118 130 128 135 143 142 132 100 93 112 140 158 152 138 127 127 136 138 155 166 172 167 178 178 165 174 169 159 152 145 132 113 129 157 180 160 131 131 128 107 112 134 151 153 155 155 154 156 156 156 155 154 154 154 154 157 156 156 157 156 155 155 158 156 159 158 155 156 159 159 158 157 161 161 158 158 159 161 162 162 161 162 163 162 159 160 161 161 162 161 164 163 160 163 164 
126 128 130 130 130 129 129 130 129 132 132 130 129 130 131 129 130 131 132 132 132 131 131 132 132 133 133 134 137 139 140 140 144 146 146 147 151 151 150 153 154 158 162 164 166 171 176 178 184 189 194 198 203 206 210 214 218 219 219 222 222 222 225 223 224 204 134 119 136 127 134 133 132 139 130 130 149 150 129 109 111 108 119 131 126 119 130 148 158 157 152 158 174 189 153 152 178 191 198 196 190 192 198 194 193 185 167 124 46 28 32 65 107 117 107 97 107 125 149 157 162 149 135 115 81 50 35 31 19 13 9 10 11 10 11 13 16 17 15 25 24 29 44 63 89 105 111 106 112 130 145 152 149 161 183 177 149 121 106 118 113 105 105 98 167 229 224 225 224 225 225 223 222 222 222 222 222 222 222 221 220 220 219 218 220 219 218 218 218 217 216 216 216 214 212 212 212 212 211 212 213 212 210 209 209 208 206 206 204 203 203 202 200 200 199 197 196 197 195 192 190 189 186 184 186 184 181 179 177 174 173 172 168 165 162 161 159 156 154 153 148 146 144 142 141 140 140 140 136 132 138 133 137 126 83 69 67 67 67 59 58 61 58 56 57 59 60 59 60 59 51 41 41 40 45 45 38 36 35 30 30 45 60 68 72 68 71 92 102 96 81 61 56 80 116 137 154 164 159 136 105 82 97 132 136 136 131 129 124 121 127 124 99 99 126 153 146 150 135 110 100 99 114 149 150 147 133 151 165 161 162 161 149 155 170 157 138 123 156 184 165 125 125 129 124 111 128 147 151 153 152 154 155 154 154 156 155 153 153 156 156 156 157 157 156 154 155 158 156 157 157 156 157 158 158 155 158 157 157 158 158 157 157 158 162 159 159 161 162 163 164 164 158 158 160 163 162 159 161 165 
131 131 130 129 129 130 131 131 128 127 129 131 131 129 129 132 133 132 130 130 131 132 134 134 132 133 133 134 136 138 140 142 143 145 145 146 150 151 152 155 155 156 160 164 167 170 175 180 184 188 192 196 202 206 210 213 216 219 219 222 223 222 224 223 217 180 135 117 122 128 132 132 130 127 119 135 148 133 125 129 129 120 121 125 124 129 146 158 154 154 156 159 171 173 135 144 185 184 182 183 179 178 187 191 199 200 207 191 113 40 41 74 97 107 112 114 131 150 122 94 78 59 43 37 29 17 10 10 13 10 8 8 9 9 10 14 12 19 22 31 29 28 35 53 87 107 104 100 121 145 146 131 119 147 161 164 146 122 119 110 115 97 102 181 219 224 222 229 224 225 224 223 222 223 223 222 221 222 221 221 220 220 219 218 221 219 218 218 218 216 215 215 216 215 214 214 214 213 212 213 211 211 211 210 208 207 206 206 205 204 203 203 202 202 201 198 196 197 195 192 191 189 186 185 185 183 180 179 177 175 172 170 166 163 161 160 160 156 152 150 146 145 143 142 142 141 140 140 138 137 138 136 139 111 67 66 62 64 62 59 64 65 59 62 62 61 59 59 62 64 59 52 47 37 36 38 34 31 29 26 23 40 57 67 73 70 72 90 104 103 97 80 71 94 126 140 147 157 155 139 118 104 115 142 155 155 144 138 114 96 111 114 108 118 144 139 145 145 129 118 94 80 89 134 145 136 105 107 148 150 149 149 150 166 185 180 158 126 135 166 161 125 103 118 133 123 128 143 152 151 149 153 155 153 154 156 157 155 155 157 156 156 156 157 156 155 156 157 158 159 159 158 157 159 158 157 161 161 161 161 160 159 159 160 162 160 161 163 163 162 163 162 159 159 161 163 162 160 161 163 
132 130 128 127 128 129 129 129 127 127 128 131 131 129 130 132 135 132 130 129 132 134 134 133 129 131 132 133 135 137 139 141 144 145 145 146 150 151 152 155 156 155 158 165 168 168 173 181 184 187 191 195 200 205 208 212 214 218 218 221 223 221 223 224 211 142 118 120 116 124 127 128 117 113 104 124 135 124 133 144 124 114 122 127 119 132 154 157 154 155 159 164 174 140 93 124 160 160 157 158 156 154 165 174 182 194 182 186 182 84 45 69 90 102 110 144 180 136 84 57 37 26 13 10 12 11 9 11 10 9 9 10 10 9 11 15 18 25 22 25 23 22 29 53 94 110 104 112 136 143 135 117 118 160 166 159 139 112 113 108 120 103 145 224 225 227 230 225 225 225 223 223 223 224 224 222 221 221 221 220 220 220 219 218 221 220 219 218 218 216 215 215 214 214 214 214 213 212 211 211 210 211 211 210 208 207 206 206 205 204 203 203 203 203 201 197 196 196 194 192 191 189 187 186 183 182 180 179 178 175 171 168 166 162 159 159 159 156 152 149 146 145 143 143 142 140 139 139 138 138 138 136 135 122 91 71 73 66 61 55 54 54 57 68 62 58 54 55 61 66 65 62 51 40 37 38 34 31 36 40 56 68 79 84 86 80 80 98 116 119 117 97 77 92 124 138 145 157 160 155 151 146 149 161 166 168 152 135 98 81 114 127 124 140 140 129 131 120 122 121 110 97 104 141 147 129 90 79 115 137 143 146 155 167 180 180 165 121 107 139 145 117 77 93 130 126 122 135 152 150 148 154 155 153 154 156 157 156 155 155 156 156 155 156 156 156 156 157 157 159 159 157 156 156 157 157 160 161 162 161 159 158 158 159 161 161 163 164 163 162 162 162 160 161 162 162 162 162 162 162 
129 129 128 128 129 129 128 127 128 131 131 130 130 132 132 130 133 132 132 132 133 134 131 128 126 127 128 130 135 137 138 139 145 146 146 147 149 150 151 153 157 156 159 163 166 168 173 178 182 186 190 194 199 203 207 211 213 218 218 221 222 221 223 224 183 113 106 119 103 104 111 109 108 120 109 113 118 123 139 132 118 113 138 145 118 122 147 147 143 148 161 171 168 111 64 82 124 135 137 133 129 129 140 148 154 172 172 165 159 89 68 96 108 116 159 187 136 74 26 17 13 13 12 10 8 10 11 10 9 9 10 11 10 9 11 14 14 21 19 22 24 26 30 57 99 119 112 116 133 139 136 117 134 167 169 144 122 102 100 118 117 127 203 227 223 225 228 225 226 225 224 223 224 224 224 223 221 221 221 220 220 220 220 219 221 220 219 218 218 217 216 216 213 214 214 214 212 211 211 211 210 210 210 210 209 207 206 206 204 203 203 203 202 201 199 196 196 196 194 192 191 189 187 186 183 182 180 178 177 175 171 167 168 164 160 158 157 155 153 152 148 147 145 143 141 139 138 137 136 138 138 135 134 139 127 99 81 74 73 64 60 80 100 105 99 93 85 82 84 86 86 84 75 65 62 68 73 82 96 106 111 115 118 116 108 93 89 107 127 134 133 108 79 81 109 131 143 157 164 167 175 175 169 167 165 162 146 128 100 99 129 134 126 130 127 137 112 95 108 126 133 134 142 159 152 130 89 66 76 122 143 149 158 158 158 159 145 106 84 105 122 109 79 81 110 114 112 130 150 150 151 154 155 154 154 156 156 154 152 152 156 156 156 156 155 156 156 157 155 157 157 157 156 156 156 156 157 159 161 160 158 157 158 158 160 160 162 164 163 163 163 162 161 162 163 163 163 164 163 161 
129 129 130 130 130 130 131 131 130 132 131 129 129 131 132 130 131 132 133 133 133 133 130 127 125 123 122 125 132 136 137 138 144 146 147 148 150 150 150 152 155 157 159 161 164 168 173 176 180 185 190 194 198 202 206 210 214 218 218 220 221 221 223 221 161 100 110 125 95 78 81 94 134 143 123 110 106 118 135 116 106 117 149 156 120 99 106 110 100 107 127 145 139 103 77 67 93 108 114 115 117 116 118 119 123 130 144 134 125 107 93 115 142 167 166 94 45 23 15 7 18 13 12 13 11 14 15 10 11 12 13 15 15 13 14 15 16 20 16 19 24 27 28 54 102 118 117 129 140 138 143 137 144 155 157 133 115 108 103 115 99 165 230 223 233 222 227 231 227 226 225 225 224 223 223 223 222 222 222 221 221 221 221 220 220 219 218 218 218 217 217 216 216 216 215 215 213 212 212 213 211 210 209 209 210 209 207 205 203 203 203 203 201 200 198 196 196 195 193 192 191 189 187 186 184 182 180 177 175 174 170 167 168 166 162 158 156 154 153 152 150 148 145 143 141 139 138 137 135 139 135 137 139 134 133 132 100 73 66 80 102 131 149 151 156 151 145 141 138 137 137 137 136 127 124 132 144 153 155 150 150 147 147 143 128 102 93 110 130 142 143 123 96 82 98 127 141 154 163 169 180 179 163 148 150 140 134 128 121 132 140 129 128 95 108 124 107 105 110 142 153 156 158 163 155 134 91 55 60 118 149 158 161 150 136 127 124 108 82 81 107 106 96 83 96 105 113 134 150 151 154 153 154 154 155 156 155 153 152 152 155 156 157 156 155 155 156 157 155 156 157 158 159 159 158 157 157 159 160 160 159 159 160 161 161 160 161 162 162 163 164 162 162 163 163 163 164 166 165 162 
129 129 128 128 129 130 132 133 131 129 128 130 130 129 129 132 130 131 132 131 131 132 131 129 127 122 118 121 128 134 137 140 143 144 146 149 150 150 151 152 153 156 158 160 163 168 173 175 178 183 189 193 197 200 205 210 215 217 218 219 219 221 223 214 130 94 115 118 105 110 102 110 133 149 148 133 101 88 103 98 97 124 148 151 130 100 87 93 79 87 97 119 121 91 64 58 59 67 73 90 105 103 94 90 86 97 113 117 131 140 127 165 190 133 71 46 20 13 13 15 18 13 14 16 13 11 15 18 11 12 15 17 18 17 16 16 21 18 10 9 13 21 25 54 100 114 121 137 137 121 135 159 159 156 150 129 105 109 121 110 89 182 232 222 226 229 232 229 228 227 226 226 225 224 223 224 223 223 223 222 221 221 221 221 220 219 218 218 218 218 217 217 216 215 215 214 213 212 212 213 212 210 209 209 209 209 207 205 204 203 204 203 201 200 199 197 196 195 193 192 191 188 186 186 184 183 180 176 174 173 171 168 166 165 163 159 156 154 151 149 149 147 144 142 141 139 139 139 138 135 133 137 137 133 135 137 138 107 86 90 113 139 159 174 180 180 179 178 177 176 177 178 177 170 164 164 171 180 180 174 173 167 163 156 137 109 99 114 133 144 145 133 112 91 95 122 133 148 160 169 177 169 141 117 104 110 133 146 149 157 152 140 113 79 92 109 122 122 130 150 164 161 156 158 152 133 101 67 69 124 161 173 173 153 125 98 108 118 97 86 115 113 105 87 100 112 128 144 152 152 153 151 153 154 155 155 154 154 154 155 154 156 157 156 155 155 156 157 154 154 155 157 159 159 158 157 158 158 159 160 159 158 159 161 161 160 160 160 161 163 163 161 162 163 163 162 163 165 164 162 
129 128 127 127 129 130 131 131 130 128 129 131 131 129 129 131 130 132 132 130 130 132 132 130 125 123 121 124 129 133 136 140 142 143 146 148 149 150 152 153 154 155 157 160 163 166 170 173 177 182 186 190 195 199 204 210 215 215 218 219 217 222 222 205 125 96 104 112 121 131 118 117 131 143 151 143 111 97 106 99 96 121 128 123 126 121 113 117 124 134 140 148 129 86 32 28 27 32 39 63 80 67 46 37 43 74 111 127 148 184 175 159 105 44 35 25 14 19 20 20 16 18 18 25 38 35 21 14 9 11 15 18 19 18 16 15 16 13 10 9 13 22 27 56 89 115 120 117 112 99 118 159 165 156 140 118 93 105 129 113 106 192 229 230 224 230 226 225 229 227 226 226 226 225 224 224 224 224 223 222 221 221 221 221 220 219 218 219 218 218 217 217 215 214 213 213 213 212 211 211 211 210 209 208 208 208 206 205 204 203 203 202 201 201 200 198 196 195 193 192 191 188 185 185 182 183 181 177 174 173 171 169 165 164 162 159 156 154 151 148 147 145 143 142 141 139 139 139 138 134 136 135 133 139 141 131 127 135 131 112 111 133 156 173 181 186 191 193 193 194 195 196 193 190 185 180 179 180 180 178 174 170 165 153 136 113 102 111 130 141 145 138 120 98 97 116 125 138 150 159 165 155 126 101 78 107 145 163 164 164 160 149 111 95 83 91 112 118 141 152 155 153 152 156 157 145 130 106 101 140 166 175 171 157 131 96 95 113 111 114 132 127 114 103 112 126 143 150 152 153 151 153 153 153 153 153 154 154 155 156 152 155 156 156 155 156 156 156 154 154 155 156 157 157 157 158 159 157 157 159 158 156 157 160 158 158 159 159 160 162 163 161 163 162 162 162 162 163 163 162 
130 129 129 131 133 133 131 129 129 131 132 131 131 132 131 128 130 132 132 131 131 133 131 128 123 124 126 130 132 133 135 139 143 143 146 148 148 149 152 153 156 155 157 162 164 164 166 171 177 181 184 188 193 198 204 209 214 213 218 220 216 222 222 199 126 106 94 101 113 118 109 95 110 117 128 127 121 132 136 111 92 111 112 106 122 143 146 141 141 157 184 180 143 126 81 63 62 57 45 49 54 40 27 27 42 52 90 132 146 149 127 80 45 35 27 19 21 31 23 15 34 62 71 68 72 57 29 16 14 18 22 25 25 23 22 21 25 22 20 17 15 21 26 54 85 108 112 114 116 94 100 150 156 149 136 118 103 111 118 101 129 226 232 226 228 226 227 229 229 226 225 226 227 226 225 224 224 224 223 222 221 221 221 220 221 220 219 219 218 217 217 216 216 215 215 215 215 214 212 211 211 210 209 208 207 206 205 205 203 202 201 201 201 202 201 198 196 195 192 191 191 187 184 185 181 182 181 177 175 174 172 170 167 165 161 157 155 155 153 150 146 145 143 142 141 139 138 137 134 139 139 133 135 136 131 135 139 130 128 120 110 113 129 146 160 168 177 183 188 192 195 195 193 187 179 173 171 169 164 159 156 157 155 144 130 112 98 100 121 134 146 144 125 104 101 113 128 135 140 146 153 148 127 108 109 137 153 155 152 156 161 148 131 104 73 74 97 128 131 133 138 142 150 164 176 174 166 143 146 163 168 162 151 148 137 107 97 109 122 142 140 134 120 118 120 134 150 150 151 153 150 158 153 152 151 151 153 154 155 155 151 153 155 155 156 157 157 156 157 157 157 157 157 157 158 160 162 158 157 159 159 155 156 160 155 156 158 159 159 162 163 162 163 162 161 161 161 161 161 161 
126 128 131 132 130 129 130 130 132 131 128 129 133 134 131 129 129 130 131 131 130 130 130 130 128 128 128 130 132 135 137 138 141 143 147 146 147 151 150 151 158 159 157 156 160 165 168 169 176 179 184 190 195 199 203 207 212 214 215 217 218 219 222 155 112 120 107 100 107 109 102 85 88 97 99 104 129 132 136 128 108 110 103 118 139 144 149 148 151 161 180 171 148 165 179 177 171 159 148 127 95 45 31 35 48 60 73 96 123 106 78 41 33 19 23 44 65 65 58 70 84 91 100 100 104 88 43 20 24 31 35 40 35 25 31 42 40 41 42 33 29 28 34 62 94 107 98 101 116 114 124 149 151 144 128 120 105 123 122 110 143 230 230 229 227 229 230 227 229 227 225 225 225 224 224 224 224 225 225 224 223 223 221 219 219 221 220 217 217 220 218 214 214 215 215 215 214 214 212 211 212 212 211 209 208 207 206 207 206 204 203 202 202 201 199 197 199 197 195 193 190 187 185 184 185 182 179 177 174 172 170 168 165 165 163 159 155 153 150 148 148 146 145 145 143 140 139 141 138 134 135 134 135 139 130 120 108 95 87 88 87 93 107 117 127 140 152 159 167 177 181 182 184 178 175 170 158 152 149 142 142 143 140 137 128 103 87 93 106 118 137 140 134 116 103 121 130 131 129 133 145 147 139 134 130 143 156 151 142 133 126 137 129 100 79 63 83 121 132 137 129 127 160 177 189 185 173 164 156 162 152 135 126 132 137 120 113 109 126 153 148 132 124 104 113 133 147 151 150 150 154 153 154 152 153 156 155 154 154 154 152 153 152 153 156 156 154 154 155 155 157 159 157 155 157 159 159 162 159 156 157 159 159 159 157 158 159 160 160 159 159 161 163 163 162 162 162 161 161 163 
126 128 130 131 129 128 129 130 129 132 132 132 133 133 132 133 132 130 131 133 133 132 132 134 135 134 132 130 131 134 137 139 142 144 149 148 149 152 151 152 155 157 157 158 161 165 168 170 173 177 183 190 195 199 202 204 209 214 216 218 219 219 213 138 100 122 101 88 96 88 92 107 114 121 115 102 119 122 115 109 108 107 115 132 139 142 149 143 149 160 176 164 143 164 189 206 205 200 208 210 198 147 73 56 61 58 62 79 94 68 37 27 22 42 78 100 100 102 104 104 103 102 106 110 117 102 59 37 43 46 45 42 35 31 40 48 48 44 43 41 46 42 43 73 112 109 99 87 91 131 163 150 143 124 121 112 110 109 104 114 169 233 232 233 231 232 232 231 229 228 227 227 227 226 224 223 225 224 224 224 223 222 221 220 219 221 220 218 218 219 218 215 216 216 216 215 214 213 212 212 212 212 211 209 209 208 207 207 205 204 203 203 202 201 198 196 197 196 195 194 192 189 186 185 184 181 178 176 174 172 171 169 164 164 162 158 155 153 151 149 149 147 146 145 143 141 140 140 138 129 133 127 109 102 94 81 72 65 64 70 78 87 92 89 90 100 109 117 130 146 159 166 170 171 172 166 153 145 139 133 136 135 132 124 112 97 84 76 84 100 128 137 134 122 108 114 111 108 122 133 135 152 155 132 128 144 151 143 117 90 92 109 111 104 86 61 74 114 133 139 112 126 160 181 190 179 156 141 135 143 135 117 97 102 131 139 130 119 131 158 160 138 113 88 107 129 144 150 151 152 155 153 152 151 152 155 155 154 154 154 153 154 153 154 157 157 155 156 155 154 156 158 157 157 158 159 157 158 157 156 158 159 159 159 156 157 159 160 160 160 160 160 163 163 162 161 161 161 162 164 
130 131 132 132 131 130 131 131 128 132 134 133 132 131 132 133 134 130 130 134 135 133 133 137 134 135 135 135 135 137 139 141 143 144 149 148 149 152 151 152 154 156 158 160 162 164 167 171 172 175 181 187 193 197 201 203 207 212 215 216 219 218 206 124 94 112 80 70 88 78 80 108 115 123 121 94 87 79 75 90 107 107 119 131 135 133 131 133 145 158 165 151 135 150 161 171 183 197 204 215 204 182 136 108 78 53 66 79 55 40 37 43 75 101 112 105 102 107 108 98 106 120 127 126 137 135 91 42 43 44 41 36 31 36 50 54 51 50 49 47 50 45 58 101 125 120 107 104 119 143 156 149 131 123 112 110 125 115 103 122 198 231 228 232 229 230 228 230 228 228 228 228 228 227 224 223 225 224 223 223 223 222 221 221 220 220 220 219 219 218 217 216 218 218 217 215 213 213 212 212 212 212 210 210 210 209 207 207 204 203 203 203 202 201 198 196 196 195 194 194 192 189 187 185 184 181 178 176 173 172 171 169 164 164 160 156 153 152 151 150 149 148 146 144 142 141 140 139 132 138 133 105 84 83 82 76 73 69 68 69 70 75 79 79 81 83 82 84 94 111 130 143 146 158 165 162 153 145 137 131 129 123 121 114 102 96 85 66 64 84 114 124 121 113 97 93 96 116 124 128 145 151 137 125 116 123 134 131 107 78 71 86 113 112 102 86 88 111 132 141 123 143 166 185 184 164 131 114 105 114 115 112 92 86 116 138 137 129 140 158 156 130 103 91 114 137 148 150 153 153 153 152 152 151 152 154 154 153 154 154 153 154 153 154 156 156 156 156 154 153 154 156 157 158 159 157 156 156 155 156 159 159 158 158 154 157 158 159 161 162 161 160 160 161 162 162 162 162 163 163 
129 129 129 129 130 129 128 128 131 132 131 130 131 131 130 129 133 130 130 132 134 133 134 136 136 138 139 138 137 137 138 138 143 143 147 147 148 152 151 152 154 156 157 160 162 163 165 170 173 175 179 184 189 195 201 205 207 210 213 214 218 218 205 127 83 93 75 80 110 101 81 86 96 104 100 73 55 57 81 115 117 111 120 126 129 127 119 126 132 149 153 137 124 132 129 133 150 167 179 192 181 164 135 102 75 76 65 53 39 41 60 113 128 119 105 112 116 108 113 125 124 131 136 136 141 142 102 42 34 36 34 32 31 41 55 52 53 50 48 48 54 63 87 126 126 110 126 158 158 142 134 128 119 104 114 133 129 129 120 156 224 232 230 234 230 232 229 231 227 227 227 227 227 227 225 223 225 223 223 223 223 222 221 222 220 220 220 220 219 218 217 218 218 218 216 215 214 213 212 211 212 212 210 210 211 210 207 206 205 204 202 202 202 201 199 197 197 195 194 193 191 189 186 184 185 182 179 177 173 171 170 168 164 163 159 155 152 152 151 150 147 147 146 143 141 140 139 138 137 139 131 103 84 85 85 81 69 63 63 65 63 61 65 71 77 75 69 65 69 83 103 119 126 143 156 158 157 151 140 131 121 110 109 110 103 97 87 71 72 88 106 108 103 94 80 78 98 105 107 112 127 135 125 113 88 91 123 130 119 95 62 68 118 128 133 123 99 96 121 136 139 157 170 186 173 149 119 107 92 93 101 109 100 83 92 124 141 141 150 152 143 121 102 108 128 148 152 150 152 151 151 152 153 152 153 154 153 153 154 154 154 154 154 154 155 155 155 155 154 154 155 155 156 158 158 155 157 156 156 157 159 158 157 157 155 158 159 159 161 163 163 160 158 159 162 164 163 163 162 161 
129 129 128 128 131 131 128 127 133 133 130 129 130 131 129 128 132 132 131 130 132 134 135 134 138 138 137 135 135 136 139 141 143 142 145 145 148 152 151 152 155 155 156 158 162 163 165 169 174 175 178 183 188 194 200 205 208 209 212 214 218 218 207 136 94 105 99 93 108 102 82 88 87 74 78 98 88 71 93 129 122 106 120 127 121 123 121 123 131 143 144 127 110 109 100 104 107 129 156 148 151 138 97 73 77 72 58 56 51 69 92 116 119 122 122 122 118 128 148 147 147 141 137 135 129 130 105 46 34 36 35 34 34 44 54 47 54 53 56 58 64 84 111 132 117 109 145 179 165 143 131 117 114 85 107 132 128 124 123 208 237 234 234 236 232 235 231 230 228 228 227 227 227 227 226 224 225 223 223 223 223 222 222 222 221 220 220 221 220 218 217 218 217 217 215 214 214 214 212 210 212 212 210 209 210 209 206 205 206 204 202 202 202 201 200 198 198 195 193 192 191 189 187 186 185 182 180 177 173 171 170 168 164 162 158 154 152 152 151 150 145 146 146 143 140 140 140 139 137 135 136 105 65 72 87 78 77 67 61 60 59 57 58 60 67 67 66 64 65 72 87 102 110 126 140 149 155 152 139 128 114 103 100 105 103 95 85 76 83 94 94 86 85 79 74 84 99 98 105 116 125 130 114 88 67 83 128 142 139 123 95 104 131 154 158 141 110 91 102 111 131 153 170 179 153 130 114 110 104 96 103 112 116 95 81 115 145 151 155 149 145 129 110 114 132 149 150 147 151 151 151 153 152 152 153 154 153 154 155 155 155 154 155 155 154 154 155 155 155 155 156 156 156 157 158 157 159 157 157 158 158 157 158 159 158 160 160 159 161 163 163 161 159 160 162 163 161 162 162 160 
132 131 129 130 134 134 131 130 131 133 131 130 130 131 130 131 131 133 133 131 131 135 136 134 133 135 135 136 136 138 141 142 144 142 145 146 148 151 150 152 154 154 154 156 161 164 167 170 172 174 179 184 189 194 199 202 208 208 214 215 220 218 204 136 114 114 92 80 97 93 69 71 76 57 66 111 109 89 95 111 109 101 114 120 119 120 118 125 133 144 146 118 77 65 70 91 101 105 126 126 123 102 89 84 65 62 61 66 68 85 103 114 127 134 136 132 132 143 153 147 146 145 146 152 144 138 118 65 29 30 29 28 30 39 50 50 51 51 59 67 76 101 125 131 128 138 155 163 159 146 130 123 111 102 112 123 117 104 147 224 236 232 234 233 231 232 230 228 229 229 228 227 227 228 227 226 224 224 224 223 223 223 222 221 221 220 220 220 220 218 217 218 217 216 215 214 214 214 212 210 212 212 210 209 209 208 206 205 206 204 202 202 202 201 200 198 198 195 193 192 191 190 188 188 183 181 180 177 174 172 171 169 163 162 158 154 152 152 151 149 146 146 145 144 142 140 140 141 144 136 143 128 90 74 77 78 77 73 65 57 52 51 51 50 50 54 58 59 59 60 66 75 87 98 112 126 136 137 128 118 104 98 95 97 98 93 83 75 79 85 74 66 74 79 88 107 105 121 120 112 113 102 80 72 57 89 123 141 143 130 123 134 154 171 165 153 133 99 84 88 111 135 158 157 127 110 111 121 127 107 95 96 116 108 86 107 131 148 154 149 148 135 117 118 136 149 150 150 152 151 151 153 152 152 154 154 153 154 156 156 155 155 156 156 155 155 156 155 155 155 157 158 157 157 159 159 158 157 158 158 157 158 160 160 160 161 161 160 161 162 163 162 162 161 161 160 158 161 163 162 
129 130 127 127 131 132 130 131 130 132 132 131 132 132 132 132 131 133 133 132 132 134 135 135 135 136 138 138 138 138 137 136 143 143 147 147 148 150 149 151 153 154 154 156 161 165 167 168 172 174 178 183 188 192 197 201 206 208 214 213 219 218 199 126 111 102 67 61 78 74 71 79 78 65 75 104 87 71 81 108 103 104 108 112 120 120 118 133 139 141 135 98 51 49 64 84 73 74 85 102 101 91 87 66 51 58 71 75 91 104 113 129 135 132 130 135 148 153 147 147 147 151 155 173 168 145 126 92 33 33 28 25 25 30 44 53 53 47 54 76 100 124 137 132 145 156 170 155 129 122 122 124 121 124 117 112 96 126 210 235 237 235 235 233 234 231 230 230 230 230 229 227 227 228 227 225 224 225 225 223 223 224 223 220 221 221 220 220 220 219 218 217 217 217 216 214 213 213 212 212 212 212 210 209 209 208 206 207 204 203 202 202 202 201 199 197 197 195 192 192 191 190 188 186 182 180 179 177 173 171 170 168 163 162 159 155 153 152 151 149 147 145 143 143 143 141 140 140 136 136 140 139 132 113 84 67 66 67 66 60 55 53 52 51 44 46 49 52 54 53 52 54 58 62 75 89 97 100 98 92 83 82 86 92 94 91 82 73 74 77 65 63 80 98 116 133 139 138 127 117 111 95 72 60 59 93 118 132 135 122 120 135 155 163 162 157 142 111 96 101 102 109 126 122 108 95 103 127 132 117 95 93 119 125 105 100 112 138 144 140 135 124 119 126 143 151 152 153 153 151 152 152 152 153 154 154 153 154 155 155 154 154 156 157 155 155 156 156 155 154 156 158 157 156 157 158 157 156 157 157 156 159 161 159 160 160 161 161 161 161 161 161 162 161 161 160 158 161 164 162 
130 131 128 127 130 131 131 134 130 131 130 131 134 134 131 129 131 131 132 134 133 132 134 137 136 136 135 135 136 138 139 139 141 143 148 148 148 148 147 150 152 154 155 156 160 164 166 166 172 174 176 180 185 190 196 201 205 208 214 210 216 217 194 118 109 96 56 56 62 57 85 107 100 82 71 72 71 91 100 114 109 102 103 108 113 119 125 134 139 142 134 91 43 46 55 58 48 46 55 71 82 93 72 65 58 75 102 97 113 120 119 140 146 138 144 142 141 152 154 149 161 174 164 161 155 140 129 100 55 53 42 34 28 26 39 53 62 59 70 98 121 132 138 136 161 159 157 133 113 115 110 98 115 123 102 95 128 206 239 240 237 236 234 232 236 230 229 232 229 230 229 227 227 227 225 222 223 226 226 223 223 224 223 219 221 221 220 219 220 220 218 216 217 218 217 214 212 211 212 213 211 212 211 209 209 208 207 208 203 202 202 202 203 201 198 196 196 194 192 191 190 188 185 183 182 181 180 177 173 170 168 166 163 162 159 155 154 153 151 148 147 143 141 142 143 141 139 139 139 134 135 136 137 137 125 113 85 75 64 59 57 52 48 48 51 49 47 47 48 46 42 40 38 37 46 58 59 61 62 60 62 61 74 90 93 89 81 71 71 73 65 67 88 114 135 146 155 152 143 135 122 94 72 71 88 112 127 120 113 98 95 123 149 149 151 147 140 140 137 128 110 94 98 98 100 82 84 114 124 122 98 92 111 125 120 102 110 133 133 125 119 110 118 132 144 149 150 153 152 150 153 153 154 154 155 154 152 152 153 153 153 153 156 157 155 155 156 156 155 153 155 157 155 153 154 155 157 156 157 156 156 159 160 156 159 160 161 162 161 160 160 161 159 159 162 162 159 162 164 160 
130 130 127 130 133 132 134 132 131 132 133 132 132 132 131 129 134 133 132 131 133 136 137 136 137 138 137 135 135 136 138 141 143 143 144 145 144 146 151 152 154 152 151 154 157 158 161 167 168 174 179 181 184 189 194 197 203 208 213 213 214 215 191 117 96 88 83 98 92 59 85 103 95 78 56 57 70 105 110 120 118 103 94 92 93 102 110 109 120 129 136 106 58 41 51 60 48 46 43 62 83 82 77 80 79 97 111 121 118 121 120 138 149 147 150 146 147 154 154 157 167 172 153 152 141 142 124 128 102 68 59 58 45 36 42 55 63 69 104 129 130 119 129 125 130 133 123 121 107 98 105 87 105 115 95 131 215 240 240 240 238 236 234 232 232 233 232 230 233 230 230 229 226 226 226 225 226 226 226 225 224 223 222 221 221 220 220 220 218 218 218 218 216 216 216 216 214 212 212 214 213 210 208 207 207 207 207 204 202 201 201 201 201 199 197 195 198 197 195 191 187 187 186 183 179 179 178 174 171 169 167 163 163 160 158 156 154 153 152 149 149 146 143 143 145 143 140 140 142 141 136 134 136 135 134 136 130 122 105 87 71 60 54 53 52 48 45 43 39 39 39 36 31 36 39 37 37 38 39 40 46 51 68 87 90 89 85 70 67 68 72 76 98 126 143 160 162 156 152 140 120 100 91 98 119 140 128 120 98 75 79 94 124 133 138 147 158 164 162 152 125 109 100 100 95 82 80 89 114 113 108 95 106 122 120 127 129 137 136 115 102 110 127 141 151 150 150 150 150 153 155 154 152 152 153 154 154 154 154 153 154 155 155 153 154 157 157 154 155 156 156 158 158 153 151 158 156 159 159 157 158 160 159 155 161 160 161 161 158 158 159 157 162 162 161 160 159 160 161 160 
128 131 130 132 131 129 133 133 130 130 130 130 130 130 129 128 133 134 133 132 132 134 134 134 134 136 136 137 139 139 139 140 143 142 144 146 145 147 150 151 154 153 152 155 158 158 160 165 168 172 176 180 183 188 194 197 203 208 213 214 215 218 196 122 94 88 100 108 98 66 59 63 67 68 87 94 73 85 105 116 124 110 97 88 86 94 101 98 107 129 130 134 136 90 45 51 49 44 42 56 65 70 83 88 96 112 117 122 116 116 121 143 143 147 152 149 146 149 148 146 145 151 153 162 150 150 146 152 125 78 63 57 65 56 45 50 63 98 128 140 129 113 123 124 108 100 99 113 107 99 108 97 103 99 143 218 239 242 238 238 238 237 235 233 233 233 232 230 232 230 230 230 228 226 227 225 225 225 225 225 224 224 223 223 221 221 221 220 218 218 219 218 216 216 216 216 215 213 213 214 212 210 210 209 207 207 206 203 204 203 202 202 202 200 198 197 197 196 194 190 187 186 186 183 181 179 178 176 172 170 168 165 163 161 159 157 154 153 151 149 143 141 143 144 144 145 144 139 135 136 138 140 138 133 132 134 137 139 135 128 119 105 82 63 52 43 37 35 35 38 40 38 36 34 33 33 31 27 29 35 33 43 63 86 94 94 92 81 71 68 71 78 96 117 134 155 165 163 147 129 115 110 117 124 142 152 148 139 112 84 71 83 113 128 141 156 172 181 178 167 142 117 97 96 99 91 80 77 95 114 123 109 106 124 137 141 126 132 125 108 100 114 138 149 151 150 150 150 150 153 155 154 151 151 151 152 152 152 152 151 153 154 155 154 154 156 157 154 157 160 159 157 158 157 156 159 153 155 157 157 158 161 160 157 160 158 160 160 158 157 159 160 163 162 160 158 158 159 161 162 
128 131 130 132 130 128 132 133 132 130 130 132 133 133 132 131 132 133 133 132 132 133 133 133 134 134 135 137 140 140 139 139 143 142 143 145 145 148 150 151 152 153 153 155 158 160 161 164 167 170 174 178 182 187 193 197 202 207 211 213 216 219 201 128 100 88 98 93 79 64 58 55 60 68 97 101 77 72 102 123 126 123 120 117 118 129 138 136 141 146 134 136 150 142 109 73 53 38 35 43 56 72 87 99 113 122 122 122 116 126 139 145 143 137 137 147 151 149 150 149 150 151 162 187 195 183 163 147 122 77 72 68 68 55 52 48 70 108 118 131 135 124 117 108 91 93 95 106 113 108 105 102 98 148 228 237 237 239 236 240 237 237 235 234 234 233 232 231 231 229 230 230 229 227 227 226 225 225 225 225 225 224 224 223 222 221 222 221 219 219 219 218 216 216 215 216 216 214 213 213 211 211 211 210 208 207 206 203 205 204 203 202 202 200 198 197 195 194 193 190 187 186 186 184 181 179 178 176 173 170 168 166 162 161 159 157 153 152 150 148 147 150 145 138 140 143 140 139 140 137 137 137 135 137 139 139 134 126 110 94 82 75 67 61 58 45 37 37 38 39 39 38 42 39 37 36 33 28 31 38 42 53 71 92 102 101 96 85 77 69 67 71 83 98 120 148 156 137 108 102 107 113 132 144 153 155 162 153 126 99 76 88 124 133 141 157 176 187 182 167 154 126 97 91 101 103 90 79 84 114 136 126 108 119 138 135 119 121 110 95 90 110 142 151 150 149 149 150 150 152 154 153 153 153 153 152 152 152 153 153 153 153 154 154 154 155 156 155 155 160 158 153 155 157 157 156 158 158 158 157 158 159 160 159 161 158 158 160 159 158 160 161 162 162 160 158 158 160 162 162 
130 131 129 131 131 129 131 130 131 129 128 131 132 132 131 132 132 132 132 131 132 133 134 135 137 135 133 134 137 137 137 139 145 143 142 143 145 148 150 151 151 152 153 154 157 161 163 165 168 168 172 177 182 186 191 196 199 204 208 212 214 218 204 132 95 83 92 95 80 84 102 95 61 65 90 90 76 65 102 131 121 126 130 129 127 133 141 143 155 155 137 140 163 182 187 174 150 121 93 62 60 78 87 111 118 101 101 118 120 129 145 145 137 143 148 155 153 152 156 148 146 141 151 189 223 201 170 148 111 81 72 72 65 56 63 58 72 104 105 116 120 114 103 107 106 113 112 115 120 96 77 92 152 228 242 237 241 241 239 237 237 237 236 235 234 234 233 231 231 230 230 230 229 227 227 226 227 226 225 225 224 224 223 222 222 221 221 221 220 219 219 217 217 216 215 215 216 215 213 212 210 211 212 211 208 207 206 204 205 204 202 201 200 199 198 196 195 193 192 190 187 187 186 184 180 177 176 176 173 169 167 165 162 160 158 155 152 151 150 147 149 141 138 141 141 137 137 142 142 137 138 139 138 137 126 107 88 77 67 64 63 62 63 65 60 51 41 36 44 67 86 91 93 91 87 81 78 80 88 94 108 110 111 117 119 112 103 92 84 77 73 75 79 83 99 122 114 108 90 82 95 120 144 157 161 163 171 161 135 117 97 104 121 127 136 154 172 177 169 154 150 138 115 95 90 95 97 94 89 116 139 142 123 116 126 117 105 105 101 89 87 111 139 149 149 148 149 150 150 152 154 153 154 154 154 154 154 154 154 154 153 153 154 155 154 154 155 155 156 160 158 154 156 158 158 156 159 159 158 157 156 157 159 161 163 159 157 159 162 161 160 160 160 161 161 161 161 161 161 161 
130 131 129 131 131 129 131 130 133 130 130 132 133 132 132 132 133 131 130 131 132 134 135 136 138 137 135 134 135 136 136 139 143 143 142 143 146 148 149 150 151 153 153 153 156 160 163 165 168 168 171 176 181 185 190 195 197 203 206 212 213 216 206 134 94 73 86 93 71 82 104 95 63 61 91 86 66 51 88 111 103 106 109 110 112 118 128 137 143 147 142 169 202 202 199 201 205 190 181 173 156 129 109 113 108 94 94 104 116 133 147 142 144 148 151 157 157 159 166 155 148 145 137 147 188 190 166 121 90 77 64 63 67 68 65 71 82 99 98 103 112 118 108 117 114 99 100 115 103 71 100 186 235 241 236 240 241 240 240 240 237 237 237 236 235 234 233 231 232 231 230 229 228 227 226 227 227 226 225 224 224 223 223 222 222 220 220 220 220 220 219 216 217 216 215 214 215 215 213 211 210 211 211 210 207 207 207 206 204 204 202 200 199 199 197 195 196 193 191 190 188 188 186 183 180 177 175 175 172 169 166 165 163 159 156 154 152 152 151 148 151 143 145 144 138 144 149 139 140 136 134 126 109 94 83 72 69 67 69 70 65 61 63 66 58 45 47 74 104 126 142 150 157 155 153 150 146 149 155 158 160 160 156 153 144 129 116 104 91 82 72 71 71 70 75 82 94 81 67 59 89 133 151 162 164 171 170 157 135 126 116 114 109 113 124 143 156 157 151 139 137 136 122 97 82 91 101 98 92 116 137 152 138 119 117 107 97 93 97 94 100 125 142 149 148 148 149 150 150 151 153 152 151 152 152 153 153 153 153 152 153 153 154 155 154 154 154 154 156 156 155 156 157 156 155 155 153 154 156 158 157 156 159 162 161 158 157 160 162 161 159 159 160 161 162 161 161 162 162 161 
129 132 131 132 130 128 131 132 135 134 133 133 133 133 133 133 134 132 130 131 133 134 134 135 136 137 137 136 137 137 138 139 140 142 143 145 148 148 147 147 153 154 153 153 156 159 161 163 167 169 172 176 179 184 189 194 196 203 206 212 212 215 209 139 99 65 78 80 54 72 91 92 74 65 78 64 58 51 71 91 90 90 90 93 98 105 114 123 133 137 143 168 189 192 194 194 199 202 189 196 201 199 183 129 98 108 111 98 116 142 150 142 141 147 148 145 157 186 193 169 143 145 135 134 163 184 177 125 79 68 73 65 60 60 59 68 81 92 97 96 108 119 108 111 109 97 101 97 95 144 209 239 243 242 241 243 245 233 244 234 237 237 237 236 235 234 233 232 233 232 230 229 228 227 226 227 226 225 224 224 224 224 223 223 223 221 220 220 219 219 218 216 217 217 215 214 214 214 213 211 211 211 211 210 207 207 207 207 204 204 202 200 199 199 198 195 196 193 191 190 189 188 186 183 181 178 176 175 172 170 167 164 163 159 156 154 153 154 152 148 144 149 144 139 141 134 118 109 106 93 86 87 83 76 73 72 68 67 69 69 68 68 64 56 55 60 87 124 147 159 173 186 181 174 171 172 169 169 172 174 170 171 170 166 153 136 125 113 100 86 69 67 71 71 69 64 61 58 65 67 96 136 153 174 177 182 168 151 128 115 107 100 108 102 103 122 141 148 140 122 115 118 117 101 84 93 106 101 98 121 141 157 146 122 116 109 103 93 91 95 112 134 145 149 148 148 150 150 150 151 152 151 150 151 152 153 153 153 152 152 153 153 154 155 154 155 155 153 153 152 152 155 155 153 152 153 153 156 159 161 161 159 158 159 155 158 160 160 160 159 159 161 162 162 161 160 160 161 162 162 
131 132 130 131 130 129 132 133 131 131 131 130 129 130 131 132 132 131 131 132 133 133 133 134 133 137 137 136 137 139 140 139 140 142 143 144 147 148 147 148 153 154 153 154 156 157 159 161 165 169 172 175 178 183 189 193 195 203 205 212 210 213 212 145 93 69 79 83 55 63 75 79 72 64 71 53 59 64 71 91 86 88 86 85 90 96 102 108 128 131 123 131 156 162 162 176 183 193 187 200 213 224 223 175 98 97 115 116 132 141 142 147 139 141 149 146 144 157 156 138 134 122 121 152 184 189 189 166 120 72 63 74 106 116 136 111 74 86 90 82 94 98 87 80 86 92 95 128 193 236 242 240 243 246 241 240 240 246 234 242 237 237 237 235 234 234 233 232 231 232 230 229 229 227 226 227 228 226 225 224 224 224 224 223 222 221 221 221 219 218 219 218 218 217 216 214 214 214 214 212 211 211 211 210 207 207 207 206 203 203 202 200 199 199 198 195 195 193 192 191 188 186 185 183 181 179 177 175 172 170 167 163 162 159 156 155 153 153 151 147 147 147 137 142 144 102 60 60 62 63 70 79 83 79 74 73 70 71 71 65 56 54 52 44 51 81 114 134 150 173 184 180 186 175 169 169 169 173 176 174 167 161 156 153 142 134 130 120 96 84 68 71 76 73 66 54 58 77 87 74 90 130 152 169 174 176 160 146 121 104 99 104 104 92 85 104 136 154 142 113 95 98 114 113 93 96 113 113 109 123 141 155 143 120 112 109 101 94 81 98 123 136 148 147 148 148 150 150 149 150 151 150 152 152 153 153 153 153 153 153 153 153 154 154 155 157 157 153 154 153 155 157 156 155 154 155 159 159 160 161 161 160 158 157 155 159 160 159 159 159 160 161 162 162 161 160 160 161 161 161 
133 132 128 130 132 131 133 132 128 130 131 130 130 132 134 134 130 130 131 133 133 132 132 133 133 137 136 134 135 139 140 139 141 143 142 142 145 146 147 150 152 153 153 155 157 157 158 160 164 168 173 174 177 183 189 192 195 202 204 211 208 212 214 148 79 76 83 95 62 50 56 53 57 61 94 79 60 64 72 88 76 83 81 76 78 86 94 101 117 119 103 85 93 108 118 136 162 162 168 185 199 197 182 162 95 80 115 134 146 148 144 144 143 135 143 141 134 136 127 112 108 114 120 154 182 184 193 192 163 83 48 112 230 242 236 143 73 84 80 70 83 79 77 70 94 120 170 222 240 240 243 242 245 244 243 241 241 239 243 234 237 237 237 235 234 234 233 232 230 231 230 229 230 228 226 227 230 228 226 225 225 224 223 222 222 222 222 221 218 217 219 219 218 218 216 214 214 215 215 214 212 211 211 210 208 207 207 204 202 203 201 199 199 199 197 194 195 193 193 191 187 184 184 183 181 179 177 174 171 170 167 162 160 158 156 155 152 151 149 145 148 147 144 142 136 114 82 61 63 76 84 83 81 78 73 70 73 70 68 64 56 54 56 55 60 77 105 131 148 162 171 173 164 162 162 164 169 174 168 154 142 135 135 142 141 139 135 119 105 92 74 74 75 70 67 58 64 75 74 67 87 120 142 156 161 161 150 139 112 91 90 112 105 94 82 92 122 150 148 122 89 78 95 114 110 119 131 124 111 111 125 141 131 109 102 101 85 88 75 106 136 139 152 146 148 148 150 150 149 150 151 150 152 152 152 151 151 152 152 152 152 153 153 153 155 159 158 153 152 153 155 155 153 154 154 153 158 156 154 154 157 160 160 158 160 162 160 158 161 163 161 160 160 161 161 161 161 161 160 158 
129 132 131 131 134 132 129 131 134 132 129 130 132 132 132 134 132 133 134 134 134 134 133 131 136 135 135 136 137 137 138 140 141 142 144 145 145 146 147 149 150 152 154 156 158 159 160 161 162 167 171 173 176 180 186 192 194 205 202 207 207 211 214 180 90 82 93 91 70 50 58 70 62 67 91 97 75 63 68 76 81 74 68 69 71 71 81 96 104 106 68 51 64 65 72 87 116 125 131 138 147 152 142 119 84 82 122 142 148 147 147 143 138 136 136 135 137 150 146 118 82 67 72 105 142 167 180 183 160 109 59 114 229 240 233 174 79 87 81 69 65 72 87 131 193 216 236 242 242 242 243 242 244 243 242 240 241 241 240 239 240 238 236 235 234 233 232 232 234 233 232 230 229 229 228 227 227 227 227 225 224 223 223 224 223 222 220 219 220 220 219 220 217 217 216 215 214 213 212 212 210 211 212 211 209 207 205 205 206 203 201 200 199 197 195 194 197 194 191 189 188 186 184 182 181 177 175 174 172 170 167 163 163 160 155 151 148 148 148 148 150 146 143 141 139 137 116 87 86 86 85 80 77 78 77 72 77 69 69 66 66 68 60 60 58 73 93 113 129 138 144 148 144 141 147 159 163 169 169 154 140 137 133 135 136 137 135 124 107 87 83 81 81 84 71 55 54 57 68 65 77 95 114 129 141 142 140 129 108 86 85 101 109 107 86 79 119 147 148 132 87 71 97 108 123 133 127 119 111 99 107 114 120 97 97 91 79 74 88 118 141 147 147 148 148 150 150 149 150 152 153 154 150 149 149 152 155 154 153 153 151 152 153 154 153 152 152 153 157 156 154 155 156 154 153 156 156 155 154 155 157 160 160 160 161 156 157 160 160 161 161 158 160 163 161 158 160 161 160 160 
131 132 132 133 134 132 131 131 133 132 130 130 133 134 133 134 133 133 134 134 134 134 134 132 133 134 136 138 137 136 136 137 139 140 142 144 146 148 149 150 152 153 154 155 156 157 158 159 161 166 171 173 176 180 184 189 196 202 203 213 212 211 218 205 127 72 82 87 61 58 68 91 67 70 80 81 68 53 57 74 72 67 66 72 78 78 80 88 90 95 83 60 55 63 63 60 73 85 90 93 97 101 105 104 98 111 139 145 152 155 144 138 142 137 134 143 161 173 174 166 151 120 89 83 99 121 139 147 138 103 75 59 125 234 239 219 136 79 72 75 87 130 187 222 236 242 244 240 239 242 244 245 243 243 241 241 241 241 240 239 238 237 236 236 235 234 233 233 233 232 231 229 229 229 229 228 228 227 227 226 224 224 224 224 223 222 220 219 220 220 219 219 217 217 216 216 215 214 213 213 210 211 211 210 208 206 204 204 206 204 202 201 199 197 195 195 196 193 191 189 188 186 184 182 180 176 174 173 170 168 165 162 161 159 155 152 149 148 147 146 150 143 143 145 145 143 134 120 98 95 89 82 79 80 78 73 74 77 71 64 70 71 58 53 46 55 71 87 100 107 112 118 118 122 133 149 159 167 170 159 150 145 140 142 143 142 139 127 102 87 83 83 88 90 73 58 56 45 47 50 64 75 90 106 113 122 128 124 109 85 81 101 124 117 99 87 111 144 153 127 86 65 94 112 123 130 131 125 100 90 91 95 113 105 94 92 81 85 103 129 146 150 149 149 148 149 150 150 150 151 151 151 151 151 151 152 154 152 151 152 151 150 151 152 152 152 153 154 155 155 154 155 156 155 154 156 155 155 155 155 155 156 156 156 159 156 157 159 159 161 162 158 158 161 161 160 162 163 162 162 
132 131 133 134 133 132 132 131 133 133 132 131 134 135 134 133 132 132 132 132 133 133 133 131 133 134 137 138 137 135 136 137 139 139 141 143 146 149 150 151 152 152 152 153 154 156 157 158 161 165 169 173 177 180 184 187 192 196 199 208 210 209 216 219 149 81 80 77 57 52 65 79 66 61 70 77 65 56 58 60 68 65 62 67 74 76 79 86 94 91 92 66 52 66 65 65 64 64 64 70 84 106 122 119 124 137 143 140 156 170 145 132 141 138 147 167 178 177 175 179 180 181 176 168 161 155 150 148 131 104 86 71 72 189 250 237 222 168 139 146 204 235 238 243 243 245 243 242 244 246 244 242 243 242 242 241 241 241 240 238 238 237 237 237 237 235 234 233 232 232 231 229 229 229 229 229 228 227 226 225 225 224 223 223 222 223 221 220 221 220 219 219 218 217 217 216 215 215 214 214 211 211 211 210 207 205 204 204 205 204 203 202 199 197 196 196 195 193 190 189 188 186 183 182 179 176 173 172 169 167 165 162 160 158 155 153 151 149 147 144 146 141 142 144 141 140 140 136 130 124 114 105 98 94 87 79 73 74 68 67 64 49 37 35 31 36 49 66 79 85 91 97 99 107 118 133 145 151 155 151 148 145 141 141 139 135 129 118 97 87 82 82 91 90 68 56 39 37 48 56 66 62 64 73 85 108 128 132 122 94 84 110 130 130 110 88 105 130 137 117 84 60 91 123 136 145 145 135 112 97 79 98 101 86 97 87 79 95 119 138 148 150 148 147 148 150 151 151 151 152 152 151 151 152 152 152 152 150 149 150 151 150 149 150 151 152 154 155 153 155 154 154 155 155 154 155 156 157 158 158 157 156 156 157 158 157 159 159 158 160 161 158 157 160 161 161 162 163 162 162 
132 130 132 134 131 131 132 130 133 134 133 132 134 135 133 132 133 132 131 131 132 133 133 132 136 136 136 136 135 136 139 141 140 141 142 143 145 147 149 149 151 151 152 153 155 157 158 159 161 164 167 172 177 181 185 188 193 197 201 203 209 214 215 219 157 85 89 73 56 47 60 61 68 57 61 69 66 71 77 66 60 60 61 64 67 68 73 81 87 101 101 60 50 73 68 61 59 56 57 55 58 99 144 148 142 141 137 140 157 178 153 137 140 135 152 174 177 172 169 170 168 173 172 172 179 182 178 175 171 160 140 99 68 107 172 228 245 240 242 242 241 241 245 244 243 244 243 244 245 245 244 244 243 243 242 241 241 241 239 238 239 238 237 237 236 235 233 232 232 232 231 230 229 229 229 228 228 227 225 225 225 224 223 222 222 223 222 221 221 220 219 219 218 218 217 216 215 214 214 213 212 212 211 210 208 206 206 206 205 204 203 202 200 198 196 196 194 192 189 188 187 185 183 181 180 176 173 172 169 167 165 163 159 158 155 153 151 150 147 144 144 144 146 144 140 141 142 138 141 139 137 133 130 127 121 113 103 94 86 87 76 61 59 52 44 43 50 62 70 73 79 86 91 100 105 113 122 125 129 132 133 134 132 132 127 119 111 101 86 79 76 76 83 81 61 53 46 55 68 70 71 59 51 47 65 104 136 142 131 98 82 107 129 134 117 91 98 113 119 107 73 68 104 136 142 149 155 150 138 99 77 85 88 95 97 89 82 105 130 142 147 149 148 146 147 148 149 150 151 152 152 152 150 151 151 150 151 150 149 150 152 151 150 151 152 153 154 155 155 155 154 153 154 155 154 154 156 158 159 159 158 158 158 160 158 159 160 159 157 159 160 157 158 160 161 161 161 161 160 159 
133 130 132 134 131 131 132 130 131 133 133 132 134 135 133 132 134 134 133 133 133 135 135 134 136 136 135 134 136 138 141 142 141 142 143 144 145 146 148 149 150 151 153 154 156 157 159 160 162 163 166 170 176 180 184 188 194 199 203 203 211 217 214 216 199 103 90 78 56 63 64 51 52 49 46 56 68 73 77 74 66 65 62 60 61 62 69 80 98 117 109 71 60 74 78 76 68 58 54 56 74 129 182 189 158 140 138 146 147 162 147 136 127 135 159 171 167 162 157 156 153 164 168 166 167 166 165 169 175 170 149 98 87 79 73 113 206 247 238 248 247 245 244 244 245 245 243 243 244 243 243 245 243 243 243 242 241 240 239 238 239 237 236 236 236 234 233 233 232 232 232 231 230 230 229 228 229 227 226 226 226 225 224 222 222 223 222 221 221 220 219 219 217 217 217 216 215 214 214 213 212 211 211 209 208 207 206 206 204 203 202 201 201 199 197 196 194 191 189 188 187 185 182 181 180 176 174 172 169 167 165 163 160 158 155 152 151 150 148 145 143 142 144 144 143 144 143 140 139 140 141 141 140 140 137 133 134 134 129 127 123 125 122 100 66 60 59 63 64 65 70 76 80 85 83 84 87 85 89 95 98 100 100 105 106 101 96 88 74 67 67 67 70 68 57 57 63 75 83 77 76 64 51 37 48 91 132 141 134 105 81 99 125 129 122 95 85 98 115 101 84 95 122 141 142 147 150 146 126 99 81 80 95 108 92 85 97 119 139 145 148 150 149 147 147 147 147 148 149 150 150 151 150 151 150 150 151 151 150 150 153 151 151 151 152 153 153 153 156 154 153 152 153 155 155 154 155 155 156 156 156 157 158 159 157 159 160 158 157 159 159 157 160 160 160 160 160 161 161 161 
133 131 132 133 132 132 132 132 130 132 132 132 134 134 134 134 132 132 133 132 132 133 134 134 134 134 134 135 137 139 140 139 141 141 143 144 145 146 148 150 150 152 154 155 155 156 158 159 163 163 164 168 173 177 181 186 190 195 201 204 211 214 211 216 220 170 108 88 57 61 72 56 47 43 48 70 76 72 77 76 76 73 68 65 64 62 65 72 90 111 127 125 108 95 93 94 93 90 91 115 156 192 208 201 177 146 145 149 143 151 143 133 122 142 162 166 170 164 141 132 137 146 151 150 150 153 160 167 169 163 137 106 88 84 77 68 140 242 243 249 247 249 247 244 241 241 241 243 246 245 243 243 243 243 243 242 241 240 240 239 238 236 236 236 236 235 235 235 232 233 233 232 230 230 229 228 230 228 227 227 227 227 225 224 222 223 223 222 221 220 218 219 216 216 216 215 215 214 214 214 211 210 210 209 207 207 206 206 204 202 201 201 201 199 197 196 194 191 189 188 187 184 181 180 178 175 173 171 168 166 164 162 160 158 154 152 151 150 148 146 144 139 139 143 144 141 140 141 142 141 140 138 136 136 136 134 132 140 141 135 125 111 94 75 69 65 65 67 63 61 62 63 61 63 57 56 57 53 56 62 66 67 67 75 82 83 81 74 70 63 65 63 60 57 53 62 73 91 100 92 85 66 55 43 42 75 117 132 132 109 80 85 111 125 119 89 77 86 103 99 104 120 130 140 136 135 127 117 115 91 80 88 99 97 95 98 117 133 144 146 148 150 149 148 150 149 149 150 150 150 150 150 152 152 151 150 152 152 151 150 151 151 151 151 152 151 151 151 155 153 152 152 153 155 156 155 156 155 155 155 157 158 158 158 155 157 158 158 158 159 160 159 160 159 160 161 161 162 164 164 
131 132 132 132 133 132 132 133 132 132 131 132 134 133 133 135 130 132 133 132 131 132 133 134 133 134 136 136 137 139 138 137 141 141 141 143 145 148 149 150 150 152 154 154 153 154 157 159 162 163 164 167 172 175 180 185 190 196 200 205 210 212 215 218 215 218 131 86 71 59 75 66 59 47 53 76 72 66 78 75 80 77 72 72 74 73 78 87 106 129 148 144 128 122 126 127 138 149 154 166 185 192 192 190 162 143 150 147 144 148 139 122 116 140 162 160 162 159 141 137 131 132 131 129 135 152 168 173 167 147 117 96 90 90 81 76 134 246 249 244 244 245 247 243 245 244 243 243 246 246 244 244 243 243 243 242 241 241 241 240 237 236 236 237 237 236 235 235 234 234 233 231 230 229 229 229 229 228 228 227 227 227 226 225 222 223 223 221 221 219 218 219 217 217 216 215 215 214 214 213 211 210 210 209 208 207 206 205 204 202 202 201 200 198 196 195 194 191 189 188 186 184 181 179 178 175 173 171 168 166 164 161 160 157 154 151 151 150 148 146 146 142 142 144 143 140 139 142 141 139 139 139 139 140 139 136 135 125 115 101 85 74 70 73 67 66 68 66 59 55 52 47 50 47 39 37 36 33 37 42 45 49 53 62 70 71 71 69 68 66 65 61 60 53 51 73 99 122 128 114 97 73 63 54 43 60 99 120 122 103 72 70 101 121 117 94 87 80 86 96 106 123 124 126 109 98 94 95 101 69 83 95 107 103 99 114 133 142 145 145 148 150 148 148 151 150 150 152 152 151 150 150 151 153 152 151 151 151 151 151 150 150 151 151 151 151 152 153 153 151 153 155 153 153 155 156 157 157 157 158 159 159 159 158 155 156 157 158 159 159 159 160 161 159 160 162 161 162 165 164 
130 132 131 130 133 132 130 133 134 133 132 132 133 132 132 134 131 134 136 135 133 134 135 137 134 136 137 137 137 137 138 137 142 141 141 143 146 149 150 150 149 151 153 153 151 152 157 160 162 162 164 168 173 176 180 186 191 198 198 202 207 212 217 215 219 216 158 84 82 57 65 79 71 64 59 73 76 68 75 76 73 78 86 96 103 102 106 116 132 143 149 136 122 118 124 140 161 167 165 167 176 179 173 160 147 153 175 164 158 152 134 113 104 124 152 153 149 152 143 140 142 143 142 139 143 159 170 167 153 128 97 90 103 87 84 83 171 244 243 245 249 240 245 244 238 241 243 245 247 246 244 244 243 243 242 241 241 242 242 242 238 237 238 238 238 236 234 233 235 234 233 231 229 229 230 231 227 227 227 227 226 226 225 224 223 224 223 221 221 219 218 219 219 218 217 216 215 213 212 212 212 211 211 210 209 207 206 205 203 203 202 202 200 197 195 195 194 192 189 188 186 184 181 179 178 175 173 172 169 166 164 161 159 157 153 151 151 150 148 146 141 144 145 142 139 140 141 141 141 139 139 139 137 133 125 117 107 89 85 74 65 75 76 69 65 64 64 58 50 49 49 44 42 39 34 39 45 51 63 72 73 81 84 86 82 73 70 68 62 64 64 61 64 56 55 85 120 144 149 133 118 94 78 60 39 46 86 113 118 103 75 73 106 116 123 116 102 80 83 93 111 117 106 107 87 76 81 89 72 80 89 93 110 96 108 122 143 146 146 146 150 151 148 149 148 147 148 150 151 149 148 148 148 151 152 150 150 150 151 152 150 150 151 152 152 152 153 155 152 151 155 157 154 151 154 155 155 156 157 158 159 159 158 158 156 156 156 158 159 159 158 160 163 161 161 162 161 161 162 161 
132 131 132 134 134 134 133 131 132 131 129 131 134 133 130 132 132 134 134 134 132 130 132 136 134 135 138 138 136 137 139 138 143 143 142 142 144 145 147 150 149 151 151 151 152 153 155 158 162 165 166 167 171 176 180 183 190 193 198 201 205 210 215 219 220 220 208 134 78 72 64 76 68 63 58 70 75 67 72 78 79 80 87 98 106 105 104 106 113 126 132 127 110 99 112 130 140 138 139 139 147 153 140 130 136 162 183 189 189 197 184 137 93 95 109 126 126 130 124 133 134 149 155 146 141 143 142 136 121 106 101 90 98 94 84 131 233 239 245 246 245 244 243 245 243 243 244 245 245 245 244 242 243 242 242 242 241 240 239 238 240 239 238 237 235 235 235 233 234 234 233 232 232 231 230 230 229 228 228 228 228 227 225 223 224 223 223 224 222 218 218 220 218 217 216 215 214 213 213 212 212 211 211 210 209 207 206 206 204 202 202 201 200 199 197 194 192 190 189 188 186 184 181 177 178 175 172 172 171 167 164 162 161 157 155 154 152 148 145 146 142 144 145 142 140 141 142 139 139 140 139 141 130 112 103 92 89 71 67 62 62 67 61 60 56 63 65 54 51 58 58 56 57 74 86 99 115 125 132 131 135 135 135 128 113 95 80 70 63 64 68 66 68 60 60 93 134 158 164 155 134 111 92 63 49 42 88 114 121 115 87 93 116 128 143 143 121 113 104 113 115 94 100 103 82 71 78 86 85 86 70 87 104 100 117 132 144 147 147 147 148 149 148 148 148 149 149 149 149 150 150 149 150 150 151 150 149 148 148 148 151 150 152 152 151 152 153 151 153 155 156 155 154 154 155 156 156 155 155 157 158 157 157 157 160 158 156 157 157 156 157 158 159 157 158 160 161 163 164 163 
132 131 133 135 135 133 132 131 132 134 132 131 134 134 133 133 132 133 133 132 133 132 133 135 134 135 137 138 136 138 140 140 141 141 140 142 144 146 147 149 149 151 152 152 153 153 155 157 161 164 165 167 171 175 179 183 189 193 198 202 206 210 215 218 217 218 224 202 130 71 61 81 64 50 43 56 66 70 78 85 88 92 83 72 73 76 79 86 96 111 123 119 93 74 83 92 98 96 93 89 96 112 130 147 140 150 179 198 200 202 195 177 160 123 93 91 95 108 103 110 116 125 126 115 105 101 102 103 98 90 94 90 87 105 154 220 240 244 246 246 246 245 243 244 244 243 244 245 245 244 244 242 243 242 241 241 241 240 240 239 240 238 238 237 235 235 235 235 233 233 232 232 231 231 230 230 229 228 228 228 228 228 226 225 224 222 222 222 222 220 219 219 219 218 217 215 214 213 213 213 213 212 210 209 208 206 205 204 204 202 202 201 200 199 197 194 193 191 190 189 187 186 183 180 178 175 173 173 171 168 163 161 159 156 155 154 151 148 146 148 147 145 143 142 140 140 142 143 140 137 139 140 129 107 92 95 73 50 47 49 53 60 56 56 63 64 60 53 60 72 73 72 95 121 142 155 160 161 163 163 164 166 167 162 147 123 97 78 68 66 68 69 71 63 63 88 117 150 161 154 137 115 92 64 43 59 98 118 125 126 115 124 135 150 164 162 155 153 130 110 97 104 106 94 85 85 82 81 89 80 71 82 97 111 130 134 146 148 147 146 147 148 148 149 148 148 148 149 149 149 149 149 149 150 151 151 150 150 150 150 150 150 152 153 151 152 153 152 152 153 153 153 153 153 154 155 157 156 156 156 157 157 158 160 159 159 159 159 158 158 159 160 156 159 163 163 158 158 163 167 
133 132 133 135 134 132 131 132 131 135 135 132 133 135 135 133 132 134 133 132 134 135 135 135 135 135 137 137 136 138 141 141 139 139 139 141 145 146 147 148 149 151 152 152 153 154 155 157 160 162 165 168 172 174 177 182 188 192 198 202 206 210 214 218 221 213 225 218 213 143 71 87 72 47 56 75 71 69 78 82 68 74 71 62 60 62 64 68 84 98 114 117 81 46 49 53 54 49 55 62 60 83 140 184 178 164 178 192 192 191 185 184 187 179 164 139 111 94 99 88 89 87 86 90 98 102 104 107 119 130 149 172 192 217 240 243 246 247 247 246 246 245 243 243 244 242 243 246 245 244 243 243 243 242 241 240 240 240 240 240 240 238 238 237 235 235 236 236 233 232 232 232 231 231 230 230 229 228 227 227 227 227 226 225 223 222 221 221 221 221 220 218 219 218 217 215 214 214 214 214 212 211 210 209 207 205 204 204 204 202 202 201 199 198 197 195 193 190 189 188 186 185 183 180 178 175 173 171 170 167 163 161 158 156 155 154 151 148 147 148 148 144 142 143 142 140 141 144 141 138 141 139 132 111 89 95 66 43 41 45 44 47 44 43 43 50 55 57 69 79 77 79 115 138 155 166 171 171 172 172 176 178 180 176 163 140 111 87 74 67 63 68 72 67 67 77 102 129 135 131 124 110 95 79 69 88 108 125 138 140 137 139 150 155 169 169 163 145 122 105 94 83 88 97 92 80 77 87 86 79 70 77 103 125 136 143 146 147 146 145 145 146 147 148 149 148 148 149 148 147 148 149 149 150 150 151 151 151 151 151 150 149 151 153 151 150 151 153 152 151 151 153 153 152 153 154 156 156 156 156 156 156 158 159 157 159 161 160 159 159 160 161 160 160 161 161 159 159 162 164 
135 133 131 132 132 131 131 134 130 133 134 133 134 135 134 132 133 135 134 133 135 137 136 135 135 136 137 137 136 137 139 140 139 140 140 142 144 145 146 149 149 151 152 153 154 155 156 158 160 162 165 169 172 173 176 182 187 191 196 201 205 209 214 217 220 217 220 223 222 207 100 92 90 62 66 76 65 57 63 79 61 56 61 66 62 60 63 60 68 80 99 117 86 36 27 30 31 33 46 54 47 79 151 188 192 185 195 197 187 183 184 187 175 174 178 186 177 145 101 93 116 126 141 157 170 181 197 212 222 235 241 247 245 241 245 245 246 247 246 245 245 245 243 242 244 242 243 246 245 243 243 243 243 242 241 241 241 241 240 240 240 238 238 238 236 236 236 235 233 233 232 232 231 231 230 230 230 229 227 226 226 225 225 224 222 223 222 221 221 221 220 218 218 218 217 216 215 214 214 214 211 210 210 209 208 206 206 206 204 202 202 201 199 198 197 195 193 190 188 187 185 183 181 179 178 175 172 169 167 165 163 161 159 157 156 154 151 149 147 147 146 142 142 143 142 141 141 140 139 140 141 137 135 124 102 93 84 65 63 60 48 44 42 39 34 42 48 55 73 86 87 95 117 135 149 158 164 165 165 163 166 170 173 172 166 151 127 105 82 68 58 67 75 75 73 69 77 88 95 105 112 108 104 99 107 120 132 144 148 142 144 151 158 158 163 151 145 128 115 99 78 75 89 104 96 77 72 83 91 89 82 92 120 135 138 145 146 147 146 144 144 144 145 147 149 147 147 149 149 147 148 151 150 150 150 150 150 150 150 150 151 150 151 152 151 149 149 151 154 152 152 154 155 153 153 154 153 154 155 156 156 156 155 155 155 158 161 160 159 159 160 159 162 159 157 158 159 160 160 160 
135 132 129 130 132 132 132 134 131 130 132 135 136 134 133 132 132 136 136 133 134 135 135 135 134 136 136 136 137 137 138 139 140 142 142 143 144 144 146 150 148 151 152 153 155 156 156 158 160 162 165 169 172 173 176 181 186 190 195 199 203 208 213 217 215 226 217 227 221 217 138 86 97 73 59 53 49 40 40 64 68 55 57 66 66 63 61 56 61 68 77 96 84 44 30 36 31 47 56 57 69 117 169 178 184 192 204 211 196 181 181 178 181 170 163 169 177 171 110 149 226 229 233 237 241 241 242 244 241 244 241 241 246 246 244 246 246 247 247 246 245 244 243 243 244 242 244 246 245 243 243 243 242 242 241 241 241 241 240 239 240 239 239 239 237 236 235 234 234 234 233 233 232 231 230 230 230 229 228 226 226 225 225 224 222 223 223 222 220 220 219 218 216 216 216 216 216 215 214 213 212 211 210 210 209 207 206 206 204 202 202 201 199 198 197 195 193 191 189 188 185 184 183 181 177 175 173 170 167 165 163 161 159 158 155 153 152 151 149 147 145 145 144 142 141 142 140 137 140 142 139 138 137 133 121 101 93 81 77 71 57 56 60 59 57 56 54 59 78 90 89 93 107 124 134 140 142 142 145 147 146 151 157 163 164 155 133 110 88 71 61 69 77 79 78 69 59 59 69 87 99 109 121 125 129 130 141 147 140 129 128 137 140 134 131 121 121 108 93 70 61 81 93 95 97 89 86 105 105 105 107 121 132 139 147 139 146 147 147 146 145 144 145 147 149 148 148 149 149 148 150 153 151 151 151 151 151 151 151 151 153 151 151 153 153 150 149 151 155 153 152 155 156 154 153 154 153 153 154 155 156 156 154 152 155 158 160 160 159 159 159 157 158 158 158 158 158 159 160 163 
132 132 130 130 135 135 132 133 133 130 132 136 136 134 133 133 132 135 135 133 133 133 133 134 132 135 135 135 137 138 138 139 141 142 142 143 144 144 146 150 149 150 151 152 154 155 156 158 160 163 165 168 171 172 176 181 185 189 193 198 202 207 213 217 216 219 225 219 219 227 204 117 83 62 53 47 37 38 48 54 59 57 54 59 67 65 58 56 52 64 72 89 98 73 43 37 38 52 57 75 115 152 168 170 178 186 196 207 193 174 179 183 172 161 154 147 154 160 182 239 239 239 238 239 242 244 240 237 243 244 247 241 241 248 247 246 246 248 248 246 245 244 243 243 243 243 245 245 244 244 244 242 242 242 242 242 242 241 240 239 240 239 239 239 237 236 235 234 235 234 234 233 232 231 231 230 229 229 229 228 227 227 226 226 223 224 224 223 220 219 218 218 216 216 216 216 216 215 214 213 214 213 211 210 209 207 205 205 204 202 202 201 199 198 197 196 191 189 188 187 185 184 183 181 175 175 174 172 169 167 163 160 159 158 155 152 152 152 150 147 148 148 146 142 140 141 141 137 143 144 139 141 140 137 136 121 98 88 80 72 62 63 69 69 64 64 67 73 85 92 90 93 101 111 116 122 128 131 135 135 135 136 141 148 153 148 127 104 84 70 65 70 72 74 73 70 54 57 74 91 99 113 128 133 136 134 145 140 123 111 107 119 111 107 97 86 83 80 85 80 75 77 76 79 91 97 100 115 104 118 124 133 140 144 149 142 147 148 148 148 147 146 146 148 149 148 148 149 149 149 151 153 151 151 151 151 152 152 153 153 153 152 152 153 154 153 152 153 154 152 153 154 155 154 153 154 156 155 153 153 155 156 156 154 156 158 160 160 159 158 158 157 158 157 156 157 161 162 162 163 
131 133 131 131 135 136 133 133 133 132 134 135 133 134 134 133 132 134 135 134 134 132 132 134 133 135 135 134 136 138 138 140 140 140 140 142 145 145 146 148 149 150 150 151 153 154 155 157 160 163 165 166 168 171 176 180 184 188 193 198 202 207 213 216 217 218 220 223 220 223 218 212 156 78 43 60 56 47 52 50 54 60 57 53 58 57 52 55 53 53 49 57 84 84 58 51 56 61 73 104 143 153 146 153 172 184 196 190 168 157 172 191 171 143 117 112 138 177 237 241 239 241 240 239 240 241 240 240 244 239 245 250 246 242 243 248 246 248 247 246 245 244 244 244 242 244 246 245 243 244 244 242 243 242 242 241 241 241 240 239 240 239 238 238 236 236 236 235 234 234 234 233 232 232 231 231 229 229 229 229 228 227 226 226 225 224 223 223 222 219 218 219 218 218 217 216 215 214 214 214 214 212 211 210 208 206 204 204 204 203 202 201 198 197 197 196 191 189 188 186 184 182 181 179 174 175 174 171 168 166 164 161 158 158 155 152 151 152 150 147 148 147 146 145 142 141 141 140 144 144 142 142 142 141 139 135 128 122 112 103 91 81 78 75 77 77 81 81 81 84 85 89 90 97 100 108 118 122 122 119 126 127 132 138 142 137 119 100 76 65 66 66 64 65 62 65 60 65 82 95 101 111 125 137 150 144 140 126 106 84 74 84 94 89 68 62 73 96 98 80 67 61 59 61 77 99 103 98 102 121 132 137 145 146 144 149 148 149 149 148 148 146 146 149 148 148 148 147 147 148 151 152 151 150 150 150 151 152 153 153 151 153 152 152 153 153 152 153 151 152 153 154 154 154 154 154 155 155 154 153 154 157 157 156 155 157 160 160 158 156 157 159 160 158 155 156 162 163 161 160 
132 135 133 130 134 136 135 135 133 134 135 132 130 133 135 132 133 135 135 135 135 133 133 135 135 137 135 134 136 137 138 140 138 138 138 141 145 147 146 147 149 150 150 150 152 153 154 155 159 163 165 165 167 171 176 180 183 188 193 199 203 208 212 216 217 219 220 222 222 224 227 225 225 148 79 67 69 67 65 54 49 57 63 60 53 48 47 49 48 43 42 57 96 105 76 67 64 72 96 118 135 138 128 132 152 168 181 162 141 144 156 171 173 135 112 140 171 227 236 239 240 241 240 240 241 240 240 242 243 244 241 242 246 246 246 244 245 246 245 244 244 245 245 245 242 245 246 245 243 245 245 241 244 243 242 241 240 240 240 239 240 239 238 237 235 236 237 237 234 234 233 233 232 232 231 231 229 229 230 229 228 226 225 224 226 223 222 223 223 220 218 219 220 219 217 215 214 214 214 215 212 211 210 209 207 205 204 204 204 203 202 201 198 197 197 196 194 192 191 189 185 183 181 179 175 175 172 167 165 164 164 163 158 159 157 152 150 150 148 145 144 143 145 148 145 142 141 142 139 141 143 137 140 143 134 136 138 137 133 129 115 94 83 80 84 79 81 79 77 79 77 74 78 85 84 85 89 94 101 106 106 112 121 128 129 122 106 90 72 61 65 63 60 61 55 60 52 60 82 102 112 112 119 136 141 144 139 124 98 68 66 90 100 84 60 71 84 99 91 74 57 60 53 47 64 81 84 89 112 117 140 147 144 145 142 149 147 148 148 147 147 145 146 149 147 148 148 146 146 148 150 151 150 149 149 149 150 151 151 151 149 153 153 151 151 151 150 151 150 152 153 153 154 155 155 154 152 154 154 154 155 157 157 156 154 156 159 160 157 154 156 160 156 160 161 159 158 156 157 162 
129 132 133 134 135 134 133 134 135 131 131 134 134 133 132 132 134 134 134 134 134 134 134 134 137 136 136 137 137 137 140 143 141 142 144 145 146 147 147 147 148 149 150 151 154 155 155 158 159 161 164 166 168 172 177 180 183 186 193 199 202 205 210 212 216 218 220 223 226 227 226 224 228 214 153 83 63 72 69 61 48 53 72 67 60 60 52 56 57 59 61 85 110 113 75 63 68 69 84 102 104 114 114 110 104 118 115 116 112 130 147 149 151 152 191 232 236 233 241 243 240 240 240 240 239 239 240 242 244 243 242 242 243 244 243 243 245 245 245 245 244 244 243 243 241 243 244 244 243 243 243 243 244 242 242 242 241 241 242 240 240 239 239 238 237 237 236 236 234 234 234 234 234 233 232 231 229 230 229 228 227 226 225 222 223 223 223 222 221 221 220 219 219 218 216 215 214 214 213 213 211 211 210 209 208 207 206 204 202 201 201 201 199 196 195 197 193 190 189 187 183 180 180 180 175 174 172 170 167 164 161 160 159 156 154 153 152 149 147 146 147 145 143 143 142 141 139 139 139 141 142 143 143 140 138 137 136 139 135 116 95 85 85 86 82 76 78 81 77 72 73 74 74 70 62 56 55 59 66 73 77 89 95 106 111 103 93 78 68 64 61 61 59 52 49 54 50 69 100 118 121 118 116 120 123 137 140 127 101 84 90 102 96 99 88 81 88 91 82 67 71 65 53 46 52 59 69 90 112 129 141 145 148 147 145 146 147 147 147 148 148 146 145 147 146 147 146 147 150 148 147 150 149 152 152 149 149 152 153 151 150 153 152 151 153 151 150 153 153 153 152 154 157 154 152 155 152 155 154 154 156 155 154 158 159 159 158 158 158 159 159 158 160 159 159 158 157 160 161 157 
133 134 133 132 133 132 131 132 133 131 131 133 133 133 132 132 130 133 133 131 131 135 136 133 137 135 135 137 138 138 139 141 140 140 141 142 144 146 147 147 148 149 150 152 154 154 154 155 159 161 163 165 168 172 176 179 183 186 193 199 202 205 209 212 216 218 221 223 225 226 226 224 225 227 214 163 93 56 53 56 57 51 52 57 63 62 58 66 59 70 82 89 87 98 83 62 58 60 63 65 76 100 100 95 94 95 99 98 106 116 106 115 148 197 236 237 232 239 242 238 240 241 241 241 240 240 241 242 244 243 243 243 243 244 244 244 245 245 245 245 244 244 244 243 243 244 244 243 242 243 243 243 243 241 241 242 241 241 241 240 240 240 239 238 238 237 237 237 234 234 234 234 233 233 232 231 229 229 229 227 227 227 225 223 223 224 224 223 222 221 220 219 219 218 217 216 215 214 214 213 212 212 210 208 207 206 205 204 202 200 199 199 199 196 194 194 192 190 189 187 183 181 180 178 175 174 172 170 167 164 162 161 159 156 153 152 151 148 147 147 147 145 144 143 143 141 141 141 139 143 144 143 140 138 138 139 136 139 134 118 102 96 91 85 84 81 82 82 79 79 79 75 71 61 49 43 43 44 46 49 54 59 63 75 82 79 75 68 62 63 61 58 58 56 54 54 63 77 103 129 137 131 119 107 103 126 141 136 118 102 97 97 105 115 97 87 82 72 73 68 73 81 70 50 46 49 66 102 125 136 142 143 145 145 144 146 145 147 148 148 149 148 147 148 148 149 149 149 150 148 147 150 150 152 152 151 151 152 152 151 150 152 151 151 153 151 150 152 152 151 151 153 156 155 153 154 153 155 154 154 157 156 154 156 159 159 158 158 158 159 158 157 159 159 160 159 158 161 162 160 
137 136 134 134 135 135 132 131 133 132 131 132 133 133 132 131 132 133 133 131 132 134 136 135 137 135 135 138 139 139 138 139 140 139 139 140 142 145 146 145 150 151 151 152 154 153 153 155 159 160 162 164 167 170 175 178 182 185 191 197 201 205 209 212 215 218 221 223 225 226 226 225 227 226 225 231 212 141 72 51 63 76 68 59 55 46 48 59 64 62 67 72 66 84 90 69 54 53 52 56 73 89 80 88 98 112 114 115 116 98 117 166 214 236 242 237 240 241 237 239 240 241 242 242 241 242 242 243 244 244 244 244 244 244 245 246 246 246 245 245 244 244 243 243 244 245 245 244 243 243 243 243 242 241 242 242 240 240 240 239 239 239 239 238 237 237 237 237 234 234 234 233 233 233 232 231 228 229 228 227 227 227 226 225 224 225 224 223 222 221 219 218 218 217 216 216 215 215 214 213 213 212 210 208 206 206 205 204 203 201 199 199 199 197 194 192 191 189 188 186 184 182 180 177 175 174 171 169 166 163 161 160 159 156 153 151 150 148 147 147 147 146 145 144 143 142 142 143 140 144 144 141 139 138 139 140 140 142 138 122 101 88 83 79 75 81 87 86 85 88 87 79 70 61 51 48 49 49 49 49 48 46 45 54 60 60 62 63 62 64 63 60 61 63 62 61 65 73 95 131 146 139 120 92 97 116 131 127 111 94 84 82 95 101 84 74 72 64 63 67 85 86 76 52 43 65 99 126 140 144 146 146 147 147 146 148 144 147 148 148 149 149 148 147 149 150 150 150 150 149 148 150 150 151 152 152 152 151 151 151 151 151 150 150 152 151 150 152 151 150 150 152 155 155 153 154 154 155 154 154 157 157 155 156 159 157 156 158 159 159 159 158 159 159 160 160 159 161 163 161 
132 132 132 133 136 135 131 128 133 134 132 132 133 133 132 131 137 133 133 136 136 133 133 137 137 136 136 138 139 138 138 139 141 140 140 140 142 144 145 144 153 152 151 150 152 153 154 157 159 160 162 164 166 169 173 176 181 184 189 194 199 203 208 213 215 218 222 224 225 226 226 227 229 228 230 227 227 230 192 127 93 69 60 65 56 50 60 65 57 59 60 62 54 63 78 73 56 39 38 46 58 73 61 59 81 86 92 95 108 137 203 237 229 234 239 242 242 240 240 243 241 242 242 243 242 243 243 244 243 244 245 245 244 244 245 247 247 246 245 244 244 243 243 242 244 245 245 244 243 243 243 243 242 242 243 242 240 239 239 238 238 238 237 237 237 236 236 236 235 234 233 233 233 232 231 231 229 229 228 227 227 227 227 225 224 225 224 223 221 220 218 216 217 217 216 216 215 214 213 212 212 211 210 208 207 207 206 205 204 202 201 200 199 197 194 192 190 188 187 185 183 183 181 177 174 173 170 168 165 163 160 159 158 156 154 152 150 148 147 146 146 146 145 144 143 142 143 144 142 143 142 139 140 141 140 139 142 140 140 133 110 83 68 65 79 90 99 99 95 94 90 83 80 75 71 68 64 59 57 58 58 52 48 50 52 53 58 61 64 62 61 61 61 61 63 65 60 63 78 114 135 134 122 94 89 101 118 120 102 77 60 61 77 77 72 60 68 71 59 67 79 80 74 56 58 93 123 132 142 143 144 145 146 145 144 146 144 148 149 147 148 149 147 146 148 148 148 149 150 150 150 150 149 149 149 151 151 150 150 151 152 151 150 150 152 151 150 152 152 150 150 152 155 155 154 154 152 154 154 154 156 156 155 156 158 155 155 158 160 161 161 160 159 159 160 159 159 161 161 161 
131 131 131 133 136 135 132 130 132 133 132 131 133 134 132 132 137 133 133 137 137 132 132 135 137 135 135 137 137 136 137 139 141 141 142 142 143 145 145 145 152 151 150 150 151 153 154 157 159 160 162 163 165 168 172 175 181 184 188 192 199 203 209 214 215 219 222 224 225 226 227 228 229 229 230 229 229 229 228 224 206 161 118 86 64 55 55 58 60 65 62 56 50 54 71 73 54 47 49 42 42 74 76 59 53 61 90 115 173 222 238 236 237 237 238 239 238 240 241 238 241 242 242 242 243 243 243 243 243 244 245 245 244 244 246 247 248 247 245 244 244 243 243 242 243 244 245 245 244 244 243 242 242 242 242 242 241 240 240 239 238 238 237 237 236 236 236 235 235 234 233 233 233 232 231 231 230 230 229 227 227 227 226 225 223 224 224 223 222 221 219 217 218 218 217 216 216 215 213 212 212 212 211 210 209 208 206 205 204 204 203 201 198 196 194 193 191 189 187 185 183 182 181 177 174 173 171 169 166 163 160 158 157 156 155 153 151 149 147 146 145 145 145 144 142 142 143 144 141 142 141 140 141 142 141 139 145 139 139 142 134 117 102 96 97 102 107 108 107 105 102 99 95 92 91 88 80 75 75 76 73 68 64 60 58 61 64 65 68 66 63 61 59 60 62 64 62 60 64 92 114 122 122 101 86 87 94 93 80 60 46 49 56 62 64 56 67 74 61 63 58 72 69 63 87 117 132 146 142 142 143 145 146 145 145 147 145 149 148 146 147 149 148 148 148 147 147 149 150 151 151 149 150 148 148 150 151 150 150 152 152 151 150 150 152 152 151 152 153 151 151 153 155 155 155 154 152 154 155 154 154 154 155 156 158 156 155 157 159 160 159 159 160 160 159 159 160 161 160 159 
135 135 134 134 135 135 135 135 131 132 131 130 133 133 132 134 132 133 134 134 134 134 134 133 136 134 134 135 136 135 137 139 140 142 143 143 144 146 147 147 148 149 149 150 152 153 153 155 159 160 162 163 165 168 172 176 182 185 188 192 199 204 209 215 216 219 222 224 225 226 227 228 228 228 230 232 230 229 228 228 231 231 230 210 179 143 94 57 63 58 61 66 70 66 67 59 47 59 45 31 47 76 73 69 78 128 199 232 236 234 239 240 238 238 239 243 244 240 239 243 241 241 241 242 242 242 242 243 242 243 244 244 244 244 245 247 248 247 245 244 244 244 243 242 243 244 245 245 245 244 243 242 242 241 241 242 241 241 241 240 238 238 238 238 237 236 236 235 236 235 234 233 232 232 231 231 230 231 230 228 227 227 226 224 223 224 224 223 223 222 221 220 220 219 218 217 217 215 214 213 213 213 212 210 209 207 205 203 203 204 203 200 197 195 194 193 193 190 187 185 182 180 179 177 175 174 171 169 167 164 161 159 156 156 155 153 151 149 147 145 144 145 145 143 143 143 143 143 140 142 142 141 141 140 140 142 140 138 137 138 138 138 136 134 127 119 112 109 108 106 104 105 97 95 96 96 93 94 98 99 96 90 87 80 75 77 75 73 74 73 68 61 57 60 62 59 59 56 56 75 96 109 109 92 72 70 78 81 81 73 58 57 57 68 61 61 73 76 70 56 58 65 71 84 111 131 137 147 145 145 145 145 145 146 147 149 146 148 148 147 148 149 149 150 149 148 148 149 150 151 151 149 151 149 149 150 151 151 151 153 152 151 151 152 152 152 152 152 153 152 152 153 153 154 155 153 153 155 155 153 152 153 155 155 158 158 157 156 157 157 157 155 160 160 159 159 162 162 160 160 
134 135 134 132 132 132 132 133 133 133 131 132 135 134 132 136 132 134 135 134 135 136 136 134 137 135 134 136 137 137 138 140 141 142 142 142 144 146 147 147 147 148 149 151 153 153 153 154 159 160 161 163 165 169 173 177 181 186 188 193 200 204 207 212 215 218 221 223 225 226 227 227 228 225 228 230 227 229 233 232 233 226 232 235 230 237 204 123 73 77 80 63 65 69 71 63 61 80 66 71 102 130 150 179 204 232 233 236 237 237 240 237 234 240 240 238 240 241 239 240 241 241 240 240 240 241 241 241 241 242 243 243 243 244 245 246 247 246 244 244 244 245 244 244 244 244 244 244 243 243 243 242 243 241 240 241 241 241 241 239 239 239 238 238 237 236 235 235 236 235 234 233 232 232 231 231 230 231 230 228 228 227 226 224 223 224 224 223 222 222 221 220 219 219 218 217 216 215 214 213 213 213 211 209 208 207 205 204 204 203 202 199 196 195 194 192 193 189 187 187 183 179 177 177 176 174 171 168 166 164 162 160 156 156 155 152 150 149 147 145 144 145 144 143 143 144 143 142 141 141 141 141 142 140 139 142 139 142 144 143 140 140 140 139 135 124 112 107 106 104 105 109 107 106 109 110 110 115 120 120 115 103 100 94 89 87 81 78 77 73 67 59 55 56 55 51 53 55 57 66 85 99 97 87 73 69 79 87 90 82 60 55 60 71 60 61 66 66 66 50 56 59 83 109 128 142 144 139 145 144 144 144 144 144 145 145 146 147 147 147 148 148 148 149 148 148 149 149 148 149 150 148 151 150 150 150 151 151 151 151 151 151 152 152 152 151 152 152 152 151 152 152 151 153 154 152 153 154 155 153 152 154 157 157 157 159 158 156 156 158 158 156 158 159 158 159 162 162 161 162 
133 136 136 135 134 132 131 133 136 136 133 134 137 134 132 136 137 135 135 138 138 136 136 139 139 136 135 137 140 140 140 140 143 142 141 141 142 145 146 145 149 149 150 151 153 154 154 156 158 159 161 163 165 169 175 178 180 185 188 193 200 202 204 209 215 217 220 222 224 226 227 227 230 231 229 230 233 232 230 233 229 237 230 232 232 227 232 221 193 204 168 88 89 143 183 189 174 184 193 212 213 223 238 237 237 233 234 238 234 242 235 239 239 239 240 242 241 241 241 240 241 241 240 239 239 240 240 241 241 241 242 242 243 243 244 245 246 245 244 243 244 245 245 245 245 245 244 243 242 243 243 242 245 242 240 240 240 240 240 237 238 238 238 237 236 235 234 234 236 235 234 233 232 232 232 231 230 230 230 229 228 228 226 224 224 224 223 222 220 219 218 217 218 217 216 216 215 215 214 213 213 212 210 208 207 207 206 205 205 204 200 198 197 197 195 192 191 187 187 188 184 179 178 179 176 173 169 166 164 163 161 160 156 156 154 151 149 148 147 146 144 145 144 144 144 144 143 141 145 141 138 140 143 141 139 141 139 136 136 139 141 140 139 138 134 128 118 110 105 102 103 107 108 110 116 118 118 124 129 128 121 105 102 100 97 94 86 85 83 73 66 63 59 54 52 49 55 59 61 63 79 96 98 98 90 80 91 102 103 87 62 60 53 64 67 62 58 61 67 67 65 81 107 123 134 143 143 141 145 145 146 146 146 147 146 143 145 146 146 147 147 145 144 146 145 146 149 149 146 147 150 148 150 150 150 150 150 150 149 148 151 150 152 153 151 151 151 152 150 150 151 152 150 151 153 152 153 153 153 152 152 156 159 158 154 158 159 157 157 161 162 160 155 157 157 158 161 161 160 163 
136 135 137 133 132 135 136 136 136 135 135 136 136 134 133 135 134 134 133 133 134 134 135 137 135 136 137 136 137 138 140 141 141 141 140 142 144 145 145 148 148 150 151 151 151 153 155 157 156 158 161 165 169 171 173 175 177 183 189 194 198 202 206 211 215 218 221 223 225 226 226 225 228 230 230 229 229 229 231 231 231 232 234 233 233 233 232 232 236 234 225 217 218 226 233 233 236 236 236 237 237 237 236 236 237 236 236 237 239 239 240 240 238 239 240 240 241 242 242 241 242 242 241 241 242 243 244 244 244 244 245 246 245 246 247 245 245 244 244 244 243 243 244 246 244 243 242 243 244 243 242 241 243 242 241 241 241 241 240 240 239 238 238 238 237 236 237 236 236 235 234 233 233 232 231 231 229 229 229 230 229 228 226 225 227 226 224 223 222 221 220 220 219 219 218 217 216 216 215 214 212 211 210 209 207 206 205 204 200 201 202 201 200 197 194 191 193 188 185 184 183 182 179 175 173 171 169 167 164 163 161 160 158 156 153 151 151 150 148 147 146 144 144 144 143 143 143 141 141 142 138 138 142 142 140 141 140 139 140 141 141 140 140 141 137 136 129 120 111 105 104 106 110 107 116 124 122 126 130 123 115 103 93 92 93 89 84 82 78 77 70 61 55 53 53 53 56 58 59 63 79 95 102 102 100 101 104 113 95 75 57 45 46 60 63 57 59 66 68 67 89 111 122 136 144 141 144 140 144 144 142 143 146 147 144 143 146 146 147 146 144 146 148 147 148 146 146 146 148 150 149 148 149 148 149 152 152 151 150 151 148 150 154 155 153 152 153 153 152 152 152 152 152 153 154 154 155 155 153 155 155 152 155 155 156 156 156 157 158 159 160 160 159 159 161 158 158 161 160 161 
135 135 137 134 132 136 136 137 135 133 132 134 135 134 133 134 133 135 135 135 135 133 132 134 135 136 137 137 138 139 139 139 142 142 141 142 144 144 145 147 147 149 151 152 152 153 155 157 157 158 161 165 168 171 173 174 178 183 188 193 198 201 205 210 216 218 220 221 223 226 227 228 228 230 230 230 229 230 231 231 231 232 233 233 232 233 233 232 235 233 232 232 233 233 233 235 235 235 235 235 236 236 236 237 238 237 237 238 238 238 238 239 239 240 240 240 241 241 241 241 242 242 241 241 242 243 244 245 243 243 245 245 244 245 246 245 245 245 244 244 243 243 244 245 244 243 243 243 243 242 241 241 242 241 241 241 241 241 240 240 239 238 238 238 237 237 237 236 236 235 235 234 234 233 232 232 231 230 229 229 228 228 227 226 226 225 224 223 222 221 220 219 219 219 218 217 215 215 214 212 213 212 211 209 206 205 205 204 202 202 202 201 201 199 195 192 191 187 185 184 183 181 179 175 174 172 170 167 165 164 162 161 157 156 153 152 151 150 148 147 146 144 144 145 144 143 143 142 143 143 140 139 142 141 140 142 141 140 139 140 140 140 140 140 139 136 129 117 104 95 93 97 102 102 110 116 119 125 125 115 102 91 81 80 81 78 73 70 70 71 67 61 57 56 55 55 54 54 54 58 72 91 103 105 103 96 105 97 73 61 36 36 47 56 58 58 62 64 68 75 105 128 137 141 142 140 146 144 142 144 143 143 145 145 144 144 145 147 146 144 144 145 146 147 147 147 147 146 148 150 151 150 148 148 149 151 151 150 150 150 151 151 151 150 148 148 151 151 153 153 153 152 152 152 153 152 155 156 154 156 156 154 157 157 156 156 156 157 157 157 158 158 159 159 161 159 159 161 159 160 
136 135 138 135 132 135 135 136 134 132 131 132 134 134 134 135 134 136 136 136 135 133 132 133 136 136 136 136 137 139 139 139 142 142 142 143 144 144 145 147 146 148 151 153 153 154 156 157 157 158 161 164 168 171 173 174 179 183 188 192 197 201 205 208 215 217 220 222 224 226 228 229 228 230 231 230 230 230 231 231 231 232 232 232 232 233 233 233 234 234 235 236 236 235 235 236 234 234 234 234 235 236 237 238 239 238 238 238 238 238 238 239 240 240 240 240 240 241 241 241 241 241 241 242 242 243 244 245 242 244 246 246 244 245 246 246 245 244 243 243 243 243 244 245 244 244 244 243 242 241 241 242 242 241 241 241 241 240 239 239 239 238 239 239 237 237 237 236 235 235 234 234 234 234 233 232 232 231 229 228 227 227 227 227 225 224 224 224 223 222 220 219 218 218 218 216 215 214 213 211 214 212 210 209 206 205 205 204 203 202 201 201 200 199 195 191 189 186 185 184 182 181 179 176 174 173 170 167 165 164 162 161 156 155 153 151 149 148 148 147 145 143 144 145 143 142 143 143 144 145 142 140 142 141 140 142 143 141 140 139 140 140 140 139 140 136 126 111 96 84 83 87 87 93 100 103 104 109 108 101 90 78 66 65 69 69 66 64 64 65 64 61 59 57 55 52 55 51 50 50 57 76 93 96 97 90 79 71 53 46 38 36 47 51 52 56 61 62 73 94 116 136 141 142 144 145 148 141 141 143 144 144 145 144 144 145 144 148 146 144 146 146 144 148 146 148 148 146 147 150 151 150 149 149 149 150 151 150 150 150 153 152 151 149 148 149 152 152 153 153 152 152 153 153 153 152 151 154 153 154 154 153 156 154 155 156 156 156 156 156 157 157 160 158 161 159 159 160 159 161 
137 136 139 136 133 134 134 135 135 133 132 133 134 135 136 137 136 137 136 135 134 133 133 135 137 137 136 135 136 138 139 140 139 140 141 143 145 146 146 147 148 148 150 152 154 155 156 157 157 159 162 164 167 170 173 174 179 184 188 192 197 201 205 209 213 216 220 223 225 227 227 227 228 230 231 231 231 231 231 231 231 232 232 232 232 233 234 234 232 235 234 231 232 236 237 235 235 235 236 236 236 237 238 239 237 237 238 238 238 238 239 241 240 241 240 240 240 241 241 241 242 241 241 242 243 244 245 245 244 244 246 246 245 246 247 246 244 243 243 243 243 243 245 246 245 244 243 243 242 241 241 242 243 242 241 241 240 239 238 238 239 238 238 238 237 237 237 236 234 234 234 234 234 233 232 231 232 231 229 228 227 227 227 226 225 224 224 223 223 222 221 220 217 217 217 216 215 215 213 212 213 211 210 209 207 206 206 205 202 202 200 199 198 196 193 191 189 186 185 184 183 181 178 175 174 172 169 166 164 163 161 160 154 153 152 150 148 147 147 147 144 142 143 144 143 141 142 144 144 144 142 141 142 141 140 141 143 142 141 140 140 141 141 140 140 134 121 106 90 79 78 83 82 84 83 82 86 87 82 75 64 64 65 65 62 59 61 65 62 62 62 61 57 54 50 46 47 45 46 44 45 61 80 84 84 77 56 49 40 40 42 40 44 51 53 57 65 71 88 113 123 138 141 141 141 142 145 141 141 144 145 144 145 145 145 146 145 150 146 144 148 146 144 149 145 147 147 146 147 150 150 148 149 149 150 150 151 150 151 151 152 150 150 151 150 151 153 152 152 151 151 152 154 155 155 154 152 155 154 155 155 155 157 154 154 155 156 157 156 156 157 158 161 159 160 158 158 159 159 162 
138 136 139 136 134 134 133 134 135 134 133 133 134 135 136 137 136 137 136 135 135 134 134 136 136 137 136 136 137 138 139 139 137 139 140 142 146 147 146 146 150 148 148 151 154 156 156 156 157 160 163 164 166 169 173 175 177 182 187 191 195 200 205 210 213 216 220 223 224 226 227 227 228 229 231 231 231 231 231 231 232 233 233 232 232 234 235 235 233 235 235 233 234 237 237 234 235 236 237 238 237 237 238 238 237 237 238 238 238 238 240 241 240 241 240 240 240 241 241 241 242 241 240 241 244 246 245 244 245 245 245 246 246 247 247 245 244 243 242 243 243 243 244 245 245 244 242 242 243 242 242 241 242 241 240 240 240 239 239 239 238 237 238 238 236 236 237 236 235 234 234 234 234 233 231 230 231 231 230 229 228 227 227 226 225 224 223 222 222 222 221 221 218 218 217 216 216 215 214 212 212 211 210 209 208 207 206 205 202 202 201 198 196 194 192 191 190 187 185 184 183 181 178 174 173 171 168 166 164 162 160 158 154 153 152 150 148 147 147 147 145 143 144 144 143 142 143 144 143 143 141 141 143 142 140 138 141 142 141 140 139 140 141 141 139 132 118 103 89 79 77 82 77 78 77 73 68 61 56 56 53 54 55 55 54 55 58 61 58 58 59 58 53 49 45 41 47 47 49 46 41 52 67 71 65 54 48 40 40 56 50 58 49 59 63 69 82 96 112 127 143 143 139 138 141 143 144 142 143 144 144 144 146 146 146 146 146 150 146 144 148 146 143 148 145 146 146 146 148 149 148 145 148 149 150 150 150 150 151 151 149 148 149 150 150 151 152 151 153 152 152 153 154 156 155 154 153 156 154 155 155 155 156 153 155 156 157 157 157 157 158 159 160 159 161 159 158 159 158 161 
138 135 138 136 134 136 134 135 135 134 134 133 133 134 135 136 136 136 136 137 138 135 133 133 134 136 137 138 138 138 138 138 138 140 141 142 145 147 145 145 151 148 148 150 154 155 156 156 157 160 163 163 165 169 173 175 176 181 186 190 194 198 204 210 214 217 220 221 222 225 227 228 228 229 230 230 231 231 231 230 232 233 233 233 233 234 235 235 236 233 232 235 236 235 235 236 235 236 237 237 237 236 236 237 238 238 238 238 238 238 239 240 240 240 240 240 240 241 242 241 242 241 240 242 244 245 245 244 245 244 244 245 245 247 246 244 245 244 243 242 243 242 243 244 245 243 242 242 243 243 242 241 241 240 240 240 241 240 240 240 238 237 237 237 236 236 236 235 236 235 235 235 234 233 232 231 231 230 230 229 229 228 227 226 226 225 223 222 222 222 221 221 220 219 218 216 215 215 214 212 213 211 210 210 208 207 206 203 203 203 202 198 195 194 193 192 192 188 186 185 183 181 178 174 173 171 169 167 165 163 160 158 155 154 153 151 150 149 148 148 146 145 145 145 143 144 145 145 143 142 141 141 142 142 140 138 139 141 141 139 138 139 140 140 139 133 120 106 94 84 79 79 79 75 72 71 68 59 50 46 47 51 56 57 55 53 53 54 52 52 55 56 52 49 47 43 44 46 50 50 49 57 69 72 69 57 45 48 62 80 75 74 67 71 75 84 103 123 135 139 143 144 145 144 142 140 143 148 145 145 144 144 146 147 146 146 146 148 146 145 147 145 143 146 146 146 145 146 148 149 147 144 146 148 149 149 149 149 150 150 152 150 150 150 149 151 152 152 155 154 154 153 153 154 154 152 152 154 152 153 153 153 154 152 157 157 157 157 157 157 158 158 158 159 162 160 158 160 158 158 
139 135 137 135 135 136 134 135 135 135 134 133 133 134 135 135 135 135 134 136 138 137 134 133 133 136 137 138 137 138 139 139 139 141 142 142 143 145 145 146 149 147 148 151 154 155 156 157 157 159 161 162 165 169 173 174 176 181 186 189 194 199 205 210 215 217 220 221 223 225 227 229 228 229 230 230 230 231 231 230 232 233 233 233 233 233 234 234 236 232 231 233 234 233 234 237 235 236 237 237 236 236 236 237 239 238 238 238 238 238 238 239 239 240 240 240 241 242 242 241 241 241 242 243 244 244 244 245 246 245 245 245 245 246 246 244 245 243 242 242 243 243 243 244 244 243 242 243 243 243 242 242 241 241 240 241 241 240 240 240 238 237 237 237 236 236 236 236 236 235 235 234 234 233 232 232 230 230 229 229 229 228 227 226 226 225 224 223 223 222 221 220 221 220 218 216 215 215 214 212 213 211 210 209 207 207 206 204 204 203 201 198 196 195 194 193 191 188 186 184 182 180 177 174 173 171 169 167 166 163 160 157 155 154 152 151 150 149 149 148 146 146 145 144 143 145 145 143 144 142 142 142 142 141 141 139 139 141 141 139 139 140 140 140 139 137 128 115 103 92 82 78 76 73 74 75 72 69 65 61 61 58 55 55 57 58 55 51 49 50 55 58 54 52 52 50 51 50 50 51 54 62 68 69 69 65 48 63 84 97 94 85 78 76 85 103 121 137 145 145 141 139 142 145 147 146 144 144 146 146 144 143 145 146 146 146 147 146 146 146 146 145 144 145 147 146 146 147 148 148 147 147 147 149 151 150 149 149 149 149 153 151 151 150 149 151 153 153 154 154 153 153 152 153 154 153 155 156 153 155 155 154 156 154 157 156 155 155 156 157 158 158 158 160 162 158 156 159 158 158 
141 136 136 135 135 136 134 134 136 135 134 133 134 136 135 134 134 133 132 133 137 137 136 136 135 136 137 135 135 136 140 142 139 142 143 142 142 144 146 149 147 147 149 153 154 154 155 158 157 158 159 160 164 170 173 172 179 182 186 190 195 200 206 210 213 217 221 223 225 226 227 228 228 229 229 229 230 231 231 230 232 233 233 232 232 233 233 233 231 234 235 235 235 236 236 234 236 236 237 236 236 236 237 238 239 237 237 238 239 239 239 239 239 240 240 241 241 242 242 241 240 242 243 243 243 243 244 245 246 246 247 247 245 246 246 245 243 242 241 242 243 244 244 245 242 242 243 244 243 242 242 243 243 242 241 241 241 239 238 238 238 237 237 237 236 236 237 236 235 234 234 233 233 233 232 232 230 230 229 229 228 228 228 227 226 225 225 224 223 222 221 219 220 219 217 215 215 215 215 213 213 210 209 208 207 207 207 205 203 202 199 197 196 195 194 193 191 188 187 184 181 179 177 175 172 170 169 167 166 163 159 156 155 153 150 149 149 149 148 147 145 145 145 142 141 144 145 141 145 144 143 142 141 141 142 141 140 142 142 140 140 142 141 139 140 141 135 124 111 98 85 77 75 71 72 75 78 84 84 76 65 64 60 58 58 58 55 52 49 51 58 62 58 56 57 55 53 51 46 47 57 65 67 66 64 63 68 76 87 95 78 78 73 72 91 120 135 141 143 141 145 141 143 144 145 147 144 142 146 146 144 143 144 145 145 146 148 146 146 147 146 145 145 145 148 146 146 148 148 147 148 150 149 151 153 152 150 150 150 149 149 149 150 150 149 149 151 151 151 151 152 151 152 154 155 156 154 154 151 154 154 152 154 154 156 155 153 154 156 158 158 158 160 161 162 154 153 158 159 160 
138 138 134 133 135 137 134 132 133 134 136 136 133 132 134 135 135 133 133 134 136 137 136 134 132 135 136 135 137 139 139 138 139 141 144 145 144 144 146 149 148 150 152 152 152 154 156 157 160 162 164 163 164 168 173 175 177 181 186 191 197 201 205 209 214 218 221 223 225 226 226 227 228 229 230 230 231 233 234 233 233 234 233 232 233 233 233 233 234 234 235 236 237 237 236 234 236 236 236 236 237 237 238 238 237 238 239 239 238 238 239 240 239 240 240 240 240 241 242 242 241 241 242 243 243 243 243 244 246 245 245 246 247 246 245 244 244 242 243 243 242 245 247 244 245 244 242 242 241 240 241 241 242 242 241 240 240 240 239 238 239 238 237 237 237 236 236 235 235 235 234 234 234 232 230 229 232 230 229 229 229 227 227 228 228 225 225 224 221 221 222 221 221 219 218 217 216 215 214 213 212 210 208 208 207 205 204 205 204 203 201 199 197 195 193 192 191 188 184 182 183 180 177 175 173 172 170 165 159 157 160 161 156 154 154 151 149 150 147 147 146 146 146 146 144 143 142 140 144 143 141 140 141 143 142 140 140 141 142 139 138 142 144 141 139 141 140 135 126 115 99 83 75 64 66 72 77 86 89 85 74 75 71 66 64 64 62 60 58 53 60 63 62 61 54 53 58 48 44 44 61 63 61 63 62 71 75 66 75 83 70 68 67 88 110 127 139 142 141 142 142 143 144 145 146 145 144 146 145 145 144 142 143 145 147 147 144 145 147 148 148 147 146 147 146 144 148 149 149 148 146 149 149 148 148 151 151 150 149 150 149 149 150 151 152 151 152 152 151 151 151 152 153 155 156 156 153 153 152 153 154 156 156 155 152 157 158 157 158 158 157 157 159 162 160 157 159 159 159 162 
138 138 136 135 136 137 135 134 135 135 136 136 134 134 136 136 139 137 137 137 137 136 135 132 132 135 137 137 139 140 139 138 139 140 141 142 143 144 146 149 148 150 152 152 152 154 156 157 157 158 160 163 165 168 171 172 178 182 187 191 196 200 203 207 213 216 219 222 225 226 227 227 229 230 230 230 230 231 231 230 232 234 233 232 233 233 233 233 234 235 236 236 236 236 236 236 236 235 235 236 237 238 238 238 237 237 238 239 239 239 240 240 240 240 240 240 240 241 242 242 241 241 242 243 244 243 243 244 245 245 246 246 247 246 245 244 243 242 242 242 242 245 246 244 245 244 243 242 242 241 241 241 242 242 241 240 240 240 239 238 238 238 237 237 237 237 236 236 234 234 233 233 233 233 232 232 231 230 230 229 228 227 226 226 226 224 224 224 221 221 222 220 220 219 218 217 216 215 214 213 213 210 208 207 207 206 204 204 204 202 200 198 196 194 192 191 190 188 185 183 183 180 176 175 174 170 167 164 161 160 159 157 155 153 153 150 149 150 148 148 146 146 146 145 143 143 143 141 142 143 143 142 142 142 142 141 141 142 142 140 139 141 142 140 140 140 140 139 136 127 108 89 75 67 73 77 78 83 84 82 81 81 77 72 72 72 70 67 66 59 61 62 61 59 54 57 61 46 41 43 58 57 58 67 78 72 72 70 66 60 62 79 94 110 125 135 141 141 139 140 143 143 143 144 145 144 143 144 145 145 144 144 144 144 145 145 146 146 146 146 145 144 145 147 147 145 148 149 149 148 145 148 152 149 149 151 151 149 148 148 149 149 150 151 151 151 152 152 152 153 153 152 152 153 153 153 150 151 151 152 152 154 155 155 154 157 157 155 157 157 156 156 156 159 158 156 159 159 158 160 
137 138 137 137 137 136 135 137 135 135 136 136 135 136 137 136 135 136 137 138 138 138 136 135 134 135 136 138 140 140 139 139 141 140 140 141 142 144 146 149 148 150 151 152 153 154 156 158 159 159 160 164 168 170 172 174 178 182 187 191 196 199 202 206 212 215 218 221 224 226 226 227 229 230 231 230 230 231 230 229 232 233 232 231 232 233 233 233 233 234 234 234 233 233 234 235 236 236 236 237 238 238 238 238 237 238 238 239 240 240 240 239 240 240 240 240 240 241 242 242 241 241 242 244 244 244 243 243 243 244 246 247 246 246 245 244 244 242 242 242 243 244 245 244 245 244 243 243 242 241 241 241 242 242 241 240 240 240 239 238 238 238 237 237 237 237 236 235 235 234 233 233 233 233 233 233 230 231 230 229 228 227 226 224 225 224 224 224 222 222 222 220 218 218 218 218 216 214 213 213 213 210 208 207 207 207 205 204 204 203 200 198 196 194 192 191 189 188 185 183 182 179 175 175 174 170 166 164 163 161 158 155 154 152 153 150 149 151 148 148 146 146 146 145 143 144 144 142 142 143 143 143 143 143 142 140 142 142 142 142 140 139 140 139 140 140 141 142 143 139 122 102 90 81 82 84 81 84 84 84 85 85 80 76 77 77 75 73 70 68 72 75 74 65 56 61 60 55 47 33 41 48 53 57 64 74 74 62 50 58 87 109 123 132 139 141 142 140 138 139 143 143 142 142 144 144 143 143 145 144 145 145 145 144 143 144 145 146 147 146 145 144 145 147 147 146 149 149 149 149 146 148 153 150 148 150 151 150 148 147 150 149 150 150 151 151 151 152 152 153 154 153 152 152 152 152 149 151 152 152 151 152 153 155 153 156 156 156 158 160 160 161 156 158 157 156 159 160 158 158 
137 137 137 138 138 135 134 137 135 135 136 136 135 135 136 136 132 134 135 137 138 137 136 136 135 136 135 136 137 137 139 142 142 142 142 142 143 144 147 149 148 149 151 152 153 154 156 158 160 158 159 162 166 168 170 173 177 181 186 190 195 199 203 207 212 216 219 221 223 224 225 227 227 229 230 230 231 232 232 231 231 233 232 231 232 233 233 234 234 234 234 234 233 233 234 235 236 236 237 238 238 238 238 238 239 238 239 239 240 240 239 238 239 240 240 240 241 242 242 242 241 242 243 244 245 244 243 243 243 244 246 247 246 245 244 244 245 244 243 243 244 245 245 244 245 244 244 244 243 242 241 241 242 241 241 240 240 240 239 238 239 238 238 237 237 237 236 235 236 235 234 233 233 233 232 232 230 231 231 229 228 228 227 225 226 225 225 224 223 222 222 221 218 218 218 218 216 214 213 213 211 210 208 207 207 207 206 205 205 203 201 198 196 195 193 192 189 188 184 182 182 179 175 174 172 170 169 166 163 160 159 157 154 152 153 150 149 150 148 148 146 146 146 146 144 144 144 142 144 142 141 142 143 143 141 139 142 141 142 143 141 139 139 139 140 142 142 142 142 141 132 120 97 85 84 85 84 84 81 78 80 82 81 80 81 84 85 86 94 101 107 108 104 87 72 72 76 60 44 31 38 40 43 47 57 75 72 65 69 89 118 125 136 141 143 142 141 140 140 141 143 144 143 142 143 143 143 143 144 143 144 146 145 144 144 145 142 145 148 149 147 146 146 147 146 145 149 149 149 150 148 150 152 149 147 148 151 151 150 149 150 150 150 150 151 150 151 151 150 152 153 153 152 152 153 153 152 153 154 153 152 152 153 154 154 156 157 157 158 160 161 162 159 159 158 158 160 160 158 158 
139 138 138 138 139 136 135 136 136 136 138 137 134 134 136 136 135 137 137 136 136 134 132 132 135 136 137 137 137 137 139 143 142 142 143 144 144 145 147 149 148 149 151 152 153 153 156 158 159 158 160 164 166 167 170 174 177 181 186 190 194 199 204 208 211 216 220 221 223 224 225 228 226 228 229 230 231 233 233 232 232 233 232 232 233 234 234 234 236 235 235 236 236 236 236 236 236 237 238 238 237 236 237 238 239 238 238 239 240 240 239 238 239 240 240 241 241 242 243 243 242 242 243 245 245 244 243 243 243 245 247 247 246 244 243 243 245 244 243 243 245 245 244 244 245 244 244 244 243 242 241 241 241 241 240 240 239 240 239 238 239 239 238 238 237 236 235 234 236 235 235 234 234 233 232 231 231 231 231 228 228 228 228 227 226 226 224 223 223 222 221 220 219 219 218 218 216 213 212 212 211 210 210 208 207 206 206 205 204 202 200 198 197 195 194 193 191 188 183 181 181 179 175 174 171 169 168 166 162 160 160 159 154 152 153 150 149 150 147 147 145 145 147 147 145 144 144 142 144 143 142 142 142 141 140 140 142 140 141 143 142 140 140 140 141 142 143 141 140 141 139 132 121 105 95 89 84 84 81 79 80 86 91 93 97 102 108 113 118 128 131 130 129 117 102 94 78 65 52 35 33 30 36 45 62 78 83 101 115 113 127 138 138 140 141 141 141 141 142 144 142 144 144 143 143 143 143 145 144 144 145 145 145 144 144 145 142 145 148 148 147 147 147 147 146 145 148 147 148 149 147 149 150 148 146 147 150 152 151 150 150 150 150 150 150 150 150 151 149 151 152 152 152 153 154 154 153 154 154 154 153 154 154 153 154 156 158 157 155 155 156 156 160 160 159 159 159 159 159 161 
140 140 139 139 139 138 136 137 138 138 139 138 134 134 136 137 136 138 137 136 137 135 132 133 134 137 139 139 139 139 139 141 140 141 143 144 144 145 147 149 149 149 151 153 153 153 155 158 156 159 163 167 169 170 173 176 178 182 185 189 193 197 202 208 211 216 219 221 223 224 226 229 226 228 229 229 230 231 231 230 232 233 233 232 233 234 234 234 235 234 233 235 236 235 234 235 236 237 238 238 237 236 237 238 237 237 238 239 240 240 240 240 239 240 241 241 242 243 243 243 243 243 244 245 245 244 243 243 244 245 246 247 246 244 243 242 243 243 242 242 244 244 243 244 245 244 243 243 242 241 241 241 241 241 240 239 239 239 239 238 239 239 238 238 237 237 235 234 235 234 234 234 234 233 232 231 231 231 230 229 228 228 228 228 226 225 223 222 222 221 220 220 220 219 218 217 216 214 212 211 211 212 211 209 206 205 205 204 202 201 199 198 196 195 193 192 191 188 182 180 181 179 175 174 171 168 165 164 162 162 160 157 154 152 153 150 149 150 147 147 145 145 147 147 144 144 144 142 142 143 145 144 141 139 140 143 142 140 142 143 142 141 141 142 142 142 143 142 142 143 141 137 131 122 119 114 109 109 107 107 103 109 115 117 120 123 129 135 134 140 138 137 139 132 118 103 88 76 62 40 37 38 44 48 67 103 117 125 133 134 141 142 140 141 141 142 142 143 143 144 142 145 146 144 143 144 144 145 145 146 146 145 144 144 145 145 145 147 147 145 145 146 147 147 146 145 147 145 145 146 145 147 149 149 148 148 149 150 150 150 150 150 150 151 151 150 150 150 150 151 152 152 153 154 154 153 152 152 153 153 154 155 154 153 152 153 156 157 155 155 157 157 160 159 158 158 158 159 160 162 
140 141 139 138 139 139 138 138 139 138 139 138 134 134 136 136 135 136 135 135 138 137 136 138 134 137 138 138 140 140 140 140 141 142 142 143 144 144 146 147 149 149 151 153 153 152 154 158 153 157 162 165 167 168 171 173 178 182 185 187 191 196 201 207 212 216 218 220 223 225 226 227 228 229 229 229 229 230 230 229 232 233 233 232 233 233 233 234 234 233 233 234 234 233 233 234 236 236 236 237 237 238 238 238 236 237 238 239 239 240 240 241 240 241 241 241 242 242 243 242 244 243 244 245 245 244 243 244 245 245 246 246 246 245 244 242 243 242 241 242 245 244 242 244 245 244 243 242 242 241 241 241 240 240 240 239 239 239 239 238 238 238 238 238 238 237 236 235 235 234 233 233 233 233 232 232 231 230 230 229 229 228 227 227 225 225 223 222 224 222 220 220 221 219 217 216 216 214 212 211 211 211 211 208 207 206 205 204 201 200 199 198 196 195 192 191 190 188 183 181 181 178 175 174 171 167 164 163 163 162 160 155 154 152 153 150 149 150 147 148 146 146 147 145 143 143 144 143 142 143 145 145 143 140 141 144 143 142 142 143 141 141 142 142 143 141 142 143 143 143 142 139 140 136 136 131 128 129 129 130 128 132 135 135 136 136 138 141 139 141 137 141 144 141 133 119 99 76 60 47 45 42 57 77 105 121 129 139 145 140 141 141 142 142 143 144 144 144 143 142 142 146 146 144 144 144 144 144 144 147 147 145 144 145 146 145 146 147 146 144 145 147 148 147 148 146 148 145 144 146 145 147 149 150 150 150 149 149 149 150 149 149 150 151 151 150 149 149 152 152 151 151 153 154 154 153 151 152 152 153 155 155 154 152 153 152 154 156 156 158 160 159 160 157 157 157 158 159 160 161 
138 140 139 137 138 138 138 138 139 137 137 136 134 134 135 135 136 137 135 134 137 137 136 138 136 137 136 135 138 141 140 139 145 144 143 143 144 144 145 145 149 149 151 153 153 152 154 157 156 160 163 164 166 169 172 174 177 181 183 186 190 195 201 207 214 216 217 219 223 225 225 225 229 230 230 229 229 230 231 230 232 233 232 232 233 233 233 233 236 235 235 236 235 234 235 238 237 236 235 235 238 239 239 238 237 238 239 239 238 239 240 241 240 241 242 242 242 242 242 241 244 244 244 244 244 244 244 244 245 245 245 245 246 246 244 243 243 243 241 243 245 244 243 245 245 244 242 242 241 240 241 241 240 240 240 239 239 239 238 237 237 237 237 238 238 237 236 236 236 235 233 232 232 232 232 232 231 230 230 230 229 227 226 226 225 226 224 224 226 224 221 221 221 218 216 216 216 215 213 211 210 210 209 208 208 208 207 205 202 201 200 199 197 195 193 191 189 187 184 182 181 178 175 174 171 168 166 165 163 162 159 156 153 151 152 150 149 151 148 148 147 146 146 144 142 142 144 144 143 142 143 145 146 144 143 142 144 143 143 142 140 141 142 142 142 141 142 143 142 140 141 142 140 139 143 141 139 141 137 135 138 140 140 140 141 140 140 141 145 144 139 141 140 138 140 131 114 87 66 52 61 74 95 113 118 133 141 142 142 144 145 139 143 142 143 145 144 144 143 141 143 146 146 144 144 145 143 142 142 146 147 145 145 147 148 145 145 146 147 146 147 149 149 147 149 147 148 146 145 148 147 150 149 151 152 151 149 148 149 151 149 149 150 151 151 150 149 148 152 152 151 151 153 155 155 153 151 152 153 154 155 155 153 151 157 153 152 154 154 155 156 154 162 158 156 158 159 159 159 159 
140 139 138 138 139 138 137 139 137 138 138 137 136 135 135 136 137 136 135 135 134 135 136 135 135 136 138 138 138 139 140 140 143 141 141 142 140 142 145 144 145 149 149 150 154 155 155 157 160 160 162 166 169 169 172 179 178 180 182 187 192 196 202 208 211 215 219 221 225 227 227 227 228 229 230 231 231 231 231 231 233 232 232 233 233 234 235 233 235 235 234 234 235 236 236 236 235 236 237 238 238 238 237 237 237 237 238 238 239 239 239 239 239 240 240 240 241 241 241 243 242 242 243 243 244 245 245 245 244 244 244 245 244 243 243 243 243 242 242 244 245 244 244 245 243 243 243 243 243 242 241 240 241 240 240 241 240 238 237 238 236 237 237 236 236 236 236 235 238 235 233 233 233 232 231 232 230 230 230 229 229 227 226 227 227 226 226 225 223 222 222 222 219 216 217 218 216 215 214 211 210 210 210 209 206 205 204 202 203 201 199 198 195 194 192 190 188 186 183 181 181 180 177 174 173 168 164 164 165 162 158 155 155 153 151 149 149 149 147 144 147 146 145 145 146 145 145 146 144 145 143 142 144 145 143 142 145 144 144 144 145 143 141 142 144 142 141 140 141 140 141 141 140 141 141 141 142 140 138 137 141 144 143 140 138 140 141 140 140 141 142 142 141 141 141 140 132 110 84 79 95 112 122 127 138 139 140 141 141 139 138 141 142 143 144 145 143 141 141 142 142 144 145 145 145 144 142 143 144 145 143 141 141 141 143 146 146 145 146 147 147 146 146 146 143 143 148 149 145 145 149 149 147 147 146 146 147 147 146 147 152 151 150 150 151 151 151 150 153 154 151 151 152 151 153 151 153 153 153 154 153 153 153 152 152 154 155 154 153 154 156 157 160 161 159 157 157 157 158 160 
142 140 138 139 141 140 138 138 139 139 138 138 136 136 136 136 137 136 135 135 134 135 135 134 136 137 138 138 138 138 138 138 143 142 143 144 143 144 147 147 149 152 151 150 153 154 154 157 158 159 161 164 168 170 173 178 178 180 183 187 193 197 202 206 213 217 219 220 224 226 226 227 227 228 229 230 231 231 231 231 232 231 232 233 233 234 235 234 235 235 234 234 235 236 236 236 236 237 237 238 238 237 237 236 237 237 238 238 239 239 240 240 239 240 240 240 241 241 241 243 242 242 243 243 244 244 245 245 244 245 246 246 244 243 243 244 244 242 243 245 246 245 244 245 243 243 243 243 243 242 241 241 241 240 240 240 239 238 237 238 236 237 237 236 236 236 236 235 237 235 233 233 233 232 231 231 230 230 230 229 229 228 226 227 226 225 225 225 223 221 221 220 219 216 217 217 216 215 215 213 211 210 209 208 206 204 204 203 201 200 199 198 195 194 193 192 187 185 183 181 181 180 177 174 172 169 166 165 164 162 159 157 155 153 151 150 149 149 147 145 147 146 145 145 146 145 145 145 144 145 143 143 144 144 143 143 145 144 142 142 143 141 140 141 142 141 141 142 142 142 142 142 140 141 140 140 142 141 139 138 139 141 141 139 139 141 141 140 141 142 142 142 141 140 139 139 140 129 116 113 122 130 137 143 139 142 142 140 140 141 142 143 141 142 143 144 144 143 144 145 142 144 143 144 145 144 143 143 144 145 144 143 142 141 142 144 142 143 145 146 147 145 144 143 146 145 146 148 149 149 150 149 149 149 147 147 148 148 148 148 149 150 150 150 150 150 151 152 153 154 151 152 152 152 153 151 152 152 152 152 153 153 153 153 154 155 155 155 154 155 156 156 157 159 159 158 158 158 158 160 
145 143 140 140 143 142 139 137 139 138 137 137 137 137 136 136 136 135 135 135 134 135 135 134 137 138 138 138 138 138 138 138 139 140 142 143 142 143 146 147 151 153 152 151 153 153 154 157 158 160 161 163 167 170 173 176 177 180 184 188 194 199 202 205 214 217 218 220 223 225 226 228 227 228 229 230 230 230 231 231 231 231 232 233 232 233 234 234 234 235 235 234 234 235 236 236 237 237 237 237 237 237 236 236 237 237 238 239 240 240 240 240 239 240 240 240 241 241 241 243 242 242 242 243 243 244 244 245 244 245 246 246 244 243 243 244 243 242 243 245 246 245 244 244 242 243 243 243 243 242 241 241 241 240 239 239 239 238 237 238 237 237 237 237 236 236 236 235 237 234 232 232 233 232 231 231 230 230 229 229 230 228 227 228 225 223 224 224 222 221 221 220 219 217 217 217 216 214 214 213 212 209 208 208 205 204 204 204 199 199 199 197 194 193 193 192 188 187 184 182 180 178 174 170 168 167 165 163 161 159 157 155 154 154 152 150 150 149 148 147 147 145 144 145 145 145 144 144 144 145 144 143 144 144 144 144 144 143 142 141 142 141 141 142 142 142 142 143 143 143 142 141 141 141 140 140 142 142 140 140 139 140 140 140 140 140 140 140 141 142 142 141 140 140 139 138 140 139 137 137 138 139 141 145 140 144 143 138 139 143 144 144 144 144 144 144 143 142 142 143 143 144 143 143 144 145 144 144 142 144 145 144 144 143 142 143 143 143 145 147 147 146 145 145 146 146 146 148 151 150 149 149 150 150 148 147 149 149 149 150 148 150 151 151 150 150 152 153 153 154 152 153 153 152 154 152 151 151 152 152 152 153 153 154 155 155 154 153 153 154 154 154 155 157 158 159 160 159 159 161 
147 145 141 140 142 142 139 138 137 136 135 135 137 137 137 137 135 134 135 136 136 136 136 135 136 137 138 138 138 139 139 139 139 141 143 144 144 145 147 149 149 150 150 151 153 154 154 157 159 161 162 163 166 170 172 174 176 181 184 188 194 200 203 206 213 216 218 220 223 225 227 229 229 229 230 230 230 230 230 230 232 232 233 234 232 232 233 233 233 234 235 235 234 235 236 236 237 237 237 237 237 237 236 236 237 238 239 239 240 240 240 240 239 240 240 240 241 241 241 243 242 242 242 242 243 244 244 244 243 245 246 245 242 241 242 244 242 242 243 244 245 244 243 243 242 243 243 243 243 242 242 241 241 240 239 239 238 238 238 238 237 238 238 237 236 236 236 235 237 234 231 232 233 232 231 230 230 230 229 229 229 228 227 228 224 222 223 224 223 222 222 221 220 219 218 217 215 214 213 213 212 208 208 208 206 204 203 203 200 198 198 196 193 191 191 189 187 186 184 181 179 177 174 171 169 169 167 164 161 160 158 156 153 153 152 151 150 149 149 149 147 145 144 145 145 145 145 143 144 146 145 143 143 143 143 144 143 143 142 142 143 143 142 144 142 143 143 143 143 143 142 141 141 141 141 141 143 143 141 141 141 141 141 142 141 140 139 139 140 141 142 141 141 141 140 140 142 142 142 143 143 142 141 141 141 144 142 139 139 142 143 144 140 141 141 141 142 143 144 145 145 144 143 142 145 145 144 144 141 143 144 145 145 144 143 144 145 145 145 145 145 145 146 147 144 147 147 147 150 148 146 149 148 149 149 148 149 149 148 150 150 151 152 151 150 150 152 153 152 154 152 153 153 152 154 152 152 153 153 153 153 153 153 153 156 155 154 153 154 155 155 155 154 156 157 158 160 160 160 161 
147 146 142 140 141 141 140 140 138 136 135 136 137 138 138 137 137 135 136 137 137 137 137 136 137 138 138 138 138 139 140 140 139 141 143 144 144 144 146 148 147 148 150 152 154 154 155 157 158 162 164 164 167 171 172 173 175 181 185 188 193 199 204 208 212 215 218 221 224 226 227 229 230 230 231 231 231 230 231 231 233 233 234 234 232 232 234 233 233 234 235 235 235 235 236 236 237 237 237 237 237 237 237 237 238 238 239 240 240 240 240 239 239 240 240 240 241 241 242 243 242 242 242 242 243 244 244 245 243 245 246 244 242 241 243 244 242 242 243 244 244 243 243 242 243 243 243 243 242 242 242 241 241 241 240 239 239 239 238 238 237 238 238 237 237 236 236 235 236 233 231 232 233 232 231 230 230 229 228 228 229 228 226 227 225 223 224 224 223 223 222 221 219 219 218 217 216 214 213 214 212 209 209 210 208 205 204 203 201 199 197 196 193 192 190 188 185 184 182 180 179 178 177 175 171 170 167 163 161 160 158 155 152 153 152 150 149 149 149 149 148 145 145 146 146 145 145 143 145 146 145 143 143 143 143 143 143 144 144 143 143 143 142 143 143 143 143 142 143 144 143 142 141 142 141 142 144 143 141 141 142 142 142 143 143 142 141 140 141 142 142 142 142 141 141 140 145 143 142 143 144 144 143 141 143 143 141 141 141 141 141 144 139 140 141 140 141 143 144 145 145 144 142 142 144 145 144 144 142 144 144 144 145 144 144 145 144 144 144 144 144 143 144 145 145 148 147 147 149 147 145 148 145 148 149 149 149 147 147 149 150 150 150 150 150 151 151 152 152 154 152 153 153 152 154 152 152 153 155 155 155 155 154 154 156 156 155 155 156 158 158 157 154 155 156 156 158 158 159 160 
146 146 144 141 141 141 142 143 140 139 138 138 139 139 138 137 139 137 137 139 138 137 136 136 138 139 139 138 138 139 140 140 137 140 141 142 143 143 144 146 148 149 151 154 155 154 155 156 157 161 164 165 168 171 173 175 175 181 185 188 193 198 204 209 213 215 218 222 225 226 226 228 230 230 231 231 231 232 232 233 232 231 233 233 233 233 235 234 233 234 235 235 235 236 236 236 236 236 236 237 237 237 238 238 238 239 239 240 240 240 239 239 239 240 240 240 241 241 242 243 243 243 243 243 243 244 245 245 244 246 247 244 243 243 244 244 243 244 245 245 245 244 243 243 243 243 243 242 242 242 241 241 241 241 241 239 239 239 239 238 238 238 238 237 237 236 236 235 235 233 232 233 233 232 231 231 230 230 228 228 228 227 226 227 228 225 224 224 223 222 221 220 218 218 217 216 217 215 214 215 212 211 211 211 209 207 206 203 202 199 197 196 195 194 192 189 188 187 184 180 178 176 174 173 171 169 165 162 160 159 156 153 152 152 151 150 149 149 149 149 148 146 146 147 145 145 145 144 145 146 145 144 144 144 143 143 144 145 144 143 142 142 141 141 142 143 142 141 142 144 144 143 141 142 142 142 143 142 141 142 142 142 142 142 143 144 143 142 142 143 144 143 142 141 141 140 141 141 142 142 141 142 143 142 144 143 142 143 143 141 141 144 142 143 143 141 141 142 143 142 143 143 142 142 143 143 142 142 144 145 144 144 144 143 143 144 143 144 146 147 146 144 143 143 149 148 147 147 149 148 146 146 145 147 149 149 149 148 147 148 149 149 148 149 150 151 151 151 151 153 152 153 153 152 154 153 152 153 155 156 156 155 155 155 154 154 154 154 155 157 157 156 155 156 155 155 157 157 157 159 
147 148 146 143 142 142 142 142 141 141 140 140 140 139 138 137 139 137 137 139 138 137 137 137 138 139 139 138 138 138 139 139 140 142 142 143 145 146 146 149 150 149 151 153 154 153 154 155 155 161 165 167 169 171 172 175 177 180 185 189 194 198 203 208 213 215 218 222 225 226 227 229 230 230 231 231 232 232 233 234 231 231 231 233 233 234 235 234 233 234 234 235 236 237 237 236 236 236 237 237 238 238 238 238 238 238 239 240 241 240 240 239 239 240 240 240 241 241 242 243 244 243 243 243 243 244 245 246 245 247 246 244 243 244 244 244 244 245 245 245 244 244 244 243 244 243 243 242 242 241 241 241 240 241 241 240 239 239 239 238 238 238 238 237 237 236 236 235 235 233 233 233 233 231 231 232 231 230 228 228 229 228 226 227 228 225 224 223 222 221 221 220 218 218 216 216 217 215 213 213 211 211 211 209 208 208 206 202 201 198 197 196 194 193 192 189 190 189 186 182 178 175 173 172 173 170 166 164 162 160 157 156 152 152 151 150 149 150 149 148 148 145 147 148 145 144 145 144 144 145 144 144 145 145 144 143 144 146 144 142 141 141 141 141 142 143 143 141 142 144 144 142 141 143 143 142 141 141 142 144 141 142 141 140 142 145 145 143 142 143 144 143 142 141 141 140 141 141 144 144 141 141 143 142 143 144 143 142 143 143 142 143 140 142 142 141 141 143 144 143 142 143 143 143 144 144 142 143 144 145 144 143 144 143 143 144 143 145 147 148 148 146 145 145 150 147 147 148 147 147 147 146 147 148 148 148 150 149 149 149 150 149 148 149 150 151 151 151 151 153 151 152 152 151 154 153 153 154 155 155 154 154 155 156 153 154 154 154 154 155 155 154 157 158 157 157 159 159 158 159 
150 151 149 146 144 143 141 140 140 140 140 140 140 139 138 137 138 135 136 138 138 138 138 139 138 138 138 138 137 138 139 139 139 141 141 141 144 145 146 148 149 148 149 152 152 152 153 155 156 161 165 168 169 169 171 174 178 180 184 190 195 198 202 207 212 214 217 221 225 227 228 231 231 231 231 231 231 232 232 233 232 231 231 232 232 233 234 232 233 234 234 235 236 237 237 236 236 236 237 237 238 238 238 238 237 238 239 240 241 240 240 239 239 240 240 240 241 241 242 243 244 244 243 243 244 245 245 246 244 246 245 243 242 243 244 243 243 244 245 244 243 243 243 243 244 244 243 242 242 241 241 240 239 241 241 239 239 239 239 237 238 238 238 237 236 236 236 235 234 233 234 234 233 231 231 232 232 231 229 228 229 228 226 227 226 223 222 222 221 221 222 221 220 219 217 216 217 215 211 211 210 210 210 207 205 207 205 201 200 198 197 195 193 191 190 188 184 184 184 181 180 178 177 176 171 168 164 163 161 158 156 156 153 152 151 150 150 150 149 148 147 145 148 148 144 143 145 143 144 144 144 144 146 146 144 143 144 145 144 141 141 142 143 144 143 144 144 142 142 143 142 139 142 144 143 141 140 140 142 145 141 142 141 139 141 145 145 142 141 142 143 143 142 142 141 141 142 142 144 143 140 140 141 139 141 144 143 140 141 144 144 142 143 144 143 141 140 141 140 138 141 143 144 145 146 145 144 144 143 144 144 143 144 144 143 144 143 144 145 146 145 144 144 146 148 146 149 149 144 144 148 148 150 150 148 148 151 151 151 150 152 151 150 150 151 151 151 151 151 153 151 152 152 151 154 154 154 154 154 153 152 152 153 155 156 157 157 157 157 156 156 155 159 160 160 160 162 162 161 161 
150 151 152 151 148 144 142 141 142 139 142 144 139 137 138 135 136 136 136 137 138 138 137 136 138 140 139 138 139 139 139 140 141 141 142 142 143 146 147 144 148 148 149 151 154 155 156 157 159 162 163 164 168 171 173 176 178 180 183 188 192 198 204 209 211 216 219 222 226 228 228 228 230 229 230 231 230 231 232 232 232 232 233 233 233 234 234 235 233 235 236 236 235 236 237 238 238 237 237 238 238 238 238 237 238 239 240 239 239 239 240 240 241 239 239 241 241 240 240 243 243 244 244 243 243 245 245 244 246 246 244 243 243 243 242 243 242 244 245 244 243 244 245 245 243 244 245 244 243 242 241 240 241 240 240 239 239 238 238 238 237 238 238 238 237 237 236 235 234 234 235 234 232 231 230 230 231 230 228 227 227 227 227 227 226 223 222 222 222 222 221 220 218 219 219 217 215 214 213 212 211 211 210 207 205 204 204 204 202 200 197 194 193 194 191 185 186 183 182 181 179 177 176 173 171 168 165 164 163 159 156 156 153 151 149 149 149 149 150 151 150 147 147 147 148 147 146 146 147 145 146 144 140 142 145 143 143 143 141 141 144 144 142 141 142 141 142 144 143 141 140 141 141 143 142 141 141 142 141 142 140 140 140 141 142 142 142 141 142 143 144 144 144 144 143 142 144 141 140 141 142 141 141 143 144 144 142 140 141 143 142 140 143 142 141 141 142 142 141 139 142 143 144 143 143 144 143 141 145 143 146 144 143 145 144 145 143 145 146 146 145 146 147 146 146 147 148 150 150 150 149 148 150 149 149 150 151 150 149 149 150 151 151 150 150 150 151 152 150 150 151 154 154 153 154 156 155 153 152 154 154 152 153 155 156 155 157 157 156 158 158 154 157 158 160 160 159 159 160 159 
151 151 152 152 150 146 142 140 146 141 141 140 136 136 139 137 138 137 137 137 137 137 137 136 139 140 139 137 138 139 139 140 143 143 142 141 141 144 147 146 147 148 149 151 152 153 155 156 158 162 163 164 168 171 173 176 178 181 185 189 194 198 203 208 211 216 219 222 226 228 228 228 229 229 231 232 231 231 232 231 232 232 232 233 233 234 234 234 233 234 235 235 235 235 236 237 238 237 237 238 238 238 238 238 237 238 240 241 240 240 240 239 241 240 240 241 241 240 241 243 243 243 244 243 244 244 245 244 245 246 245 243 243 242 242 243 244 245 245 244 244 244 244 244 243 244 244 242 241 241 241 241 240 240 240 240 239 239 238 238 238 238 238 237 236 236 236 235 234 234 234 234 233 231 230 230 230 229 229 228 228 228 227 227 227 225 223 223 223 222 221 220 218 219 218 217 216 215 214 213 213 211 208 205 204 204 204 204 202 201 199 196 194 193 191 187 187 184 182 180 178 177 175 172 170 168 165 164 163 159 156 157 155 153 151 150 150 149 149 150 147 145 144 145 145 145 145 146 145 143 144 144 142 144 146 143 144 144 141 141 143 143 142 142 142 143 143 142 141 142 142 141 138 140 141 141 141 141 140 140 139 139 139 141 142 143 143 143 142 143 145 144 144 144 143 143 142 140 140 142 142 140 141 143 146 146 143 141 141 141 140 139 145 143 140 140 141 142 141 140 142 143 142 142 142 144 144 144 145 143 146 144 143 144 144 145 142 143 145 145 144 145 147 146 145 146 146 146 146 146 146 146 148 147 148 149 150 149 149 150 150 151 151 150 149 150 151 152 151 150 150 152 152 151 152 154 154 155 154 152 152 154 155 153 153 153 155 155 152 154 158 158 157 157 159 159 159 159 160 159 
154 153 152 152 151 148 144 142 147 142 141 141 137 137 138 135 140 138 137 137 137 137 137 137 139 140 139 137 137 138 139 140 143 143 144 142 141 144 147 147 147 148 150 151 152 152 154 156 158 162 164 165 167 170 173 176 179 183 186 190 195 198 202 207 212 216 220 222 225 228 228 228 229 229 232 233 232 232 232 231 232 232 232 233 233 233 234 234 233 234 235 235 234 235 236 237 238 237 237 238 238 238 238 238 237 238 239 240 240 240 240 240 241 241 241 241 241 241 241 242 243 243 243 244 244 244 244 245 244 246 245 244 243 242 241 243 245 246 245 245 245 245 244 242 243 243 242 241 240 241 241 241 240 240 240 240 240 239 238 238 238 238 237 236 236 236 235 234 234 234 234 234 233 232 231 230 230 230 229 229 229 228 227 226 227 225 223 223 223 222 221 220 218 218 218 217 217 217 215 213 214 212 208 205 205 205 204 203 201 200 200 198 194 191 190 189 188 184 182 180 177 176 174 172 169 168 166 164 163 159 156 157 156 153 151 151 150 149 149 150 148 147 146 146 146 146 147 148 144 142 143 145 144 145 145 143 145 144 142 141 142 143 143 143 143 145 145 141 140 144 144 142 139 141 142 141 142 142 142 142 142 141 141 141 141 141 141 141 141 143 145 145 144 143 143 143 140 140 141 142 141 140 141 143 143 142 140 140 142 143 143 144 144 142 139 140 142 143 143 141 142 142 142 142 142 143 144 145 144 143 146 144 142 144 144 145 142 143 144 145 144 144 146 145 148 148 147 147 147 148 148 149 148 147 148 149 149 148 149 150 150 151 151 150 149 150 151 151 152 151 150 151 151 150 151 153 153 155 154 152 152 155 155 153 153 154 156 155 154 155 158 159 157 158 158 158 159 160 160 160 
159 156 154 152 151 150 148 147 146 142 142 142 139 138 137 135 139 138 137 137 138 138 138 138 139 140 139 138 138 139 139 140 140 142 144 145 144 145 147 146 147 148 150 152 152 153 155 157 159 162 164 165 166 169 173 176 180 184 187 190 195 199 203 207 212 217 219 221 224 227 228 229 229 230 232 233 232 232 232 231 232 232 232 233 233 233 233 233 234 235 235 235 235 236 237 237 237 237 237 237 238 238 238 238 240 239 238 238 238 239 240 241 240 242 242 241 241 242 242 242 243 242 242 244 244 243 244 245 244 246 245 244 243 242 242 243 245 246 246 245 244 244 243 242 243 243 242 241 240 241 242 242 241 240 240 240 239 239 238 238 238 238 237 235 235 235 235 234 234 234 233 233 233 233 231 230 231 230 229 228 228 227 226 225 226 224 223 223 222 221 220 219 218 218 217 217 217 217 215 213 213 212 210 209 208 207 204 202 200 199 199 198 193 190 189 189 188 184 182 179 177 175 174 171 167 167 165 164 162 159 156 156 154 152 150 150 149 148 148 149 149 149 149 149 148 148 148 149 146 143 144 146 145 144 144 143 145 144 142 141 142 143 143 144 142 143 142 140 139 141 142 142 143 143 142 141 142 142 143 145 143 142 141 141 141 141 141 141 141 143 145 145 143 143 143 143 141 141 141 141 141 141 141 142 141 140 139 141 143 143 144 147 141 140 140 142 144 145 144 142 141 141 142 144 144 142 142 143 144 143 146 144 142 144 144 145 143 144 145 145 144 144 145 144 147 147 147 147 147 148 148 149 149 148 148 149 148 148 149 151 150 151 151 150 149 150 151 151 152 152 152 152 152 152 152 153 152 151 152 154 155 154 154 155 155 154 154 156 158 159 157 155 159 159 158 159 161 162 161 161 
160 158 155 154 152 151 149 149 147 144 143 141 138 137 139 139 138 138 138 138 139 138 138 138 138 140 140 139 140 139 138 139 139 141 144 146 145 145 145 144 147 147 149 151 153 154 156 158 159 162 164 165 166 170 173 175 179 185 187 189 194 199 203 209 214 217 219 220 223 226 228 230 230 230 232 232 231 232 233 232 232 232 232 233 233 233 233 233 234 235 235 235 235 236 237 237 237 236 237 237 238 237 238 238 241 239 238 238 238 238 239 241 240 242 242 241 241 242 242 242 243 242 242 244 244 243 244 245 245 245 244 243 244 244 243 243 244 245 246 245 243 243 243 243 242 243 242 242 242 242 242 241 242 241 239 239 239 239 239 239 238 238 236 235 235 235 235 233 234 233 233 233 233 233 231 230 231 230 228 227 227 226 226 226 225 224 223 223 222 221 220 220 218 218 217 216 216 216 214 211 212 212 211 210 208 206 204 201 200 198 198 197 194 190 189 188 187 184 181 179 177 176 174 172 166 166 164 163 161 158 155 155 154 152 150 150 149 148 147 148 148 149 149 149 148 147 147 147 147 145 145 146 145 143 144 145 144 143 143 143 143 143 144 143 144 143 143 143 143 142 143 144 142 143 141 140 141 141 142 144 141 141 140 140 141 143 143 144 142 144 145 145 144 143 143 143 143 142 141 141 141 142 142 142 145 144 142 142 142 140 140 142 141 141 142 144 144 144 144 143 140 141 142 144 143 141 141 143 144 143 147 144 143 145 144 144 143 143 144 145 144 144 145 145 147 147 148 148 148 148 148 148 148 147 148 148 148 148 149 151 150 150 151 150 150 150 151 151 151 152 152 153 153 153 152 152 151 151 153 155 155 154 153 154 155 153 152 155 158 158 155 153 158 159 158 158 161 162 161 161 
160 159 157 156 155 152 149 147 145 144 144 143 140 138 139 139 137 138 139 139 139 138 137 136 137 139 140 140 140 140 138 138 141 141 143 144 143 143 144 144 146 147 148 151 152 154 156 157 160 161 164 166 167 171 175 176 179 185 187 188 194 200 204 210 214 218 220 221 223 226 228 230 231 230 231 232 231 232 233 233 233 233 232 232 233 233 233 234 234 234 234 233 234 235 236 236 236 236 237 238 238 237 237 238 240 239 239 240 240 239 238 239 240 241 242 242 242 242 242 243 243 242 243 244 244 244 245 245 246 245 243 242 244 244 243 243 244 245 246 244 243 242 243 244 242 243 243 242 242 243 242 241 242 240 239 238 238 239 239 238 238 238 236 235 235 236 235 234 233 233 233 233 233 232 231 230 230 229 227 227 226 227 227 227 225 224 223 224 223 222 221 220 218 218 217 216 216 215 213 211 212 211 210 208 206 205 203 202 200 199 199 198 194 192 190 188 187 184 181 179 177 176 174 172 166 166 163 161 161 158 155 154 155 153 151 151 150 148 147 148 148 149 149 149 148 148 147 146 147 146 146 145 144 143 144 146 143 143 144 144 143 143 143 142 145 143 143 145 145 143 143 145 141 142 143 143 144 142 141 142 144 143 142 141 141 142 142 142 142 144 145 145 144 144 143 142 143 143 142 141 142 143 143 141 145 145 144 143 142 140 139 140 143 143 143 143 142 142 142 143 141 141 142 142 141 141 143 145 144 143 146 144 143 146 144 143 141 141 142 144 144 144 145 145 148 148 149 149 149 149 148 147 146 145 146 147 147 147 149 151 149 150 151 150 151 151 151 151 150 151 152 153 153 153 152 151 150 154 155 152 153 156 155 150 154 154 153 154 157 157 157 158 157 159 158 157 160 160 159 160 
163 161 159 158 157 153 149 146 144 144 145 145 143 141 139 138 137 137 138 139 139 138 137 136 136 138 139 139 139 139 138 138 141 141 144 144 143 143 146 147 147 148 150 151 152 153 155 157 160 160 163 166 168 173 177 177 178 186 188 189 196 201 205 211 214 219 222 223 225 227 229 230 231 230 231 231 231 231 233 233 234 233 233 232 232 233 234 234 234 234 234 233 234 235 236 236 235 235 237 238 238 237 237 238 240 238 239 240 241 239 238 239 240 240 241 242 243 242 242 244 242 243 243 243 244 245 246 245 245 245 242 241 243 243 243 244 245 246 245 244 243 243 244 244 243 243 242 242 242 242 242 240 241 240 239 239 239 239 238 237 238 237 237 236 236 236 235 234 232 233 233 233 233 232 231 231 230 230 228 228 227 227 227 226 225 224 224 224 223 221 220 220 218 218 218 217 215 214 213 211 212 211 209 207 207 206 203 201 199 199 199 197 194 192 191 188 186 183 181 180 178 176 174 171 168 166 163 161 161 159 155 153 156 154 152 151 150 149 148 148 149 150 149 148 148 149 149 148 146 147 146 144 144 144 144 145 144 144 145 145 143 142 143 142 141 141 141 141 140 141 141 142 140 142 143 145 146 143 142 143 146 145 143 142 142 141 141 140 143 144 144 144 145 145 143 142 141 143 144 142 143 144 143 141 141 144 144 143 143 142 141 142 143 143 142 142 141 141 141 142 141 143 144 142 141 141 143 145 144 143 145 143 143 147 144 142 142 141 142 144 144 144 145 145 145 145 146 147 147 147 146 146 147 145 145 146 147 147 148 149 149 150 151 151 152 152 152 151 151 151 152 152 153 153 152 151 150 154 154 151 151 156 156 152 154 155 155 156 158 157 157 160 156 159 158 157 160 159 157 159 
168 164 160 158 158 155 151 147 148 146 143 142 141 140 140 140 135 136 137 138 138 138 138 138 136 138 138 137 138 138 138 139 139 141 145 147 145 145 148 151 148 150 152 153 152 152 154 157 160 159 162 166 169 174 179 178 178 186 189 190 197 202 205 211 214 219 223 225 227 229 229 230 230 230 231 232 231 231 233 232 234 234 233 232 232 233 234 235 235 235 234 234 234 236 236 236 234 235 237 238 238 237 237 237 241 239 238 239 240 239 239 241 240 239 240 243 243 242 242 244 242 244 244 243 244 246 246 245 244 244 242 241 241 242 242 244 247 246 245 244 243 244 244 243 243 243 242 241 241 242 241 240 240 239 239 240 240 239 238 236 237 237 237 236 237 237 236 234 232 233 234 233 232 231 231 231 232 231 230 229 228 227 225 224 225 224 223 223 222 220 219 218 218 218 218 217 215 214 213 212 211 210 209 209 209 208 203 199 197 199 199 196 192 192 191 187 186 184 182 180 178 176 174 171 169 167 163 160 161 160 156 153 154 152 151 151 150 149 149 149 149 148 147 145 146 148 149 148 146 147 146 143 144 145 143 142 146 144 145 145 142 141 142 141 143 145 145 142 141 144 146 144 139 140 140 142 143 141 141 142 142 142 142 142 143 144 144 144 144 144 144 144 145 145 143 142 139 143 145 144 143 144 143 140 141 144 145 143 142 142 141 141 140 140 141 142 143 142 141 140 141 144 146 144 142 142 143 142 144 142 144 142 143 147 144 140 145 143 144 146 145 144 145 145 145 146 147 148 148 149 150 150 149 147 146 147 148 147 147 148 148 149 151 152 152 153 152 151 152 152 152 152 152 153 153 151 151 151 151 151 152 154 156 157 151 153 153 155 158 157 154 155 156 160 159 158 160 159 157 159 
170 166 163 162 160 155 151 149 148 145 143 142 140 139 138 137 137 136 137 138 137 138 137 136 140 139 138 139 141 142 141 141 140 140 141 146 146 143 145 144 147 148 149 152 156 156 155 155 161 162 163 166 170 173 176 180 179 185 190 193 196 200 205 209 213 217 221 223 226 227 227 229 230 230 230 230 231 232 232 231 234 234 233 233 233 234 234 233 235 235 235 235 235 235 235 235 236 237 238 239 239 238 239 239 240 239 239 239 239 239 239 240 239 240 241 242 242 242 242 242 242 245 245 243 244 245 245 244 245 244 242 242 241 240 242 244 245 245 245 245 244 243 243 244 244 243 242 241 239 239 240 239 240 239 239 238 239 239 239 240 238 236 235 235 237 237 236 234 234 234 234 233 232 231 230 229 229 230 231 229 227 226 226 227 224 222 222 222 221 221 221 219 218 219 217 215 214 213 213 214 211 210 209 209 208 206 203 201 199 197 196 195 192 191 190 188 185 181 180 181 179 175 173 171 167 166 162 159 160 158 155 155 153 153 152 151 151 151 150 150 147 146 145 146 147 148 148 148 145 145 144 145 147 145 142 142 142 145 145 143 142 144 144 143 144 146 144 141 142 143 143 144 143 141 140 141 142 141 141 140 142 143 142 142 144 143 141 143 143 143 142 142 143 143 142 144 141 143 143 143 143 142 141 144 139 142 143 144 144 141 140 142 141 141 143 143 140 142 146 143 141 142 143 144 145 145 144 143 143 142 143 146 146 144 143 143 144 145 145 146 146 146 145 145 146 145 146 146 146 146 147 148 151 149 149 149 147 146 148 148 150 148 147 147 149 151 151 151 150 151 151 150 152 154 153 152 154 154 153 152 153 154 155 158 160 157 155 155 157 158 159 160 161 157 157 159 158 155 156 158 
175 170 165 163 161 157 152 150 147 145 143 143 141 140 139 138 138 137 138 139 139 139 140 139 139 138 137 138 141 142 140 138 142 140 138 142 142 142 146 147 150 151 151 151 153 152 152 154 162 163 164 166 170 173 176 180 181 185 189 192 196 200 205 210 214 218 221 223 226 227 228 229 230 230 230 230 232 233 232 231 234 234 233 233 233 234 234 233 234 234 235 235 235 235 236 237 235 236 238 238 238 238 238 238 240 239 239 239 240 239 240 240 240 241 242 242 242 242 242 242 242 244 244 243 244 245 245 245 245 243 242 242 242 241 242 244 244 244 244 244 243 242 243 243 243 242 242 240 239 239 240 239 239 239 239 239 239 239 239 238 239 238 237 236 236 235 234 233 233 233 233 232 232 232 231 230 228 229 230 228 227 227 227 227 225 223 223 223 221 221 221 219 217 218 217 214 214 213 212 213 212 211 211 209 208 205 203 202 199 196 195 194 193 191 190 187 184 181 181 181 178 175 173 171 168 168 164 161 160 158 156 156 155 154 152 151 151 150 149 148 151 149 147 147 148 148 148 148 145 145 144 144 145 144 143 143 144 145 144 143 143 144 144 142 143 145 143 141 142 144 143 143 143 142 141 141 142 142 142 141 144 144 142 142 143 142 140 141 142 143 143 143 142 142 142 145 143 144 143 142 144 143 142 143 140 142 142 143 143 142 142 143 143 142 143 144 142 141 142 143 142 141 141 141 142 142 142 142 141 141 141 143 142 141 142 144 145 145 144 144 144 145 146 146 146 146 146 146 146 146 146 147 149 148 149 149 147 147 149 150 149 149 149 149 150 150 150 149 152 152 152 152 152 153 153 153 153 154 153 154 155 154 152 153 156 155 155 157 157 157 157 158 159 158 158 158 158 159 159 158 
179 173 168 166 164 160 156 153 149 146 145 145 143 142 141 140 139 137 137 139 139 139 139 139 137 138 138 139 140 140 139 138 140 139 138 142 144 143 147 147 147 149 150 151 152 153 155 159 161 162 163 166 170 173 176 180 182 185 188 191 196 201 206 210 214 218 221 223 226 228 229 230 230 231 231 231 232 233 233 231 234 233 233 233 233 234 234 233 233 234 235 235 234 235 236 238 235 236 237 238 238 238 238 238 239 239 239 240 240 240 240 240 241 242 242 243 243 242 242 242 243 244 243 243 245 245 245 246 244 243 242 242 242 241 243 245 244 244 244 243 243 242 243 243 242 241 241 240 239 240 240 239 239 239 239 240 240 240 238 236 239 239 238 237 235 234 233 233 234 233 232 231 232 233 232 230 228 229 229 228 228 228 227 226 226 224 224 223 222 221 221 220 217 217 215 213 213 213 212 212 212 212 211 209 206 204 203 202 199 196 195 194 193 192 190 187 183 182 182 180 176 174 172 171 168 169 167 163 160 158 157 158 156 154 152 151 150 150 148 147 150 148 147 147 147 146 146 145 145 146 145 143 144 145 144 144 145 144 143 143 144 145 144 142 143 144 142 141 143 144 143 141 143 143 142 141 142 143 143 142 144 143 142 142 143 142 140 140 140 143 143 143 142 140 142 145 144 144 141 140 142 144 143 142 142 142 141 141 142 143 143 144 144 143 142 144 144 140 140 144 144 144 143 143 144 145 144 143 142 142 143 144 143 142 143 145 146 145 144 143 144 145 146 147 146 146 147 147 147 146 146 147 148 148 149 148 146 148 150 149 148 149 150 151 151 150 149 149 153 153 153 153 152 151 152 153 153 153 153 154 156 154 152 152 154 153 154 157 157 155 155 158 156 158 158 158 159 162 160 157 
178 175 172 170 168 164 159 156 152 149 148 147 145 143 142 140 141 138 138 140 139 138 138 139 137 138 141 141 139 138 140 141 140 139 139 144 146 145 147 146 146 148 150 151 153 155 158 162 158 160 161 164 169 173 177 181 183 185 187 191 197 201 206 210 214 217 220 222 226 228 229 231 230 231 231 231 232 233 233 232 234 233 233 233 233 234 234 234 234 234 235 235 235 235 236 238 236 237 237 238 238 238 238 238 239 239 240 241 241 240 240 241 241 242 243 243 242 242 242 242 243 243 243 244 245 245 244 246 243 242 242 242 242 242 243 245 245 245 244 244 243 243 244 244 242 242 241 241 239 240 240 239 240 239 239 240 241 240 238 236 238 238 237 236 235 234 234 233 234 234 232 231 231 232 231 230 229 229 229 228 228 228 226 224 226 224 224 224 222 221 221 219 217 217 215 213 214 214 213 212 211 210 209 207 205 204 202 201 199 197 196 194 192 191 189 186 184 183 181 178 175 174 172 170 168 168 167 164 160 158 157 158 155 153 151 151 150 150 149 148 147 146 147 148 148 147 145 144 145 147 146 144 144 146 146 146 144 143 144 144 144 143 144 144 144 144 143 143 144 144 143 141 143 143 142 141 141 143 143 142 143 142 141 142 144 143 141 141 141 143 143 142 141 140 141 144 145 145 142 140 142 146 145 143 144 144 142 141 143 144 143 144 143 144 143 143 146 142 141 146 142 142 142 143 144 145 143 140 143 143 145 146 146 144 144 144 144 145 145 145 145 146 146 146 148 147 147 147 147 147 148 149 149 150 150 148 146 148 149 147 147 148 150 151 151 151 150 150 152 151 152 153 152 150 150 152 154 154 153 153 154 154 154 156 156 153 153 156 156 155 156 160 154 157 159 158 160 160 157 154 
178 176 174 172 169 164 160 158 154 150 149 147 145 143 142 140 143 140 140 141 140 139 139 140 139 138 140 140 138 138 140 141 143 142 139 142 143 143 147 146 150 151 151 152 153 154 155 157 158 160 161 165 169 173 177 181 183 185 187 192 198 202 205 210 215 218 220 222 226 228 229 230 230 231 231 231 232 233 232 232 233 233 232 233 233 234 234 234 235 235 234 235 235 236 236 236 237 237 237 238 238 238 238 238 239 239 240 241 241 240 240 241 241 242 242 242 242 242 242 242 243 243 242 243 245 245 244 246 242 241 241 242 242 241 243 245 245 245 244 244 244 244 244 244 243 242 242 241 240 240 240 239 241 240 239 239 240 239 238 237 238 237 236 236 236 235 234 233 234 234 233 232 231 231 231 231 229 229 228 228 228 228 226 224 225 224 224 223 221 220 220 219 217 217 215 213 214 214 213 213 211 209 207 206 205 205 203 201 199 198 197 195 191 189 188 186 185 182 180 177 175 174 172 169 168 167 165 163 160 157 156 155 152 152 151 150 151 151 150 150 148 148 148 149 149 148 147 147 144 147 147 144 144 146 145 145 143 145 146 146 143 141 142 145 145 144 144 144 144 144 143 142 143 143 143 142 142 143 143 143 143 141 141 143 144 144 143 142 142 143 143 142 141 140 140 142 145 145 144 142 143 146 148 146 145 145 143 143 145 145 144 142 142 145 144 142 145 145 143 145 142 143 143 143 144 146 144 141 143 143 143 143 144 143 142 141 145 145 145 146 146 146 146 146 148 147 146 146 147 147 148 150 150 150 149 148 147 149 149 145 148 148 149 150 151 151 151 150 151 150 151 153 154 152 151 151 154 154 153 153 153 153 155 158 156 153 153 155 156 155 156 158 158 159 159 158 158 156 154 156 
182 180 177 172 167 164 161 160 154 151 149 147 145 143 143 141 141 139 139 138 138 139 140 139 141 137 136 137 137 139 140 138 141 142 141 143 143 142 146 144 149 150 150 151 153 153 153 155 159 161 163 166 170 174 177 181 183 185 188 193 199 202 206 211 217 219 221 223 226 228 228 228 230 231 231 231 231 232 233 232 233 233 232 233 233 234 234 234 234 234 234 235 235 236 236 235 237 237 237 238 238 238 238 238 239 239 240 241 240 240 240 241 241 241 242 242 242 242 242 243 243 243 243 243 245 245 244 245 242 241 241 242 242 241 243 245 244 244 243 243 244 243 243 243 243 243 243 242 240 240 240 239 240 239 239 238 238 238 238 237 239 238 236 236 236 235 234 232 232 233 233 232 231 231 231 231 228 228 228 227 228 228 226 225 224 224 224 223 221 220 220 219 217 217 215 214 214 214 213 213 212 209 207 206 206 206 203 201 199 198 197 195 191 188 188 187 185 182 179 177 176 175 172 169 169 167 165 162 159 156 155 152 151 151 151 151 150 150 151 151 150 148 147 146 146 146 148 149 144 146 145 144 145 145 144 144 144 146 147 146 142 140 141 144 145 144 144 144 143 143 143 142 144 144 144 144 144 144 144 144 144 142 143 143 143 143 143 143 143 143 142 141 142 140 140 141 142 142 142 141 141 143 145 144 144 145 144 143 146 146 144 142 143 146 144 142 142 144 143 143 144 145 144 142 143 146 147 145 146 144 141 140 141 142 142 142 147 146 145 145 145 146 147 148 147 145 145 145 146 147 148 149 149 149 149 148 148 149 149 147 150 149 149 149 149 150 150 150 151 151 152 154 155 154 152 151 152 153 154 154 153 152 153 156 154 153 154 156 157 156 155 155 162 162 159 158 157 155 155 160 
188 186 181 175 170 167 165 163 157 153 150 148 146 144 144 142 140 140 139 137 136 139 140 138 140 137 137 138 137 139 140 137 139 141 142 145 144 143 146 144 147 148 148 150 152 153 154 156 159 161 163 166 171 173 176 180 185 187 189 194 199 202 207 213 217 220 222 224 227 229 228 228 231 232 231 231 231 232 233 233 233 233 232 232 233 234 234 234 233 234 235 235 235 235 235 236 238 237 237 237 238 238 238 237 239 239 240 240 240 239 240 242 241 242 242 242 242 242 243 243 243 244 243 242 244 246 244 243 242 241 241 242 242 242 243 245 244 243 243 244 244 244 243 242 242 242 242 242 240 240 240 239 238 238 238 238 237 237 237 237 238 238 237 236 235 234 233 233 233 233 233 232 232 232 231 230 228 228 228 227 227 227 226 226 224 223 224 223 220 220 220 219 218 218 216 214 213 212 211 212 211 209 207 206 206 205 203 201 199 197 196 194 191 190 189 188 185 181 179 178 176 174 172 170 169 166 164 162 159 157 155 152 151 152 152 151 150 149 150 151 148 146 145 145 145 145 147 148 146 146 145 144 146 145 144 144 145 146 146 144 142 142 142 142 145 142 141 142 142 143 144 142 144 142 143 145 145 143 142 144 144 142 143 144 142 142 143 143 144 143 142 141 142 141 140 141 141 140 141 142 141 142 144 143 142 144 144 143 146 147 145 144 145 143 143 142 141 141 143 142 142 144 142 139 139 142 144 144 147 145 142 141 141 142 144 144 146 146 145 145 145 146 147 148 146 145 145 146 147 147 147 148 149 148 149 150 148 148 149 149 150 150 149 149 148 149 150 151 151 152 152 153 153 153 153 152 151 153 153 154 154 153 153 155 154 155 156 156 156 156 156 156 160 163 160 157 158 158 157 159 
191 189 185 180 176 172 169 166 160 156 153 150 147 145 144 143 144 144 143 140 139 141 142 139 139 138 140 141 137 138 140 139 142 143 142 143 141 142 148 149 149 150 149 150 152 152 154 156 157 159 161 165 170 173 176 179 187 188 190 195 199 203 208 215 217 220 222 225 229 230 230 230 232 232 232 231 231 233 234 234 233 232 232 232 233 234 234 234 231 233 235 236 235 235 236 236 237 237 236 237 237 238 237 237 239 239 240 240 239 239 240 242 241 242 242 243 243 243 244 244 243 245 244 242 244 246 245 243 243 242 242 243 243 242 243 245 244 244 244 245 245 245 243 242 241 241 242 241 240 240 241 239 236 237 238 238 237 236 236 237 237 237 237 236 235 234 234 234 235 234 233 232 232 232 230 228 229 229 229 227 226 226 225 225 224 223 224 223 221 220 220 220 218 219 217 214 212 211 210 211 210 209 208 206 205 203 201 200 198 196 194 193 191 191 191 190 184 180 179 179 177 173 171 171 167 164 164 163 159 158 157 155 152 153 154 152 149 148 149 150 146 146 147 148 149 148 148 149 149 147 145 145 147 146 145 146 144 145 144 142 143 145 144 141 144 140 139 140 141 143 144 142 143 140 141 145 144 141 140 143 143 142 143 143 141 141 144 144 143 143 142 142 142 141 140 142 145 143 144 146 145 145 146 145 140 142 143 142 145 147 146 145 146 140 140 143 140 139 142 143 142 144 145 142 141 143 144 143 144 144 143 141 141 142 143 143 144 145 146 146 147 147 146 146 147 146 147 148 149 148 147 147 149 149 151 151 148 146 148 150 148 149 149 149 148 149 151 152 150 152 153 151 150 152 153 152 152 152 152 153 154 155 156 158 156 158 158 156 155 156 158 159 155 162 161 158 161 162 159 156 
192 193 187 182 179 175 171 164 162 156 151 149 147 145 145 144 138 140 141 140 139 140 139 137 138 138 139 140 140 137 137 142 143 142 143 144 145 146 147 149 145 147 149 151 152 153 154 154 161 160 163 168 171 174 178 183 184 188 193 197 201 204 207 211 217 218 222 226 229 229 229 229 230 232 232 231 232 232 231 233 233 232 232 233 233 232 232 233 235 234 234 236 237 236 236 236 235 236 238 238 237 237 237 239 239 239 239 239 239 240 242 243 240 241 242 243 243 243 243 243 243 243 244 245 245 244 244 243 243 242 241 241 242 242 244 246 245 245 246 245 244 242 242 243 243 243 243 242 241 240 239 238 238 238 239 239 239 237 236 237 235 235 235 235 236 236 236 236 235 235 233 232 231 230 231 231 230 229 228 228 228 228 227 226 225 224 223 222 222 222 220 218 219 217 216 216 214 213 213 210 210 209 207 205 204 204 202 200 199 196 195 194 191 189 188 186 183 182 181 179 175 173 173 171 168 164 163 162 160 161 160 153 153 154 152 151 150 149 149 151 149 147 148 149 149 148 148 147 149 149 148 147 146 147 147 147 148 147 146 144 143 143 144 145 141 141 142 144 143 144 145 144 142 144 143 142 144 145 145 146 146 143 142 143 144 144 144 143 142 140 142 145 145 142 142 145 145 144 142 142 144 143 142 143 145 144 143 144 146 145 145 146 147 143 142 142 142 143 144 144 144 146 146 146 146 144 142 142 141 145 146 144 143 144 144 142 145 141 140 144 148 148 146 145 149 144 144 146 146 147 148 147 148 147 147 146 147 150 150 147 147 149 150 150 151 151 150 151 149 151 150 149 152 154 152 150 151 153 153 153 154 155 155 154 156 156 157 158 156 154 155 157 156 158 161 159 160 159 156 159 
193 194 188 185 182 177 174 168 164 158 153 151 149 148 146 144 140 141 140 139 139 140 140 138 138 138 138 139 139 137 137 141 141 142 142 143 144 144 146 147 145 147 150 151 152 152 153 154 160 159 161 166 170 173 177 182 184 189 194 198 202 205 208 212 217 218 221 224 227 228 229 229 231 232 231 231 233 233 232 232 234 233 233 234 234 234 234 234 234 234 234 236 236 236 236 237 236 236 236 237 238 238 238 239 238 238 240 240 240 240 241 241 241 241 242 242 242 242 242 243 243 244 245 245 245 245 244 243 243 242 241 241 241 242 244 245 244 244 244 244 244 244 243 243 243 243 242 241 241 240 239 239 239 238 239 239 238 237 237 237 235 235 235 236 235 235 235 235 234 234 233 232 231 230 230 230 230 229 228 228 228 228 227 225 225 224 223 222 221 221 220 218 219 217 216 216 214 213 212 210 210 209 207 205 204 203 201 199 201 197 195 194 191 189 187 184 185 182 181 178 175 172 171 169 167 165 163 161 159 159 158 154 153 153 153 152 151 149 148 149 150 148 148 149 147 147 146 145 148 148 148 146 145 146 146 146 146 146 145 144 143 144 144 145 144 144 144 144 144 145 145 144 145 145 143 142 145 146 144 143 146 143 143 145 145 144 142 141 144 142 142 144 145 143 143 145 143 144 144 144 143 141 140 143 145 145 143 143 144 143 142 144 145 142 142 143 143 143 143 143 143 144 143 143 145 144 142 142 142 144 145 144 143 144 145 144 147 146 145 146 146 145 146 148 147 144 144 147 148 149 150 149 148 149 149 148 147 148 149 147 147 149 149 149 150 150 150 151 151 152 152 151 152 153 152 151 153 153 153 153 153 153 154 154 155 156 158 159 158 157 158 159 157 157 159 157 158 159 156 160 
195 194 189 188 185 180 177 172 164 160 156 152 149 148 146 142 142 142 140 139 140 141 141 139 140 141 140 139 140 140 140 142 140 142 143 143 142 144 145 146 145 148 151 152 152 153 154 155 159 158 160 164 168 171 176 181 185 189 194 198 202 206 210 213 217 219 221 223 225 228 230 229 232 232 230 230 233 234 232 230 232 231 231 232 232 232 232 232 233 234 235 235 235 235 236 238 236 235 235 237 238 238 239 239 238 238 239 240 240 240 241 241 241 242 242 242 242 242 242 243 244 244 245 246 246 245 244 243 242 243 242 241 241 243 244 244 245 243 242 243 245 245 243 242 243 242 241 241 240 240 240 240 239 238 238 238 237 237 237 238 235 235 236 236 235 235 234 234 233 233 232 232 231 231 230 230 230 229 228 228 227 227 226 225 224 224 223 222 221 220 220 219 218 216 216 215 214 213 213 210 210 209 207 205 204 203 201 199 201 197 194 193 192 190 187 184 185 182 180 177 174 172 170 168 166 166 163 160 159 157 155 155 153 153 153 153 153 150 147 147 151 149 149 148 147 147 147 145 147 147 147 145 144 145 145 145 146 145 145 145 144 143 144 144 146 145 144 144 144 146 146 143 143 144 143 142 143 143 142 141 145 144 144 144 144 143 143 143 145 144 143 144 145 145 143 142 142 144 144 145 145 142 141 143 146 146 144 143 144 143 143 144 144 142 142 144 144 144 144 143 143 143 141 141 143 144 142 142 143 143 144 144 144 144 145 147 147 148 148 147 146 146 147 148 149 147 147 148 149 148 148 146 146 148 150 149 147 148 149 149 148 149 149 149 150 150 149 150 152 152 153 153 153 153 153 154 154 152 152 153 154 154 154 156 154 157 159 159 159 159 159 159 158 157 158 156 157 159 158 161 
198 196 191 190 187 181 178 173 166 164 160 154 149 148 147 143 144 143 142 140 140 141 141 140 140 141 140 138 139 141 142 142 140 144 145 143 142 144 146 146 145 148 151 152 153 153 155 156 158 158 161 164 167 170 176 181 185 189 193 198 203 207 211 214 217 220 223 223 225 229 230 230 232 231 230 231 233 234 232 230 233 233 233 234 234 233 233 234 234 234 235 235 234 234 236 238 237 236 236 237 238 238 239 239 239 239 239 238 239 240 241 242 241 242 242 242 242 242 243 244 244 244 245 246 245 245 244 243 241 243 242 241 241 244 245 244 246 244 242 243 244 244 242 241 241 241 240 240 240 240 240 240 238 238 238 238 237 236 236 237 236 236 235 235 235 234 234 234 234 233 233 233 233 232 231 230 230 229 228 227 227 226 225 224 223 224 223 222 220 220 219 219 217 216 215 215 214 213 212 211 210 209 207 205 204 203 201 199 198 195 193 193 192 190 188 186 184 181 178 176 174 173 171 168 165 166 162 159 159 157 153 155 154 153 152 152 153 151 148 147 150 149 149 148 147 148 149 147 146 146 146 145 144 145 145 145 146 146 146 146 145 143 142 143 144 143 143 142 144 146 146 143 141 144 145 144 143 143 143 144 145 144 144 143 143 143 144 145 143 143 144 145 146 145 143 140 144 143 142 144 147 146 143 143 144 144 143 142 143 143 143 145 144 143 143 144 144 144 144 143 144 143 142 142 144 144 143 142 144 143 143 145 146 144 145 147 145 145 145 146 147 148 146 143 147 147 147 148 148 147 146 145 143 145 148 149 147 148 150 150 148 150 151 151 152 151 149 149 151 150 151 153 153 153 155 156 154 152 152 155 156 155 156 159 155 158 158 157 157 158 157 157 160 157 158 156 157 160 159 161 
201 198 193 192 189 182 179 173 170 168 164 156 150 148 148 146 143 143 143 141 140 140 139 139 138 139 138 136 137 140 140 139 141 144 145 143 142 144 146 146 146 148 150 151 152 152 154 155 157 159 162 165 167 170 176 182 185 189 193 198 203 207 211 215 217 221 224 224 226 229 230 229 231 231 231 231 232 233 232 231 233 233 233 234 235 234 234 234 234 235 236 235 234 234 236 237 237 237 237 238 238 238 238 240 240 239 238 238 239 240 241 242 241 242 242 242 242 243 244 245 244 244 245 245 245 244 243 242 241 242 242 241 242 245 246 244 245 244 243 243 243 243 242 242 239 239 240 240 240 240 240 240 237 237 238 238 237 236 235 236 237 236 235 234 234 234 235 235 233 233 233 233 233 232 231 230 230 229 228 227 226 225 224 224 223 223 223 221 220 220 219 219 217 217 216 215 214 213 211 210 210 209 207 205 204 203 201 199 196 194 193 193 191 189 188 187 183 180 178 176 174 173 171 168 166 166 161 159 161 158 153 154 154 153 152 152 153 152 150 149 149 148 148 147 147 148 149 148 145 146 146 145 145 146 146 146 147 146 146 147 145 143 142 143 143 142 142 142 144 146 146 143 144 145 146 146 145 146 146 146 142 143 143 142 143 142 142 143 142 143 143 143 144 144 143 142 145 144 142 143 145 145 143 143 142 143 142 141 142 142 142 143 145 144 144 144 143 143 144 143 143 143 144 144 144 144 143 143 143 142 143 146 146 143 143 146 143 143 142 144 146 148 146 142 142 144 145 147 149 149 149 148 145 146 148 149 148 149 150 149 148 149 150 150 152 152 151 151 151 149 150 152 152 153 155 155 153 152 153 155 156 156 156 159 156 158 157 155 156 157 156 156 159 156 158 157 158 160 158 159 
204 200 196 195 190 184 181 173 171 168 163 156 149 146 146 145 142 142 142 142 140 139 138 138 138 139 139 137 139 140 140 140 142 144 144 143 142 143 145 145 147 148 148 149 150 151 152 152 157 159 163 166 167 171 177 182 185 189 193 198 204 208 211 215 217 220 224 225 226 228 228 228 230 231 232 232 231 232 232 231 232 232 232 233 233 233 232 233 235 236 236 235 235 235 236 236 238 237 238 238 238 238 238 239 239 239 239 240 240 241 240 240 241 241 242 242 243 243 244 245 244 244 245 245 244 243 242 241 241 242 242 241 243 245 245 244 244 243 243 243 243 242 242 243 239 239 240 240 240 240 240 239 237 237 238 238 238 236 235 236 237 236 235 234 234 234 235 235 233 232 232 232 232 231 230 229 229 229 228 227 226 225 224 224 223 223 222 221 220 220 219 218 218 218 217 215 214 212 209 209 210 209 207 205 204 203 202 200 196 194 194 193 190 188 187 186 183 180 179 177 174 172 170 167 167 164 160 159 160 158 155 153 153 153 151 151 153 152 151 151 149 148 148 146 146 147 148 146 145 146 146 146 146 146 147 147 147 145 146 147 146 143 143 144 144 143 143 144 145 146 145 143 146 144 143 144 145 146 145 142 139 143 143 143 144 142 139 139 144 143 141 141 141 142 143 145 144 144 143 143 143 141 141 143 144 145 144 143 143 143 143 144 145 144 144 143 142 143 144 142 142 142 144 145 144 144 144 143 143 141 142 145 145 142 141 144 144 144 144 143 144 145 145 146 144 146 147 147 149 149 148 149 150 149 150 151 149 149 148 147 148 148 147 147 149 151 152 154 152 150 151 152 151 153 154 152 154 153 153 154 155 155 155 157 156 157 156 154 157 157 156 158 157 154 157 157 157 159 158 158 
206 203 199 197 192 188 185 175 170 166 161 156 150 147 145 144 143 142 142 142 141 140 139 139 139 140 141 140 141 141 141 141 144 143 143 142 142 143 144 145 149 148 147 148 150 152 153 153 157 159 162 165 168 172 176 180 186 190 194 199 205 209 212 215 219 221 224 226 227 227 228 228 230 230 232 232 231 231 233 231 233 233 234 235 235 234 234 234 235 236 236 236 236 237 237 236 238 237 237 238 239 239 239 239 239 239 239 240 241 241 240 240 240 241 242 242 243 243 244 244 244 244 245 245 244 243 242 241 242 242 242 242 244 244 244 243 244 244 243 243 242 242 242 243 241 241 241 241 240 240 240 240 238 238 238 239 238 237 236 237 236 236 236 235 234 234 233 233 234 233 232 231 231 231 229 228 229 228 228 227 226 225 224 224 223 223 222 221 221 220 219 218 217 218 216 214 214 212 210 210 209 208 206 205 204 203 202 200 197 195 194 194 191 188 187 185 182 180 179 177 173 170 168 166 169 163 159 159 158 158 156 154 152 152 151 151 152 151 150 151 149 149 149 147 146 148 148 146 146 147 147 147 146 146 146 146 148 146 146 147 146 143 143 145 145 143 144 146 146 144 144 144 144 143 143 142 142 143 143 140 141 144 144 143 145 144 140 140 146 143 140 141 142 142 143 145 143 143 143 143 144 142 141 143 145 147 147 145 145 145 144 144 145 145 145 144 143 144 145 143 144 142 143 144 143 144 145 143 144 142 142 145 145 143 143 145 145 144 144 145 144 144 145 148 148 150 150 148 148 147 146 147 151 150 150 151 149 148 148 147 148 148 147 147 150 151 151 153 151 151 153 153 151 153 155 152 155 154 153 153 153 154 156 157 155 156 154 154 158 157 155 158 156 153 157 158 157 160 159 159 
207 205 201 199 194 191 188 178 173 167 162 159 155 150 148 146 145 143 142 142 143 143 142 141 138 139 140 141 142 140 140 141 145 144 142 142 143 143 144 146 149 148 147 149 152 155 156 155 157 158 161 165 168 173 176 178 186 190 195 200 206 209 212 215 221 222 225 227 228 227 228 230 231 230 232 232 231 232 233 231 231 231 232 233 233 233 232 232 235 236 236 236 236 238 237 236 238 237 237 238 240 240 240 239 241 240 239 238 239 240 241 241 240 241 242 242 242 243 243 243 244 245 245 245 244 243 242 241 243 242 242 243 244 244 243 243 246 245 243 243 242 241 241 241 243 243 242 241 240 240 240 240 239 239 239 238 238 237 237 238 236 236 236 236 235 233 232 231 235 233 232 232 232 231 230 229 228 228 228 227 226 225 224 224 224 223 221 221 221 221 219 218 215 217 215 214 215 213 211 212 208 207 206 204 203 203 201 200 197 195 194 194 192 190 188 185 180 179 179 177 173 170 168 166 170 162 159 158 156 156 158 155 151 151 150 151 152 150 149 150 150 150 150 148 147 149 150 147 147 148 148 147 146 146 146 146 150 147 146 147 145 142 143 145 144 141 143 147 146 143 143 144 143 144 146 145 141 141 144 145 144 147 144 142 145 146 144 145 146 142 141 144 146 144 143 143 143 142 141 143 147 146 144 143 142 145 145 143 143 143 143 143 145 146 147 146 145 146 147 145 147 144 144 144 143 145 145 143 146 144 144 146 146 145 145 147 145 143 143 146 147 146 146 147 146 149 149 146 147 147 147 148 148 147 148 149 148 148 148 148 149 150 150 151 152 151 149 149 150 151 155 154 151 154 157 154 155 155 153 152 152 155 158 159 154 155 153 154 158 156 153 156 156 154 158 159 158 161 161 162 
207 206 204 201 198 193 187 181 177 172 164 157 154 151 149 149 147 143 140 141 142 141 140 140 140 140 138 141 140 138 142 144 143 142 142 142 143 144 145 146 147 150 152 152 151 151 152 154 153 157 162 165 167 171 176 179 188 193 197 199 202 208 214 216 219 221 224 227 228 230 230 231 229 231 231 231 232 231 231 232 233 234 234 233 233 233 234 234 232 234 235 237 238 238 237 237 236 238 238 238 238 238 238 239 240 239 238 239 239 239 240 242 239 241 240 240 245 245 243 244 243 244 245 245 243 243 243 242 243 241 242 245 246 245 244 245 245 244 244 243 242 242 241 241 241 240 240 240 241 242 241 239 240 238 237 238 239 237 235 235 233 235 236 236 234 233 232 232 233 231 230 231 232 234 232 230 229 228 227 225 224 224 224 224 223 223 222 220 219 219 219 217 217 216 215 214 213 212 212 211 210 209 207 205 204 203 200 197 197 193 193 193 189 188 188 185 181 180 178 176 174 171 169 167 168 163 160 159 156 154 152 151 153 152 151 150 149 150 152 151 147 146 147 147 147 146 147 147 148 146 146 148 148 146 145 145 147 146 145 145 145 146 146 147 147 147 146 146 146 146 146 146 147 145 145 145 143 142 143 143 145 143 141 141 142 143 144 144 145 146 147 145 144 144 144 144 144 143 143 142 142 143 144 144 143 144 144 144 144 144 144 146 147 145 144 147 148 146 144 143 145 142 142 144 145 144 143 143 144 144 144 146 146 144 143 146 147 144 142 143 143 143 144 147 146 146 145 146 147 148 147 145 147 147 147 148 150 148 145 144 148 148 149 150 148 146 147 150 152 149 150 153 154 152 152 155 152 150 151 154 155 154 155 156 154 156 157 157 156 157 158 157 158 158 158 159 161 161 161 163 
210 209 206 203 200 195 188 183 176 172 164 158 154 150 147 146 147 143 141 142 143 142 141 141 142 142 140 142 142 140 143 144 142 141 141 141 142 143 145 147 147 148 150 151 152 154 155 156 155 158 162 165 168 171 176 180 185 190 196 199 203 208 212 215 221 223 225 227 228 229 230 230 229 230 231 231 232 232 231 232 233 233 233 233 233 234 234 234 234 234 235 237 237 237 236 236 236 237 236 236 238 238 238 239 240 239 238 239 240 239 240 241 241 243 241 240 244 243 242 243 243 243 245 244 243 242 242 240 243 242 242 245 245 244 244 244 245 244 244 243 242 242 241 241 242 242 241 241 241 242 241 239 240 238 237 238 238 237 236 235 234 235 236 235 234 234 232 231 232 231 230 230 231 231 230 229 229 228 227 225 224 224 224 224 222 222 221 220 219 220 220 218 216 215 214 213 213 212 212 211 209 208 206 204 203 202 199 196 195 192 192 193 189 188 188 185 181 180 178 176 174 171 168 167 167 163 161 161 158 156 155 154 154 153 152 151 150 151 151 150 148 149 150 148 147 149 150 147 145 146 148 149 146 144 144 147 147 146 145 145 146 146 145 144 146 147 146 145 144 144 145 147 147 144 144 144 144 144 145 144 145 144 143 142 143 144 144 143 145 146 146 146 144 144 144 144 145 144 143 143 142 142 143 143 143 144 144 144 144 143 143 144 143 143 144 145 143 141 142 144 145 143 143 145 145 143 143 144 144 144 143 144 145 144 143 145 146 144 144 146 146 144 143 143 147 148 147 145 145 147 148 147 145 146 146 147 148 148 147 147 149 149 150 150 149 147 149 151 149 147 148 151 153 151 151 153 155 154 154 155 155 154 154 155 155 157 157 155 154 155 157 157 158 157 155 156 158 158 159 161 
212 209 207 205 202 196 190 186 177 172 166 160 155 150 146 144 144 142 140 141 142 141 140 139 142 143 140 141 141 140 142 141 142 141 141 142 143 144 145 145 149 149 149 150 152 153 154 154 157 158 161 166 169 172 177 181 184 189 196 202 206 210 214 217 222 223 225 226 228 229 230 230 229 231 231 232 232 232 231 232 233 233 232 233 234 235 235 234 234 235 235 236 236 236 236 236 236 236 236 236 238 239 238 238 239 238 238 240 240 239 239 241 242 243 241 240 242 242 241 243 243 244 245 245 243 242 242 240 243 242 242 244 245 244 243 244 244 244 244 243 243 242 241 241 242 242 241 240 240 240 240 240 239 239 238 237 238 238 236 235 235 236 236 235 235 234 233 231 232 232 231 230 230 230 229 228 229 228 227 225 224 223 223 223 223 222 220 219 220 220 219 218 216 215 214 213 213 212 212 211 208 207 206 204 203 202 199 196 194 192 192 193 190 188 187 184 181 180 178 175 173 171 168 167 162 160 160 160 157 156 156 155 153 153 153 153 151 152 152 150 147 150 150 146 145 149 150 146 144 145 147 148 146 144 145 148 147 147 146 147 147 146 145 143 146 146 146 145 143 143 145 147 147 144 143 144 145 145 146 145 144 145 144 143 143 144 144 142 145 145 145 146 145 143 143 144 144 144 143 143 142 142 143 143 143 144 144 144 144 143 142 143 143 144 145 146 144 142 143 146 143 143 144 145 145 143 142 143 143 144 143 142 143 143 143 144 145 145 146 147 147 146 144 142 146 148 148 146 145 148 149 148 145 146 146 146 147 147 147 149 150 150 149 149 148 149 150 151 149 148 149 151 152 153 152 151 150 151 152 152 153 154 155 155 155 156 156 155 154 154 155 155 157 156 155 155 157 157 157 159 
210 208 205 205 202 197 192 189 180 174 168 163 157 152 148 146 144 142 140 140 141 140 140 139 141 143 140 141 141 141 142 140 141 142 143 144 144 144 144 143 147 147 148 149 151 153 153 153 159 158 160 165 169 172 177 181 185 189 196 203 208 211 215 218 221 222 224 226 228 229 231 232 231 232 232 231 232 231 230 231 232 233 233 233 233 234 234 234 234 234 235 235 236 236 237 237 237 238 237 237 239 239 239 239 238 238 238 240 240 239 239 240 240 241 241 241 242 242 242 244 245 245 246 245 243 242 242 240 242 242 243 244 244 244 243 244 244 244 244 243 243 242 241 241 240 241 241 239 238 239 239 239 239 239 238 237 237 238 237 235 236 236 235 235 235 234 233 231 232 233 232 231 230 230 229 229 229 228 227 225 224 223 223 222 224 222 220 220 220 220 218 216 216 215 213 213 213 212 212 211 208 208 206 205 204 202 199 197 196 194 193 192 190 188 186 184 181 179 177 175 173 170 168 167 160 159 159 158 156 155 155 154 152 152 152 152 151 152 153 152 148 149 149 146 145 148 149 146 147 145 145 146 148 148 147 147 147 148 148 148 147 147 146 144 145 146 146 145 144 144 145 147 147 145 145 145 145 145 145 144 144 145 145 143 143 145 144 142 145 144 145 146 146 143 142 144 143 143 143 143 143 143 144 144 143 144 144 143 144 144 143 144 146 144 144 146 147 147 146 145 142 142 143 145 145 143 143 143 142 144 143 142 142 142 143 144 144 145 145 145 145 146 146 145 143 147 148 147 146 148 148 145 146 147 146 146 146 146 146 147 149 149 148 147 147 149 151 150 152 152 152 152 154 155 153 150 149 151 152 151 151 153 154 153 154 155 156 157 158 157 155 153 154 156 157 158 159 159 158 159 
209 207 205 205 203 199 194 191 183 175 169 164 158 153 150 148 146 144 142 141 141 141 142 142 141 142 140 141 142 142 144 142 141 143 143 143 144 145 145 145 143 144 147 150 152 154 155 156 159 158 160 164 168 171 176 181 185 188 194 201 207 211 214 217 221 222 224 226 228 229 231 232 231 232 231 230 231 231 231 233 232 233 234 233 233 233 234 234 235 235 235 235 235 236 236 237 237 238 238 238 238 238 238 239 238 238 238 240 240 239 239 240 239 240 241 242 243 243 243 244 245 245 246 245 243 242 242 240 241 242 243 244 244 244 244 244 243 244 243 243 243 242 241 241 239 240 240 239 238 238 239 240 238 239 238 237 237 238 237 235 236 236 235 234 234 234 233 232 232 233 233 231 230 230 230 229 229 228 226 225 224 224 223 222 223 222 220 220 220 219 218 217 216 214 213 212 212 212 211 210 208 207 206 204 203 202 199 197 198 195 193 191 188 186 184 182 180 179 177 174 172 170 168 167 164 162 161 159 156 156 157 156 152 152 152 151 150 151 152 151 151 148 148 149 148 147 148 149 148 146 145 146 149 150 149 147 147 148 148 147 146 146 146 146 144 145 146 146 146 146 146 146 146 145 146 146 144 144 145 145 144 145 144 142 143 144 144 143 145 144 144 146 146 143 142 144 142 143 143 143 143 143 144 145 145 146 144 143 144 144 144 145 145 143 143 145 147 147 145 143 142 142 142 144 145 145 144 143 141 144 144 142 141 141 143 145 143 145 145 144 144 145 147 147 142 145 147 146 146 148 147 144 146 148 147 146 147 147 146 146 148 148 147 146 148 150 151 151 152 152 152 153 154 155 153 150 153 155 155 152 151 153 153 152 155 154 155 157 159 159 157 154 153 157 159 159 160 160 160 161 
211 210 208 206 205 201 196 192 184 176 169 165 158 153 151 149 146 145 142 141 140 140 141 142 138 140 138 140 140 140 143 142 142 143 142 141 142 145 148 148 145 147 149 151 152 153 155 156 158 158 159 163 166 170 175 179 186 189 195 201 207 212 215 217 222 223 225 226 228 229 230 230 229 230 230 230 231 232 232 234 231 233 234 234 232 232 234 235 237 236 236 235 235 235 236 236 236 238 238 237 238 237 237 239 239 238 239 240 241 240 240 241 240 241 242 242 243 243 243 242 245 244 245 243 241 241 241 240 241 242 243 243 244 244 244 244 243 243 243 243 243 242 241 241 240 241 241 240 239 239 240 240 239 238 237 237 237 237 237 236 236 236 235 234 234 234 234 233 231 232 232 230 229 229 229 229 229 227 226 225 225 224 223 222 222 221 220 220 220 219 218 218 216 215 213 212 212 212 211 210 207 206 205 203 202 201 199 197 199 195 191 189 187 184 182 181 179 178 176 174 172 170 167 166 166 164 162 159 156 156 157 155 153 152 152 151 149 150 150 149 151 147 147 149 148 146 146 148 147 147 147 148 148 149 148 148 146 147 147 146 145 146 147 146 144 145 146 147 147 147 146 146 144 144 146 146 144 144 145 146 145 144 144 143 143 143 144 144 145 144 144 145 145 144 143 144 143 144 144 144 143 143 144 144 147 147 145 144 144 144 144 144 143 144 145 145 146 146 145 144 143 143 143 144 146 146 145 143 142 144 144 142 142 142 143 146 143 144 145 146 145 145 146 146 144 145 145 144 144 146 147 147 145 147 147 146 148 149 148 147 149 148 148 149 150 150 151 151 150 150 150 151 153 154 153 151 151 153 152 151 152 154 155 154 157 155 154 155 158 159 158 157 155 158 158 157 158 159 160 162 
211 212 210 207 206 204 198 192 185 176 170 166 158 153 151 148 145 144 142 140 139 139 140 140 137 138 137 139 140 139 142 144 142 143 142 140 141 145 147 147 149 150 151 151 151 152 154 155 156 158 160 162 165 170 175 178 184 191 198 203 207 213 217 219 222 224 225 227 228 228 229 229 227 229 230 230 232 232 232 233 231 233 234 233 233 233 234 235 236 236 235 235 235 236 236 237 237 238 237 237 238 238 237 238 239 238 239 240 241 240 240 241 242 241 241 242 243 243 243 242 245 244 244 242 240 241 241 241 241 242 243 244 243 244 244 243 242 243 243 243 243 242 241 240 240 241 241 240 240 240 239 239 239 238 237 237 237 236 236 237 235 235 235 234 233 234 234 234 231 231 231 230 229 229 229 228 228 227 226 225 225 224 223 222 221 220 221 221 220 218 218 219 217 215 213 212 212 212 210 209 207 207 205 203 201 200 199 198 198 195 191 189 188 185 182 181 179 178 176 174 172 170 167 165 165 163 161 158 156 156 155 153 153 152 152 151 149 149 150 148 149 147 147 148 146 146 146 146 146 148 148 147 147 147 147 148 147 148 147 146 146 148 147 146 144 145 147 147 147 146 146 146 145 144 145 146 144 144 145 145 146 144 144 145 145 143 143 144 145 145 145 144 144 144 144 144 143 144 145 144 144 143 144 145 146 146 145 145 146 145 144 144 145 146 146 145 145 146 146 146 143 143 143 144 144 145 144 143 143 143 142 143 144 143 144 146 145 144 144 146 147 146 145 146 145 145 145 145 145 145 147 149 145 148 148 147 148 149 149 148 150 149 150 151 151 150 150 151 149 149 150 151 152 152 152 152 149 149 149 150 152 155 156 155 158 155 154 155 157 157 157 158 157 159 157 156 157 158 158 158 
210 212 211 207 206 205 200 192 186 177 171 168 160 154 151 148 145 145 144 142 140 140 140 140 140 140 139 143 143 141 145 148 141 143 143 142 143 144 144 143 146 146 147 148 150 153 157 159 155 158 160 162 164 170 175 178 181 189 198 202 206 211 216 218 222 223 225 227 228 228 229 229 228 230 231 231 232 231 230 231 231 232 233 233 233 234 235 235 234 234 235 235 236 237 238 238 238 238 237 237 239 240 239 239 239 239 239 240 241 240 240 242 243 241 241 242 242 244 244 243 246 245 244 243 241 241 242 242 241 243 244 244 243 243 243 243 242 242 243 243 243 242 241 240 240 240 240 239 239 239 238 237 239 237 236 237 237 236 236 237 234 235 235 234 233 233 234 235 232 232 231 230 230 230 229 227 228 227 226 225 225 225 223 222 221 221 221 222 220 217 217 218 217 215 213 212 212 212 210 209 208 207 206 203 202 201 200 199 197 195 192 190 190 187 184 183 178 177 176 174 172 170 167 165 164 163 161 159 157 157 156 152 151 151 152 152 150 150 150 148 149 150 150 149 147 148 149 146 147 147 147 146 146 147 146 146 149 149 148 147 148 150 148 145 145 146 147 147 145 144 145 146 146 145 145 146 144 144 144 143 146 144 145 147 146 143 142 144 145 145 145 144 144 145 144 143 142 143 144 145 144 144 145 146 143 144 144 145 147 146 145 145 146 145 143 143 144 146 146 145 142 143 143 143 142 142 142 142 144 143 141 143 146 145 144 146 147 143 142 145 147 147 147 147 144 145 147 148 147 145 147 150 146 149 149 147 147 148 149 149 150 149 151 153 152 149 148 150 151 151 151 152 153 152 152 153 155 154 152 152 154 155 155 154 156 155 155 157 157 155 155 156 158 159 158 157 159 159 156 154 
212 211 210 208 208 206 200 195 188 185 175 166 163 159 152 148 147 143 143 143 140 140 140 136 139 138 138 140 140 139 139 141 141 142 144 144 143 143 144 144 147 147 148 149 150 153 156 157 158 155 162 164 165 170 171 178 185 189 195 202 208 211 215 220 224 222 225 227 225 228 229 226 230 230 230 232 233 232 231 231 232 233 234 233 231 232 235 236 234 234 235 235 236 236 237 238 235 237 237 236 236 237 238 238 238 238 238 240 240 240 240 240 242 241 241 241 242 242 242 243 244 245 245 244 241 239 240 242 240 244 245 243 243 243 243 243 241 242 242 242 242 241 241 241 239 240 238 238 241 241 239 238 237 237 237 236 235 235 236 236 237 235 234 234 234 234 232 231 229 231 232 230 228 229 229 229 228 228 225 223 223 223 222 222 223 221 220 219 218 218 218 216 216 216 215 214 213 212 211 209 207 205 203 203 202 200 198 196 198 196 193 190 187 185 183 181 180 179 177 174 170 167 167 168 165 162 160 159 157 155 153 151 153 151 150 150 151 152 151 150 152 150 148 149 150 150 149 148 150 148 148 147 146 147 148 146 146 147 146 143 144 148 148 145 145 147 147 145 145 147 146 143 144 146 145 144 144 142 142 145 148 148 146 145 146 145 144 145 144 145 143 142 142 145 145 143 148 146 143 140 139 141 143 144 144 143 143 143 144 145 146 145 148 147 145 145 147 147 146 146 147 145 143 144 144 144 145 147 147 146 145 143 142 144 145 144 145 143 144 146 145 145 145 143 145 146 146 146 147 146 146 151 149 148 150 150 149 150 152 150 149 148 149 150 149 149 150 152 149 151 150 149 151 153 153 153 155 154 152 152 153 155 155 154 156 155 154 155 156 156 156 159 157 154 156 159 157 157 158 158 
215 215 213 211 210 208 203 197 192 186 176 169 165 158 152 151 148 145 142 141 141 140 139 139 138 138 139 140 140 139 140 142 143 142 142 142 142 143 145 145 147 148 149 150 150 152 155 157 156 155 160 164 167 171 174 180 183 188 194 202 209 212 215 221 223 222 225 227 225 227 229 227 230 230 230 231 232 232 231 231 232 233 234 233 231 233 235 235 235 235 235 236 236 235 236 237 235 236 237 236 236 237 238 238 240 239 239 240 241 240 240 240 241 241 241 242 242 242 243 244 245 245 245 243 240 240 241 242 241 244 245 244 243 243 243 244 243 243 243 243 242 242 241 241 240 241 239 238 240 240 238 238 237 238 238 237 236 236 236 236 235 235 234 234 235 234 232 231 231 231 231 229 229 229 228 227 228 229 227 224 223 223 221 222 222 221 220 219 218 219 218 216 215 215 214 213 212 212 210 209 208 206 204 203 202 200 198 197 193 192 190 187 185 184 182 180 178 178 177 174 171 167 166 166 164 163 162 161 157 154 154 154 154 152 150 150 151 152 151 150 150 149 148 149 149 148 149 149 149 148 147 146 145 146 147 147 148 147 146 146 147 147 146 146 147 147 147 145 145 146 145 143 142 144 144 144 144 143 143 146 145 146 145 144 144 144 143 143 143 144 144 143 143 144 143 140 142 142 142 142 142 143 144 144 144 144 144 143 143 144 145 145 145 145 144 143 145 145 144 144 145 145 145 146 145 144 144 145 146 145 144 143 143 145 146 144 145 144 146 148 146 146 146 144 146 147 146 145 146 146 146 149 148 147 149 149 147 147 148 147 149 149 150 151 150 150 151 153 147 150 151 152 153 153 152 151 154 153 152 151 152 154 154 153 156 156 154 155 158 158 157 158 158 157 157 157 156 158 159 157 
216 215 213 211 209 207 202 197 193 184 175 169 164 155 150 150 147 146 141 140 143 140 137 141 137 139 140 140 140 140 141 142 144 142 140 141 142 144 145 144 147 148 150 150 150 151 154 156 159 160 161 165 167 168 173 176 182 187 195 202 209 212 215 220 222 222 226 227 225 227 230 229 230 229 230 231 232 231 231 231 232 232 233 233 232 233 235 234 235 235 235 236 236 235 236 236 235 236 237 237 237 238 238 238 240 239 239 240 241 241 240 240 241 241 241 242 243 243 244 244 245 246 244 241 240 241 242 241 241 244 245 244 244 243 243 244 243 243 243 242 242 241 241 240 241 242 240 238 239 238 238 238 237 238 238 237 236 236 236 235 234 234 234 235 235 234 232 230 232 231 229 229 229 230 228 226 227 228 227 224 223 222 221 222 221 221 221 220 219 218 218 216 214 214 213 212 212 211 210 208 208 206 203 202 202 200 198 197 192 192 190 188 187 185 184 182 178 177 176 174 172 169 166 165 163 162 161 160 157 155 155 154 155 152 150 149 150 151 151 150 148 148 149 148 147 147 148 150 148 147 147 146 145 146 147 147 151 147 146 149 149 145 145 147 148 147 146 146 146 146 146 145 142 143 144 144 145 144 144 146 144 145 145 144 144 146 146 144 143 144 144 143 143 144 142 139 140 141 143 144 144 145 145 144 144 145 145 145 144 144 144 145 144 145 145 144 145 145 144 145 144 145 146 145 144 144 145 145 146 144 144 144 144 146 146 144 144 145 147 148 147 147 147 144 146 147 146 145 146 147 147 147 147 146 147 147 146 145 146 146 149 149 150 151 150 150 150 152 146 149 151 152 153 153 151 150 152 152 151 151 151 153 154 154 155 156 156 156 157 158 157 157 161 161 160 157 157 161 161 157 
215 214 212 210 208 206 201 196 191 184 176 169 163 156 150 148 145 144 142 143 144 140 137 139 137 140 141 140 140 141 142 141 141 141 140 142 145 146 144 142 147 148 150 150 151 152 153 155 156 160 159 165 168 168 176 178 183 188 195 202 207 211 214 219 221 222 225 226 225 227 230 230 229 229 230 231 231 231 231 231 232 232 233 233 232 233 234 233 233 233 234 235 236 236 236 237 235 236 237 237 237 238 238 238 238 237 238 239 240 240 241 241 241 241 241 242 243 243 244 244 244 245 244 241 241 242 242 240 241 244 244 244 244 243 243 244 242 242 242 241 241 241 240 239 241 241 240 239 239 238 238 237 236 237 237 237 236 235 235 234 235 234 234 234 234 233 232 231 231 230 228 228 229 230 228 227 225 226 225 224 223 222 221 221 220 220 221 221 218 218 218 216 214 214 213 212 211 211 209 208 207 205 203 202 201 199 197 196 194 194 192 190 188 186 184 182 179 177 174 173 172 169 167 166 163 160 158 158 157 156 155 153 153 152 151 150 149 149 150 149 149 149 149 148 147 146 148 150 148 146 146 147 147 147 148 147 151 147 146 148 148 145 145 147 147 146 146 147 147 146 147 148 144 144 144 144 144 144 145 147 145 146 146 143 143 146 147 144 145 145 143 142 142 143 143 141 145 144 144 143 144 145 145 145 144 145 145 145 145 144 145 146 144 145 145 145 146 145 144 145 145 146 146 143 143 144 146 145 146 144 144 145 145 146 146 144 144 144 145 145 145 146 146 143 144 146 146 145 146 148 148 146 146 145 146 147 147 147 148 149 148 149 149 149 149 148 149 149 147 149 149 149 150 150 150 151 150 151 151 151 151 153 155 156 152 157 159 157 156 156 157 158 160 160 159 157 157 159 159 157 
216 215 213 211 209 207 203 198 191 187 181 173 166 161 155 149 146 142 143 145 142 140 139 138 138 141 142 140 140 142 142 140 140 141 141 143 147 147 144 142 146 147 148 150 151 153 153 154 155 161 159 164 167 168 175 177 183 188 194 200 206 210 215 219 221 222 224 226 227 229 230 230 229 229 230 231 231 231 231 231 232 232 233 233 232 233 234 233 233 233 233 235 236 236 236 236 236 236 237 238 238 238 238 238 238 237 237 239 240 240 240 241 242 241 242 243 243 243 243 244 244 244 243 242 242 242 242 240 242 243 244 244 244 243 242 243 242 241 241 241 241 241 240 239 240 240 240 240 240 239 238 236 236 237 237 236 235 235 235 234 236 236 235 234 233 233 232 232 230 229 228 229 229 228 228 227 226 227 225 224 224 223 222 221 220 220 221 220 218 217 217 215 214 214 213 212 211 210 209 207 207 205 203 202 201 199 197 197 192 193 192 189 187 185 182 180 178 176 174 173 172 170 167 165 162 159 159 158 156 155 155 154 152 153 153 152 150 149 149 150 150 150 149 149 148 147 148 149 148 145 146 148 149 149 148 146 148 147 146 145 145 145 146 146 146 145 145 147 147 145 146 147 147 145 145 144 143 143 145 147 146 146 145 142 140 143 144 142 145 144 143 142 143 144 144 143 147 145 143 143 144 146 146 144 143 143 143 144 145 145 145 146 142 144 144 144 144 144 143 144 146 146 145 143 144 146 146 145 146 144 145 146 146 145 145 143 145 144 142 142 145 146 145 143 143 145 146 146 147 148 147 145 146 146 146 147 147 147 148 150 149 149 149 148 148 148 148 147 148 149 149 149 150 150 150 152 150 151 152 151 151 153 155 156 154 158 159 157 158 158 158 158 156 156 156 156 156 154 154 156 
215 215 213 211 210 208 203 199 191 189 183 174 168 165 158 149 148 143 143 143 139 140 142 139 140 141 141 140 140 142 142 140 141 142 141 141 144 145 144 146 146 146 147 149 151 153 154 153 157 162 161 163 166 167 171 174 182 187 193 199 205 210 215 220 220 222 224 226 227 229 230 230 230 230 230 231 231 231 231 232 232 232 233 233 232 233 234 233 234 234 234 235 235 235 235 235 237 237 237 238 238 237 238 239 240 239 239 239 240 240 240 240 242 242 242 243 244 243 243 244 243 243 243 242 242 242 241 240 242 243 243 244 244 243 242 243 243 242 242 242 242 242 241 240 240 239 240 240 240 239 238 235 236 237 237 236 236 236 236 236 237 236 235 234 233 232 232 232 231 230 229 229 228 227 226 226 228 228 226 224 225 224 222 222 220 220 220 220 218 217 216 214 215 214 213 212 211 210 208 206 207 206 204 203 201 199 198 197 192 192 191 189 186 184 182 180 176 175 174 174 173 169 165 163 162 161 161 159 155 154 155 157 152 154 155 154 152 150 150 151 151 150 149 149 149 149 148 148 148 145 146 149 150 149 148 146 146 147 146 144 144 146 146 145 145 145 145 146 145 144 143 144 147 145 145 145 142 142 145 147 149 148 147 143 140 142 144 142 144 143 144 144 145 145 144 143 144 143 142 143 145 146 145 144 142 141 142 144 144 144 144 145 143 144 144 144 145 145 144 145 146 146 145 146 146 147 145 143 145 145 146 147 146 145 145 144 145 144 142 143 146 146 145 145 144 145 147 147 146 146 146 144 146 147 147 145 146 147 148 149 150 150 150 148 148 148 148 148 148 150 150 151 152 151 150 152 152 152 152 152 152 153 154 155 158 157 155 156 160 161 159 157 156 156 156 158 157 154 154 158 
214 214 213 211 209 207 202 198 192 187 180 174 168 164 157 148 147 146 144 142 141 142 142 141 141 141 139 139 141 142 142 141 141 143 141 139 142 143 144 148 146 146 147 149 150 152 153 154 154 158 161 161 166 170 172 178 181 187 193 198 205 210 215 219 219 223 225 227 228 229 229 230 230 230 231 231 231 231 231 232 232 232 234 233 232 232 234 234 235 234 234 235 236 236 236 236 237 237 237 238 238 237 238 239 241 240 239 239 240 240 240 240 241 241 242 243 244 244 244 244 244 242 242 242 241 240 240 242 242 243 243 244 245 243 242 243 243 242 242 242 242 242 241 240 240 239 240 240 238 238 238 235 235 236 236 236 235 236 236 236 236 235 234 233 233 232 231 231 231 230 229 229 228 226 226 226 227 227 226 224 224 224 223 223 222 220 220 219 218 217 216 213 214 214 213 211 210 209 208 206 206 205 204 203 201 199 197 197 192 193 192 189 186 184 182 181 178 176 174 173 172 169 166 164 164 161 159 158 155 154 155 155 153 153 153 153 152 151 151 151 151 150 149 150 150 149 149 148 148 146 147 149 149 148 148 148 146 146 146 146 145 146 146 145 145 145 146 147 146 144 144 144 144 144 145 145 142 142 145 147 148 146 147 146 143 144 146 145 144 143 144 145 146 145 144 143 143 143 143 143 144 145 145 144 143 143 144 145 145 143 143 145 145 145 144 144 146 146 145 146 146 146 146 147 147 146 145 144 145 145 146 148 145 144 145 146 145 144 143 145 147 145 144 147 146 145 146 147 145 145 146 146 145 148 147 144 145 147 147 147 150 151 150 148 148 149 149 149 148 149 150 152 152 150 150 152 152 152 152 151 152 153 155 155 157 155 153 155 159 159 158 157 157 159 158 157 157 157 156 158 
214 215 214 212 210 208 203 199 195 186 179 175 169 163 157 150 145 149 146 142 144 144 141 141 142 140 138 139 141 143 143 141 139 142 141 140 141 142 143 148 145 146 148 149 150 151 153 154 157 159 163 161 165 170 168 176 181 187 193 199 205 210 214 217 218 223 226 227 228 228 229 231 230 230 231 231 231 231 232 233 232 233 234 234 231 232 234 234 235 234 234 235 236 237 237 238 238 237 237 238 238 237 238 240 239 238 238 238 239 239 240 240 241 241 242 243 244 244 244 245 245 242 241 242 241 239 240 244 243 243 243 244 245 243 242 244 243 242 241 241 242 241 240 238 240 240 241 240 237 237 238 236 234 235 235 234 234 235 236 236 234 234 234 234 233 232 231 231 230 228 228 229 228 227 226 227 223 225 224 223 223 223 224 225 223 221 220 219 218 218 216 213 213 213 212 211 210 209 208 206 205 204 203 202 200 198 196 195 192 192 191 188 184 182 180 179 182 178 174 172 170 169 168 168 166 160 155 154 155 156 155 152 153 152 151 150 151 151 150 150 150 149 150 150 150 149 149 149 148 146 148 149 147 146 147 149 146 146 146 148 148 145 144 145 145 146 148 148 147 146 146 145 141 142 145 146 142 142 145 147 143 141 144 146 144 145 148 146 146 144 143 143 144 144 144 145 146 146 146 144 142 142 144 145 145 145 147 147 145 143 143 146 144 143 142 142 144 145 144 144 148 146 146 146 146 145 145 147 144 144 147 148 145 144 145 147 143 144 144 147 148 144 143 148 146 144 145 146 144 144 147 148 145 149 148 144 145 148 148 148 150 150 149 147 147 149 150 149 148 149 149 150 150 149 149 152 151 151 151 151 152 154 156 156 154 153 153 154 155 155 155 159 156 159 157 153 155 157 156 155 
217 214 212 212 211 209 205 200 195 189 180 174 171 164 155 149 148 145 145 145 143 142 141 139 138 139 138 136 138 142 143 142 138 141 139 138 142 144 144 147 143 146 148 149 150 151 152 155 160 157 159 166 169 168 171 177 179 185 189 193 201 207 211 217 217 222 225 226 225 226 228 229 229 227 227 230 232 232 232 234 230 231 233 233 232 233 234 234 234 235 235 235 235 236 237 238 236 236 236 238 239 239 237 236 240 239 238 237 238 239 239 237 242 242 242 242 242 243 243 243 244 242 242 242 242 240 241 243 243 244 244 243 242 242 243 242 243 242 242 242 241 240 240 240 240 239 238 239 239 238 237 237 235 235 234 235 236 235 234 236 235 234 233 233 235 234 233 231 230 230 230 229 226 226 227 227 229 226 224 224 223 221 221 221 221 220 220 220 219 217 215 215 214 213 212 211 208 209 210 208 206 206 204 201 199 199 198 196 192 190 189 188 186 183 180 176 179 175 172 170 168 167 166 164 164 160 158 157 156 155 154 151 154 153 151 149 149 149 149 150 150 148 148 148 147 150 152 148 149 148 148 148 148 147 147 149 147 146 144 145 145 145 146 148 148 146 145 145 145 144 146 150 143 145 146 145 145 144 144 143 144 145 145 145 144 145 146 145 147 144 144 144 143 144 145 141 146 146 145 145 147 147 146 144 143 143 145 146 143 143 145 146 144 144 142 141 142 143 143 142 145 145 147 148 146 146 147 146 144 143 145 144 141 142 144 143 144 143 142 144 146 144 144 146 146 146 144 144 146 147 147 147 145 149 149 145 146 148 148 147 148 146 147 148 147 146 148 149 148 149 148 149 150 149 149 152 151 153 152 152 153 154 155 157 155 151 150 152 153 155 157 155 157 158 156 153 153 157 158 157 
217 214 213 213 211 209 206 202 195 189 180 174 170 164 156 152 148 145 144 143 141 140 140 140 141 140 139 138 139 142 143 142 140 141 140 140 143 144 144 145 144 147 149 149 151 151 152 155 156 156 158 162 164 166 169 173 179 186 190 195 204 209 212 217 219 223 227 226 225 226 228 228 229 227 228 231 232 232 232 233 231 232 233 233 232 233 234 233 234 234 235 235 235 235 236 237 238 237 236 236 237 238 238 238 238 239 240 240 239 240 241 242 242 242 242 242 242 243 244 243 245 242 241 241 242 241 241 243 243 244 244 243 242 242 243 242 243 242 242 242 241 240 240 240 240 239 240 240 239 238 237 238 236 236 236 236 236 235 234 235 235 234 233 232 233 232 231 229 231 230 229 229 227 227 227 225 226 225 225 224 223 221 221 222 219 219 219 219 218 216 215 215 213 213 213 211 207 208 209 207 205 205 203 200 199 198 197 195 192 191 190 189 185 183 180 178 178 175 172 170 167 165 164 162 164 160 158 157 156 154 153 151 153 152 152 151 150 150 150 150 152 149 149 149 147 149 150 147 147 146 146 147 148 147 147 148 147 146 146 147 147 146 146 147 151 149 147 148 148 147 149 151 146 147 147 147 147 147 147 146 144 144 145 145 144 146 146 144 145 145 142 142 146 146 144 143 146 144 144 146 147 146 146 147 146 145 146 146 145 144 145 144 143 144 144 144 144 145 144 143 143 148 148 146 144 141 141 144 144 143 144 144 142 143 144 143 143 142 142 144 146 145 145 147 147 148 147 146 146 147 146 147 145 148 149 148 149 150 148 146 147 146 147 148 147 146 148 149 148 149 148 148 150 150 150 151 152 154 154 153 153 154 154 156 155 152 153 154 154 156 157 155 156 157 156 155 156 158 158 156 
216 215 215 214 211 209 207 204 196 190 182 175 169 164 158 154 147 145 145 144 141 140 140 140 139 138 137 138 139 139 138 138 141 140 142 143 143 144 145 143 146 148 149 150 151 151 152 155 155 158 160 161 162 166 170 173 178 185 190 197 205 210 212 215 220 224 227 227 226 227 228 229 229 228 229 231 232 232 232 232 232 232 234 234 232 233 234 233 234 234 235 235 235 235 236 236 239 238 236 236 236 238 238 239 237 239 241 240 240 241 242 242 242 242 242 242 242 243 244 244 246 242 240 240 241 241 241 242 244 245 245 244 243 243 243 242 243 242 242 242 242 241 240 241 240 240 240 240 239 237 237 238 237 238 237 236 236 236 234 234 234 233 232 232 232 231 231 230 231 229 229 229 228 228 226 224 224 224 225 225 223 221 221 221 220 219 219 218 217 216 216 216 213 213 213 211 207 207 208 207 204 203 202 200 198 197 195 193 192 191 190 188 184 181 180 178 178 176 174 172 168 166 166 164 163 160 158 157 155 154 153 151 152 152 152 152 152 151 151 150 152 150 150 149 147 148 149 147 147 147 148 149 149 149 148 149 147 147 147 148 147 147 146 147 148 146 144 144 145 145 145 147 146 146 145 145 146 146 146 145 145 144 145 145 145 146 146 143 145 146 142 142 148 147 142 145 147 144 144 147 147 144 144 148 149 146 146 147 146 146 145 143 144 145 145 145 145 146 145 144 145 151 149 145 145 141 139 145 144 143 143 144 144 145 145 143 143 143 142 144 146 145 145 147 148 150 149 148 147 147 147 148 144 146 146 147 149 149 146 145 146 146 147 148 147 147 148 149 148 149 148 147 150 152 151 150 152 155 155 154 154 154 154 156 153 153 155 156 155 156 157 156 156 156 155 155 157 158 158 157 
216 215 214 214 211 209 207 204 198 192 184 177 170 164 159 154 148 146 145 145 143 142 141 140 140 139 140 142 142 139 138 138 141 139 142 145 142 143 145 143 146 148 149 149 150 151 152 155 157 159 162 162 163 166 170 174 177 183 189 195 203 208 211 214 219 223 226 226 226 228 229 230 229 229 230 231 232 232 231 232 232 232 234 234 233 233 234 233 235 235 235 235 235 235 235 236 237 237 237 238 238 238 238 237 238 238 238 239 240 241 241 239 242 242 242 242 242 244 245 245 245 242 240 240 240 241 241 242 245 245 245 244 243 243 243 242 243 242 242 242 242 241 240 241 240 240 240 240 239 237 237 237 236 238 238 236 236 236 234 233 234 233 233 232 232 232 233 233 231 229 229 229 228 227 227 225 223 223 224 224 223 222 221 220 222 221 220 219 217 216 215 216 214 213 212 210 208 207 207 206 203 203 202 200 199 197 195 193 191 190 190 188 184 181 179 177 176 175 174 172 170 168 167 165 162 159 158 157 155 153 153 151 152 152 152 152 152 151 150 149 151 150 150 149 147 148 149 148 148 148 148 149 149 149 149 149 149 148 146 146 145 146 146 147 148 147 146 146 145 145 146 147 146 145 144 144 144 144 144 145 146 144 144 144 144 145 146 144 146 146 143 143 148 146 143 145 148 146 145 147 146 143 144 146 148 146 146 147 146 146 145 143 146 146 145 144 144 145 146 146 147 149 146 144 147 146 143 144 144 144 144 144 145 146 145 143 144 144 143 144 146 145 144 146 146 148 148 147 147 147 147 148 146 146 145 145 147 146 146 147 147 147 148 148 147 148 149 149 148 150 149 148 149 152 151 150 151 154 155 155 154 154 155 157 151 153 155 156 155 155 156 157 158 156 154 155 156 157 158 158 
216 214 213 213 211 209 207 204 198 193 186 179 171 166 160 154 150 146 143 143 143 143 142 140 141 139 139 141 141 139 139 141 139 138 142 145 142 142 145 144 145 147 147 148 149 151 152 154 156 157 159 162 162 163 167 174 177 181 187 193 201 207 211 213 218 221 224 225 226 228 229 230 229 229 230 232 232 232 231 231 232 232 234 234 233 234 235 234 235 235 235 235 236 236 236 236 236 237 238 239 239 238 237 236 237 237 237 238 240 241 240 239 242 242 242 242 243 244 245 245 243 242 240 240 239 240 242 243 245 245 244 243 243 243 242 242 242 241 241 241 241 240 240 240 241 239 238 239 239 238 236 235 236 238 237 235 236 236 234 233 234 234 233 233 232 233 233 233 230 229 229 228 226 226 227 227 225 224 223 222 222 222 221 219 222 221 219 218 217 216 215 216 215 214 212 210 209 208 206 205 204 203 202 201 200 198 195 193 191 190 189 188 185 182 179 176 175 172 171 170 168 167 166 163 160 158 157 157 155 153 153 152 153 153 152 151 150 149 148 148 151 150 150 149 148 148 149 149 148 147 146 146 147 147 147 147 148 147 146 145 145 145 146 146 148 149 149 148 146 145 147 149 147 147 147 146 145 144 145 147 147 145 144 144 143 144 145 145 146 144 145 146 145 145 146 145 146 147 147 145 144 145 145 144 146 144 145 146 145 145 145 144 146 146 145 144 144 145 146 146 147 144 143 144 145 147 146 143 144 145 145 145 145 145 145 144 144 145 144 144 145 145 144 145 144 145 145 145 146 146 146 146 148 148 147 148 148 147 146 149 149 148 148 148 147 148 150 150 148 151 151 148 149 151 151 150 151 154 155 154 154 154 154 156 152 153 155 155 155 155 156 158 158 157 156 156 156 157 158 158 
216 214 213 212 210 209 206 203 197 192 187 180 173 168 162 154 152 146 141 140 140 142 143 142 140 138 137 138 137 136 138 142 138 138 141 143 142 142 144 145 144 146 147 147 150 151 152 154 156 156 158 162 163 162 167 173 177 181 187 193 198 205 211 214 218 221 223 224 226 227 228 228 229 230 231 231 231 232 232 232 232 232 234 234 233 234 235 234 235 235 235 236 236 236 236 236 237 237 237 237 237 238 238 238 235 238 239 239 239 240 241 242 242 242 243 243 243 244 245 244 241 241 240 239 239 240 242 243 244 244 244 243 243 243 242 241 241 241 241 241 241 240 240 240 241 239 237 238 239 238 237 235 236 237 236 235 236 235 233 233 235 234 233 232 232 232 231 230 229 228 229 228 226 226 227 227 226 224 222 221 221 222 221 218 220 218 218 217 216 215 215 215 215 214 211 210 210 208 205 205 204 203 202 202 201 198 195 193 192 190 189 188 185 183 180 178 176 173 171 170 168 167 165 162 159 158 157 157 154 153 153 153 154 153 152 151 149 148 147 147 152 151 150 149 149 148 148 149 149 148 147 146 146 147 147 146 145 146 147 146 146 146 145 144 146 147 148 147 144 143 145 146 147 147 148 148 146 144 145 148 147 145 144 144 143 143 144 145 144 143 146 146 144 146 149 147 144 147 146 144 144 147 147 144 144 143 144 145 144 144 145 145 144 146 146 146 146 145 145 144 146 144 146 147 145 146 147 145 145 146 146 144 145 145 144 144 144 144 144 144 145 145 144 145 144 145 144 143 144 145 144 144 145 147 148 149 149 146 145 146 149 149 148 147 147 148 150 149 148 151 151 149 149 150 151 151 152 154 154 153 153 153 152 153 154 155 154 154 156 156 156 157 155 156 158 158 158 158 157 156 
216 215 214 213 210 207 206 204 198 193 187 181 173 169 163 154 153 147 142 140 140 141 142 141 139 139 140 140 139 139 140 142 140 140 139 141 143 142 142 145 144 146 147 148 151 152 152 154 155 157 159 161 162 164 168 172 176 180 187 192 197 203 210 214 218 221 223 224 225 227 228 227 229 230 231 231 231 232 232 232 233 233 234 234 234 234 235 234 234 234 235 235 236 236 236 235 236 236 236 236 237 237 238 239 237 239 240 240 240 241 242 243 242 243 243 244 244 244 244 243 240 240 239 239 240 241 243 243 243 243 243 242 242 243 242 241 241 241 240 241 241 240 240 240 240 239 238 239 239 238 237 236 237 237 236 236 236 234 233 234 235 234 232 232 232 232 230 229 229 228 228 228 226 226 227 226 225 224 222 221 221 222 220 218 219 218 217 217 216 215 215 215 214 213 211 210 210 207 205 206 204 202 201 201 200 197 194 192 191 190 189 187 183 181 181 179 177 174 172 171 168 167 165 162 159 158 158 157 154 153 153 153 154 154 153 152 151 149 148 148 152 151 149 149 150 149 148 149 150 150 149 148 148 149 148 147 145 146 147 147 146 147 146 144 147 149 149 148 146 145 146 147 145 145 146 147 146 144 145 147 146 144 145 145 143 142 143 144 143 146 146 144 144 147 149 148 145 145 145 145 145 147 146 144 145 144 145 145 144 144 145 146 144 146 147 147 147 146 146 145 146 147 148 148 147 146 146 147 147 147 145 144 145 145 143 143 144 145 144 143 144 145 144 144 144 146 145 143 143 143 144 145 144 146 146 147 147 146 144 144 148 148 148 148 147 149 150 148 149 150 149 149 150 151 151 152 152 153 153 152 152 152 151 151 155 155 154 154 156 156 154 154 153 157 159 159 158 158 158 156 
216 215 215 213 209 207 206 205 200 194 188 181 173 169 163 154 152 147 145 144 142 142 141 139 134 136 140 141 140 138 137 136 143 142 139 139 144 143 141 144 145 147 148 149 151 152 153 154 152 156 159 159 160 165 168 169 174 179 186 192 196 202 209 213 218 220 222 224 226 228 228 228 229 230 231 231 231 232 233 233 234 233 234 234 234 234 235 233 234 234 234 235 236 236 236 235 235 235 236 237 237 238 238 238 240 239 239 239 240 242 242 241 242 243 244 244 244 244 244 243 240 239 238 238 240 242 243 242 243 243 242 242 242 243 242 241 241 241 241 241 241 240 240 240 240 239 239 239 239 238 238 238 238 237 236 236 236 234 233 235 235 233 232 232 233 233 231 229 229 228 228 228 227 227 226 224 223 224 223 222 221 221 220 219 220 219 219 218 217 215 214 214 213 213 211 210 210 206 204 206 204 201 200 200 200 197 194 192 190 189 188 185 180 179 180 180 174 172 171 169 166 164 164 162 159 158 158 157 154 152 153 153 154 154 153 153 152 151 150 149 152 150 148 149 150 149 149 149 148 148 148 147 148 149 147 145 147 148 147 146 146 147 148 147 148 149 149 148 146 146 146 146 145 145 146 148 148 146 146 148 144 144 145 146 143 142 143 144 144 149 146 141 146 148 147 148 147 144 144 146 147 145 144 144 147 145 145 145 144 144 145 146 146 147 147 147 147 147 147 148 144 148 145 144 148 146 143 145 148 148 144 143 145 145 142 142 145 146 144 143 144 144 142 142 144 146 146 144 143 143 145 147 146 147 146 145 147 148 147 146 146 146 148 148 147 149 149 147 149 149 148 149 152 152 151 153 151 152 151 150 152 152 151 151 155 155 153 153 156 155 151 150 152 157 160 158 156 158 159 158 
219 217 216 214 212 209 206 202 200 196 190 183 175 169 164 159 152 147 143 143 143 141 139 139 138 140 138 137 138 138 136 136 143 138 136 140 143 141 142 147 147 146 145 148 152 152 151 153 152 157 161 162 163 165 168 169 174 179 183 188 195 202 207 210 218 220 222 224 226 227 227 228 229 230 231 231 230 230 231 232 232 232 234 234 235 234 233 233 236 236 237 237 237 236 235 235 236 237 237 237 237 238 238 238 239 239 239 239 241 242 241 241 242 242 242 243 243 244 243 243 238 240 240 240 241 242 243 243 243 243 243 243 243 243 242 242 241 241 240 239 240 241 241 240 242 240 239 239 238 236 236 238 236 236 235 234 236 236 234 232 236 234 233 232 232 231 230 230 231 229 226 225 226 227 226 224 225 225 224 223 222 222 221 221 219 218 217 216 216 215 214 214 213 210 209 211 211 208 206 206 204 202 199 198 197 196 194 191 191 188 186 184 184 185 181 176 176 172 171 170 167 167 167 162 160 159 159 156 153 153 154 154 157 155 153 151 150 149 149 150 151 150 150 150 150 149 149 151 149 150 148 146 148 147 145 146 147 146 144 144 146 147 147 146 147 148 150 150 147 144 144 147 147 147 146 146 146 145 146 148 145 145 146 147 146 145 146 148 142 144 146 147 145 144 146 149 145 147 146 143 141 142 144 145 145 146 145 143 144 146 146 143 145 146 147 148 150 148 146 147 148 148 143 143 145 145 146 145 147 144 144 146 147 147 147 147 147 145 144 146 148 148 146 144 146 144 144 144 143 144 147 147 144 146 147 147 146 145 146 150 147 147 146 145 146 147 147 148 149 149 150 151 151 151 151 153 153 154 154 152 150 152 153 152 153 152 153 154 152 152 154 156 158 157 158 160 159 157 158 159 
216 213 212 211 209 207 204 201 199 195 190 183 175 169 163 158 152 148 145 144 143 141 139 138 139 140 139 138 139 138 137 139 141 140 138 140 143 143 143 145 147 146 147 149 152 152 151 153 154 157 160 160 161 164 168 169 172 178 183 188 195 202 208 213 215 218 221 223 226 227 228 229 228 229 230 230 230 230 231 232 231 232 233 234 235 235 234 234 235 236 236 236 236 236 235 235 235 237 237 237 237 238 238 238 239 240 240 240 241 241 242 242 242 242 242 243 244 244 243 242 240 241 241 241 241 242 244 244 243 243 243 242 242 242 241 241 240 241 241 240 240 241 241 240 241 239 237 238 238 237 237 238 236 236 235 234 236 236 235 233 234 233 233 233 232 231 230 230 229 228 227 226 226 226 226 225 225 225 224 223 223 222 222 221 221 220 219 219 218 217 216 216 213 211 210 211 211 208 207 207 203 201 199 198 198 197 194 192 190 188 187 186 184 183 181 177 175 171 170 168 166 166 165 160 160 159 158 157 154 154 154 153 154 153 153 152 150 149 149 150 151 150 150 150 150 149 149 149 146 148 147 147 149 148 146 148 147 146 145 145 146 147 147 147 147 146 146 147 148 147 146 146 147 147 147 146 146 145 145 147 146 145 145 145 145 144 145 147 145 145 145 146 146 146 145 145 146 147 145 143 143 145 145 144 144 145 145 143 144 146 146 145 145 145 144 144 145 145 145 147 148 148 144 145 147 146 147 146 143 144 147 149 146 145 146 147 146 145 146 147 148 147 146 145 145 143 144 145 144 145 146 144 146 147 147 147 149 148 146 146 147 147 147 147 148 148 147 148 147 147 148 150 151 151 151 152 152 152 153 151 151 153 154 152 149 150 154 156 155 154 155 155 156 154 155 157 156 156 157 158 
219 216 215 213 211 209 207 204 198 194 189 183 175 169 162 156 150 148 146 144 143 141 140 138 139 139 137 137 137 136 137 140 140 141 140 140 143 145 145 144 147 147 148 150 152 151 151 153 155 157 159 159 160 164 167 168 172 178 183 188 194 201 208 213 214 217 220 223 226 227 227 229 228 229 229 230 231 232 232 233 232 233 233 234 234 234 234 234 235 235 235 235 235 235 235 235 235 236 237 237 237 238 239 239 240 241 241 241 241 241 242 243 242 242 243 244 244 243 242 240 241 241 241 240 240 242 244 245 244 244 243 242 242 241 241 240 239 240 241 240 239 240 240 240 240 238 236 237 238 238 237 237 236 236 235 234 235 236 235 233 233 233 233 233 232 232 230 230 228 229 229 228 226 225 225 226 224 224 224 224 222 221 221 221 220 219 218 218 217 216 215 214 212 211 210 209 209 208 207 206 204 202 200 199 198 197 194 192 189 188 188 186 183 181 180 177 175 171 169 168 165 165 164 159 160 158 158 157 155 155 154 152 151 152 152 152 151 150 150 150 151 150 149 150 150 149 148 147 146 148 147 147 149 148 148 150 147 146 146 146 147 148 147 147 147 146 146 145 147 147 147 145 146 146 146 146 146 145 145 146 146 145 144 144 143 142 143 146 146 144 144 146 147 146 144 143 148 147 145 144 145 147 146 144 143 144 145 145 144 145 147 147 147 147 145 145 146 145 146 148 147 148 144 146 148 146 147 145 142 143 147 149 146 144 145 146 144 145 147 149 148 146 145 146 146 143 143 144 145 146 145 142 147 148 147 147 148 147 146 146 146 147 147 148 149 148 147 147 146 146 147 149 150 150 150 151 151 151 151 151 151 154 154 152 151 153 156 157 155 154 153 152 158 156 156 158 157 157 159 160 
218 215 214 213 211 208 206 202 198 194 189 183 176 169 162 155 148 148 146 143 142 142 141 140 139 137 136 137 138 136 137 140 139 141 141 142 145 146 145 146 147 148 149 150 151 151 151 153 154 156 159 160 162 164 166 166 174 178 183 187 193 200 206 211 214 217 220 223 225 226 226 227 229 229 230 231 232 233 233 233 234 234 234 234 233 233 233 233 235 235 235 235 235 236 236 236 235 236 237 237 237 238 239 239 241 241 242 242 242 242 242 243 242 242 244 245 245 243 241 239 240 240 240 239 240 242 243 244 245 245 244 244 243 242 242 242 239 240 241 240 240 239 239 239 239 237 236 237 238 237 237 238 236 235 235 234 234 235 235 233 232 233 232 232 231 231 230 229 229 230 230 228 226 224 224 225 222 223 224 223 221 220 220 220 219 217 216 216 216 215 213 213 211 211 210 208 207 207 207 205 205 203 202 200 198 196 193 191 189 188 187 185 181 180 179 177 175 172 170 168 166 165 164 161 160 158 156 156 155 155 154 152 151 152 152 152 151 150 150 150 151 150 149 150 150 149 148 146 149 149 147 145 147 148 147 149 147 147 147 147 148 148 147 147 147 148 148 146 145 146 146 146 145 145 145 145 145 145 146 146 145 144 144 144 142 141 142 145 143 144 145 146 146 145 145 146 148 147 146 145 146 147 146 144 143 144 145 146 146 145 146 147 147 148 147 147 147 146 146 147 145 146 143 146 148 145 146 145 144 143 144 147 146 145 145 145 144 145 147 148 147 145 145 146 147 145 143 143 144 146 146 145 148 149 148 146 145 144 146 150 146 147 147 147 148 147 146 147 148 148 147 148 149 149 149 149 151 150 151 152 152 153 154 152 151 152 154 154 153 155 157 157 157 155 156 156 155 155 156 156 
215 213 212 212 210 208 205 201 198 194 190 184 177 170 163 156 149 148 146 142 141 141 142 141 141 138 138 140 141 140 140 141 140 139 140 144 146 145 144 147 148 149 148 148 150 151 152 154 154 156 158 160 162 164 166 166 175 177 181 185 192 198 204 209 214 217 220 223 225 225 225 227 230 230 230 231 232 233 233 233 234 234 234 233 233 233 233 233 235 235 235 235 236 236 236 237 236 237 237 237 237 238 239 239 241 241 241 241 242 242 242 242 242 242 244 245 244 243 240 239 239 240 240 240 241 242 243 243 245 245 245 244 244 243 243 243 241 240 240 240 240 239 238 237 237 237 237 237 237 237 237 238 235 234 234 233 233 234 235 232 233 233 232 231 230 230 230 230 229 229 229 228 226 225 224 224 223 223 223 223 222 220 220 220 220 218 217 218 218 216 215 214 211 212 210 207 207 208 207 205 205 204 202 200 198 196 193 191 189 187 185 183 180 178 178 177 174 173 171 169 166 165 165 163 160 157 155 154 154 154 154 152 152 153 153 151 150 150 150 151 152 150 149 150 150 149 148 147 149 150 147 146 148 148 145 146 147 148 148 148 148 147 147 147 147 149 148 146 145 146 147 147 146 145 145 144 143 145 147 146 145 145 145 146 145 143 144 145 144 144 144 145 145 145 146 148 146 146 146 146 145 146 146 146 144 145 146 147 147 146 145 145 145 146 145 145 145 144 144 146 146 146 143 145 147 145 146 146 147 144 143 144 144 145 146 146 144 144 145 145 145 144 145 146 146 146 145 145 145 146 147 148 147 148 147 146 145 144 146 150 147 148 148 147 147 147 147 149 150 149 148 148 148 149 149 150 150 150 152 152 152 152 153 152 155 156 156 154 152 153 155 154 157 156 156 157 156 156 156 155 
216 214 214 214 212 210 208 204 199 195 189 183 177 171 164 157 151 149 145 142 140 140 140 141 141 138 137 139 140 140 140 139 141 139 140 143 145 143 143 147 147 148 147 148 150 151 152 153 155 156 157 158 160 163 166 169 173 175 178 183 191 197 203 208 213 216 219 222 224 225 226 228 228 229 229 230 230 231 231 231 233 233 233 233 233 233 233 233 235 235 235 236 236 236 236 236 236 237 237 237 237 238 239 240 240 240 240 240 242 242 242 242 242 242 243 244 244 242 240 239 240 240 240 241 242 243 244 243 244 244 244 244 244 243 243 242 242 241 240 240 240 239 237 237 237 238 238 238 236 236 237 238 234 233 234 233 232 234 235 231 233 233 233 230 229 230 230 230 228 228 227 226 226 225 225 225 224 223 223 223 222 221 221 220 220 218 217 218 218 216 214 213 212 212 211 209 208 208 207 206 204 202 201 199 197 196 194 193 190 186 183 182 179 178 177 176 173 172 170 167 165 165 164 163 160 157 155 154 153 154 154 153 152 154 153 151 149 149 150 150 151 150 149 150 150 149 148 147 147 149 148 148 150 148 145 145 147 148 149 148 148 147 147 147 149 148 146 145 146 148 148 147 148 146 146 145 143 145 147 144 146 146 147 149 148 146 145 147 148 145 143 144 146 147 147 146 143 145 146 146 146 146 147 148 145 146 146 147 147 147 146 145 146 146 145 144 144 143 144 147 146 146 143 146 147 144 146 147 147 145 145 144 142 142 145 147 145 143 143 143 143 144 145 146 144 146 147 147 147 146 146 147 146 146 146 146 147 147 146 147 148 149 148 147 147 147 148 150 149 148 149 149 149 149 150 151 149 149 152 153 151 151 152 152 152 152 154 155 154 155 157 156 156 156 157 158 158 159 159 158 
217 214 213 212 210 209 207 204 199 195 189 183 176 171 164 158 151 148 144 143 141 139 139 140 140 137 137 137 137 138 140 138 140 140 140 141 142 142 142 144 146 147 147 147 150 152 151 152 154 155 157 158 159 161 165 169 171 174 177 182 189 194 201 207 212 215 218 221 223 224 226 228 227 228 229 229 229 229 230 231 232 232 233 233 233 233 233 233 234 235 235 236 236 236 236 236 237 238 238 237 237 238 239 239 239 239 239 240 241 241 242 242 242 242 243 243 243 242 240 239 240 240 240 240 241 243 244 243 243 243 244 244 244 243 242 241 242 241 240 240 239 238 237 238 237 238 238 237 236 236 236 236 234 233 234 234 232 234 235 231 231 233 233 231 230 230 231 230 228 227 226 226 225 225 225 225 224 223 222 221 221 221 220 220 218 217 216 216 217 215 213 212 212 212 211 209 208 207 207 206 203 202 200 198 196 195 194 193 189 185 183 182 180 178 176 175 174 172 168 166 165 165 163 161 159 157 156 155 154 154 155 153 152 154 153 150 148 149 149 149 151 150 149 149 149 148 148 148 147 150 150 149 150 148 146 147 146 147 148 148 147 147 147 148 149 148 146 146 146 146 147 147 147 145 147 146 144 146 147 143 146 146 147 149 148 146 145 146 148 146 144 145 147 147 147 146 145 145 145 146 147 146 146 145 144 147 147 145 145 147 148 147 146 147 147 146 146 145 145 148 146 146 143 146 147 143 145 146 148 145 145 145 144 143 144 145 144 143 142 142 142 143 145 146 143 146 147 147 147 145 145 147 146 147 146 147 148 147 146 147 148 149 148 147 147 147 147 150 146 147 149 150 150 149 149 150 148 148 150 152 151 151 151 150 154 154 155 156 154 154 154 153 153 153 154 155 156 158 159 157 
220 216 214 211 209 207 206 203 200 194 188 182 176 171 165 159 150 146 143 143 142 140 139 140 141 139 139 138 136 139 141 139 139 142 141 138 139 141 142 141 145 146 146 148 151 152 151 150 151 153 157 159 160 161 164 167 171 173 177 181 187 192 199 207 212 215 218 220 222 223 225 227 227 228 230 230 229 229 231 232 233 233 233 233 233 233 232 232 234 235 235 236 236 236 235 235 238 238 238 237 237 238 239 239 237 238 239 240 240 240 241 242 243 242 242 242 242 241 240 240 240 240 239 238 240 242 243 243 243 243 244 244 244 243 242 241 242 241 240 240 239 237 237 239 238 238 238 237 237 237 236 235 234 233 234 235 232 234 235 231 230 232 233 231 230 231 231 229 228 228 227 226 224 224 224 225 223 221 220 219 220 220 219 218 219 217 216 217 217 216 214 212 211 210 209 208 207 206 205 205 204 202 200 197 195 194 193 192 188 185 184 184 181 178 176 175 175 172 167 165 166 165 162 160 159 157 157 157 155 155 155 154 151 153 153 150 148 148 149 148 150 149 149 149 148 147 147 148 150 152 151 148 147 146 147 151 145 147 148 148 147 147 148 149 149 149 149 148 145 143 144 148 144 144 146 147 145 148 149 144 145 145 146 147 146 144 144 145 145 146 147 147 146 146 147 148 149 146 145 146 147 147 144 142 143 147 147 144 143 147 149 150 144 146 147 148 148 146 145 146 145 145 142 145 146 142 143 144 149 145 143 145 147 146 144 141 144 143 143 142 142 143 144 146 145 147 146 144 145 144 144 147 147 148 148 147 146 145 146 150 146 147 147 146 146 145 146 148 144 146 149 151 150 148 148 149 147 146 148 150 151 151 150 149 155 153 153 155 154 153 155 156 155 154 155 155 156 159 160 159 
