P2
400 400
255
172 175 176 173 170 170 171 172 170 170 171 173 173 172 171 172
166 171 171 169 170 170 168 168 169 172 171 171 172 171 170 172
170 169 171 172 171 170 168 170 173 171 169 169 172 173 172 170
168 169 168 171 170 167 171 173 169 169 168 167 167 169 170 172
171 169 169 170 168 166 167 171 171 168 167 168 169 168 166 165
167 166 165 165 166 168 168 168 166 166 167 167 167 167 167 166
165 166 167 167 166 165 165 166 168 168 167 165 165 166 166 166
168 168 168 168 168 168 168 168 167 168 168 167 166 167 168 168
166 168 169 168 167 169 169 168 166 168 168 168 168 169 169 169
170 171 171 168 168 170 170 168 169 170 170 167 166 167 167 166
169 168 168 168 167 166 167 168 167 167 166 166 167 168 168 166
166 167 167 167 169 169 167 163 166 165 165 166 166 165 165 166
168 165 164 165 166 166 166 167 163 162 165 163 162 165 163 166
164 165 165 165 165 166 165 164 166 168 167 163 162 165 166 164
163 165 165 164 162 163 165 168 164 163 164 167 167 163 161 161
164 164 164 165 166 166 164 162 162 163 163 162 162 162 163 163
163 164 165 166 165 164 163 163 163 165 165 163 162 164 165 164
165 163 162 161 162 162 162 161 163 164 163 161 160 162 162 160
160 162 162 161 161 162 161 158 160 162 162 159 161 164 164 161
163 167 164 160 163 163 160 162 157 160 161 161 159 160 162 163
161 160 161 162 161 158 158 160 162 160 158 158 161 162 161 159
160 160 161 161 160 159 159 161 159 159 160 161 161 160 159 159
158 158 157 154 156 160 159 156 159 160 161 161 159 158 159 162
163 161 159 159 161 162 158 154 158 157 157 157 156 158 158 155
157 156 157 158 158 156 156 158 159 158 160 156 155 158 157 159
172 174 175 174 173 173 173 172 173 172 173 174 174 173 172 172
171 174 173 171 172 172 170 169 169 171 170 170 171 170 170 172
171 170 172 172 171 172 170 172 170 169 168 168 170 170 169 167
169 171 169 170 170 169 171 170 168 168 168 167 167 167 168 169
169 167 167 168 168 167 168 169 169 167 166 168 169 169 168 167
166 166 166 165 165 165 166 166 166 166 166 166 167 167 166 165
167 167 166 165 164 165 166 166 168 168 167 167 166 167 166 165
167 166 166 166 166 167 167 167 166 167 166 165 166 167 168 168
169 170 169 167 167 168 168 166 167 169 169 167 166 167 168 168
172 170 169 168 168 168 169 171 168 169 169 168 168 168 167 166
168 168 168 169 169 168 166 166 166 167 168 168 168 168 167 164
168 168 168 167 167 167 166 164 166 165 165 166 167 166 166 167
167 165 163 164 165 166 166 166 166 164 167 164 163 166 166 169
165 166 165 164 164 164 163 162 164 166 166 164 164 165 165 164
162 163 163 163 163 163 164 164 162 161 161 164 165 163 162 163
163 165 165 164 162 163 164 165 163 163 163 163 163 162 163 163
161 162 163 164 163 163 162 162 165 166 166 165 165 166 165 163
161 161 162 163 165 164 163 161 161 162 163 162 162 163 164 164
161 161 162 161 162 162 161 160 160 162 162 160 161 164 165 162
164 163 162 160 160 162 161 157 161 162 163 161 160 160 161 160
160 159 159 159 158 158 158 159 159 158 158 158 159 160 160 159
158 158 159 160 159 157 158 161 160 160 160 161 161 159 157 157
156 159 160 157 154 155 157 159 156 156 158 159 158 158 159 161
161 159 157 158 160 160 158 156 158 159 161 159 154 154 156 156
158 158 158 158 158 157 158 159 158 157 159 156 156 159 159 160
170 171 173 173 174 174 172 170 174 174 174 174 174 172 171 171
172 174 172 170 171 172 169 168 169 171 170 170 171 171 170 172
171 170 173 171 171 173 171 172 173 172 171 171 171 171 171 171
170 172 169 168 169 170 171 166 169 170 170 169 168 167 167 168
168 167 166 167 169 170 169 168 166 166 166 167 168 168 168 169
168 168 167 166 164 163 164 165 167 166 166 166 167 166 166 165
168 167 166 165 165 166 167 167 166 167 167 167 168 168 167 165
167 167 167 166 167 167 167 168 169 168 167 165 166 168 168 167
170 170 168 166 167 168 167 165 168 169 169 167 166 167 169 170
171 168 167 168 168 167 168 171 169 168 168 169 170 169 168 168
168 167 167 169 170 168 166 165 169 169 168 167 166 167 168 168
168 168 167 166 165 165 165 165 167 166 166 167 167 167 167 168
166 164 164 165 166 166 166 166 167 165 167 165 165 167 166 169
167 167 167 166 166 167 167 165 162 163 164 165 165 164 164 164
163 163 163 164 165 165 164 162 164 162 162 164 164 163 162 163
163 164 165 163 161 162 163 164 163 163 164 163 163 162 162 162
160 161 163 164 164 163 163 163 164 164 163 162 163 164 163 160
159 160 162 164 166 165 163 161 161 161 162 163 162 161 161 162
160 159 160 161 162 161 161 161 161 163 163 161 161 162 162 161
163 158 159 160 159 162 163 156 160 161 161 161 161 162 162 161
161 161 160 159 159 160 159 158 159 159 160 160 159 159 159 159
157 158 159 160 158 157 159 162 159 159 160 162 162 160 159 159
155 159 162 160 156 155 158 162 159 159 159 160 160 159 160 161
161 158 157 159 160 159 158 159 157 158 161 159 154 154 157 157
157 158 158 157 157 158 158 158 157 156 157 155 156 159 158 159
170 170 171 173 174 174 172 170 173 173 173 173 172 170 170 170
171 173 170 168 170 170 168 167 169 171 170 170 172 171 170 171
170 170 172 170 169 172 171 172 172 171 170 169 169 169 170 172
168 170 167 168 169 169 170 166 170 171 171 170 168 167 167 168
167 167 167 167 169 171 169 167 166 166 167 167 166 166 167 168
167 166 166 166 165 164 165 166 168 167 167 167 167 167 166 165
166 166 165 166 167 167 166 166 164 165 166 167 168 169 168 167
167 167 167 167 167 168 169 170 168 168 167 166 167 168 168 167
167 168 167 166 167 168 168 167 168 169 169 167 166 167 169 170
168 167 167 168 168 167 167 169 169 167 167 168 169 168 168 169
168 167 166 168 168 168 167 167 170 169 168 166 164 165 167 169
166 166 165 165 165 165 166 166 167 166 166 166 166 165 165 165
166 165 165 165 166 166 166 166 164 164 166 166 166 166 165 166
164 165 164 164 164 165 165 164 163 161 162 165 166 163 162 164
163 163 163 164 165 164 163 162 165 164 163 164 163 162 162 163
163 163 163 163 164 164 162 160 162 163 163 163 162 161 161 161
160 162 164 164 164 164 164 163 166 165 162 161 163 166 165 163
162 162 162 163 164 163 162 161 162 161 162 163 161 158 158 159
159 158 158 161 161 160 160 161 160 162 162 161 160 161 161 161
161 158 159 159 158 161 162 158 157 158 159 159 160 162 162 161
158 159 159 158 158 158 156 153 159 159 159 160 159 158 158 159
157 158 160 160 158 157 159 162 159 159 159 161 161 160 160 160
158 158 159 160 158 157 158 161 160 158 157 157 158 157 157 158
161 158 157 159 160 158 157 159 157 156 157 157 156 157 157 155
153 156 157 156 156 158 158 156 159 156 157 155 156 158 156 156
172 172 172 173 173 173 172 172 172 172 172 172 172 170 170 171
171 173 171 170 171 170 169 170 168 169 169 169 171 170 167 168
170 170 171 169 169 171 169 171 170 169 169 169 168 167 168 170
168 168 166 169 169 167 168 168 169 170 170 169 167 166 167 168
167 168 168 168 168 169 168 166 166 167 168 167 166 166 167 168
164 163 163 164 165 165 165 166 167 166 166 166 167 167 167 166
164 164 164 165 166 166 166 165 164 165 165 165 166 168 169 168
165 165 166 166 166 167 168 169 165 166 167 167 167 168 168 167
165 167 168 168 168 169 169 168 168 169 168 166 166 166 165 164
166 168 168 167 167 169 169 168 168 166 166 167 166 165 166 169
167 167 167 168 169 168 168 169 165 166 168 168 166 164 163 164
166 165 165 165 166 167 166 166 166 165 165 165 164 163 163 163
166 166 165 165 165 165 165 164 163 164 164 166 166 164 165 165
166 166 165 164 164 164 164 163 165 162 161 165 166 163 162 164
162 162 162 162 162 162 162 162 162 161 162 162 162 162 162 163
162 162 163 164 165 165 162 159 162 163 163 163 162 161 161 160
160 162 164 163 162 163 163 162 165 164 162 160 162 166 166 164
163 163 162 163 163 162 162 161 162 161 162 164 163 160 160 162
160 158 158 161 161 160 160 161 158 160 161 161 160 161 162 162
160 163 161 158 158 157 156 159 158 159 160 159 159 159 159 158
158 159 159 158 159 160 158 154 157 156 156 158 159 158 157 158
157 158 159 158 156 155 157 160 160 159 158 159 158 157 157 158
159 158 158 158 158 158 157 158 159 157 156 156 157 157 158 159
159 156 155 158 159 157 156 157 159 157 157 157 156 158 157 153
153 155 155 155 156 158 159 158 160 157 158 156 157 158 155 155
173 172 172 172 171 170 171 173 172 172 172 173 172 171 171 173
171 173 172 172 173 172 170 171 168 169 169 169 171 170 168 168
171 169 171 170 169 170 169 171 169 169 170 172 171 169 168 169
169 169 167 171 170 166 168 169 169 169 169 168 168 167 168 168
167 167 167 167 167 167 167 167 167 168 168 167 166 167 168 168
167 165 164 165 166 164 164 164 165 164 164 165 167 168 167 167
165 165 164 164 165 166 167 167 166 166 165 164 165 167 168 167
164 165 165 165 166 166 168 169 168 169 169 168 167 167 166 165
166 168 169 170 169 168 168 168 167 167 167 167 167 167 166 164
168 169 169 166 166 169 170 169 168 167 167 167 166 165 167 169
165 166 168 170 170 169 168 169 166 166 167 167 165 164 164 165
167 166 166 167 168 167 166 166 165 165 165 166 166 165 165 165
165 165 165 163 163 164 164 163 165 165 163 166 166 164 166 167
166 167 166 165 165 166 166 164 167 163 162 165 166 164 163 164
162 163 163 163 162 161 162 163 162 162 162 162 162 161 161 161
161 164 165 164 162 162 162 162 163 163 163 163 162 161 161 161
160 163 164 162 161 162 162 162 160 161 161 160 162 164 163 161
160 161 162 163 163 163 162 161 162 162 162 162 162 161 161 162
161 160 160 161 162 161 161 161 161 161 161 161 160 160 160 161
158 163 161 157 158 156 155 161 159 160 160 160 159 159 158 157
161 161 161 160 161 162 162 162 160 158 157 158 159 158 157 156
159 159 158 157 156 155 157 160 160 159 158 158 158 158 158 159
157 158 158 159 159 159 160 161 161 159 158 158 158 157 157 158
158 155 155 157 159 158 157 158 156 157 160 159 156 156 158 157
156 156 155 154 156 158 159 160 158 155 156 156 156 157 154 155
173 172 171 171 170 169 170 172 171 172 172 173 172 171 172 173
171 172 172 173 175 173 170 170 169 170 169 169 171 171 170 171
171 168 170 170 170 169 168 172 170 169 169 170 169 167 166 167
167 169 168 170 169 167 169 168 169 169 169 169 169 169 168 167
168 166 166 167 167 166 167 169 167 168 168 167 166 167 168 168
169 167 166 167 166 164 163 164 166 165 164 165 166 167 167 166
166 166 165 165 165 165 166 167 167 167 166 165 165 167 167 167
165 166 166 166 166 166 167 168 171 170 169 167 167 167 167 165
168 168 169 169 169 168 167 166 166 167 167 167 168 169 169 168
169 169 168 167 167 168 169 169 168 168 168 167 167 168 168 167
165 165 166 168 168 168 167 167 169 167 166 165 164 163 165 168
167 166 166 167 167 166 166 167 165 165 166 167 167 166 165 166
165 165 164 162 162 163 164 163 166 166 163 166 166 163 167 167
163 163 163 163 164 165 164 163 165 163 164 165 165 163 162 164
163 164 164 164 163 162 162 163 164 164 164 163 162 162 162 162
162 164 164 163 161 161 162 163 162 163 163 162 162 161 161 162
161 163 164 161 160 162 163 163 162 164 165 163 163 163 163 162
158 159 161 162 163 163 162 162 163 163 161 159 160 161 161 159
162 162 162 161 161 162 162 161 163 161 160 160 160 159 159 161
157 159 160 159 158 157 158 160 159 159 159 159 160 160 159 157
159 159 158 159 159 159 160 161 162 159 158 159 160 159 157 158
161 159 157 156 155 156 158 160 158 157 158 159 159 159 159 160
157 158 158 157 159 162 163 162 158 157 157 157 156 154 153 154
158 157 156 156 157 158 159 159 154 157 161 160 156 156 159 159
158 157 156 156 157 156 157 157 157 154 156 155 156 156 153 154
174 172 171 171 171 170 171 172 171 171 172 172 171 170 171 173
172 173 172 173 176 174 170 169 169 169 168 168 170 171 171 172
170 166 168 171 171 169 167 173 175 171 169 170 169 167 168 170
164 168 167 168 168 169 171 168 167 167 167 168 169 168 166 164
168 165 165 167 168 167 168 171 168 169 168 166 165 166 166 166
164 163 164 166 166 164 165 168 169 167 166 166 166 167 166 165
163 164 165 165 164 163 163 164 166 166 166 165 166 168 168 167
165 166 167 166 166 165 166 167 169 167 165 164 166 169 169 168
169 168 167 167 168 167 166 165 166 167 168 167 167 168 168 168
168 166 167 169 168 166 166 167 165 167 167 166 167 168 167 164
167 165 163 164 165 166 165 165 166 165 164 165 164 163 163 165
166 165 166 166 165 165 166 168 164 164 165 166 166 164 163 163
165 165 164 162 162 163 164 164 165 165 162 167 167 163 166 165
164 165 165 164 164 164 163 162 162 163 164 166 164 162 162 164
162 163 164 164 163 162 161 161 162 163 163 162 162 163 164 165
163 163 162 161 162 163 162 160 162 162 162 162 161 161 161 162
160 163 163 160 159 161 162 162 162 164 164 161 159 160 161 161
158 159 160 161 162 162 163 163 163 163 160 158 159 162 162 159
162 163 162 160 160 162 162 160 160 158 157 158 160 160 161 163
159 156 160 162 158 158 160 156 160 159 159 159 160 160 158 155
159 159 160 161 160 158 158 160 159 156 156 159 160 160 160 162
160 157 155 154 154 155 157 159 157 157 157 159 158 157 156 156
161 159 156 154 158 162 160 155 156 157 158 160 159 157 156 156
158 158 157 154 153 155 157 158 157 158 161 160 156 156 157 156
157 156 156 158 158 155 153 152 158 156 158 157 157 156 153 155
174 173 169 171 171 170 172 172 169 169 170 171 171 172 173 174
175 171 171 172 170 169 169 167 168 171 171 167 166 169 169 167
169 170 171 172 170 169 170 173 172 170 169 168 168 167 168 169
166 167 168 168 168 167 168 170 165 166 166 166 169 169 166 166
167 164 167 167 167 168 166 168 167 166 167 167 166 164 164 165
168 163 166 168 163 165 169 167 166 164 164 167 168 166 165 165
165 164 165 166 166 165 164 165 165 163 164 168 168 164 165 169
165 166 166 167 167 166 165 165 169 168 166 165 165 165 167 168
165 166 167 165 164 164 165 165 168 165 165 167 168 167 167 169
170 168 167 167 167 167 166 167 163 168 168 165 166 167 166 164
164 165 166 165 165 164 165 166 167 165 164 165 166 167 167 168
165 165 165 164 164 165 166 168 167 165 164 165 165 165 164 163
162 164 165 164 164 164 164 163 163 164 164 163 162 162 164 166
163 163 163 164 164 164 163 162 163 161 161 164 167 166 162 160
161 161 162 164 164 163 163 165 164 164 164 164 163 162 161 162
164 166 164 165 162 161 165 160 163 164 160 159 164 164 161 162
159 161 162 161 161 162 163 163 163 163 161 159 159 161 162 161
164 162 162 162 162 161 161 162 161 160 160 160 161 162 161 161
157 160 161 160 159 161 161 160 158 158 158 157 157 159 160 160
158 160 161 159 157 157 159 160 158 157 158 160 159 155 156 160
160 158 157 158 159 158 158 158 157 156 161 162 156 157 159 154
157 156 154 155 157 156 154 155 154 158 159 155 153 158 160 155
160 158 158 160 158 155 156 159 157 159 159 157 156 158 158 156
157 157 155 153 154 157 158 156 159 158 157 158 158 157 157 159
155 155 156 157 158 157 154 150 156 155 152 157 154 156 153 156
173 173 170 172 173 171 173 171 173 173 173 173 172 171 171 171
174 173 172 171 169 170 170 167 167 169 170 168 168 169 169 168
169 170 171 169 168 169 170 169 170 170 170 169 169 168 168 167
169 169 169 169 169 168 168 169 170 170 168 166 167 167 167 168
169 166 166 164 164 165 166 170 166 165 165 166 165 164 164 165
167 163 165 167 163 164 167 164 166 164 163 165 165 164 164 166
166 164 164 164 165 165 166 168 169 167 167 168 167 164 163 165
166 166 165 165 165 165 165 166 168 168 167 166 166 166 166 166
166 167 167 166 165 166 166 166 166 166 166 166 167 168 168 168
169 167 167 167 167 165 165 165 167 167 166 166 168 166 164 165
165 166 167 167 166 164 164 164 166 165 164 165 166 166 166 166
163 163 164 165 167 167 167 166 168 166 165 165 166 166 165 164
165 166 165 163 162 163 163 163 164 165 165 164 163 163 163 164
164 164 164 164 163 162 161 161 163 162 162 163 164 163 162 162
162 160 159 161 164 164 163 162 165 164 163 164 163 163 163 164
162 166 166 167 162 159 164 161 159 162 161 160 162 161 158 159
160 161 162 161 160 160 160 160 163 164 164 163 162 162 161 160
164 163 162 163 164 163 163 163 159 160 161 163 163 163 161 160
159 159 160 160 159 159 160 161 161 162 161 160 159 160 159 158
157 159 160 160 159 158 157 156 159 158 159 161 159 157 158 162
160 158 157 157 158 158 158 158 157 156 160 161 156 157 160 156
156 156 154 155 158 157 155 156 158 158 158 157 155 157 157 154
159 157 155 156 156 155 156 158 155 158 159 157 156 156 155 153
158 157 155 155 157 158 157 155 156 157 157 157 158 159 158 155
157 157 157 156 156 156 154 151 154 155 153 157 155 157 154 155
174 173 170 173 174 172 173 171 172 172 172 172 171 170 170 170
173 174 174 170 168 171 172 167 170 170 170 170 169 168 168 168
170 172 171 168 168 171 170 166 169 171 171 169 169 170 170 168
170 169 168 168 168 168 167 168 169 169 167 164 165 166 167 170
167 166 168 167 165 166 164 167 166 165 165 165 164 164 164 165
167 163 165 166 163 163 165 162 167 165 164 164 164 163 164 167
163 163 164 167 167 167 166 167 168 167 167 167 166 165 164 165
165 166 166 165 164 164 165 166 166 166 166 166 165 165 165 165
167 167 167 166 167 168 167 166 165 167 167 165 166 169 169 167
166 165 166 167 167 166 166 166 169 166 165 168 170 166 163 167
167 168 168 167 166 164 163 163 164 164 164 164 165 166 165 164
165 164 164 165 167 167 165 163 166 165 164 163 164 164 164 163
165 166 165 163 162 162 163 163 161 162 163 163 163 163 163 163
163 163 164 163 162 161 162 163 162 162 163 163 163 162 162 163
162 159 158 160 162 163 162 162 164 163 163 163 163 162 162 163
166 164 162 164 164 163 164 160 159 162 162 161 161 159 158 160
160 161 161 160 159 160 161 161 162 164 165 164 163 161 160 159
163 162 162 163 163 163 162 162 159 160 162 163 163 162 161 160
158 157 158 161 161 159 159 163 161 161 160 159 159 159 159 159
156 158 159 159 159 158 156 154 159 159 159 161 160 157 158 161
159 157 156 156 157 157 157 158 158 157 160 160 155 155 158 155
154 155 154 155 158 157 155 156 158 154 155 159 158 157 157 157
158 157 155 155 155 156 156 156 154 157 159 158 157 157 157 156
157 155 154 157 159 159 157 155 156 158 158 156 158 161 159 155
155 156 156 155 155 156 156 155 152 154 154 155 153 155 154 153
176 175 171 172 173 172 174 172 169 170 170 170 170 170 170 170
173 173 173 171 168 170 171 168 174 172 171 171 170 168 168 170
170 171 170 169 169 171 170 167 170 171 171 168 168 171 172 170
168 167 167 168 168 167 167 168 166 167 165 165 166 165 166 169
166 166 169 168 167 167 165 166 166 166 165 165 165 165 165 165
166 164 165 166 163 163 165 164 167 166 165 166 166 165 166 167
163 163 165 167 168 166 165 165 165 165 165 165 166 167 167 165
165 166 166 167 166 166 165 165 165 164 164 164 164 165 166 167
167 166 166 166 167 168 167 166 167 167 167 165 166 168 168 168
166 166 166 167 167 167 168 168 168 166 165 168 170 167 165 168
168 168 167 165 164 164 164 165 164 164 163 163 165 166 165 164
167 165 164 163 165 166 165 164 163 164 163 163 163 163 162 161
163 164 164 164 163 163 163 162 160 161 162 162 163 162 162 162
163 163 162 161 160 161 163 164 160 162 164 164 164 163 162 162
160 161 162 161 160 160 162 164 163 162 161 162 162 161 160 161
168 162 159 162 164 164 164 160 161 162 162 161 160 159 160 162
162 161 160 159 159 161 163 164 162 163 163 162 160 160 161 162
162 163 163 163 162 161 160 159 160 160 161 161 161 161 161 161
158 158 159 162 162 160 159 161 160 159 158 157 157 158 159 159
157 158 159 159 159 159 158 157 158 158 159 160 159 157 156 157
158 157 156 156 157 157 156 156 158 157 158 158 155 155 156 154
153 154 153 154 156 155 154 157 156 152 154 158 158 157 158 158
157 157 157 156 156 157 156 155 156 158 159 157 156 157 158 158
156 154 154 158 159 158 157 157 156 158 157 156 158 160 159 155
153 154 155 155 155 156 156 156 152 155 155 153 152 154 154 154
176 176 172 172 172 172 173 171 172 172 171 171 171 170 169 169
173 171 172 172 169 169 170 169 173 171 169 170 170 169 170 172
168 168 168 169 169 169 169 169 170 172 171 168 167 170 170 168
168 168 169 169 168 167 167 168 167 168 166 166 168 166 165 168
168 166 167 165 166 168 166 168 166 166 166 166 166 166 165 164
165 164 165 165 163 163 166 167 166 165 166 167 168 168 167 166
167 166 164 164 163 163 165 166 165 166 165 165 165 167 166 164
166 166 166 167 167 167 166 165 164 164 164 164 164 165 166 167
167 166 165 166 168 168 167 166 169 167 165 166 166 166 167 168
169 168 168 167 167 167 167 167 165 166 166 166 167 166 165 167
167 166 165 164 164 164 165 165 164 164 163 162 164 166 166 165
164 164 163 162 164 166 167 167 163 165 166 165 164 164 163 161
163 163 164 164 163 162 162 163 165 164 164 163 163 163 162 162
164 163 162 161 161 161 161 161 161 162 163 164 164 164 163 162
161 162 163 161 159 159 162 164 163 161 160 161 161 161 161 162
163 162 164 164 162 162 163 164 161 160 161 161 160 159 160 162
163 163 162 161 161 161 162 163 162 163 163 162 160 160 161 163
161 163 164 164 162 160 159 159 160 160 159 159 159 160 161 162
161 160 160 159 160 160 159 158 160 159 159 159 158 158 158 158
157 159 160 160 160 160 160 160 158 158 158 158 157 156 156 157
157 157 156 157 157 157 155 154 157 155 156 157 157 157 156 154
154 155 153 153 155 154 154 157 157 155 155 156 155 154 156 155
155 157 157 156 155 156 156 156 158 159 159 157 155 154 154 154
157 155 155 157 157 155 155 157 155 155 156 157 157 156 155 154
152 154 156 156 155 154 154 153 154 156 157 154 154 155 156 155
173 175 173 174 173 171 172 169 172 172 171 170 170 169 169 169
173 170 171 172 170 169 170 169 172 170 169 169 169 169 169 170
168 168 169 171 170 168 169 171 169 170 170 168 168 168 167 164
167 168 169 169 168 166 165 167 167 167 166 166 168 166 166 169
166 165 166 165 167 169 166 166 166 166 166 166 165 166 165 164
164 164 164 164 164 164 165 168 164 164 165 167 168 168 166 164
166 165 164 165 164 163 163 164 165 165 166 166 166 167 166 165
167 166 166 165 164 165 166 167 165 166 167 167 166 165 165 165
167 166 166 167 168 168 167 166 169 166 164 166 166 165 166 168
168 168 167 166 165 166 167 167 163 167 166 164 164 165 165 164
164 164 165 165 165 165 164 164 164 164 163 162 163 166 166 165
162 164 165 164 164 165 166 165 163 165 167 166 165 164 163 162
165 164 163 162 161 161 162 163 165 164 163 163 163 163 163 163
162 161 161 162 163 163 161 160 163 162 162 161 162 163 163 163
162 162 161 160 160 161 162 161 165 162 160 160 161 162 164 166
161 161 165 164 163 164 163 161 160 158 160 163 161 160 161 160
160 160 161 162 163 162 161 162 163 163 164 164 163 161 161 162
159 161 163 162 161 160 159 158 159 159 158 159 160 161 161 161
161 160 158 157 157 160 160 160 157 157 159 160 160 158 157 156
156 159 161 161 160 160 160 159 158 158 156 155 155 157 158 159
156 156 156 156 157 157 155 153 158 157 156 157 158 156 154 152
155 155 154 154 155 154 154 157 157 155 156 154 152 153 155 153
155 155 154 153 153 154 156 158 157 158 159 158 157 156 154 153
157 157 156 156 155 154 154 155 154 154 156 159 159 155 153 153
150 153 155 155 155 154 154 153 153 154 156 154 156 154 155 153
171 174 173 173 172 170 172 170 170 169 168 168 168 168 168 168
172 170 171 172 171 171 171 168 171 170 170 170 170 169 168 167
168 170 171 171 170 170 170 170 168 168 169 169 168 167 166 165
166 167 168 169 168 166 165 165 164 165 165 166 167 165 166 170
164 164 168 167 168 170 165 164 167 167 166 164 164 165 165 164
165 164 163 163 165 165 164 166 165 165 165 166 166 166 165 164
162 163 165 167 168 166 164 163 164 164 166 167 167 166 166 166
165 166 166 165 163 163 165 167 165 166 167 167 166 164 164 164
167 166 166 168 168 167 166 167 165 165 165 166 167 166 166 166
165 166 166 165 165 166 167 167 164 167 166 163 165 166 165 164
164 164 165 165 165 164 163 163 164 164 164 162 163 165 165 163
162 165 166 165 164 165 164 162 162 164 165 163 162 163 162 161
165 164 162 162 161 161 162 164 162 161 160 161 162 163 163 163
160 160 161 162 163 163 163 163 163 163 162 160 160 162 162 161
161 161 161 160 160 162 162 162 165 163 161 161 162 163 164 165
163 160 163 161 163 168 164 159 161 159 161 164 161 160 161 160
158 158 159 161 162 162 162 163 163 162 163 164 164 162 161 161
159 160 161 160 160 160 158 156 158 157 157 158 160 161 160 160
160 158 158 159 158 158 159 162 156 156 157 159 159 157 156 156
158 159 159 158 158 158 157 156 159 159 157 155 156 158 159 158
156 156 156 155 156 157 156 155 157 157 156 156 156 153 152 153
154 155 155 155 156 154 154 157 155 153 154 154 153 154 155 153
157 155 153 153 153 153 155 158 156 156 157 158 158 157 156 155
156 157 156 155 154 155 155 155 155 156 156 157 158 157 155 153
151 152 153 153 153 155 155 155 152 150 153 152 156 152 154 153
171 174 172 172 170 169 173 172 171 170 168 167 167 167 167 167
171 171 172 171 170 173 172 167 168 169 170 171 171 171 170 168
168 171 172 169 168 170 169 167 168 167 167 168 168 168 168 169
166 166 168 170 170 169 167 167 164 167 168 168 168 164 163 168
166 166 168 166 166 168 167 167 168 168 165 163 163 165 165 164
167 165 163 164 167 166 163 163 167 167 167 165 165 165 165 165
162 162 164 166 167 166 166 167 164 165 166 168 167 164 163 164
163 166 168 167 163 162 164 167 165 165 166 165 164 163 164 165
167 166 166 168 168 166 166 166 162 165 166 166 167 168 167 164
164 166 167 166 165 165 165 164 165 166 165 164 167 168 167 166
166 165 165 164 164 164 163 163 163 164 164 163 163 165 164 161
162 164 166 164 164 166 165 163 161 164 164 161 160 161 162 161
162 162 162 163 163 162 162 164 162 161 160 161 162 163 162 161
162 162 162 161 160 161 163 164 161 162 162 161 160 161 160 159
158 161 163 161 159 160 163 165 164 163 162 163 164 162 161 160
162 162 166 160 158 166 165 163 163 159 161 163 159 158 161 161
161 159 158 159 160 160 161 163 161 160 161 162 163 162 162 162
162 162 161 160 161 161 158 155 157 156 154 155 158 160 160 159
161 160 161 163 161 155 155 160 161 159 158 158 157 155 155 156
160 159 157 155 155 156 155 154 159 159 159 158 158 158 157 154
156 156 155 154 155 157 157 156 152 154 153 154 154 152 153 157
152 154 155 156 156 154 153 156 156 153 153 155 155 154 154 151
160 156 154 156 156 154 154 156 156 155 154 155 156 156 155 154
154 155 155 154 155 157 158 156 156 156 155 152 154 158 157 154
155 155 153 151 152 154 155 155 153 149 151 151 155 152 154 155
173 171 171 173 172 169 170 173 172 171 171 171 171 170 170 171
170 172 172 169 167 168 170 172 169 169 170 169 169 168 167 167
169 168 171 171 167 169 171 168 166 170 170 167 166 165 166 168
166 167 168 166 165 165 165 165 165 167 167 166 166 167 166 164
165 168 168 167 167 165 165 167 167 166 165 165 164 162 164 168
167 165 164 165 163 161 160 162 164 166 166 165 165 165 164 163
162 164 167 166 165 163 163 163 167 168 164 164 164 163 163 160
164 165 166 165 165 166 167 167 167 164 162 164 165 164 164 164
165 167 168 168 167 167 167 168 165 166 166 165 166 167 167 166
164 166 166 164 166 166 165 165 166 166 166 165 165 165 164 163
163 161 162 164 164 165 165 163 159 162 165 165 163 162 162 163
162 160 163 164 160 161 165 163 162 164 164 160 158 159 163 165
160 159 161 162 161 162 163 161 161 162 162 161 161 162 161 157
161 160 161 162 162 162 163 164 163 163 164 164 162 159 158 159
160 158 160 163 163 160 160 162 162 161 161 161 162 162 160 157
161 162 162 162 162 161 160 160 159 159 162 162 160 161 162 160
163 161 160 160 161 161 161 160 159 160 161 162 162 161 162 162
158 160 159 158 161 161 160 160 159 159 158 157 159 160 159 156
155 157 159 161 162 159 157 158 160 156 157 160 159 158 158 158
157 160 159 155 152 154 156 156 158 156 156 156 156 155 157 158
155 157 154 154 153 152 154 154 155 155 155 154 153 153 152 151
152 153 154 153 154 155 156 155 155 153 153 155 154 150 152 157
158 153 152 156 158 156 155 158 154 154 156 159 159 157 157 159
156 155 155 153 152 154 155 154 154 153 154 156 156 155 155 156
157 156 156 157 156 153 151 151 152 152 152 152 152 152 150 149
171 171 171 171 170 170 171 173 171 171 171 172 173 172 170 170
170 171 170 169 168 169 170 171 169 169 170 170 169 169 169 168
169 169 171 170 167 168 169 166 168 171 170 167 166 165 165 167
169 167 166 166 165 164 165 167 166 167 166 166 166 167 166 165
165 167 166 165 165 164 164 166 163 163 164 165 165 165 167 169
163 163 164 165 164 162 162 164 164 165 165 164 163 163 163 163
164 164 164 165 166 166 165 164 166 168 165 165 165 164 166 163
165 166 166 165 164 165 167 167 162 163 164 164 165 166 166 165
166 165 164 165 166 167 165 164 165 165 165 165 166 168 166 164
164 166 165 164 165 166 166 167 165 166 165 164 164 165 166 166
163 160 162 165 164 162 163 164 162 161 161 162 164 164 163 161
162 160 163 164 161 162 164 162 162 164 164 163 161 161 161 160
160 160 162 163 161 160 160 158 161 160 159 158 159 161 161 161
161 162 163 162 161 162 161 160 162 160 159 160 161 160 159 159
160 160 160 161 161 161 161 162 159 161 162 161 160 160 161 162
160 160 160 161 162 162 161 160 160 160 162 162 160 161 162 160
162 162 161 160 160 160 161 161 161 161 160 160 160 161 161 161
157 159 158 158 160 159 157 156 159 159 158 157 158 160 161 160
159 160 160 159 159 158 158 160 160 156 156 158 158 158 159 158
157 158 158 155 154 156 157 157 154 154 155 155 155 155 157 159
155 157 156 157 156 154 156 154 156 155 153 153 154 154 154 153
153 153 153 153 154 155 155 153 153 155 155 154 153 155 156 156
155 152 152 154 155 153 153 156 155 154 154 156 156 155 156 158
155 154 155 154 153 155 156 155 155 154 154 155 155 154 155 156
155 154 154 155 154 152 151 151 153 154 154 154 153 152 151 150
168 171 172 171 170 172 173 172 172 170 170 171 172 171 170 169
169 169 169 169 169 171 172 172 170 170 169 170 171 171 170 169
168 168 170 170 167 168 168 165 169 171 169 166 166 165 164 166
169 166 165 167 166 163 164 167 166 165 165 166 167 167 167 168
165 166 165 164 166 165 163 164 162 164 166 165 165 165 166 166
163 163 165 166 165 163 164 167 164 165 165 164 163 164 164 163
163 163 163 164 165 166 166 166 166 168 165 164 163 162 164 163
165 166 167 165 163 164 167 168 164 167 168 166 165 167 167 165
166 165 164 165 166 167 166 165 166 166 166 166 168 168 166 164
164 166 164 163 165 166 165 167 164 165 165 164 163 164 165 165
163 159 161 165 163 160 161 164 161 162 163 162 161 161 162 163
163 161 162 163 162 163 163 161 162 163 163 163 164 163 161 158
159 159 162 163 160 160 160 159 160 159 159 161 162 162 161 161
160 161 161 159 160 162 162 160 160 159 158 158 159 159 160 161
161 161 160 158 159 162 162 161 161 163 163 161 159 159 161 162
162 161 160 160 161 161 160 158 160 159 161 160 158 159 161 160
158 159 160 160 159 160 162 164 163 162 161 161 161 161 160 159
157 159 158 157 159 158 156 155 159 159 159 158 157 158 159 159
160 161 159 157 156 159 160 160 160 156 156 158 157 158 159 159
157 157 156 156 156 156 157 157 155 156 157 156 154 153 154 156
152 154 153 155 155 153 154 152 156 154 152 152 154 155 155 155
153 153 153 153 155 155 154 152 152 154 155 154 154 156 156 154
154 154 154 154 153 152 153 155 155 153 154 155 156 155 154 155
154 154 154 153 153 154 155 155 155 154 153 153 153 153 153 154
154 154 154 154 154 153 152 152 152 153 154 153 152 151 151 151
168 170 172 173 172 172 172 172 172 170 169 169 169 169 169 170
169 169 170 170 170 171 171 171 169 168 167 168 169 170 170 169
167 167 168 169 169 168 168 166 169 170 168 166 167 166 165 166
167 166 166 167 167 165 165 166 166 165 164 166 165 164 165 167
165 166 165 166 168 167 164 164 164 167 167 165 164 164 164 162
164 164 165 166 165 164 164 165 162 164 165 164 164 164 164 163
161 163 165 165 163 162 164 167 166 167 163 161 160 160 164 164
164 165 165 164 164 165 167 168 168 169 168 165 164 165 165 165
165 166 167 167 166 166 167 169 166 165 165 166 167 166 165 163
164 165 164 163 165 165 164 165 162 164 165 164 163 163 163 163
164 160 161 164 163 161 161 161 161 162 164 162 160 160 162 164
163 162 162 162 162 162 162 161 163 162 161 162 163 164 162 160
160 160 162 162 159 159 161 162 161 159 159 160 161 160 161 162
160 159 158 158 159 160 161 162 159 160 161 160 158 158 160 163
162 161 159 158 159 160 161 161 163 163 162 160 160 160 161 160
162 161 160 160 160 160 159 157 159 159 160 159 157 158 161 160
157 158 160 160 159 160 162 165 162 161 161 161 160 160 159 158
158 160 159 158 159 159 158 159 157 158 159 159 158 157 156 156
158 158 158 156 157 161 161 157 157 155 157 158 156 157 159 159
158 157 156 156 156 155 154 155 156 157 157 156 154 152 152 152
155 156 154 155 155 153 155 154 154 152 151 152 153 154 155 155
153 153 152 153 155 156 154 152 154 152 152 155 155 153 151 152
153 155 156 154 153 153 154 154 154 153 154 156 156 155 153 152
155 155 153 151 151 152 152 154 153 152 151 151 151 152 152 152
153 153 154 154 154 153 152 152 150 151 151 152 152 151 151 151
170 169 170 173 172 170 170 173 170 169 169 169 169 169 170 172
170 171 171 171 169 168 168 168 167 166 165 166 167 168 168 167
167 168 168 169 170 169 167 167 167 168 167 167 168 167 165 166
166 168 168 167 167 168 167 166 168 167 166 166 164 161 162 165
166 166 165 165 168 167 165 164 164 166 166 164 163 164 165 164
164 163 163 164 164 163 161 161 161 162 162 162 162 163 163 163
162 163 165 166 164 161 162 164 164 165 162 162 163 164 167 166
164 164 165 164 165 166 165 164 167 165 164 164 164 163 164 165
163 165 166 165 164 164 166 167 164 164 164 164 164 163 163 163
164 165 164 164 166 165 163 164 161 163 164 163 163 163 164 163
165 163 162 163 163 164 163 158 163 162 161 161 163 163 162 161
163 163 162 161 161 161 161 162 163 162 161 161 162 163 162 162
162 161 162 162 158 157 160 161 162 159 156 156 157 157 160 163
161 158 157 160 161 160 159 161 160 161 162 161 159 159 160 161
163 160 158 159 159 158 158 160 161 161 161 160 160 161 160 159
160 160 160 160 160 160 160 160 160 160 161 160 158 160 162 162
159 160 160 159 159 159 160 160 160 160 159 158 157 157 157 158
158 161 161 160 160 160 159 159 156 156 156 157 158 158 157 156
157 157 157 157 158 161 161 154 155 155 158 159 156 155 158 158
157 156 156 156 155 153 153 154 154 154 154 154 154 153 153 152
155 156 154 155 155 153 155 154 153 152 152 153 154 153 153 154
154 152 152 153 155 156 155 153 154 152 152 154 155 152 151 151
152 154 154 153 153 154 154 153 153 153 153 155 155 154 153 152
154 155 152 151 152 151 150 152 152 151 151 151 151 152 151 151
152 153 154 155 154 153 152 150 152 151 151 152 152 153 152 150
172 169 169 170 169 167 169 173 167 168 170 171 171 170 172 174
168 169 170 170 169 168 167 168 168 167 167 167 168 169 168 168
169 169 168 168 170 169 166 167 166 167 167 167 168 167 165 167
168 170 169 165 166 169 169 167 167 166 166 166 164 163 164 166
166 166 163 163 166 166 164 165 165 165 165 163 163 163 164 164
163 163 162 163 163 163 162 161 162 163 162 161 161 163 164 165
165 163 163 165 167 164 161 160 162 164 163 164 165 165 167 164
165 165 165 165 165 165 164 162 166 163 163 165 166 164 163 165
166 164 163 163 165 165 164 162 164 164 164 164 163 162 163 164
165 166 165 166 167 166 163 163 165 165 164 162 161 162 163 163
164 162 162 161 161 164 162 156 162 162 162 162 163 162 162 161
162 164 162 160 161 160 159 161 162 161 161 162 162 162 161 161
160 159 161 162 159 158 159 160 159 158 158 159 159 159 160 161
159 157 158 161 163 162 160 160 162 161 159 159 160 161 159 156
162 159 158 160 160 157 157 160 158 161 162 161 158 157 158 159
160 160 160 160 159 159 160 160 159 159 161 160 158 160 162 161
159 159 159 159 159 159 159 159 161 160 159 157 156 157 159 161
157 161 162 161 160 159 157 157 159 157 155 156 157 158 157 157
159 157 158 158 156 159 160 154 154 155 158 159 156 155 157 157
155 156 156 155 154 153 154 154 154 154 154 154 155 155 155 153
153 154 153 154 154 152 153 151 152 151 152 154 154 153 152 153
153 152 152 153 155 155 155 154 152 154 154 152 153 155 154 151
153 153 153 153 153 154 153 152 153 153 152 152 153 153 153 153
151 154 152 152 155 152 149 152 152 152 151 151 152 152 152 151
152 154 155 155 155 154 153 151 154 153 151 151 152 152 150 148
171 170 169 169 168 167 168 171 169 169 170 171 171 171 171 173
167 167 169 170 171 169 168 168 170 169 169 169 169 169 169 169
169 169 167 167 171 169 166 167 166 167 166 166 166 165 164 167
169 169 168 166 166 167 167 166 164 165 164 164 165 166 167 167
165 165 163 163 166 165 164 164 166 165 164 164 163 162 163 164
164 164 163 163 164 164 163 163 163 164 164 163 163 164 165 165
166 163 162 165 167 165 161 159 163 165 164 164 164 163 165 163
165 166 166 165 165 165 165 164 166 166 166 166 165 164 164 165
166 165 164 164 165 165 163 162 165 164 164 165 165 164 163 164
165 165 164 165 167 165 163 164 167 166 163 161 161 163 163 162
161 160 161 161 160 161 161 158 161 162 164 163 161 160 161 163
161 163 161 160 162 160 157 159 162 160 160 161 162 162 161 161
159 157 159 161 160 159 160 161 157 159 161 162 162 162 160 158
157 158 158 158 161 164 163 159 160 160 159 158 159 160 159 157
161 160 160 160 159 158 158 160 159 161 162 160 158 157 158 158
160 160 159 159 159 159 159 158 158 158 160 160 158 160 161 160
156 157 158 159 160 160 160 160 161 160 159 158 158 159 160 161
157 161 161 159 159 158 157 158 162 158 156 156 157 157 156 156
159 155 158 159 154 156 159 156 155 155 157 158 155 155 157 156
155 156 156 154 153 155 155 154 155 155 155 154 154 155 154 153
155 156 154 155 156 154 156 154 153 151 151 153 154 152 152 152
153 152 151 153 153 153 154 154 153 155 155 151 151 154 154 151
154 154 153 154 154 153 153 152 153 153 152 152 152 153 154 155
150 154 151 151 155 153 149 154 154 153 152 151 151 152 152 151
153 154 155 154 154 154 153 152 154 152 151 150 150 149 148 146
168 170 171 170 169 169 169 168 173 172 170 170 170 169 170 171
171 170 170 172 172 169 167 166 169 169 169 168 167 167 168 168
168 169 166 166 171 169 166 168 168 168 166 165 165 163 163 167
168 167 166 167 166 165 164 164 165 165 164 163 164 167 166 163
163 165 165 166 168 167 163 163 165 163 163 165 164 163 163 165
163 164 164 163 163 163 163 163 161 163 165 165 165 164 163 162
164 162 162 165 165 162 161 161 163 166 164 164 163 163 167 167
164 166 166 165 165 166 167 167 165 167 167 163 162 164 166 166
163 165 166 166 164 163 163 164 163 162 163 164 165 163 162 162
165 164 162 163 165 164 162 164 162 162 161 161 163 165 165 164
160 159 162 164 161 159 161 163 163 162 160 160 161 162 161 160
161 163 161 160 163 161 156 156 161 159 158 159 162 162 163 163
163 159 159 160 159 158 160 162 161 162 161 158 158 159 160 159
159 162 159 154 156 163 163 157 156 159 161 159 157 157 160 161
159 161 161 159 158 159 160 161 160 159 158 158 160 162 161 159
159 158 157 158 159 160 160 159 158 159 161 162 159 160 161 159
156 157 159 160 160 159 159 159 159 158 159 159 160 159 158 157
158 161 160 157 157 158 159 162 159 157 156 157 159 158 157 157
156 153 158 159 153 153 159 158 156 155 156 156 155 156 157 155
156 157 156 153 153 156 155 152 152 153 154 152 152 153 153 153
155 155 151 152 153 152 155 154 153 150 149 152 153 152 151 151
153 152 151 152 152 152 153 154 155 154 153 152 151 150 150 151
154 153 153 154 154 152 151 152 151 153 154 154 153 154 155 155
152 155 150 149 153 151 149 155 155 154 152 150 150 152 152 151
151 152 152 151 151 152 152 151 153 152 151 151 150 149 148 147
167 170 173 172 169 168 169 171 172 171 173 173 169 168 170 170
169 168 167 167 168 170 170 169 169 169 170 170 169 168 166 166
165 167 169 168 167 165 165 165 166 166 166 167 167 167 167 167
166 165 164 163 163 165 167 169 166 169 168 164 163 165 167 167
164 165 166 165 164 165 165 164 163 164 164 161 160 162 163 163
164 164 165 167 165 162 162 165 165 163 162 163 163 161 161 163
165 163 162 161 161 161 161 162 161 162 164 165 164 162 164 167
165 163 165 166 162 164 167 165 163 166 166 165 166 165 163 164
165 166 166 165 165 166 164 161 166 164 163 164 164 163 162 162
166 165 163 163 165 163 161 163 162 162 164 163 161 162 164 163
161 161 162 163 162 160 160 161 163 161 160 161 161 160 158 158
160 162 159 160 160 156 157 159 157 156 157 160 161 160 158 157
158 158 159 161 162 161 160 159 160 163 160 159 161 157 156 164
164 162 159 158 159 161 160 158 160 161 162 162 160 160 161 163
162 161 160 161 161 160 160 160 159 161 160 160 162 161 159 159
157 159 161 161 159 157 159 161 161 159 159 159 159 158 159 161
156 158 159 157 158 160 160 158 161 158 159 159 158 157 155 158
155 157 157 156 157 157 158 160 159 159 157 155 157 159 158 155
158 159 156 156 155 153 155 153 156 156 155 154 154 155 156 155
156 155 154 154 154 154 154 154 155 154 154 154 154 153 152 152
154 152 152 154 154 152 153 156 156 153 152 153 154 153 153 153
151 151 152 152 152 153 153 154 156 154 153 153 152 151 151 151
152 153 153 152 151 151 152 152 150 151 154 156 155 152 152 154
155 153 151 150 150 151 152 153 153 151 150 151 152 152 152 152
152 151 150 150 150 151 152 153 153 152 151 149 150 151 150 149
170 169 167 166 167 167 167 167 168 168 171 172 171 171 172 170
169 169 169 169 170 171 169 168 167 169 171 169 166 164 166 169
166 167 168 168 166 165 165 165 166 165 165 166 167 166 166 167
164 164 163 163 165 166 167 168 166 167 166 164 163 164 164 163
165 165 166 165 165 166 166 165 164 164 164 164 163 162 162 163
162 162 163 164 164 163 162 162 159 160 161 161 162 163 163 162
164 164 164 164 164 164 165 165 165 166 167 167 164 162 162 164
165 163 165 164 161 162 164 162 167 167 165 164 165 164 163 165
165 165 165 164 164 166 166 166 163 162 162 163 164 163 162 163
164 164 162 162 164 163 162 164 162 162 164 165 163 163 164 163
163 161 161 161 161 160 160 161 159 158 158 160 162 162 161 161
163 163 158 160 161 157 156 156 159 158 158 159 160 159 159 159
158 159 160 160 161 160 159 158 156 161 161 160 161 159 156 158
162 160 159 159 160 159 159 161 161 161 161 161 160 161 161 161
160 159 159 159 159 158 158 159 159 160 159 159 160 159 157 158
157 159 160 159 157 156 157 158 161 159 158 159 159 158 157 158
158 158 158 159 160 160 161 162 159 158 160 157 156 158 157 159
158 158 157 156 158 158 157 158 157 158 159 158 158 159 157 154
151 156 157 158 155 152 154 154 153 154 154 154 155 156 155 154
155 154 153 153 153 153 154 155 152 153 153 154 155 155 154 153
154 153 153 155 155 154 154 155 156 153 152 153 154 154 154 155
153 153 154 154 154 154 154 154 154 152 151 152 152 152 152 153
153 153 152 150 151 152 153 153 152 152 153 155 155 154 155 157
152 151 152 153 153 153 152 152 153 152 151 150 150 150 150 149
149 150 151 151 151 151 151 151 151 151 150 149 149 150 149 148
174 171 168 168 170 171 170 169 168 167 169 171 172 173 172 169
169 169 169 170 170 170 168 167 169 168 167 167 167 167 167 167
168 168 168 168 167 166 166 166 166 165 165 166 167 166 166 166
165 164 163 164 166 166 166 165 166 166 166 165 165 164 163 162
163 164 164 163 163 164 165 165 164 163 163 165 165 161 161 162
162 162 162 163 164 165 163 161 158 161 163 162 163 164 163 161
161 164 165 164 164 165 166 165 163 164 166 166 164 162 162 163
165 164 165 164 161 162 164 162 167 166 163 162 164 164 163 165
166 165 164 163 163 162 164 165 161 161 161 163 163 163 162 162
161 163 163 163 164 163 161 163 164 163 165 166 163 162 162 162
164 162 160 160 161 161 161 161 159 158 158 160 161 161 160 160
160 161 157 159 161 157 157 157 160 159 159 159 159 158 158 159
159 161 161 160 159 160 160 159 156 159 159 157 157 159 160 159
162 160 160 162 160 157 157 160 161 159 158 158 159 159 159 158
157 157 158 159 158 156 157 158 160 161 159 158 160 158 156 157
159 161 161 159 158 159 160 159 160 158 157 158 159 159 157 156
156 155 155 158 158 157 158 160 159 160 162 158 156 159 158 159
158 159 156 156 159 159 157 157 155 157 158 158 157 157 156 153
153 157 157 158 156 153 155 154 154 155 155 155 155 155 153 151
154 153 152 153 154 154 154 155 154 155 155 155 155 154 153 151
153 152 153 155 156 154 153 154 155 153 152 152 153 154 154 155
151 152 152 152 152 152 151 151 153 151 150 152 153 153 153 153
154 153 151 150 152 154 153 152 154 153 153 153 153 153 153 154
152 151 153 155 155 154 152 152 153 153 153 150 150 151 150 149
149 150 152 152 151 150 151 152 151 151 150 149 149 149 149 148
170 170 169 169 169 170 170 170 170 169 169 170 169 170 169 166
169 168 168 168 168 167 166 167 169 168 167 168 169 169 167 165
168 167 167 168 168 168 166 165 167 165 165 166 167 166 165 165
166 164 163 164 165 166 164 163 165 164 165 166 166 165 164 164
163 163 163 162 162 163 164 164 163 162 163 164 164 162 161 162
163 163 162 162 163 166 164 161 160 162 164 163 164 164 163 161
161 164 165 162 162 164 165 163 160 161 162 163 162 162 163 164
163 164 165 164 164 164 164 163 164 164 162 163 166 165 163 164
165 164 164 166 164 162 162 164 162 162 163 163 163 162 161 161
160 163 164 165 165 162 160 161 164 164 165 163 160 162 163 162
162 162 162 162 162 161 160 160 160 159 159 160 160 159 158 158
158 161 159 160 160 157 159 161 159 159 160 160 159 158 158 158
160 162 162 160 159 161 162 161 159 158 157 156 156 159 161 159
161 160 161 162 160 158 158 159 160 159 157 157 158 159 158 158
156 157 158 159 158 157 157 159 161 161 159 159 160 159 157 159
158 159 159 157 157 159 160 158 159 158 158 159 159 159 159 158
158 157 158 159 159 158 157 158 159 160 163 160 159 159 156 156
157 157 156 156 159 159 157 157 157 157 157 156 156 157 157 155
158 158 155 156 157 155 156 153 156 156 155 154 153 153 153 154
154 153 153 155 156 155 154 154 157 156 155 155 155 153 151 150
152 152 153 154 154 153 152 152 153 152 152 152 152 153 153 153
152 152 153 153 153 153 152 152 154 152 151 152 153 153 153 152
152 152 152 152 154 155 153 150 152 152 153 153 152 151 151 151
154 153 152 154 154 153 152 153 151 153 153 150 150 152 152 150
150 150 150 149 149 149 150 152 151 151 150 149 148 149 150 150
169 169 168 168 168 168 169 169 170 170 171 169 166 167 167 165
169 168 168 168 167 166 166 167 166 169 171 170 166 165 166 168
166 165 165 166 168 167 165 163 166 165 165 166 166 165 164 163
167 164 162 163 164 165 164 163 163 163 163 164 164 163 164 165
165 165 164 164 164 164 165 165 162 163 163 162 162 163 163 162
162 163 162 160 161 163 163 161 160 159 161 163 163 162 162 163
162 164 165 162 162 164 165 164 162 162 163 162 162 162 164 164
162 164 164 164 165 165 164 163 164 164 163 165 167 166 163 164
164 164 165 167 167 164 164 166 164 164 164 164 163 163 162 161
161 164 164 164 164 162 161 162 161 163 165 161 159 163 165 161
162 162 163 162 161 161 160 160 159 159 159 160 161 160 159 159
160 163 159 160 161 159 160 161 159 160 160 160 159 159 159 159
161 163 162 160 159 160 161 161 160 157 159 161 160 158 158 157
158 159 160 159 160 161 161 160 160 159 159 159 159 159 159 160
155 156 157 158 158 157 158 160 161 161 159 159 161 159 158 160
158 159 159 158 158 160 159 157 159 159 159 158 159 159 159 159
159 160 159 158 157 158 158 157 159 157 159 159 159 158 154 155
156 158 157 157 158 157 156 157 159 158 156 155 156 158 158 157
158 157 153 154 156 155 157 155 155 155 154 153 152 152 155 157
155 153 153 154 155 154 154 153 154 153 152 152 153 153 152 152
152 152 152 152 153 153 153 151 152 152 153 153 152 152 151 151
151 152 153 153 153 153 152 152 154 152 151 152 153 153 152 152
150 152 153 153 153 154 153 151 149 151 153 153 152 152 153 154
153 151 151 152 153 151 151 152 149 152 152 149 149 151 152 150
149 148 147 148 148 149 149 149 151 150 149 148 148 149 150 151
174 171 168 167 169 170 170 169 167 168 171 170 167 167 168 166
168 168 169 170 169 167 166 167 167 169 169 167 165 164 166 168
165 165 165 166 167 166 165 163 165 164 164 165 166 165 164 163
165 163 161 162 164 166 165 164 164 164 164 164 163 163 163 164
166 165 164 165 165 164 164 165 163 164 164 161 162 164 164 162
162 162 161 160 160 162 162 162 162 160 160 163 163 161 161 163
162 163 163 161 162 164 165 164 162 162 162 162 162 163 164 164
163 166 165 164 166 166 163 163 165 164 162 163 165 163 161 163
165 165 165 165 165 164 164 165 164 165 165 164 163 163 163 163
163 165 163 161 162 162 163 164 160 163 165 162 159 162 162 157
162 163 162 160 159 159 160 161 159 159 160 161 161 160 159 159
161 161 155 157 161 161 161 159 161 161 159 158 158 159 160 160
162 161 160 159 158 158 158 159 160 158 157 159 160 159 159 161
158 160 159 157 159 162 162 159 158 159 159 159 158 158 159 159
155 155 156 157 157 157 158 160 160 159 158 158 160 159 158 160
160 160 160 160 161 160 159 157 159 160 159 158 157 158 158 158
158 159 158 155 155 158 159 158 160 155 156 157 158 158 155 158
157 159 159 157 157 155 155 157 157 156 154 155 156 157 156 155
156 159 158 158 155 152 155 155 154 154 154 154 153 152 153 155
156 153 151 152 152 153 153 153 152 151 150 150 151 152 152 151
152 153 152 151 152 154 153 152 151 153 154 153 152 152 151 151
151 151 152 152 152 152 151 151 151 150 150 152 152 152 152 152
151 152 153 152 151 152 152 153 150 152 153 151 150 151 153 155
150 148 149 152 152 150 150 151 150 151 151 149 149 150 150 149
148 148 148 149 151 151 149 148 150 148 147 147 148 149 149 149
172 170 168 167 168 169 170 170 168 169 170 169 168 169 170 166
167 167 168 170 169 166 166 168 169 167 166 165 166 167 167 166
166 167 167 166 165 164 165 165 164 163 163 165 167 166 165 164
163 162 161 162 164 166 166 165 165 166 165 164 163 164 164 162
164 163 163 164 164 163 163 164 164 163 163 162 163 163 163 163
163 162 161 162 163 162 162 162 163 162 162 163 163 162 161 161
162 161 161 162 162 163 162 162 160 161 161 161 162 164 164 163
165 167 165 163 166 165 163 164 164 164 162 162 163 161 160 163
166 165 164 163 162 162 162 161 164 165 165 163 162 163 163 163
164 165 162 160 161 162 162 163 162 162 164 163 160 160 160 158
162 162 161 158 158 159 160 159 159 159 160 161 161 159 158 158
159 159 154 155 159 160 161 160 161 160 158 156 157 159 160 159
160 158 156 157 157 156 157 159 158 159 156 155 158 159 159 164
160 160 158 157 158 160 160 158 157 158 158 158 158 157 157 157
158 157 157 157 158 158 159 160 158 157 156 157 159 157 156 159
156 155 157 159 160 157 156 156 158 159 159 158 158 158 158 157
159 159 159 158 158 159 160 160 159 156 158 157 158 159 157 159
157 159 159 157 156 154 154 157 155 154 153 154 155 155 154 153
156 160 160 160 156 152 153 153 156 155 155 155 154 153 151 151
155 153 151 152 153 152 152 152 153 151 150 150 151 152 151 150
152 153 153 151 152 154 154 151 151 153 153 152 151 151 152 152
154 154 154 154 154 153 153 153 150 150 151 152 152 151 151 152
151 152 153 151 150 151 152 152 151 152 152 150 149 150 151 151
149 147 148 152 152 150 149 151 151 150 149 149 149 150 149 149
149 149 149 150 151 151 150 149 149 147 146 148 149 148 147 146
167 170 172 172 170 169 172 175 173 171 169 167 167 170 170 166
167 166 166 167 166 165 166 170 166 167 168 168 167 166 167 168
166 167 168 165 162 161 163 166 164 163 163 166 168 168 167 166
163 162 162 163 164 165 165 164 164 165 165 163 164 166 164 160
162 162 162 163 164 163 163 164 164 162 162 163 164 162 161 162
162 160 160 163 164 163 162 162 159 161 162 161 162 164 163 161
164 162 162 163 164 163 161 160 161 162 163 163 163 164 163 161
164 166 162 160 163 164 162 165 164 164 163 164 165 163 162 165
163 164 164 162 162 164 163 161 165 166 165 163 161 162 162 162
163 165 163 161 162 162 160 159 163 159 160 163 161 159 161 163
161 161 160 158 158 159 158 156 156 156 158 160 160 159 158 159
160 163 159 157 157 156 160 161 159 159 157 156 156 158 158 156
158 154 153 156 158 156 157 160 156 162 160 156 159 159 156 158
159 157 156 157 158 158 159 161 157 158 158 158 158 157 156 156
161 159 158 159 159 159 160 161 157 157 155 157 159 156 155 158
155 154 156 161 162 158 157 159 157 158 158 158 159 160 159 156
156 155 157 159 159 156 155 156 156 157 160 157 157 159 156 156
156 158 157 155 155 154 154 157 155 155 154 154 155 155 155 155
155 157 155 156 156 153 154 152 157 155 153 155 156 155 153 152
153 152 152 154 155 154 151 150 153 152 151 152 153 153 152 150
152 153 153 152 153 155 154 151 151 152 152 150 149 150 152 152
153 153 153 152 152 151 151 151 150 151 152 152 151 150 151 152
150 152 153 152 151 151 151 150 149 151 152 151 151 152 151 150
152 149 149 152 152 150 149 151 149 147 146 147 148 148 148 148
148 148 148 148 148 148 149 149 149 147 146 148 150 149 146 144
171 171 171 170 169 169 169 170 168 168 169 170 170 170 170 170
172 170 167 166 167 168 168 168 172 166 164 169 170 166 165 169
166 167 166 166 168 168 166 166 165 165 166 166 165 164 164 163
165 165 165 164 165 167 165 163 165 165 164 164 163 163 164 165
162 162 162 164 165 164 162 161 166 162 162 163 160 159 160 161
163 163 163 163 162 162 162 163 161 161 161 161 161 161 161 161
160 163 164 162 161 162 162 160 161 162 165 166 165 162 161 162
161 163 164 162 160 161 164 165 164 164 164 165 164 162 161 160
162 162 163 164 165 164 163 162 162 161 163 165 163 163 165 165
165 164 163 162 163 164 163 161 160 158 158 160 162 163 163 163
164 164 163 161 160 161 160 159 159 158 160 160 156 158 159 154
160 161 160 156 156 159 159 156 157 159 159 157 158 162 162 160
156 156 157 158 159 159 159 159 157 160 161 158 156 156 157 157
158 158 157 157 158 159 157 154 155 159 160 157 156 159 160 159
156 157 158 158 155 157 159 158 154 155 156 155 156 157 157 157
157 155 157 159 157 156 159 161 155 155 156 157 157 157 158 159
158 157 156 156 155 155 156 156 155 157 158 156 155 156 157 158
158 157 157 157 157 157 156 156 154 156 156 155 155 155 156 156
154 154 155 155 154 153 153 153 153 154 155 155 153 151 153 155
151 152 153 151 151 153 153 151 153 152 152 152 152 152 152 152
153 151 152 152 151 152 153 151 152 152 152 151 151 150 149 148
150 152 153 153 152 151 151 151 152 152 151 151 151 151 151 151
151 149 149 150 150 150 151 152 151 151 150 149 151 154 153 149
150 151 151 150 151 151 151 150 152 153 152 149 147 148 149 149
149 149 149 149 150 149 148 147 148 148 147 147 149 150 150 148
173 172 171 170 169 168 169 169 168 168 169 169 169 169 169 169
172 170 168 167 166 167 168 168 166 166 166 168 169 168 167 168
166 168 167 167 168 167 164 165 164 164 165 166 167 166 165 163
162 164 166 165 164 165 167 167 164 164 164 164 163 163 163 164
161 161 162 163 164 164 164 164 163 159 160 162 160 159 161 163
162 162 162 162 162 162 162 163 161 161 161 161 161 161 161 161
163 163 163 163 163 162 163 164 163 163 163 164 164 163 163 163
162 163 164 164 162 162 163 165 163 161 160 161 162 162 162 162
163 163 163 164 164 164 164 163 163 162 163 164 161 161 163 164
163 163 162 163 163 162 162 162 163 161 160 161 162 162 162 163
161 161 161 160 159 159 159 160 160 159 160 159 157 158 160 158
158 158 157 155 155 157 159 158 158 160 160 158 158 161 161 158
160 159 159 159 159 159 159 158 155 157 158 157 157 158 159 159
160 158 157 157 158 159 158 158 156 159 160 159 158 159 160 159
156 155 157 158 156 157 158 157 155 156 156 156 157 158 158 158
156 154 155 158 156 156 157 158 156 155 156 157 156 156 156 157
159 158 158 157 157 157 157 157 155 157 158 157 156 156 156 155
155 156 156 156 156 156 156 157 154 155 156 155 155 156 156 156
157 157 156 155 154 155 157 158 152 153 154 154 153 151 152 153
153 153 151 149 149 152 152 150 150 150 150 150 151 152 152 151
153 151 152 153 152 152 153 151 152 152 151 151 150 150 149 149
151 151 152 152 151 151 151 151 151 151 151 151 151 151 152 152
151 150 149 150 151 150 150 151 150 150 149 149 151 152 151 149
147 149 150 151 151 151 150 148 150 151 150 149 148 148 149 150
148 148 148 149 150 150 150 149 147 147 147 146 147 148 147 146
171 170 170 169 169 169 170 171 169 169 169 169 169 169 168 168
170 169 168 167 166 166 168 169 163 167 168 166 166 167 168 167
166 168 167 167 168 166 164 165 164 163 163 164 166 167 165 164
165 166 166 164 162 162 163 163 162 163 164 164 163 163 163 163
163 163 163 162 162 163 164 165 164 161 162 163 161 160 162 163
162 162 162 161 161 161 161 161 161 161 161 162 162 162 162 162
164 161 161 162 162 160 161 164 162 161 160 162 162 162 162 162
163 163 164 165 164 162 162 164 164 161 159 160 162 162 161 161
164 163 163 163 163 164 164 165 163 161 163 163 161 160 161 161
161 161 162 163 163 161 161 162 161 160 159 160 160 161 162 163
158 158 159 160 159 157 158 161 160 158 159 160 158 158 159 159
160 160 159 157 156 156 158 160 159 161 160 158 158 159 159 156
160 159 158 158 158 158 157 156 157 157 157 156 156 157 157 157
159 157 156 158 159 159 159 159 158 158 158 159 158 157 156 156
159 156 157 159 158 156 156 155 155 156 157 156 156 157 158 157
157 155 156 159 158 157 158 158 156 155 156 156 156 155 156 158
159 158 157 157 157 157 156 155 155 156 158 158 158 157 156 155
154 155 156 156 155 155 156 157 156 157 156 155 154 155 155 155
157 156 155 154 154 155 157 159 152 152 152 153 153 151 151 152
152 152 150 149 150 153 153 151 151 151 151 151 152 152 151 151
152 148 149 151 151 151 151 149 151 151 151 150 150 150 150 150
151 150 150 150 151 151 151 151 150 150 150 150 150 151 152 153
151 150 150 151 151 150 149 149 151 150 150 151 152 151 151 151
146 147 149 149 150 150 150 149 149 150 150 148 148 148 149 149
146 146 147 148 148 148 149 149 147 148 148 147 147 147 147 145
169 169 169 169 170 170 170 171 170 170 170 169 169 170 170 169
167 167 166 166 166 167 168 168 165 168 168 164 163 165 167 166
164 167 167 167 167 166 164 166 165 163 161 162 164 165 165 165
164 163 162 163 166 167 166 164 163 163 164 164 163 162 162 163
163 164 164 162 161 162 164 165 164 162 163 164 161 160 162 163
163 162 162 161 161 161 161 161 160 160 161 162 162 162 162 162
162 160 159 160 160 159 159 161 160 160 160 162 162 161 161 161
163 162 162 164 164 161 161 164 165 163 162 162 163 162 161 161
163 163 162 162 163 163 164 164 161 161 163 164 162 161 161 159
161 160 161 163 163 160 160 162 159 159 159 159 159 160 161 162
158 156 157 160 160 157 158 161 157 156 158 160 159 157 157 158
162 161 161 160 158 157 158 161 158 159 159 158 157 158 157 155
157 157 157 157 159 159 157 156 159 159 158 157 156 155 155 155
157 155 155 159 160 158 157 158 158 156 156 157 158 157 156 157
160 156 157 160 158 156 156 157 156 157 157 156 157 157 157 157
158 155 156 159 159 159 160 158 155 155 156 157 157 156 157 159
157 157 157 157 157 156 155 155 155 156 157 158 159 159 158 156
156 156 156 155 155 155 155 156 156 157 156 155 154 155 155 155
154 154 154 154 154 154 155 155 153 152 151 152 152 152 151 152
151 151 151 151 153 154 153 151 153 153 152 152 152 152 152 151
153 148 148 150 150 149 149 149 152 151 151 151 150 151 151 151
151 150 150 150 150 150 150 151 150 149 149 149 150 151 152 152
149 150 151 151 151 149 148 148 151 150 150 152 152 149 150 152
148 149 148 147 148 150 151 152 149 150 150 149 148 148 148 147
147 147 147 147 147 147 147 147 146 148 149 148 147 147 147 146
170 170 170 170 170 169 168 167 170 170 170 169 169 170 170 169
167 166 166 166 167 168 168 167 168 168 167 165 164 165 165 165
164 166 167 166 167 165 164 165 167 165 163 163 163 164 165 165
165 163 163 165 168 168 166 164 164 165 164 163 162 161 162 163
161 163 164 163 162 163 164 165 162 161 162 163 160 160 162 163
161 161 161 161 161 162 162 162 160 160 160 161 162 162 162 161
160 161 161 160 160 162 162 160 161 161 162 163 162 161 161 162
163 161 161 163 163 161 161 164 163 162 162 163 163 163 162 163
162 162 163 163 163 163 164 164 162 161 163 163 161 161 162 160
163 161 161 163 163 161 160 161 159 160 161 160 160 160 159 159
160 157 157 160 161 159 158 160 156 156 156 158 159 157 156 158
159 159 160 160 158 157 159 162 157 158 158 158 157 157 157 156
156 157 158 159 160 160 158 157 157 158 158 158 156 156 157 158
157 155 156 158 159 158 157 157 157 155 154 157 159 158 159 161
158 155 157 160 157 156 158 160 156 157 158 157 157 158 159 158
156 154 155 158 158 159 159 157 156 156 157 157 157 156 157 159
156 157 158 158 157 156 156 156 156 156 156 157 158 158 157 157
157 157 156 156 156 156 156 155 153 154 154 154 155 156 157 157
153 154 154 155 155 155 154 153 154 152 150 151 151 151 151 152
152 153 153 152 153 153 152 151 151 151 150 150 150 152 152 153
155 150 149 151 150 150 150 150 151 151 150 150 150 151 151 151
150 150 151 151 150 149 149 150 150 150 150 150 150 150 151 152
147 149 151 151 150 149 149 149 150 149 149 151 150 147 147 151
150 150 149 147 146 149 151 153 150 151 151 149 148 148 148 147
148 148 148 148 148 147 148 148 145 147 148 147 147 147 147 146
169 169 170 170 170 169 168 167 168 169 168 167 168 169 169 167
169 168 167 167 168 168 167 165 166 165 165 167 167 166 165 165
165 167 166 166 166 165 163 164 167 166 165 165 166 166 165 164
165 165 166 166 165 162 161 162 165 165 164 163 161 161 162 163
161 163 164 163 162 163 163 163 163 162 163 163 160 160 162 161
162 162 161 160 161 161 160 159 160 160 160 161 162 162 162 161
159 161 160 159 161 164 164 161 161 161 162 161 160 159 161 163
162 162 162 163 162 161 162 165 164 162 161 161 160 160 161 163
162 162 163 164 164 164 164 164 164 162 163 162 160 162 163 162
163 162 161 161 161 161 161 161 157 158 159 160 160 160 159 158
162 159 158 160 160 159 158 158 157 157 155 156 158 158 157 159
158 159 160 160 158 158 159 160 157 157 157 158 158 157 157 158
157 158 159 160 160 158 157 156 156 157 159 159 157 156 157 159
158 157 156 156 157 158 158 158 158 156 155 157 157 157 157 159
158 156 157 158 155 154 156 158 155 156 156 156 157 158 159 158
156 154 155 156 157 158 159 157 157 157 158 158 157 155 155 157
156 157 158 158 157 156 156 156 158 157 156 156 156 155 156 156
157 156 155 156 157 157 156 155 152 153 153 154 155 156 156 156
155 155 154 154 154 154 154 153 153 151 149 150 151 151 151 151
152 152 151 151 151 152 152 153 152 151 150 150 150 151 152 152
154 151 151 150 149 150 151 150 150 150 150 150 150 150 150 150
150 150 151 152 150 148 148 150 151 151 151 151 151 151 151 151
147 149 150 150 149 149 149 149 150 149 149 151 150 147 147 150
149 150 149 148 147 148 150 151 149 150 150 149 149 150 150 149
147 147 147 148 148 148 148 148 146 147 147 147 148 148 148 147
169 169 169 169 170 170 170 170 168 169 168 167 167 169 168 165
169 169 168 168 168 167 166 165 165 165 166 167 168 167 167 166
166 167 165 164 166 165 163 164 167 165 164 164 166 166 165 163
160 160 162 163 164 163 164 166 163 164 164 163 161 160 161 162
161 164 164 162 162 162 162 161 164 164 165 164 160 160 161 160
163 162 161 160 161 161 160 159 161 160 159 160 161 161 161 160
161 160 158 159 161 163 163 162 160 159 160 160 160 160 160 162
161 163 164 164 162 161 162 164 165 162 161 160 161 160 160 161
161 162 163 164 164 164 164 164 164 163 164 163 161 162 162 160
162 163 162 160 159 161 162 162 156 157 158 158 160 161 160 159
161 160 158 158 158 158 157 157 157 159 155 154 158 159 157 157
159 161 161 158 157 158 158 158 158 157 157 158 157 156 157 159
157 158 159 159 157 155 154 155 158 158 159 159 158 156 156 157
157 158 157 156 156 159 159 157 158 158 157 157 157 156 155 155
158 157 158 158 155 155 156 155 156 157 157 156 156 157 157 157
158 156 156 156 156 157 159 158 157 158 159 159 157 155 155 156
156 155 155 155 157 157 156 155 158 157 157 157 155 154 154 156
156 156 156 156 156 156 155 153 153 154 154 154 154 155 154 153
155 154 153 153 153 153 153 153 152 150 150 151 151 151 150 150
150 150 149 150 151 152 153 153 153 152 151 151 151 151 151 150
150 151 152 150 148 150 151 149 149 149 149 150 150 150 149 149
151 150 150 151 150 149 149 151 151 151 151 151 150 150 150 149
148 149 149 148 148 149 150 149 149 149 149 150 149 148 148 150
148 149 150 149 148 148 149 149 148 149 149 149 149 150 151 150
146 146 146 147 148 149 148 146 147 147 147 147 148 149 149 147
172 171 170 169 170 170 170 170 169 170 170 168 168 170 168 165
167 168 168 168 168 166 166 165 166 167 167 166 166 167 168 167
166 166 164 164 166 165 164 165 166 163 161 161 163 165 164 163
165 161 160 162 165 166 165 165 162 163 164 163 161 160 160 161
160 162 163 161 162 164 164 162 161 161 163 163 160 160 162 161
160 160 159 160 162 163 163 163 161 160 159 159 160 161 161 160
164 160 158 159 161 160 161 162 159 159 160 162 162 162 161 161
160 163 165 164 162 161 162 162 162 161 160 162 163 163 162 162
161 162 163 163 163 163 164 164 163 164 165 165 163 162 161 157
160 163 163 158 157 161 163 163 159 159 159 159 160 162 161 159
159 159 159 157 156 156 156 156 156 158 156 154 160 161 156 155
157 159 159 156 155 158 159 158 158 157 157 157 157 155 156 158
157 159 159 158 155 153 154 155 157 157 158 159 159 157 156 156
154 157 158 156 157 160 159 156 156 158 159 159 158 158 157 156
155 155 157 157 156 158 159 156 160 161 160 159 158 158 157 156
158 156 156 155 154 156 158 157 157 158 160 160 158 156 156 157
157 155 153 155 157 158 157 154 156 156 157 158 156 154 155 157
156 156 156 156 155 154 152 151 152 153 153 154 155 155 154 153
154 153 153 153 153 153 153 152 151 151 151 152 153 151 150 150
151 150 150 151 153 153 151 149 150 150 151 152 152 152 151 151
148 151 153 152 149 152 153 149 149 149 150 150 150 150 149 149
152 149 148 150 150 149 150 152 150 150 150 150 150 149 149 148
150 149 148 147 148 150 150 148 147 147 148 148 148 148 148 149
148 149 150 149 148 149 150 150 149 149 149 148 149 150 150 150
148 147 146 147 149 149 148 146 147 147 146 146 147 148 148 146
169 168 168 169 171 171 170 168 171 169 169 168 168 169 170 167
168 167 168 166 164 166 168 168 164 167 168 167 164 163 165 167
163 162 162 163 164 163 163 164 162 163 165 161 161 165 163 162
162 160 160 162 163 163 163 163 162 164 165 164 163 163 162 161
160 160 163 160 162 163 157 160 161 161 162 162 160 162 165 164
160 163 164 161 160 162 162 160 161 159 160 161 158 158 160 162
158 160 158 159 163 161 158 161 164 161 161 163 163 160 160 163
163 164 164 162 161 161 162 162 162 162 160 158 159 163 164 161
164 165 164 161 161 163 163 162 164 162 162 163 163 161 160 161
161 162 161 158 159 163 162 157 158 157 163 161 161 162 158 160
163 158 153 160 160 155 158 157 155 160 158 157 162 159 154 156
157 159 160 160 158 156 157 159 156 157 158 157 157 156 156 156
159 157 156 156 157 156 157 158 157 158 158 155 153 154 156 157
156 157 157 156 155 157 157 157 159 158 158 158 158 156 156 157
155 155 156 158 157 155 156 159 159 158 156 154 155 157 157 154
156 158 160 159 158 156 156 157 157 157 157 158 157 156 155 156
157 157 157 157 157 156 156 157 155 156 156 155 154 154 154 154
156 157 155 152 152 155 156 155 154 154 154 154 155 156 155 153
153 151 153 154 152 152 153 152 153 152 150 150 150 150 151 152
148 150 151 150 151 153 153 151 151 151 151 151 152 153 151 148
151 150 150 151 151 150 149 149 150 148 147 149 150 150 150 151
147 148 150 150 149 148 149 150 149 150 150 151 151 151 149 148
148 150 149 147 145 147 149 150 147 147 149 150 149 147 147 148
144 147 149 147 146 147 148 149 150 147 146 149 150 149 147 148
147 146 145 147 149 146 144 146 150 146 146 150 150 147 147 150
168 168 168 169 170 170 169 168 169 169 169 169 168 169 169 166
168 168 170 168 165 166 168 168 167 167 167 166 164 164 164 165
165 164 163 164 164 162 162 163 162 163 165 161 161 166 165 165
162 161 161 162 163 163 163 164 163 164 165 164 164 164 164 163
160 160 162 160 163 164 159 161 160 159 161 163 161 160 162 163
158 161 162 160 160 161 160 158 163 159 160 161 161 160 160 158
160 162 160 160 162 160 158 161 162 161 161 162 161 159 160 162
161 162 163 161 161 162 163 163 160 161 161 160 161 163 164 163
163 163 161 160 161 163 163 162 162 162 162 161 161 160 160 160
159 160 160 159 160 162 161 157 157 157 160 160 160 161 159 159
161 161 158 161 160 158 162 159 161 163 159 155 158 157 156 161
156 158 158 157 155 155 157 158 157 159 160 159 157 156 156 157
159 157 156 156 157 156 156 157 156 158 158 155 154 154 157 158
156 157 157 156 155 156 157 157 156 158 158 156 155 156 156 156
155 154 155 157 156 154 155 157 156 157 157 156 157 159 158 155
156 157 157 158 158 157 156 156 157 157 158 159 159 157 157 158
154 154 155 156 156 156 156 155 155 157 157 156 155 155 154 154
153 155 155 152 152 154 155 155 154 154 154 154 155 156 155 153
154 152 153 154 153 152 153 152 153 151 149 149 150 151 151 151
148 150 151 150 151 153 153 151 153 152 151 150 150 151 151 149
150 150 150 151 151 150 149 150 149 148 148 150 151 150 149 149
146 148 149 148 147 147 149 151 149 149 149 149 149 149 148 147
148 149 150 149 149 149 149 148 150 149 149 150 150 148 148 148
145 147 147 146 146 148 149 149 152 148 146 148 148 148 147 148
148 148 146 146 146 145 144 147 146 146 146 146 146 146 146 146
169 168 169 169 170 171 170 170 167 168 169 169 169 168 167 165
168 169 170 169 165 165 167 166 166 166 165 165 166 166 166 166
163 163 163 164 164 164 164 164 163 164 166 161 160 164 163 164
162 162 162 163 163 163 163 164 164 165 164 163 163 163 162 160
161 160 161 161 164 165 161 162 163 160 161 164 162 159 160 162
158 158 159 160 161 161 161 161 160 157 157 159 159 159 159 157
162 163 162 161 162 160 159 162 159 161 161 160 159 159 160 162
161 162 162 161 161 161 162 162 161 162 163 163 162 161 161 162
164 162 160 161 162 163 162 162 160 161 161 159 159 159 160 160
159 159 159 159 159 160 160 159 159 160 159 161 161 160 161 159
158 162 161 160 158 160 164 159 156 160 158 156 158 157 156 160
159 159 159 157 155 155 157 159 157 159 161 160 158 156 157 158
158 156 155 156 156 156 155 155 156 158 158 156 154 155 157 158
155 156 156 155 154 155 156 156 156 159 159 156 154 156 157 156
156 155 155 156 155 153 154 156 153 155 156 156 156 157 157 155
157 156 156 157 158 158 156 155 154 155 156 157 157 156 156 156
155 155 155 156 155 155 154 153 155 157 158 157 156 155 155 154
153 155 156 154 153 154 154 154 154 154 153 153 154 154 154 152
154 152 152 154 153 153 153 152 154 152 150 150 151 152 151 150
148 150 151 150 151 152 152 151 152 152 151 150 150 151 151 150
151 150 150 150 150 149 149 150 150 149 150 151 152 150 149 148
147 148 149 149 147 148 149 151 150 149 148 148 148 147 147 147
146 147 148 148 149 149 148 146 150 148 148 148 149 149 148 148
148 148 147 146 147 149 149 148 150 147 145 147 147 147 147 148
148 150 149 146 147 146 146 148 145 148 147 144 144 147 147 145
169 169 169 170 170 171 171 171 167 169 169 168 169 168 166 166
168 168 169 167 164 164 166 165 165 165 165 166 167 167 166 165
163 163 163 164 164 164 164 165 163 164 166 162 160 162 161 162
160 161 162 163 163 161 161 162 165 164 163 163 162 162 161 159
161 161 159 159 163 164 162 163 165 162 163 164 161 159 160 161
161 158 158 159 161 160 161 162 160 159 160 160 157 157 160 161
161 160 160 160 161 161 160 162 159 161 161 159 159 160 161 161
162 164 164 162 161 161 160 160 162 162 163 164 162 159 159 160
164 161 160 161 162 161 161 162 161 160 160 160 159 158 160 162
161 159 158 158 158 158 159 161 161 162 158 161 162 159 162 158
156 159 160 158 155 159 162 158 153 156 157 157 159 158 156 157
161 161 160 158 156 156 157 158 156 157 158 159 158 158 158 159
158 157 157 157 157 156 156 155 157 157 157 156 155 156 157 158
157 156 155 154 155 156 156 156 157 158 158 156 154 156 157 157
158 157 156 156 155 155 155 157 154 155 156 155 154 155 156 156
158 157 156 157 157 157 156 154 156 156 157 159 159 158 157 157
156 156 156 156 156 155 154 154 156 157 158 157 155 155 155 154
155 157 157 156 155 154 154 153 155 155 154 153 153 153 153 152
154 152 152 154 153 153 153 151 155 154 152 151 151 152 151 150
149 150 151 150 151 152 151 150 149 151 152 151 151 151 151 150
152 151 151 151 150 149 149 150 151 151 151 151 150 149 149 149
147 148 149 149 149 149 150 151 151 150 149 148 148 147 147 148
147 147 146 146 147 148 148 148 147 147 147 147 148 149 149 148
150 148 147 146 147 148 148 147 149 147 146 147 147 146 145 145
146 149 149 147 148 149 147 147 146 149 148 145 145 147 148 146
168 168 168 168 168 169 169 170 167 170 169 167 169 169 166 167
169 167 167 165 164 165 166 164 166 166 167 167 167 165 164 163
164 165 165 164 164 163 163 162 162 162 165 163 162 163 161 162
160 160 161 161 160 159 159 161 164 163 162 163 163 164 163 163
160 161 158 158 160 160 161 163 163 163 163 161 158 160 162 160
162 159 158 160 160 159 158 159 160 158 159 159 156 156 159 160
160 157 157 159 160 161 161 160 160 161 161 159 160 162 162 161
162 163 164 162 162 161 161 160 161 161 161 162 162 160 161 162
162 160 160 161 161 160 160 162 162 160 159 161 161 158 159 163
161 158 157 157 159 159 160 161 160 161 157 160 160 158 161 158
157 157 159 158 156 158 159 157 160 159 156 155 158 159 158 157
159 159 159 158 157 156 156 156 156 156 156 157 158 159 159 159
158 159 159 158 157 157 156 156 157 156 156 157 157 156 157 157
158 156 155 155 157 158 158 157 158 155 154 155 155 154 155 156
159 157 156 156 156 156 156 157 155 157 157 157 156 157 158 158
156 157 157 157 157 156 156 155 156 156 156 158 158 157 156 156
156 155 155 155 156 157 157 157 156 157 157 155 154 154 155 155
156 156 156 156 156 155 153 151 156 155 154 154 154 154 154 154
154 152 152 154 153 153 153 151 152 152 152 150 150 150 151 150
150 151 151 150 151 151 150 149 149 151 152 151 150 150 150 150
152 151 150 150 150 149 150 152 151 151 150 148 147 148 150 151
146 147 147 148 149 149 148 148 150 149 149 149 148 147 146 147
149 149 148 148 148 148 150 151 146 148 149 149 149 151 151 149
148 147 146 146 146 146 147 147 150 149 147 147 147 145 144 144
145 148 147 145 148 149 147 145 147 147 147 146 146 146 147 147
168 168 168 168 167 168 169 170 168 171 168 166 170 169 166 168
169 167 166 166 165 167 167 164 165 166 167 167 166 165 164 164
164 165 165 164 164 164 163 162 162 162 164 163 162 162 158 160
163 162 161 161 160 160 161 163 164 163 162 162 162 162 162 163
162 164 159 159 160 160 162 163 161 162 163 160 158 162 164 162
159 158 159 162 162 160 159 159 158 155 156 159 159 160 160 158
161 157 157 160 161 162 162 160 160 161 161 160 161 162 162 160
160 161 162 162 163 163 163 162 162 162 161 161 161 162 161 161
160 160 161 162 162 162 163 164 162 160 160 162 162 159 160 162
158 156 157 159 161 161 160 159 159 159 158 159 160 159 161 160
160 157 160 159 158 159 158 158 160 158 156 156 158 159 159 158
156 157 157 158 158 157 157 157 158 157 156 157 158 158 158 157
156 157 157 156 156 156 155 155 156 156 156 157 157 156 155 156
158 155 154 155 157 158 157 156 158 155 154 156 157 155 154 157
158 156 155 155 156 156 157 157 155 156 158 158 158 158 158 158
154 156 157 157 156 155 156 157 155 154 154 155 155 154 153 153
156 155 154 154 155 156 156 156 155 156 156 154 153 154 155 156
154 154 154 154 155 155 153 151 153 152 152 153 153 154 154 155
153 151 153 154 152 152 153 152 149 151 152 151 150 151 152 152
151 151 150 150 151 151 150 149 152 152 152 149 148 149 150 150
149 149 149 150 150 149 151 153 148 149 148 147 146 148 150 152
146 147 148 149 149 149 148 148 149 148 148 148 148 146 145 146
149 149 149 150 149 149 149 151 147 149 150 148 148 150 150 148
147 146 146 146 147 147 148 149 150 149 147 146 146 147 147 148
149 149 146 145 147 148 146 146 147 147 147 148 147 146 146 148
170 170 170 169 168 168 170 171 169 171 167 166 171 170 166 167
168 167 168 168 166 167 167 164 164 165 165 165 165 165 165 166
163 164 164 164 164 164 163 162 164 161 163 163 162 161 157 158
165 163 162 162 162 161 162 162 165 163 162 162 161 160 160 161
162 164 159 160 162 159 161 160 160 160 162 161 159 161 164 162
158 159 160 161 162 161 161 161 160 157 158 161 162 163 163 161
161 157 158 161 161 162 163 160 160 160 160 160 161 161 160 159
159 160 161 162 163 163 163 161 161 162 162 160 160 162 161 159
161 162 162 162 162 163 163 163 160 161 161 160 161 162 160 158
156 157 158 159 160 160 159 157 160 159 160 159 159 160 159 160
159 156 160 158 157 160 158 158 155 155 157 158 158 158 158 156
157 157 158 158 158 158 157 157 158 158 157 156 157 157 156 156
156 155 154 154 155 156 155 152 154 155 158 159 157 155 154 155
155 154 154 155 156 156 155 155 158 156 155 157 157 156 156 157
156 155 154 154 155 156 156 156 155 155 156 157 157 157 157 157
156 157 158 157 155 154 155 156 157 156 156 157 157 156 155 155
157 156 154 154 155 155 155 154 154 156 156 155 153 154 155 156
154 153 153 154 154 154 153 152 152 151 151 152 152 152 153 154
152 151 153 154 152 151 152 152 149 151 152 151 151 152 153 151
150 150 150 150 151 151 150 149 152 152 151 149 148 149 150 150
148 148 149 149 149 148 149 151 148 149 150 149 148 149 150 151
147 149 150 149 148 147 148 150 149 147 147 148 147 145 145 147
149 148 148 150 150 149 148 149 147 149 148 145 146 149 150 147
147 146 146 147 148 147 148 149 148 147 146 145 146 147 148 149
149 148 146 146 148 147 146 147 146 147 148 149 148 146 147 148
171 171 171 170 169 169 170 172 168 171 167 165 171 171 165 166
167 167 169 169 167 167 166 163 167 166 164 164 164 164 165 166
164 165 165 164 163 163 161 159 164 160 162 163 163 163 160 162
162 161 161 162 163 161 159 159 164 163 163 163 161 160 161 163
161 163 157 159 161 157 157 155 159 158 160 162 160 159 160 160
160 161 160 159 157 158 159 159 159 157 158 158 155 155 158 159
157 154 157 160 159 160 162 160 158 159 160 161 160 159 158 159
160 161 162 162 162 162 161 159 157 160 161 159 160 162 162 159
161 162 162 160 160 161 161 159 158 162 162 158 159 163 161 154
157 159 159 158 157 158 157 156 160 158 162 158 157 158 155 158
156 155 160 156 155 159 157 156 156 157 159 159 155 154 157 157
159 158 158 158 157 157 156 156 157 157 157 156 156 156 156 156
158 156 154 154 156 159 157 153 153 155 159 160 157 153 153 155
155 155 156 157 157 156 156 157 155 156 156 155 155 155 156 156
155 154 153 153 155 157 157 156 158 157 156 155 155 155 156 156
158 159 159 158 156 154 154 155 157 156 155 155 156 155 155 155
156 155 155 155 157 157 156 155 153 155 156 155 154 155 156 156
155 155 155 155 154 153 153 153 154 152 152 153 152 152 152 154
152 151 153 154 151 150 152 152 150 151 151 150 150 152 151 148
150 149 149 150 151 151 151 150 149 150 150 149 150 151 151 150
149 148 149 149 148 146 147 149 149 152 153 152 150 149 149 149
147 149 150 148 145 145 147 150 150 148 148 149 148 146 147 149
151 149 148 149 150 149 149 149 148 148 146 143 145 150 151 148
147 145 145 146 146 145 145 146 149 148 147 146 146 146 145 145
145 145 144 146 148 145 144 146 144 146 147 148 147 146 146 147
173 172 173 173 170 170 171 170 169 170 169 167 167 167 167 167
169 169 168 167 168 168 167 164 166 162 165 168 164 166 167 162
163 163 163 164 165 164 164 165 162 164 165 164 163 163 164 163
159 160 160 160 160 157 157 161 161 160 162 160 161 163 162 164
160 161 160 159 160 162 160 156 157 159 161 163 162 160 160 161
160 163 162 157 155 159 161 159 160 160 159 158 157 158 159 160
158 159 159 158 157 157 159 161 160 160 158 158 159 161 161 159
159 163 163 161 163 161 159 160 162 164 159 159 160 159 162 162
162 160 161 160 161 162 159 159 161 161 161 160 160 161 160 159
160 163 162 160 160 159 157 158 158 158 158 158 158 159 159 158
158 158 159 158 157 156 157 160 159 158 158 159 159 157 154 152
154 157 158 157 155 156 156 156 158 156 155 157 158 157 157 157
155 156 157 157 156 155 156 157 154 158 159 157 157 159 158 155
157 157 157 157 156 155 156 157 154 159 154 151 153 155 155 151
154 155 156 156 156 156 155 153 157 156 155 155 156 156 155 154
155 156 156 155 154 154 154 154 154 154 155 154 153 156 158 155
153 153 154 154 155 155 156 156 154 157 158 154 151 152 154 154
154 153 154 154 153 151 153 158 153 153 152 152 153 153 152 153
154 154 153 153 152 151 150 150 154 151 151 152 151 150 150 148
149 149 149 151 153 153 152 151 150 150 150 150 149 149 148 148
148 150 150 148 145 144 147 150 149 148 148 150 149 147 147 150
149 149 149 149 148 146 146 148 148 146 149 149 148 147 146 150
148 147 147 149 150 149 148 147 147 149 146 145 148 149 147 148
145 147 148 145 144 147 149 150 151 149 147 146 145 144 146 148
147 147 148 148 146 144 145 147 147 144 142 145 148 147 147 147
172 170 170 170 169 170 170 168 168 170 171 170 168 168 169 168
169 167 166 168 170 168 167 167 166 164 167 169 166 166 166 163
163 162 161 162 164 163 162 162 162 163 163 161 159 159 160 160
161 162 161 161 162 161 161 165 161 160 162 160 160 162 160 162
160 161 161 161 160 160 159 158 161 160 161 162 161 160 160 161
159 160 159 158 158 160 160 159 160 160 159 158 157 158 159 160
156 157 158 158 158 158 158 159 158 159 160 160 160 160 159 158
159 162 160 158 161 161 159 161 160 162 158 158 160 159 160 160
162 160 161 160 160 162 161 162 163 162 161 159 159 160 160 158
158 160 160 159 160 160 159 159 158 158 158 159 159 159 159 159
159 158 157 157 158 158 158 159 157 157 158 158 158 156 154 155
156 157 158 157 157 158 158 157 158 157 157 157 156 155 156 158
156 157 157 157 156 155 155 156 156 156 155 155 154 155 155 155
156 154 154 156 157 156 155 155 156 154 157 159 154 155 158 155
153 154 154 154 155 156 156 156 154 154 155 156 157 156 154 153
157 155 154 154 156 157 156 153 154 155 155 153 154 155 154 152
155 155 155 155 155 156 155 154 159 158 155 153 153 154 155 155
152 149 148 151 154 153 151 150 154 155 153 151 151 151 152 153
155 155 154 154 153 152 151 151 153 151 152 152 150 150 150 148
150 149 148 148 150 151 151 150 147 147 148 150 151 151 150 150
149 151 151 150 148 147 147 148 146 145 146 148 147 145 145 147
149 150 149 146 145 146 147 148 149 146 148 148 148 148 146 150
147 146 146 148 148 148 147 147 148 150 148 146 149 148 146 147
147 148 149 148 147 147 147 147 146 146 147 148 147 146 146 147
147 146 147 147 146 144 144 145 147 146 145 146 147 146 145 144
172 169 169 170 170 171 171 168 168 170 171 170 168 168 168 169
170 167 166 170 170 167 165 166 166 166 167 167 166 165 165 164
165 162 161 162 165 165 163 162 164 164 164 162 161 162 163 163
161 163 161 160 161 162 161 162 161 159 161 160 160 161 159 160
160 161 161 162 160 158 159 160 162 161 160 160 160 160 160 160
160 158 157 158 160 161 161 161 160 159 159 158 157 157 158 159
156 157 159 159 159 159 159 159 157 159 160 160 159 159 158 157
159 160 158 157 160 161 159 160 157 160 158 159 161 159 160 159
161 159 161 159 159 161 160 162 162 161 159 158 158 159 159 157
158 160 159 159 162 162 160 160 158 158 158 158 158 158 158 158
158 156 155 156 157 157 157 157 156 157 158 158 156 155 155 157
157 157 157 156 157 158 159 158 156 156 156 156 155 155 158 161
157 157 157 157 156 155 155 155 158 155 154 155 155 154 155 157
159 155 153 155 157 156 155 156 159 154 154 155 156 160 158 152
156 156 155 153 153 154 155 154 153 154 155 156 156 156 154 154
156 155 154 154 155 157 156 154 152 155 153 152 156 156 153 153
156 155 155 155 156 157 156 155 154 153 153 153 154 154 155 155
153 151 150 150 151 152 153 153 150 152 153 151 151 151 151 150
153 153 152 152 151 151 150 150 152 151 152 152 150 150 151 149
150 149 147 147 148 149 148 148 148 148 149 150 151 151 149 147
150 150 150 150 149 149 148 147 148 148 149 150 149 146 146 148
145 149 150 148 147 148 147 144 150 146 148 148 148 149 147 149
146 146 146 147 147 147 147 148 147 149 148 147 149 149 147 147
148 147 148 148 148 146 145 145 146 146 147 148 148 146 145 144
147 147 147 147 146 145 143 143 144 145 146 146 146 146 145 144
172 169 170 171 172 173 172 168 170 171 171 169 167 167 168 168
169 167 167 169 169 166 164 163 164 166 165 164 164 163 163 165
165 163 161 163 166 166 165 164 160 161 161 161 161 162 163 163
161 164 162 158 159 161 160 160 159 158 161 160 161 163 160 161
160 160 161 161 160 157 158 160 161 160 159 159 159 160 160 160
160 158 156 157 159 160 161 161 160 159 159 159 158 158 158 158
157 158 159 159 158 158 159 161 158 159 159 158 158 158 158 157
159 160 160 159 160 160 159 158 155 159 158 160 163 160 159 158
160 159 162 160 160 160 158 160 158 158 158 158 159 159 158 156
158 160 160 159 161 161 159 159 157 157 157 157 157 156 157 157
155 155 156 156 155 154 155 157 156 157 157 157 156 155 156 159
157 157 156 155 156 157 158 158 154 155 156 156 155 156 158 160
158 157 156 156 156 156 155 154 157 156 155 156 156 156 157 158
159 156 155 156 157 155 154 155 152 157 158 154 158 160 154 154
157 157 155 153 152 153 153 153 154 154 154 154 154 155 156 157
153 155 157 155 153 153 154 155 153 157 154 152 157 156 152 155
155 155 154 155 155 155 154 153 155 156 157 155 153 153 153 153
151 152 152 150 150 152 152 151 150 151 153 152 151 152 153 152
150 150 150 150 150 150 149 149 150 150 151 151 149 150 152 151
149 149 148 149 149 149 147 146 150 150 150 150 150 150 148 146
148 148 147 147 148 148 148 148 149 149 149 149 148 145 144 145
145 149 151 150 149 149 147 144 150 146 147 147 148 149 147 148
146 146 147 147 147 146 147 149 146 148 149 148 149 149 148 147
147 145 145 146 146 144 145 147 147 146 146 146 147 146 145 144
146 146 147 147 146 144 143 143 143 144 145 144 145 147 147 145
170 169 171 173 172 171 171 168 171 172 171 170 170 170 169 168
166 167 167 167 167 168 166 163 162 164 164 163 164 163 162 164
163 161 161 162 163 163 163 163 159 160 161 161 161 161 161 161
160 164 163 159 160 162 162 162 160 158 161 161 162 163 160 161
160 159 159 160 159 157 157 159 159 160 160 159 159 159 159 159
158 159 158 155 156 159 160 159 159 160 160 161 160 160 159 158
156 158 159 159 157 156 158 160 160 159 159 158 159 160 159 158
160 161 162 161 159 159 159 158 155 159 157 160 163 160 159 158
160 159 161 160 160 161 158 159 157 158 158 158 158 159 158 156
156 159 159 158 159 158 157 157 157 157 158 157 157 156 157 157
157 156 156 157 157 157 157 157 158 157 156 157 157 156 157 158
157 157 156 156 155 156 157 158 156 156 156 156 156 155 155 155
157 156 156 156 157 157 156 155 156 157 156 153 154 156 157 155
155 154 156 157 157 154 153 154 157 157 155 151 153 154 153 156
153 154 154 153 153 155 155 155 155 155 154 153 153 154 156 158
154 156 157 155 153 153 154 155 155 160 156 153 155 153 150 154
155 155 155 154 153 152 152 152 152 155 155 152 152 154 153 151
147 143 135 130 134 144 150 150 151 150 150 150 147 150 153 153
150 150 150 150 150 150 150 150 149 150 151 150 148 150 152 150
149 149 149 149 149 149 147 146 147 149 150 149 149 149 149 149
146 146 146 146 146 146 147 148 149 149 149 149 147 145 145 146
149 148 148 147 147 147 148 149 150 146 147 147 148 149 147 148
146 146 147 147 146 145 146 148 146 147 148 148 147 147 148 146
146 145 146 147 146 144 145 148 146 145 145 145 146 147 147 146
144 146 148 147 145 143 143 144 144 145 144 143 145 147 147 144
170 170 172 173 171 170 170 168 169 170 170 170 171 171 169 166
166 169 169 166 166 168 166 162 162 163 165 166 165 164 163 162
162 161 161 161 161 161 161 162 164 164 164 164 163 161 160 160
159 163 162 159 160 161 160 160 161 159 161 161 161 162 159 160
160 159 158 159 159 158 157 157 160 161 161 160 159 159 159 158
155 158 159 156 155 157 158 156 158 158 158 159 159 159 158 157
155 158 160 161 159 157 157 158 159 159 159 159 160 161 160 158
161 161 161 160 157 158 159 158 157 160 158 161 163 161 161 160
159 157 158 157 157 160 158 160 160 160 159 157 156 157 158 158
156 159 159 158 158 158 157 158 158 159 159 159 158 157 158 158
159 156 154 156 159 160 158 156 158 156 156 156 157 157 157 157
158 157 156 156 156 155 157 158 156 156 156 156 157 157 156 154
156 156 156 156 157 157 157 156 157 158 156 151 152 155 156 153
156 156 155 153 154 155 157 157 162 157 152 156 156 152 155 156
152 153 154 153 154 156 156 156 154 153 153 153 153 154 155 156
157 156 155 154 155 156 155 152 154 157 155 153 154 152 151 155
154 155 156 156 155 154 155 156 152 153 153 153 153 150 142 134
128 128 122 112 113 128 143 150 147 144 148 152 150 150 152 150
150 150 149 149 149 150 150 150 150 150 151 149 147 149 150 148
149 148 148 147 148 148 148 148 146 149 150 148 147 148 149 149
146 147 148 147 146 145 146 146 148 148 149 149 148 147 148 148
148 146 146 147 147 147 147 149 148 146 147 147 148 149 146 147
146 146 147 147 146 145 145 147 144 144 147 147 145 147 150 149
145 147 148 148 147 145 145 147 146 146 146 146 146 147 146 145
144 147 149 148 145 144 145 146 144 144 143 143 145 147 147 146
172 171 172 173 170 170 172 171 169 170 170 169 168 168 167 165
168 169 168 167 166 166 164 162 165 163 165 167 165 165 165 162
163 162 162 162 162 161 162 163 164 163 163 163 162 160 159 159
159 161 160 159 160 160 158 158 160 158 160 159 160 161 158 159
159 159 159 159 159 159 158 156 160 160 160 159 159 160 159 158
156 157 158 158 157 157 158 158 157 156 156 156 156 157 157 157
157 158 160 161 160 159 157 156 158 158 158 157 158 160 161 160
161 159 160 160 157 159 161 158 159 161 158 160 162 160 161 161
157 156 158 156 156 158 158 160 159 160 159 157 155 156 157 159
157 160 159 158 159 159 157 157 158 159 159 159 158 157 158 158
157 155 154 156 158 158 157 155 157 155 155 156 157 157 156 156
158 157 156 156 157 157 157 158 156 156 156 156 157 158 158 156
156 156 156 156 157 157 157 156 158 158 156 154 154 156 156 154
158 157 155 152 153 156 154 150 148 152 133 136 154 154 154 155
155 155 155 154 154 155 155 154 154 153 153 153 154 155 155 154
157 156 154 154 155 157 155 152 152 153 153 153 153 153 153 155
154 154 155 155 154 154 154 155 158 154 151 149 142 129 118 112
111 123 126 114 105 112 126 134 133 129 137 148 149 149 151 149
150 150 149 148 148 148 148 148 150 149 150 148 147 149 150 147
149 148 148 147 148 148 148 148 147 149 150 148 147 148 148 146
146 147 148 147 146 146 146 146 144 145 146 145 145 145 146 147
143 145 146 147 148 148 147 146 147 146 148 147 147 148 145 146
145 146 146 147 147 145 145 146 144 144 147 147 144 146 150 149
146 148 148 147 145 145 145 145 146 147 147 146 145 145 145 144
146 148 150 148 145 145 146 146 144 143 143 145 146 146 146 147
173 171 171 171 169 170 172 171 173 173 171 168 166 166 167 167
167 166 166 167 166 165 164 164 169 164 165 166 162 164 167 163
163 162 161 162 163 162 163 164 163 162 162 163 163 162 162 163
159 161 160 161 164 164 162 162 158 156 158 158 159 161 158 159
158 160 160 159 159 159 158 156 159 159 157 157 158 160 160 158
159 157 157 159 159 157 159 162 158 157 155 155 156 157 158 159
159 158 157 158 159 159 157 155 157 157 156 154 155 158 161 162
159 157 160 161 159 161 162 157 158 160 156 157 159 158 160 160
158 158 161 160 158 159 158 160 156 158 159 157 155 155 157 158
158 160 158 157 159 158 156 155 157 158 158 158 156 156 156 157
154 155 157 157 156 154 156 158 155 154 154 156 157 156 156 156
158 156 155 156 158 158 157 158 158 158 157 156 157 158 158 156
156 156 157 157 157 156 156 157 157 155 155 156 157 156 156 155
153 156 156 156 157 156 146 133 145 140 74 67 132 157 152 152
156 156 155 153 153 154 155 154 155 154 152 153 154 155 155 154
154 155 155 154 154 154 154 154 153 152 153 154 153 153 153 152
155 154 153 152 151 149 148 147 146 138 132 127 116 104 101 107
124 133 130 110 96 100 112 120 113 107 114 128 132 136 143 144
151 151 150 149 148 148 148 148 148 148 148 147 147 150 151 148
148 148 149 149 149 149 148 147 146 148 149 148 148 149 148 145
148 147 146 145 145 146 147 148 146 147 147 146 146 146 148 149
143 146 146 144 145 149 150 148 146 145 148 147 147 148 145 145
146 146 146 148 148 147 146 147 149 147 149 147 142 144 148 146
146 147 146 143 142 144 145 144 145 146 146 144 143 144 146 146
146 147 148 146 144 144 144 144 146 145 146 147 146 144 143 145
170 169 170 171 170 170 170 169 170 169 168 169 169 168 167 168
165 165 167 169 168 166 165 165 164 165 164 161 162 165 165 163
163 160 161 162 161 162 163 163 162 163 159 159 163 162 159 162
156 157 158 159 161 162 161 159 159 157 160 161 158 159 161 158
158 159 160 160 160 160 160 159 158 156 155 156 158 159 161 163
157 155 156 159 159 155 155 158 158 158 158 157 156 156 157 158
156 158 158 156 155 157 158 157 161 160 158 157 159 159 157 158
159 154 157 157 158 160 159 163 160 157 156 154 159 159 156 162
164 160 138 135 119 119 137 155 161 157 158 156 157 157 159 157
158 156 156 157 157 155 155 156 157 157 156 157 158 158 157 156
156 158 158 157 156 157 159 159 160 158 157 158 158 157 156 156
157 156 157 159 160 158 156 155 153 160 160 155 156 158 156 157
152 157 155 158 154 156 154 153 155 153 156 156 155 157 157 156
156 155 158 153 163 154 119 91 108 90 44 46 116 160 150 152
153 152 152 153 154 155 156 155 155 154 153 152 152 153 154 156
153 154 153 152 154 157 157 154 157 152 152 152 152 153 154 156
150 152 152 153 146 142 123 130 139 124 105 81 76 94 111 128
129 118 93 81 83 87 103 118 104 88 91 108 114 118 126 132
141 149 151 149 149 149 147 146 148 149 147 146 147 148 148 149
148 149 148 147 147 148 149 149 147 148 147 146 148 150 149 146
147 147 148 149 148 146 145 145 147 147 147 147 147 147 147 147
146 143 145 147 145 143 145 146 146 146 145 144 145 145 145 145
145 146 147 146 146 148 148 146 145 148 148 143 142 146 148 147
147 143 142 145 147 146 146 147 143 144 144 143 143 145 147 148
146 147 147 146 145 145 144 142 144 145 146 146 146 146 146 146
171 170 172 173 172 172 173 171 171 169 168 168 168 167 167 168
168 167 167 168 167 165 164 164 166 165 163 161 161 163 163 163
165 162 162 163 162 162 163 162 162 164 163 162 162 159 157 160
158 158 158 158 159 160 159 158 158 158 159 160 159 159 159 158
158 159 159 158 158 158 159 158 158 159 160 159 157 157 159 162
158 157 156 158 158 156 156 158 158 158 157 157 156 156 156 157
157 158 158 156 156 158 157 155 159 160 158 157 158 158 158 159
160 156 158 156 156 158 156 159 159 159 157 157 163 154 153 143
128 126 75 57 84 69 49 92 133 162 159 157 159 158 159 153
157 158 158 157 159 160 159 155 158 157 155 155 155 156 156 156
156 157 157 156 156 157 158 157 157 155 154 155 155 155 155 156
157 155 155 156 156 156 156 157 159 156 153 156 158 154 152 157
156 153 151 151 155 155 156 154 156 157 157 150 156 152 151 151
154 157 146 121 123 106 136 152 149 87 34 55 146 153 154 153
156 156 156 155 155 155 156 156 153 153 153 153 153 153 153 153
152 154 155 154 153 154 154 153 153 154 155 151 152 155 154 152
157 153 157 149 136 122 86 109 143 131 99 84 93 115 135 131
125 103 77 79 96 105 114 120 124 113 103 102 110 117 119 118
127 138 142 139 142 145 148 152 147 149 148 148 149 149 148 148
148 148 147 145 145 146 146 146 145 147 148 147 148 149 148 144
148 146 144 144 143 143 144 145 146 145 145 146 147 147 148 149
146 144 145 146 144 143 145 144 147 147 146 145 145 145 145 145
145 146 146 146 146 147 147 146 146 146 147 146 146 145 145 146
144 143 144 146 147 146 145 147 145 146 147 146 145 145 144 143
144 145 145 144 144 144 144 142 146 146 145 145 145 145 145 144
172 171 172 173 171 171 171 169 171 170 168 167 167 167 167 168
169 167 166 166 167 166 166 166 166 164 162 162 162 162 162 163
163 161 161 162 162 162 163 161 163 164 163 162 162 159 157 159
161 161 159 158 158 159 159 157 157 158 158 159 160 159 158 158
158 159 159 158 158 158 159 158 156 154 155 157 160 161 161 160
157 156 155 155 157 158 159 159 158 157 157 157 157 156 156 155
156 158 158 157 157 158 157 155 158 160 159 158 159 159 159 161
159 158 159 157 157 159 157 158 159 159 160 160 157 165 128 180
141 74 78 49 76 67 61 54 51 120 157 161 157 151 159 159
160 157 156 158 158 157 157 158 157 156 155 155 155 156 156 156
157 157 157 156 157 158 157 156 156 156 156 157 156 156 156 157
157 156 155 155 155 155 156 157 159 157 156 156 157 157 157 158
156 153 154 158 151 153 154 152 154 156 158 153 157 156 159 158
155 132 130 95 101 97 109 166 169 93 25 34 129 160 152 153
155 156 156 155 153 153 154 156 153 153 153 153 154 154 153 152
157 156 154 153 152 152 152 151 148 155 157 154 154 154 152 150
150 153 149 141 122 103 88 110 135 121 97 106 128 141 146 131
125 125 117 109 106 113 127 134 132 138 130 121 129 135 124 110
110 114 110 111 125 134 136 139 147 150 150 149 150 150 150 151
149 148 146 144 144 146 146 145 146 148 149 149 149 149 148 145
146 145 146 146 146 145 145 145 147 144 144 146 147 146 147 149
146 145 146 145 143 144 146 144 146 145 144 144 144 144 144 144
146 145 145 146 146 146 146 147 148 145 146 148 148 145 144 146
143 144 146 146 145 145 146 147 145 146 147 146 146 146 145 144
144 145 145 145 145 145 145 144 148 147 146 145 144 144 143 143
172 171 172 171 169 168 168 166 170 169 168 167 167 167 167 168
169 168 166 167 167 166 166 166 165 162 162 164 165 163 162 163
161 159 160 162 162 163 163 161 164 162 160 160 162 162 160 159
161 161 161 159 158 158 158 158 157 159 157 157 160 159 157 159
158 159 159 158 158 158 158 157 159 157 156 158 160 160 157 155
155 155 155 154 156 160 160 158 157 156 156 156 157 157 156 155
156 157 157 156 156 157 157 156 157 159 158 158 159 159 159 160
158 159 159 157 157 159 159 158 157 160 155 155 140 99 68 106
87 74 97 78 101 52 105 113 84 66 87 142 154 163 151 155
156 160 159 155 155 159 161 157 155 155 156 157 158 158 157 157
156 157 157 156 156 156 156 156 157 157 158 160 160 158 156 156
157 156 157 157 157 156 155 155 156 156 158 157 153 154 157 155
155 156 153 147 155 155 153 157 156 155 156 161 156 155 150 136
133 139 152 131 111 99 124 135 93 63 31 29 104 156 148 158
153 153 154 153 151 152 153 155 154 154 152 152 153 155 154 153
154 152 151 152 155 155 153 152 152 154 151 151 152 150 152 155
151 149 135 132 126 120 110 104 111 110 114 125 137 145 153 160
165 161 145 122 107 115 132 140 148 160 156 143 145 148 135 119
102 100 90 87 100 112 123 136 141 146 148 147 148 148 148 150
148 147 145 144 145 147 148 147 148 149 149 148 147 148 148 147
144 144 146 148 148 147 146 146 148 145 145 147 147 145 145 147
147 147 147 145 144 146 148 145 145 144 144 144 144 144 144 145
146 144 144 145 146 145 145 147 148 146 146 147 146 144 144 147
143 146 147 145 144 145 147 147 145 146 147 145 145 146 147 148
146 146 146 146 145 145 144 144 148 148 148 147 145 143 142 142
175 173 173 173 170 170 170 168 167 167 167 167 167 167 167 166
169 168 168 167 165 163 162 163 165 162 162 165 166 163 161 163
162 160 161 162 162 163 164 162 161 160 160 161 161 162 162 160
158 160 161 160 158 158 158 158 157 159 157 156 159 159 157 159
156 158 159 158 158 157 156 155 157 158 160 161 159 157 157 159
157 158 157 155 156 159 158 156 155 155 155 156 157 157 156 155
156 157 157 156 155 156 158 159 157 158 156 156 159 159 157 158
156 158 157 155 155 157 157 155 153 157 159 138 97 32 44 46
39 80 138 50 111 120 61 149 189 122 68 51 106 151 155 161
155 156 158 158 157 156 156 157 155 156 156 157 158 158 158 157
155 155 156 156 155 154 154 155 156 155 156 158 158 157 155 154
156 156 157 158 158 156 155 155 160 154 156 157 150 147 152 154
155 131 97 80 139 157 155 156 153 156 157 158 153 142 136 126
110 111 126 106 112 96 86 109 113 59 46 35 111 157 156 153
153 153 153 153 153 153 154 155 154 153 152 152 153 154 154 152
152 152 153 155 156 155 152 149 151 152 149 153 155 151 148 142
136 139 138 127 125 124 104 103 114 116 118 115 118 136 160 180
184 166 139 105 81 86 114 142 153 158 158 152 149 149 140 125
115 108 95 89 94 95 98 106 118 129 138 142 145 146 145 146
147 146 145 144 146 148 148 147 148 148 148 147 146 147 147 147
146 144 144 144 144 145 146 147 148 146 146 149 148 145 144 146
147 146 147 145 144 147 148 146 146 145 145 145 145 144 144 146
146 144 143 145 146 145 145 146 144 146 147 146 144 143 145 146
143 146 147 145 144 146 146 145 146 148 148 145 142 143 145 147
144 144 144 144 144 144 143 143 146 147 149 148 145 143 142 142
175 173 174 174 172 172 172 170 167 168 169 169 169 169 168 167
167 167 167 166 165 162 162 163 168 164 163 164 164 162 161 163
162 161 162 162 160 161 162 161 157 160 164 164 160 159 160 160
158 161 162 161 159 159 160 160 158 158 157 156 158 159 158 159
155 157 159 159 158 158 157 155 155 155 156 158 159 159 160 161
157 158 157 156 157 158 158 156 155 155 155 156 157 157 157 157
156 157 157 156 155 156 158 160 157 158 157 157 160 159 157 157
154 156 154 155 155 156 159 157 158 149 157 110 107 45 20 24
44 87 83 22 82 209 105 73 118 150 156 72 39 58 108 146
163 159 156 155 156 156 157 158 157 157 157 156 156 157 157 157
155 156 157 157 155 154 155 157 157 155 154 156 157 157 156 156
158 156 156 158 158 158 157 157 156 158 154 123 84 86 123 148
128 91 61 63 102 147 156 153 155 156 149 144 151 125 107 93
120 147 146 120 93 80 76 126 132 53 71 44 91 156 152 153
155 154 153 153 154 155 154 154 151 153 153 153 153 154 153 150
153 155 156 154 153 153 153 151 150 153 149 149 146 143 140 125
119 142 142 128 113 92 97 132 147 136 119 117 120 127 146 157
156 135 107 84 82 97 111 122 126 131 140 150 155 154 144 133
136 125 110 101 97 91 81 75 88 103 119 130 139 144 145 146
147 147 146 146 147 148 149 148 147 148 148 149 148 148 147 146
147 146 146 146 146 146 146 146 147 146 147 148 148 147 146 147
146 145 145 145 144 146 147 145 146 145 144 145 144 142 142 144
145 144 144 145 145 145 145 146 140 145 148 145 142 144 144 143
142 144 146 145 145 145 144 142 144 146 147 145 142 142 143 144
142 142 142 143 144 144 144 144 144 146 147 147 145 143 142 143
174 172 173 173 171 171 172 170 168 170 171 170 170 170 169 168
166 165 165 166 165 164 164 165 167 165 163 163 163 162 162 162
161 161 163 162 159 159 161 160 159 160 163 163 158 158 161 159
160 161 161 160 160 160 160 160 158 156 157 158 158 159 159 157
156 158 159 159 159 158 158 157 161 157 154 155 157 157 156 154
157 156 156 156 156 157 158 158 155 155 156 157 157 157 157 157
157 156 155 155 156 157 157 158 157 158 157 158 160 159 157 158
154 155 152 156 157 156 160 160 156 156 161 108 131 49 22 47
38 77 79 28 58 90 75 90 57 65 140 167 90 58 44 64
113 139 161 162 155 153 155 155 157 157 157 156 156 156 156 156
157 156 156 157 156 155 156 158 158 156 155 156 156 156 157 157
159 157 155 156 157 157 156 155 154 149 136 101 71 81 101 98
95 79 90 105 85 120 144 153 155 136 114 118 124 119 114 103
148 149 99 87 89 61 46 108 128 57 68 45 67 154 148 155
153 153 152 153 154 154 153 152 152 154 154 153 153 154 153 151
150 152 151 150 152 154 150 143 144 146 139 129 114 116 134 131
128 134 122 125 110 84 113 150 158 140 126 123 118 112 116 129
123 126 121 106 108 118 113 109 109 119 129 141 151 148 138 133
137 132 121 105 93 93 94 88 74 85 95 105 119 133 142 146
147 148 147 147 147 148 149 148 147 147 147 148 149 148 147 146
146 147 148 150 150 148 146 146 145 146 146 145 145 147 147 146
145 143 143 145 144 144 145 144 145 143 143 144 143 141 141 143
145 145 145 145 145 146 146 145 141 146 148 145 143 144 144 143
144 144 145 145 145 144 144 143 143 144 145 144 144 144 144 144
143 142 143 144 145 144 145 146 145 145 145 145 144 143 143 143
174 172 172 172 170 170 170 169 168 170 170 169 169 169 168 167
169 167 166 166 166 166 166 166 164 163 163 163 163 163 162 161
161 162 164 162 159 160 163 162 163 159 159 158 157 160 162 158
161 160 158 157 158 159 159 158 158 155 158 160 159 160 160 156
156 157 158 157 157 158 157 157 159 157 155 155 155 156 156 158
158 157 156 155 154 154 155 157 155 156 157 157 156 156 157 158
156 154 153 154 156 157 156 154 154 156 156 156 158 157 156 157
156 156 153 156 157 154 158 158 153 155 161 137 113 51 37 62
54 58 73 57 40 40 58 86 189 69 53 90 137 127 73 92
122 88 76 109 149 161 158 156 155 156 157 158 158 157 156 156
156 155 154 155 155 155 155 156 156 156 155 156 155 153 153 154
158 155 153 154 155 154 152 150 139 123 110 95 86 101 109 92
96 82 100 95 79 90 122 142 137 131 129 150 115 121 134 135
113 103 97 103 146 94 60 79 115 61 36 49 84 149 154 154
152 152 152 153 154 154 153 153 154 156 155 153 152 154 155 154
154 154 152 152 154 150 132 111 120 126 127 118 94 94 127 140
122 93 96 116 110 102 125 148 143 119 112 96 94 102 98 113
138 158 165 145 124 108 95 97 113 130 137 141 145 131 112 110
129 126 119 105 97 103 101 85 79 81 79 82 97 117 133 143
144 146 146 146 146 147 148 147 147 145 144 144 145 146 146 145
146 145 144 145 146 146 147 148 144 146 145 142 142 145 146 145
146 142 143 145 144 143 143 143 143 142 142 143 143 141 142 145
144 145 146 144 145 147 146 144 145 147 147 145 143 144 145 145
147 146 145 144 143 143 145 147 145 145 144 144 145 145 145 143
144 143 143 144 144 144 144 145 147 146 144 144 144 145 144 144
169 171 171 169 168 171 172 172 173 168 167 170 169 167 166 165
169 166 164 164 165 165 165 166 164 167 168 166 165 166 164 160
158 164 162 158 161 161 160 163 161 161 160 159 160 160 159 158
160 160 160 159 159 160 160 159 157 157 158 158 158 158 156 155
159 157 156 156 156 156 156 155 157 157 157 157 156 156 157 157
154 155 156 156 154 155 155 153 153 153 154 154 155 155 155 155
154 155 155 155 154 153 154 154 155 156 159 155 151 156 154 160
154 159 154 157 159 154 157 158 156 158 155 159 116 61 36 49
42 80 64 103 128 51 126 61 110 127 57 29 89 113 126 160
165 125 99 79 67 105 146 158 165 153 156 154 154 156 160 153
154 155 159 152 154 154 155 154 153 156 153 156 158 155 156 152
158 149 157 152 139 134 120 113 112 123 95 90 80 115 151 114
87 82 95 110 99 97 110 122 132 122 138 162 125 129 132 145
118 75 69 100 103 74 61 51 34 45 66 88 82 138 152 152
156 150 152 159 148 151 154 155 156 153 151 160 153 152 148 146
150 142 132 145 154 139 109 103 109 120 119 112 104 95 114 122
111 75 65 94 117 121 124 130 130 112 83 86 110 130 128 132
157 180 180 159 127 98 96 107 120 139 138 124 115 107 100 102
127 141 135 117 107 109 109 101 91 92 87 89 85 98 114 122
132 134 143 145 139 142 149 149 146 146 148 146 147 149 145 143
143 144 145 146 146 146 146 146 147 145 144 145 145 145 145 145
146 144 143 144 145 144 144 144 145 145 145 145 144 143 142 140
143 144 145 144 141 142 144 143 142 144 147 147 146 144 145 147
146 145 144 144 145 146 146 146 144 144 144 144 143 144 146 147
143 143 143 143 144 144 143 142 147 147 146 145 146 147 145 141
172 172 171 170 169 170 170 170 170 167 168 171 170 169 169 168
168 167 166 165 163 162 164 167 168 167 165 163 162 163 164 164
162 162 163 164 163 162 162 162 159 160 159 158 158 159 160 160
162 162 160 158 158 159 159 158 158 158 158 159 159 159 157 156
156 156 156 157 158 157 157 156 156 156 156 156 155 154 153 153
154 154 155 154 152 153 153 151 154 154 154 154 155 155 155 154
153 154 156 156 155 155 156 157 155 157 155 153 152 156 159 154
156 155 151 157 154 154 156 155 159 159 157 153 142 104 22 52
38 56 80 67 63 57 72 40 16 60 62 23 50 61 166 173
116 116 165 153 104 64 80 102 127 154 163 161 156 151 154 153
158 158 153 162 156 154 158 155 157 150 151 120 109 148 153 154
148 142 127 116 117 103 96 101 100 100 87 87 87 97 127 121
114 109 99 107 106 110 114 129 119 127 150 128 116 115 129 160
84 57 89 88 119 101 58 46 57 114 88 76 62 129 149 156
154 152 152 149 153 159 151 156 155 155 149 145 143 128 98 111
131 121 110 129 141 126 112 131 134 126 110 98 107 111 117 117
107 88 81 101 121 121 119 128 136 105 91 112 124 128 132 145
170 185 180 158 136 125 131 137 137 131 116 92 81 86 105 120
120 137 138 126 117 116 112 102 97 94 97 97 92 95 99 108
117 130 136 138 147 149 144 142 145 144 146 144 145 147 145 146
144 144 144 145 146 146 146 145 147 145 143 144 144 145 146 148
143 142 142 143 144 143 143 143 144 144 144 144 144 144 144 144
143 142 143 144 142 142 144 143 144 145 145 145 143 141 143 145
143 143 143 143 143 143 144 144 145 146 146 146 145 145 145 145
144 144 145 145 145 144 143 142 147 146 145 145 146 145 144 144
175 173 171 172 172 171 170 170 168 167 169 172 171 170 170 170
167 167 166 165 163 162 164 167 167 166 165 165 164 162 162 163
165 160 162 166 162 161 163 160 158 160 160 159 158 159 160 161
163 161 159 158 158 159 159 158 157 157 157 158 158 157 156 156
154 155 156 157 157 156 156 156 156 155 155 156 156 155 154 153
156 154 154 154 153 155 155 153 157 155 154 154 155 155 155 154
152 154 155 155 155 155 156 157 152 151 152 156 155 155 155 152
154 159 157 155 157 157 156 155 158 159 157 154 152 139 64 42
45 18 56 89 49 44 50 49 98 46 17 32 95 88 68 97
130 110 165 117 82 141 130 89 56 60 114 139 156 160 158 160
154 153 156 157 152 152 157 151 152 153 106 73 67 98 116 107
108 99 70 75 84 105 105 127 132 110 102 110 119 104 121 124
124 117 130 131 115 132 97 94 101 112 108 70 70 75 117 117
116 159 144 51 58 112 84 91 102 91 121 41 28 105 160 145
149 156 152 152 148 143 123 126 144 140 96 85 101 100 104 125
136 138 133 141 145 130 121 139 153 129 106 83 86 109 129 134
129 121 112 119 130 124 125 147 135 108 108 127 122 124 140 152
155 166 167 158 150 153 157 148 132 102 86 83 95 108 125 125
122 124 119 116 119 122 120 109 97 105 86 95 108 97 103 96
100 111 125 135 139 144 146 145 147 145 147 145 145 146 144 147
147 145 144 145 146 147 146 145 145 144 144 144 144 144 145 147
141 141 143 144 144 143 143 144 145 144 144 144 145 146 147 147
144 141 142 144 143 142 142 142 144 144 144 144 143 142 143 145
144 144 143 142 141 142 143 145 144 145 146 146 145 145 144 144
142 143 145 146 145 145 145 145 147 145 144 145 145 142 143 146
173 171 171 172 173 171 170 171 170 168 169 171 169 169 169 168
168 165 164 164 166 166 165 165 166 166 166 166 165 163 162 161
166 161 161 162 160 161 162 159 158 160 161 161 161 160 159 158
160 159 158 157 158 159 159 158 160 159 160 160 160 159 158 158
156 157 157 156 155 155 156 157 157 156 155 156 157 157 156 154
156 154 155 155 155 157 158 156 157 156 154 154 155 156 155 155
153 154 156 156 155 154 154 155 154 154 155 158 154 159 155 162
158 156 158 151 156 153 157 157 158 153 154 156 154 158 132 40
54 16 23 62 81 71 120 65 114 94 41 53 69 138 100 44
72 116 164 123 103 118 79 65 94 100 72 87 116 121 136 147
153 153 153 153 139 130 141 148 149 135 106 119 112 86 87 111
83 83 118 112 97 101 101 99 122 100 77 98 134 118 113 126
137 127 121 116 123 78 92 103 97 79 73 94 123 102 85 91
160 161 91 45 88 97 78 65 64 79 91 73 45 78 144 147
139 136 136 142 139 102 78 73 116 113 118 120 126 139 144 135
135 129 135 154 151 125 125 156 156 129 109 91 87 115 138 130
132 137 145 155 147 116 102 117 134 111 109 122 127 146 163 159
149 150 155 158 161 173 171 151 126 97 92 100 116 116 119 111
106 106 108 123 138 146 143 131 120 113 101 88 95 99 107 110
104 97 103 120 132 140 145 144 148 145 147 146 146 145 144 146
146 145 145 145 146 146 145 144 143 144 145 145 145 144 144 145
141 142 144 145 145 144 144 144 143 143 142 142 143 143 143 143
146 142 143 146 144 141 141 141 143 143 144 146 146 145 145 146
146 145 143 142 141 142 144 146 142 143 144 145 146 146 145 145
141 142 144 145 145 145 145 145 147 146 146 146 144 142 144 147
171 170 170 172 171 169 169 171 172 169 168 169 168 168 168 167
168 166 165 166 167 167 165 164 166 167 166 162 161 162 163 162
163 165 162 158 161 163 161 160 159 160 161 161 161 161 159 157
158 158 158 158 159 159 159 159 160 159 158 159 158 157 157 157
158 159 159 158 156 155 156 158 159 157 155 155 156 156 155 153
155 153 153 154 154 156 157 156 156 154 153 153 154 155 156 155
156 156 157 157 156 155 155 155 150 157 155 150 118 119 127 132
147 150 156 157 154 152 156 154 157 153 157 156 155 152 138 57
46 9 70 53 45 77 88 35 56 71 24 134 103 41 100 79
52 68 127 141 176 140 85 49 86 116 134 108 97 82 72 94
120 134 136 145 116 109 123 119 107 110 111 113 97 85 101 119
69 102 135 106 122 121 111 103 127 105 91 94 113 131 104 91
85 87 93 90 86 77 123 126 122 128 128 122 84 64 59 64
94 81 81 81 89 86 71 75 44 53 69 118 99 93 114 112
88 103 108 80 120 128 126 103 110 147 177 167 152 136 137 141
112 108 128 151 139 107 108 132 135 131 115 103 99 121 148 145
144 150 164 171 152 120 107 113 119 110 116 131 145 163 174 169
161 149 146 149 158 173 175 162 135 117 112 109 112 96 93 92
95 109 126 142 152 157 155 141 114 95 98 85 80 88 95 93
87 82 77 92 121 133 137 147 145 143 146 145 145 145 144 146
143 143 144 144 144 144 143 143 142 144 145 146 145 145 145 145
141 143 144 145 144 144 143 143 144 144 144 144 144 144 143 142
146 143 144 146 143 140 141 141 144 144 144 145 146 145 145 146
146 144 142 142 142 142 143 143 143 143 144 145 146 147 148 148
144 144 144 144 145 144 144 143 146 149 149 147 144 144 145 145
172 172 172 173 171 170 170 171 173 169 168 168 167 168 169 167
168 168 168 168 167 164 163 164 163 166 166 162 161 163 163 160
159 165 161 157 162 164 160 159 160 160 159 158 159 160 159 157
158 158 159 160 159 158 158 159 158 157 156 157 156 155 155 156
156 157 158 158 157 156 156 157 158 156 155 155 156 157 156 155
155 153 153 154 153 153 155 154 154 153 152 152 153 154 155 155
155 155 155 156 157 156 155 154 156 135 89 94 93 94 95 87
106 151 151 146 145 154 152 157 154 159 151 157 160 156 130 83
32 29 50 63 14 52 70 44 45 57 38 101 89 54 53 58
40 72 107 73 131 177 163 100 88 71 147 158 105 85 78 126
105 87 90 94 120 123 108 95 94 85 101 103 107 109 102 117
114 124 129 124 129 108 103 101 117 102 115 99 88 122 114 139
113 80 168 140 86 87 95 104 111 107 105 119 89 69 110 149
92 59 84 135 141 96 95 110 71 110 147 132 139 139 162 145
96 107 108 94 124 134 109 105 123 145 163 155 122 95 123 123
103 114 125 116 107 108 118 118 121 136 120 118 131 147 157 154
147 151 163 165 149 136 131 126 123 129 134 129 136 153 170 174
162 149 143 143 149 161 166 168 152 135 115 101 103 95 95 98
108 123 136 139 137 141 141 125 107 91 79 77 81 80 83 89
70 71 70 82 107 124 132 140 141 142 146 144 143 145 144 146
142 143 144 145 144 144 144 144 144 144 145 144 145 146 147 147
143 144 145 144 144 144 144 144 146 146 146 146 147 146 145 144
143 141 143 145 143 141 142 143 146 145 144 143 143 142 142 144
144 143 143 143 144 144 142 141 145 144 144 144 145 146 146 147
145 144 143 144 145 146 145 144 144 147 147 144 143 145 145 143
173 174 174 172 172 172 172 171 171 169 169 169 167 168 169 168
168 168 167 167 166 164 164 165 162 165 166 165 163 163 162 161
159 161 161 159 161 163 162 160 160 160 160 158 158 158 157 156
157 157 158 159 158 156 157 159 160 158 158 159 159 157 158 160
155 156 157 158 157 157 156 156 156 155 155 155 157 158 157 157
154 153 154 155 153 152 154 155 154 154 154 153 152 153 153 154
153 153 152 154 155 155 153 151 154 117 107 116 99 101 111 91
113 148 123 101 103 112 121 130 125 140 130 128 108 116 119 130
74 34 41 19 20 86 50 34 20 43 30 77 101 92 22 58
116 113 96 78 91 127 152 147 139 109 84 165 151 115 121 149
150 65 43 42 70 91 103 96 104 102 93 123 135 119 120 125
116 124 118 109 136 125 123 102 126 118 128 129 154 161 141 193
155 156 191 141 103 176 158 131 118 116 126 101 87 85 102 113
105 90 96 113 99 113 132 183 161 151 145 137 134 146 143 145
144 104 88 136 132 97 78 121 151 148 140 121 128 105 99 113
140 144 138 122 129 137 138 128 134 150 140 132 136 153 164 168
157 152 151 147 142 143 142 133 134 135 122 100 109 138 163 165
161 150 137 122 118 124 140 163 162 143 114 93 96 107 117 122
113 114 114 116 116 121 123 111 99 90 97 99 99 91 69 80
86 80 79 89 105 118 121 117 129 136 144 143 142 145 144 145
144 144 143 144 144 145 146 146 145 145 144 143 144 146 147 146
145 145 144 143 144 145 145 144 143 143 143 143 143 143 143 142
142 141 142 143 143 144 145 144 145 144 143 143 142 141 142 144
144 144 144 144 144 144 143 143 146 145 144 144 144 145 145 144
143 143 143 144 145 146 147 148 144 144 143 143 144 145 145 145
172 173 172 170 171 173 172 170 170 169 170 169 166 167 168 167
169 166 163 164 167 167 166 165 167 166 164 163 162 162 164 167
163 159 161 162 159 162 166 164 160 162 162 160 158 157 156 154
155 156 157 157 156 155 157 160 158 156 156 158 157 156 157 160
159 159 159 158 158 158 158 158 155 155 155 156 156 156 155 154
153 152 154 155 153 152 154 156 155 155 155 154 153 152 153 154
153 152 151 152 155 155 152 149 149 166 163 108 86 75 71 107
99 103 114 138 150 128 126 99 104 107 120 126 109 110 85 111
143 59 79 50 11 60 36 9 28 34 7 34 67 55 12 83
150 88 72 96 109 133 120 129 183 150 90 99 143 102 77 67
150 172 119 104 97 89 98 127 82 93 98 116 94 84 102 113
112 113 105 113 107 100 91 99 120 125 131 111 124 135 137 143
127 141 156 157 134 166 140 87 92 149 154 125 153 130 121 141
165 121 118 97 109 145 162 190 166 145 141 146 116 90 106 131
156 121 98 133 123 106 130 131 131 160 135 122 161 130 129 164
164 154 130 117 143 154 146 136 136 136 137 137 136 161 167 158
148 138 131 132 137 141 136 126 130 133 131 118 130 156 178 178
165 148 115 76 60 69 101 146 156 135 105 92 104 127 132 124
114 95 84 89 92 98 109 111 111 100 112 138 126 115 101 72
85 89 86 91 105 104 102 112 112 125 140 142 142 145 145 145
144 142 141 141 143 145 146 146 145 145 145 144 144 145 144 142
144 144 142 141 142 144 144 143 145 145 144 144 144 144 144 144
143 141 142 143 143 146 147 144 141 142 143 144 143 143 144 146
144 144 143 142 141 142 143 144 147 146 146 146 146 145 145 144
144 144 144 144 144 145 147 148 147 143 142 144 147 147 148 149
170 169 170 173 174 172 172 173 172 171 170 170 170 169 167 165
168 167 166 165 165 166 165 163 164 162 161 161 163 163 164 164
160 163 164 164 163 162 160 158 157 162 162 161 158 156 159 160
156 157 158 158 157 156 156 156 159 160 159 155 155 158 160 158
155 156 157 156 156 158 158 156 154 154 154 155 157 157 157 157
156 154 155 155 154 154 155 153 154 155 155 155 154 153 154 155
154 153 156 150 154 154 157 131 166 201 117 79 74 57 73 114
81 100 185 150 113 88 73 83 104 116 94 132 152 150 102 88
145 107 42 68 14 9 13 18 75 82 36 13 22 7 8 57
68 59 55 91 97 109 112 118 109 87 78 133 162 155 141 83
72 125 151 123 73 52 73 150 119 79 99 131 124 92 76 99
98 87 122 131 122 103 77 77 117 128 106 120 97 121 112 104
95 119 122 120 110 111 98 79 99 139 164 152 155 143 165 169
159 137 146 152 137 128 129 154 166 157 180 181 116 80 101 99
110 132 126 116 123 146 154 118 98 112 126 134 160 142 145 166
155 126 104 110 140 151 154 158 151 126 134 140 131 130 140 137
146 136 128 138 158 156 129 106 120 143 150 151 158 172 183 178
151 107 79 66 55 67 106 143 164 141 114 107 110 121 127 114
89 77 79 94 98 101 113 124 119 125 135 150 146 117 95 89
86 81 87 83 105 115 98 89 90 102 126 132 146 147 139 141
140 144 141 141 142 148 144 142 146 144 143 143 145 145 144 142
143 143 144 144 144 142 143 144 141 144 145 143 143 145 145 142
143 142 143 140 141 145 144 143 142 142 142 142 143 143 143 143
143 144 143 143 143 143 143 142 147 145 145 145 145 143 144 147
146 144 145 144 143 145 147 145 145 146 145 145 146 147 146 144
173 171 170 172 172 171 171 172 172 170 169 169 169 170 169 168
167 167 166 165 165 166 165 164 161 162 165 165 163 161 162 165
162 163 164 163 162 162 161 160 159 162 160 159 158 157 160 159
159 159 158 157 157 157 157 156 154 158 160 158 158 159 157 153
156 157 157 155 155 155 155 154 157 157 156 156 156 155 155 155
155 153 154 154 153 153 154 152 154 154 155 154 154 154 154 155
152 152 152 157 157 152 154 143 145 143 78 80 106 88 65 60
118 183 175 85 105 112 87 134 162 154 118 107 121 177 162 113
108 142 59 41 17 39 67 32 56 76 60 26 37 56 30 43
61 38 41 103 59 37 103 138 88 57 72 125 123 138 171 169
103 85 99 63 29 24 35 46 97 145 150 116 110 131 136 137
114 92 117 138 142 139 117 101 109 92 103 83 106 132 85 106
147 149 103 111 145 120 73 69 96 127 95 86 98 83 97 130
124 105 141 146 108 112 117 151 184 175 170 165 148 118 146 153
131 104 89 93 96 112 127 137 128 132 149 147 152 137 139 155
153 124 103 106 131 151 164 166 142 123 131 130 104 85 108 138
144 134 138 161 167 141 110 94 112 140 153 157 165 175 179 167
133 105 90 89 91 101 130 166 173 156 131 119 114 111 103 84
80 80 90 97 101 106 113 131 127 131 145 155 150 127 94 81
78 82 77 72 86 100 103 84 69 66 99 123 132 137 144 143
144 146 148 145 144 143 144 144 144 143 143 143 143 144 144 143
142 143 144 144 144 142 142 144 143 144 144 142 141 143 143 143
144 142 144 143 144 147 144 144 142 142 142 143 143 144 145 145
143 143 142 143 144 145 144 142 145 144 145 146 146 145 145 145
147 141 139 143 146 147 146 143 146 147 147 146 146 146 145 143
176 173 171 172 173 172 170 170 171 170 168 168 168 169 169 169
167 168 168 166 166 166 166 166 163 162 163 164 165 164 162 162
162 163 163 162 161 162 162 161 162 163 159 157 157 158 160 157
159 158 156 156 157 158 158 158 158 159 158 155 154 156 157 156
156 157 157 156 156 156 156 156 156 156 156 155 155 155 155 155
154 153 154 155 154 154 154 152 156 155 154 154 154 154 153 153
154 152 160 150 149 154 148 156 116 91 107 128 74 107 77 39
72 88 81 134 113 122 106 107 166 167 145 119 112 128 151 144
133 152 135 41 11 68 117 46 15 25 32 57 78 62 35 39
78 69 29 30 56 27 13 93 114 91 113 155 124 129 166 166
147 141 127 131 113 86 98 84 103 108 119 104 131 147 146 154
156 94 89 89 116 142 88 94 103 131 120 102 87 57 55 92
102 69 71 90 142 166 158 146 83 63 101 151 104 109 156 185
119 117 147 134 123 149 160 153 139 116 127 156 184 148 130 153
131 67 115 154 120 131 178 205 171 158 171 162 136 114 119 145
146 124 123 136 147 150 155 152 126 113 115 113 110 113 131 146
167 152 134 147 151 113 95 114 133 144 143 145 149 155 168 172
147 136 129 130 134 133 145 174 185 179 164 149 130 110 95 82
82 91 103 95 91 93 96 119 133 130 145 149 147 135 98 76
71 85 80 77 89 97 99 81 59 49 65 93 117 131 142 143
141 140 145 142 143 140 146 147 145 144 144 143 143 144 144 145
144 144 145 145 145 143 144 145 144 144 143 142 141 141 141 142
145 142 145 145 146 146 142 143 144 144 144 144 144 144 144 145
144 143 143 143 145 146 145 142 144 144 144 144 146 147 146 145
146 141 141 146 147 146 146 146 145 146 146 145 145 144 143 142
173 171 171 172 172 170 167 166 172 171 170 169 168 168 168 169
167 168 168 166 165 165 166 166 166 163 162 163 164 164 162 160
160 162 162 162 161 162 161 160 161 162 158 156 157 159 161 157
157 156 155 155 155 156 157 157 158 159 159 157 155 155 155 153
156 157 157 157 157 157 158 158 155 155 154 154 155 156 156 156
154 153 154 155 154 155 155 152 154 154 154 154 154 154 153 153
150 157 155 152 153 151 153 120 119 146 108 122 72 89 70 49
33 21 54 102 79 58 77 84 93 121 124 157 165 137 121 104
120 137 154 118 43 54 91 60 31 36 19 42 80 51 21 13
41 70 42 5 22 19 25 77 135 132 160 146 139 144 163 174
173 167 162 159 148 134 121 137 119 63 88 82 69 143 120 107
120 101 160 161 160 126 137 154 157 160 63 59 81 93 145 135
138 130 132 135 110 124 178 118 60 93 142 150 135 154 167 110
77 163 143 109 122 141 125 127 115 128 136 135 154 159 137 177
148 93 142 166 145 150 169 172 156 156 158 139 113 106 118 140
133 126 138 152 157 157 165 167 144 123 122 124 122 120 133 147
150 150 123 109 106 89 100 134 155 150 131 122 122 131 153 166
150 145 147 152 155 152 157 176 189 190 184 173 153 127 108 100
95 99 101 90 82 84 93 110 123 123 136 142 142 136 109 87
82 85 92 96 97 91 77 64 52 46 43 58 87 111 128 134
144 142 144 141 141 142 147 145 146 145 144 143 143 143 144 144
145 145 144 145 144 143 144 146 143 142 142 144 143 141 141 142
145 142 144 144 144 143 139 141 146 145 143 144 144 144 143 143
145 145 145 145 145 146 144 142 144 145 144 143 144 146 147 146
146 144 145 147 145 145 147 148 145 147 148 148 147 147 147 146
172 172 172 173 173 171 169 169 172 172 171 171 170 169 169 168
166 167 167 165 163 163 164 164 164 165 165 165 162 160 160 161
160 161 161 161 161 161 161 160 159 160 157 157 158 159 161 158
157 157 157 156 156 155 155 155 157 158 158 157 156 155 155 154
156 156 157 157 156 155 155 156 157 157 155 154 154 156 155 153
153 153 154 153 152 154 154 151 151 152 153 154 153 153 154 155
154 150 149 160 154 148 131 74 84 133 90 83 71 52 69 43
36 42 35 49 159 98 68 94 112 105 101 159 156 167 164 143
109 124 153 140 74 27 88 58 32 71 53 18 59 79 26 10
16 27 14 30 26 59 123 101 121 156 176 181 134 133 128 117
116 129 124 143 149 136 160 155 148 125 87 111 104 96 85 127
153 148 116 83 139 146 176 180 148 95 49 143 156 169 194 149
145 162 75 75 108 110 134 98 121 138 89 122 139 112 118 116
136 112 96 113 130 121 141 165 170 162 123 119 146 165 141 155
152 125 130 128 132 141 124 114 127 156 142 109 98 111 126 132
127 133 143 148 162 173 177 166 142 131 143 142 121 106 115 125
115 104 95 98 94 94 121 147 171 162 127 100 103 127 152 155
149 134 141 159 163 158 156 164 177 181 185 186 179 157 122 98
100 96 91 95 97 101 113 114 108 112 123 136 141 140 126 107
103 94 97 104 95 79 61 47 46 50 52 56 63 84 109 123
136 141 142 141 138 144 145 144 145 144 142 142 143 144 144 144
145 144 143 142 142 142 143 145 143 142 142 144 144 142 142 144
144 141 143 143 143 142 139 142 146 143 141 142 144 145 144 144
144 145 145 145 144 144 144 143 144 146 145 143 143 146 147 146
148 146 145 144 144 147 148 144 143 145 146 146 145 146 146 145
174 173 173 173 173 173 173 173 169 170 171 170 169 168 168 168
167 168 167 165 164 164 165 164 165 164 165 165 165 162 160 159
162 162 161 160 160 161 162 161 161 161 157 159 159 157 158 156
155 156 158 158 157 157 157 157 156 156 156 156 155 155 156 158
154 155 155 156 155 155 155 156 157 157 156 154 154 156 155 153
154 154 154 153 152 154 154 151 152 153 154 154 153 152 152 153
151 158 152 150 154 142 106 124 131 98 119 150 51 16 29 37
36 56 53 42 113 111 54 110 138 106 123 159 151 151 165 178
154 126 141 165 70 5 39 35 34 56 61 27 21 70 39 15
17 14 30 83 55 74 144 116 83 149 190 196 197 159 106 78
89 142 123 139 165 173 193 177 184 183 123 150 138 78 101 78
144 107 61 89 99 122 156 122 51 93 115 131 121 138 158 138
150 123 121 151 169 114 97 111 131 144 120 119 124 146 142 170
177 126 161 192 153 177 188 164 152 114 113 142 152 148 129 126
131 113 115 135 138 138 108 99 137 171 165 146 130 116 119 127
140 151 161 157 156 153 153 147 138 141 153 140 125 126 122 99
90 82 93 111 115 115 131 151 163 161 136 118 127 146 153 138
114 89 104 142 158 156 152 150 160 160 166 170 170 158 126 98
100 97 97 115 122 117 114 95 97 94 91 104 122 130 124 106
100 106 88 89 93 76 59 53 53 70 76 74 69 71 83 107
122 137 141 141 139 145 142 143 144 143 142 143 144 146 146 146
145 143 143 143 142 142 143 144 144 142 142 142 142 142 144 146
143 141 143 142 143 144 142 145 146 143 141 142 144 144 143 144
142 143 144 143 142 143 143 143 143 145 146 146 145 145 146 146
147 148 149 146 143 146 148 145 143 144 144 143 143 143 143 142
171 170 170 170 170 171 170 170 167 168 170 169 168 167 167 168
168 168 167 165 165 166 166 165 167 164 162 164 167 166 162 159
162 162 161 160 160 161 161 161 162 160 156 159 160 156 157 157
155 156 156 157 157 157 157 157 151 153 156 159 159 156 154 154
153 154 155 156 155 155 155 157 153 155 156 154 153 155 155 154
156 155 155 154 152 154 155 152 154 154 155 155 154 152 152 152
153 151 151 158 143 120 135 163 163 113 112 107 64 18 24 54
34 42 51 51 57 80 93 124 111 74 150 184 173 147 148 125
157 193 189 181 89 62 35 16 19 64 70 38 10 11 7 33
37 52 53 85 78 29 56 63 75 174 183 171 184 192 172 107
116 146 121 134 131 95 98 140 153 117 130 174 159 168 192 156
155 131 140 140 142 169 183 174 138 138 153 89 109 109 121 140
108 104 138 136 133 120 153 179 172 163 112 87 114 94 115 138
98 128 151 134 132 162 158 119 50 43 96 128 123 129 129 118
105 118 140 158 154 140 124 142 163 176 178 167 143 123 138 159
170 150 147 155 161 152 140 123 107 123 148 153 157 157 137 104
86 109 134 135 129 118 106 111 134 146 140 137 149 162 158 136
99 80 97 134 156 161 153 142 127 126 143 157 153 135 109 94
109 117 126 138 136 118 98 78 71 65 60 68 95 120 123 117
94 104 83 75 81 77 61 60 65 81 86 80 72 65 59 81
111 128 136 138 143 144 139 141 143 143 143 144 144 145 146 146
144 144 144 144 144 143 143 143 143 143 142 141 141 141 143 144
142 141 144 142 143 145 144 144 146 144 143 143 143 142 142 144
142 143 143 142 142 143 143 143 145 145 145 146 146 146 146 146
145 148 151 149 144 144 147 148 148 148 148 146 146 146 146 145
172 171 171 172 173 173 171 169 169 170 171 170 169 168 168 169
167 167 165 164 164 166 166 164 166 165 165 165 164 163 163 164
161 161 161 160 161 161 160 158 159 155 152 158 161 158 160 161
158 157 156 156 156 155 153 152 156 155 155 155 154 153 154 157
155 154 155 155 154 153 153 155 151 155 156 154 152 152 153 153
156 155 155 153 151 153 154 151 152 153 153 154 155 155 155 154
152 149 150 144 149 106 110 128 157 135 67 28 50 34 21 54
38 25 35 29 45 64 119 99 59 76 139 158 154 111 102 119
159 180 170 139 94 94 47 49 33 32 38 24 11 10 41 79
44 66 81 79 100 19 31 86 125 170 160 167 147 125 142 140
183 131 91 82 87 75 99 128 89 66 121 138 131 147 171 181
182 174 180 161 162 181 161 115 120 116 129 154 202 171 110 113
114 133 101 77 95 120 117 113 123 133 132 162 172 137 130 100
98 116 108 127 125 133 136 72 34 25 33 69 86 94 121 138
129 136 152 133 135 144 150 148 144 157 172 156 137 146 166 167
148 134 151 174 176 160 138 108 101 115 132 135 148 154 143 126
129 131 155 159 140 108 71 62 85 123 142 148 161 172 160 127
100 94 110 133 153 164 155 138 129 112 123 139 131 111 102 110
125 142 154 150 137 115 95 89 87 86 84 73 84 104 106 111
115 97 94 78 61 75 67 57 71 73 85 79 58 58 56 65
89 105 116 123 143 143 141 145 142 143 143 143 142 142 142 143
142 142 143 145 145 143 142 141 142 142 142 141 140 141 141 141
141 142 144 142 142 144 142 142 144 143 143 144 143 142 144 147
145 145 143 142 142 143 143 142 147 145 144 145 146 146 146 148
145 143 145 147 147 146 146 144 148 148 147 145 146 146 146 145
176 175 173 171 171 172 172 171 174 171 172 171 167 167 169 168
167 166 166 166 165 164 164 164 164 164 164 164 164 164 163 162
164 161 159 160 161 161 159 158 159 158 157 158 160 161 161 159
157 158 158 155 153 154 155 155 157 157 156 155 154 154 154 154
156 156 156 155 155 155 155 154 155 155 155 155 155 153 153 153
155 154 153 153 152 152 153 155 155 153 151 151 152 152 151 151
152 145 142 136 117 88 119 111 143 99 50 9 17 11 0 24
24 6 8 8 29 57 70 92 109 158 149 117 102 108 144 171
163 168 147 104 143 86 60 34 48 18 13 4 47 88 65 78
25 32 100 95 67 20 98 108 98 135 125 150 109 60 57 142
189 150 74 70 82 41 32 62 62 84 121 142 142 124 133 107
111 144 133 124 153 170 164 164 183 174 179 186 198 156 120 190
168 111 78 153 166 158 108 90 87 113 157 152 146 158 125 149
167 138 147 123 108 125 133 86 65 71 73 98 124 131 145 157
156 161 151 132 129 139 136 119 127 164 168 148 148 151 156 141
118 120 151 171 174 160 129 120 124 115 95 81 101 140 158 151
152 153 155 147 137 110 77 77 84 106 128 146 159 174 156 127
110 118 121 126 142 150 152 133 137 139 141 136 111 88 101 128
152 167 167 154 139 122 113 122 132 127 117 107 101 99 96 93
113 110 105 99 70 80 80 74 67 68 67 67 63 56 50 67
67 75 94 113 127 139 145 141 142 140 139 141 144 144 142 141
142 145 143 145 145 142 143 138 139 140 141 142 143 143 142 140
143 143 144 146 145 143 142 143 144 143 143 143 143 142 143 145
143 144 146 145 143 144 146 145 146 144 145 145 144 145 146 144
142 143 144 146 146 144 145 148 147 147 148 147 146 147 148 146
177 176 174 173 171 171 172 172 172 171 170 170 168 168 168 167
168 167 166 166 166 164 164 165 165 165 164 164 164 164 163 163
160 159 160 161 162 161 160 160 161 160 159 160 161 161 160 159
158 158 157 155 155 156 157 156 155 155 155 155 155 155 155 154
153 156 158 157 154 152 154 157 153 153 154 155 155 154 152 152
152 152 152 152 152 152 152 153 152 153 153 152 151 152 153 153
150 145 128 112 124 122 100 73 93 98 58 18 42 36 11 12
4 7 9 9 17 29 22 38 86 147 169 130 65 117 174 168
177 166 114 107 170 79 56 17 14 16 13 16 72 67 24 16
16 2 46 102 49 48 150 144 86 118 122 135 108 52 27 149
149 135 61 53 61 13 13 75 70 66 88 123 86 57 73 83
104 103 114 103 134 123 117 127 158 145 156 173 161 142 114 138
110 111 157 217 203 175 135 163 163 144 165 150 114 92 97 144
145 163 151 111 105 131 146 159 138 138 146 157 163 160 146 133
142 155 146 115 128 160 149 132 151 166 166 148 139 144 144 118
100 112 139 162 168 159 144 134 125 101 77 75 101 140 159 154
133 115 124 128 120 125 128 127 126 130 125 126 137 156 159 138
135 129 122 108 110 130 141 131 132 133 132 121 102 84 96 137
162 178 182 169 151 140 142 148 148 153 137 119 115 103 86 83
104 130 122 115 93 85 98 91 82 73 63 59 61 70 66 67
68 68 73 88 112 135 145 143 141 139 138 140 142 143 143 143
141 144 142 144 144 143 144 140 141 141 143 144 144 142 141 141
146 142 140 141 143 143 143 142 144 143 144 144 144 144 145 147
144 142 143 146 145 145 146 146 146 144 144 144 143 144 145 144
143 144 145 146 146 145 146 147 146 145 146 146 144 144 145 145
175 174 174 174 172 170 170 172 171 171 169 169 170 169 168 168
169 168 167 167 166 165 165 166 167 166 165 165 165 165 165 165
161 161 162 162 161 159 159 160 160 160 160 160 159 159 159 159
160 158 156 156 157 158 158 156 154 154 155 156 156 156 155 154
155 155 155 155 155 154 154 155 154 153 153 155 156 155 154 153
152 154 154 153 153 153 152 151 153 154 153 150 148 150 151 151
147 140 118 94 108 118 95 92 54 51 48 15 59 56 11 5
14 13 12 4 12 28 42 42 51 61 96 151 78 98 126 127
139 97 99 147 121 92 35 19 12 12 51 35 49 73 38 13
43 60 29 43 50 47 101 115 71 72 109 101 80 55 56 95
132 97 24 15 13 6 23 60 91 87 89 75 66 77 109 73
65 60 115 94 66 77 90 124 129 113 138 159 153 115 74 103
128 148 166 172 171 168 153 158 181 184 188 183 155 157 132 93
92 125 126 126 134 147 133 143 148 149 141 143 148 138 134 140
128 145 136 116 148 182 163 143 150 158 147 135 139 145 130 112
114 126 136 156 168 166 162 142 117 99 95 110 131 152 151 130
89 47 66 113 127 134 148 159 162 149 122 114 126 143 162 152
150 145 120 95 105 122 118 128 121 114 111 96 91 99 111 140
164 181 187 177 157 148 154 150 147 144 130 113 98 86 80 80
113 153 145 128 108 80 96 99 91 72 64 71 74 76 66 61
66 64 62 71 96 123 137 141 142 141 140 140 141 143 144 144
141 143 142 143 143 142 143 141 142 142 143 145 144 142 141 142
142 141 140 142 145 144 141 139 143 143 144 144 143 143 144 146
146 141 142 147 147 146 146 146 147 145 145 145 144 145 146 145
143 145 146 145 145 145 146 147 148 145 145 146 144 143 145 146
173 172 173 175 174 171 171 172 171 173 171 170 172 170 168 169
170 169 168 168 167 166 166 167 167 167 166 166 166 165 165 165
163 163 163 162 160 159 160 161 159 160 160 160 159 158 159 159
161 159 156 156 157 158 157 155 154 155 155 155 155 154 154 153
156 154 153 154 156 155 154 153 156 154 153 154 155 155 155 155
153 155 156 154 153 153 152 149 152 152 151 152 152 153 152 151
152 133 105 81 90 103 79 58 52 44 35 10 20 14 7 18
49 28 58 45 5 30 66 77 54 61 52 66 72 81 104 105
118 67 9 154 142 67 25 21 40 13 49 24 36 77 54 13
86 99 49 6 16 64 92 81 71 103 58 22 42 60 135 88
52 29 18 39 27 31 38 21 45 97 73 37 65 90 100 47
59 120 129 59 58 106 145 162 149 144 157 159 146 111 131 166
172 151 136 146 139 129 143 137 136 152 166 165 166 189 133 104
129 122 110 131 136 136 139 142 139 113 122 144 156 162 150 135
149 162 149 149 177 185 168 151 144 163 151 131 124 120 108 119
133 147 150 155 158 160 163 148 128 127 137 144 145 155 148 119
88 70 74 96 123 147 160 168 164 136 100 87 107 123 147 158
146 145 131 112 107 122 112 97 83 74 88 99 110 133 142 140
158 172 176 172 156 141 136 122 119 111 105 98 85 77 87 102
121 155 163 145 121 83 73 84 88 82 72 68 67 73 66 58
59 62 61 65 82 103 121 135 139 141 142 141 141 142 144 144
143 144 143 142 141 141 141 140 142 141 142 144 144 142 141 143
140 142 144 146 145 142 141 140 142 143 144 144 143 142 143 145
148 143 144 147 147 146 145 144 147 145 145 146 144 145 146 144
142 144 145 144 144 146 147 147 150 145 146 147 145 144 146 148
176 174 174 175 176 174 173 174 171 174 173 171 172 170 168 170
171 169 168 168 168 167 167 167 165 165 165 165 164 164 163 162
162 162 161 160 160 160 161 161 158 159 160 160 159 159 160 162
160 159 157 156 157 157 156 156 155 155 154 154 153 153 153 153
153 154 156 156 154 152 153 156 155 153 152 153 154 154 153 153
152 153 153 151 151 151 151 149 152 151 152 154 153 149 148 148
143 123 84 50 62 111 89 56 69 80 64 38 16 8 9 47
109 113 120 130 88 123 105 37 40 47 30 5 31 56 82 89
72 51 17 104 109 78 73 35 64 45 14 23 20 61 60 23
37 49 25 22 91 148 110 81 152 169 144 90 59 100 165 131
73 63 60 91 81 28 36 40 33 99 82 105 156 112 94 84
77 112 120 71 120 129 151 165 162 163 164 147 159 178 164 137
104 129 150 163 142 122 131 146 147 153 149 143 145 154 156 148
152 150 144 147 125 99 134 151 117 112 137 136 136 148 139 148
179 184 170 167 175 168 155 143 148 164 155 133 113 108 110 134
154 156 146 131 127 143 161 163 145 152 158 142 122 127 137 128
113 106 102 110 121 113 117 145 149 129 108 99 120 126 127 140
153 139 129 137 124 109 91 74 63 61 86 123 141 153 157 147
147 156 157 154 143 122 104 92 79 87 88 91 95 89 94 116
143 162 169 151 121 86 62 71 81 87 74 60 56 61 61 62
57 58 56 57 69 84 103 120 127 135 141 142 141 142 144 145
145 144 144 141 140 141 141 141 141 140 140 142 144 143 142 142
143 144 144 143 142 142 142 143 142 143 144 144 144 143 144 146
147 145 146 146 145 145 145 143 145 143 144 145 144 144 144 142
141 144 145 144 144 146 147 147 148 144 145 147 145 144 146 148
178 176 174 173 173 173 173 173 171 173 173 172 171 169 168 169
170 169 168 169 168 167 166 167 164 164 164 164 164 163 162 161
160 161 161 161 161 160 159 157 157 158 159 159 158 158 159 161
158 157 157 157 156 156 157 158 157 156 155 154 154 155 156 157
155 154 154 155 154 152 152 154 154 153 153 154 155 153 152 151
151 151 151 151 151 151 151 150 152 151 152 152 150 148 149 152
141 119 83 55 63 109 76 66 59 61 60 40 42 14 15 70
94 84 31 57 76 66 36 42 44 41 39 12 23 99 117 97
68 74 72 53 83 147 111 18 70 84 56 59 54 13 39 19
5 12 28 103 184 160 75 62 164 169 175 175 119 106 165 162
163 142 60 99 130 121 82 56 107 168 181 179 132 97 159 160
119 97 83 91 105 123 157 138 121 131 132 160 147 141 146 140
138 179 202 174 109 131 173 165 161 172 152 128 129 135 135 142
171 180 187 180 164 137 161 151 126 133 109 109 138 144 151 175
171 171 159 144 149 156 140 124 141 156 148 135 132 127 130 148
153 154 152 135 127 138 148 153 164 161 146 112 80 84 117 141
137 133 127 125 119 107 111 133 150 139 132 124 135 131 110 112
126 144 140 127 108 92 83 73 79 86 102 133 158 165 162 151
138 141 141 136 124 103 85 82 86 99 110 117 122 119 117 123
143 164 169 163 131 97 68 60 88 97 84 72 64 61 60 67
63 58 52 53 63 75 85 91 110 125 139 143 141 141 143 143
144 143 144 141 141 143 142 143 141 140 139 140 142 143 142 141
143 143 142 143 144 144 143 140 142 142 142 143 144 144 145 147
144 144 145 144 143 145 146 143 145 144 145 145 144 144 144 142
142 144 145 145 145 146 147 147 147 144 145 147 145 145 147 147
176 177 175 172 172 173 173 171 172 171 172 172 170 170 170 169
169 168 168 168 168 166 165 166 166 165 165 164 164 164 163 162
161 162 162 162 161 160 157 155 158 158 159 158 157 156 157 158
158 156 156 156 156 155 156 157 157 157 156 155 155 156 157 158
157 153 151 153 155 154 152 151 153 153 154 155 155 153 152 151
153 151 151 152 152 151 150 151 150 151 151 150 149 147 141 134
124 94 69 60 77 88 55 55 25 19 30 24 34 13 70 94
21 0 13 10 6 8 23 46 21 28 19 21 122 126 94 116
134 130 114 97 134 151 97 49 75 99 105 60 60 81 39 56
46 69 62 88 137 142 83 35 123 115 111 140 107 82 136 138
153 140 84 46 122 155 119 35 84 151 137 139 104 101 152 172
174 141 141 128 73 103 100 92 125 129 150 133 72 73 134 144
107 132 147 146 141 164 151 141 165 147 98 119 156 138 112 122
127 151 178 169 167 164 181 172 166 157 119 143 168 155 156 138
148 151 136 120 135 153 141 120 128 150 153 149 149 138 139 147
144 154 161 145 124 124 138 154 157 154 141 118 92 82 103 134
146 139 139 148 152 149 149 149 148 138 144 154 151 135 106 93
99 118 140 130 95 79 95 104 100 104 112 128 154 171 163 149
133 128 133 127 113 102 92 94 107 117 130 134 129 125 121 116
128 150 155 158 134 107 89 84 99 115 101 77 62 68 71 64
60 56 51 51 59 71 76 72 88 110 132 141 140 141 142 142
143 142 144 141 140 143 142 144 142 143 142 140 141 143 143 140
141 142 143 144 145 146 143 140 143 142 142 143 144 144 145 146
145 143 144 144 143 144 146 145 147 145 145 145 144 144 145 143
144 144 145 146 146 146 146 147 146 145 147 148 146 146 147 146
173 176 177 174 173 175 174 171 173 170 171 172 169 170 172 168
168 168 168 168 168 166 165 165 166 165 164 163 163 163 162 162
160 162 162 161 160 160 160 159 160 160 160 159 157 156 156 156
158 156 155 155 155 154 154 155 155 155 154 153 153 154 155 156
155 154 154 155 153 150 151 153 153 152 153 153 153 151 151 152
154 151 151 153 153 150 148 150 151 153 152 147 143 131 103 76
60 62 69 63 75 61 57 47 35 28 61 41 6 26 76 34
49 32 60 86 51 21 78 98 22 8 13 48 148 139 138 140
127 137 79 92 146 156 79 80 135 106 78 96 79 134 103 117
147 160 117 52 108 104 96 66 97 115 146 154 113 114 97 100
106 94 83 18 64 105 76 28 27 121 132 128 127 103 123 139
127 108 176 169 142 152 125 96 81 110 150 125 124 115 161 118
71 117 157 136 153 168 105 150 174 101 120 165 178 169 167 146
113 135 147 130 138 145 140 145 157 159 150 155 157 144 133 125
138 149 126 116 131 143 145 130 119 129 146 157 153 148 157 142
133 143 148 137 119 117 136 153 152 151 144 135 122 105 112 139
146 140 143 162 180 185 178 165 146 125 129 154 143 127 112 100
99 108 124 126 128 113 111 131 129 111 113 118 131 154 155 149
124 113 124 121 109 108 104 105 109 124 130 129 125 111 101 106
116 135 150 158 140 111 94 100 96 105 95 77 56 57 60 53
46 47 47 44 49 67 78 73 67 94 123 136 138 140 142 143
142 141 144 140 139 142 140 143 143 145 144 141 141 143 143 140
141 143 144 143 142 143 145 146 147 145 144 144 145 145 145 145
147 143 143 146 145 143 145 146 148 145 144 144 142 143 145 144
144 143 144 146 146 144 144 146 145 145 147 147 145 146 146 144
177 175 174 173 172 174 174 171 171 172 172 172 172 171 170 169
170 170 168 166 165 165 165 164 163 164 165 164 163 162 163 165
162 161 161 161 162 162 162 162 163 162 159 157 158 160 160 159
156 157 155 153 154 157 158 156 155 157 155 154 155 153 152 154
156 156 154 153 152 152 153 154 151 151 152 153 153 151 151 151
155 150 148 149 148 148 150 150 150 149 147 143 132 92 41 29
35 50 64 82 73 50 62 74 60 49 70 71 29 74 75 4
30 59 142 140 47 57 89 128 45 16 5 31 59 79 140 158
133 118 47 78 131 90 26 64 169 129 92 160 124 107 91 107
148 146 144 104 120 79 77 144 169 143 138 144 136 103 69 17
10 14 34 23 42 104 52 16 22 80 134 126 134 149 113 116
122 96 140 145 112 109 133 159 151 131 86 99 128 128 147 125
86 127 155 108 135 163 135 157 163 141 170 173 154 169 160 123
136 158 138 147 143 116 125 146 157 154 152 145 142 136 131 145
151 142 130 123 128 139 136 119 114 113 127 143 144 144 147 144
142 148 148 137 130 136 144 145 142 142 146 152 143 122 124 150
159 155 163 178 188 191 181 165 127 95 96 119 133 129 133 132
124 114 127 134 129 140 149 148 137 109 86 68 104 134 135 123
94 83 88 104 114 100 104 112 101 101 110 107 99 85 70 73
93 124 139 151 137 119 84 90 102 97 82 61 49 57 55 60
45 36 36 40 58 74 85 78 68 79 109 125 138 142 141 139
141 143 144 144 144 144 143 142 140 139 144 147 142 140 142 141
142 143 144 144 142 142 144 145 146 144 144 145 143 144 144 143
146 144 143 144 145 144 144 145 145 145 145 146 146 145 145 146
146 144 143 143 144 145 146 146 143 145 147 147 145 145 147 150
177 176 176 175 174 176 176 173 174 173 171 171 171 172 171 170
169 169 168 165 164 165 166 165 165 165 166 165 165 165 164 164
160 160 161 161 161 160 160 160 161 160 158 157 158 160 160 159
159 159 157 155 155 157 157 155 155 156 154 153 154 154 153 154
154 154 154 154 153 153 153 153 152 154 154 152 151 152 152 151
151 151 152 151 148 149 150 148 148 148 131 116 94 54 32 37
43 54 80 96 79 74 66 66 56 46 26 30 37 54 43 16
20 109 149 112 44 121 117 84 74 51 29 1 14 36 78 108
90 39 12 24 103 44 8 66 176 134 85 123 97 52 70 113
144 130 126 124 82 47 12 79 166 122 47 24 89 86 73 85
98 117 111 46 101 102 36 19 95 105 148 136 141 146 104 114
164 142 106 75 73 77 110 138 175 159 84 112 86 67 116 130
114 127 99 105 131 154 135 159 181 178 176 138 121 156 155 127
156 142 140 162 140 134 167 169 159 157 142 144 148 141 148 156
152 136 128 120 114 123 123 107 97 105 126 139 136 137 141 138
134 141 146 142 138 150 155 144 131 138 144 148 147 138 134 142
151 159 169 171 166 173 168 139 100 64 63 93 118 136 148 142
127 111 114 129 140 152 160 161 126 92 71 62 95 123 120 95
79 71 76 97 116 107 99 90 85 81 84 82 81 80 72 75
87 115 137 144 128 107 74 66 90 97 84 60 46 58 60 62
57 36 38 42 50 75 94 78 70 62 87 118 127 141 141 145
138 142 144 143 141 141 142 144 142 140 143 144 140 139 141 141
140 142 143 143 144 144 145 146 145 142 143 143 142 143 144 143
144 143 142 143 144 144 144 145 146 145 144 145 145 144 143 143
145 145 145 145 145 145 145 145 146 146 147 146 145 146 148 149
178 176 177 177 176 177 177 174 177 174 172 171 172 172 171 170
168 169 168 166 165 166 166 166 166 166 166 166 167 166 164 162
159 161 162 162 161 160 160 160 161 160 158 157 158 160 160 158
158 158 157 155 155 156 155 153 155 155 153 152 154 154 153 154
154 154 153 153 153 153 153 153 153 155 154 150 150 153 153 151
151 148 148 150 149 148 149 150 142 121 86 66 66 57 43 37
68 85 84 102 64 81 67 71 61 40 19 22 53 56 48 38
65 130 155 106 162 239 139 76 55 59 48 15 3 12 28 47
81 75 66 100 144 111 46 78 173 176 89 54 105 114 71 91
134 126 71 22 19 72 121 128 85 70 86 66 142 77 38 159
192 192 125 48 110 98 47 33 92 111 137 138 146 133 135 158
166 185 123 42 74 111 105 103 125 123 133 146 88 43 50 128
130 110 100 116 163 166 146 148 165 175 173 147 134 153 152 160
156 139 140 154 136 144 169 155 150 144 134 155 164 143 136 133
143 142 130 112 117 131 120 103 115 133 141 137 135 131 123 116
122 130 138 141 143 149 150 145 146 145 144 149 153 148 139 137
141 156 163 147 127 140 152 128 93 66 63 84 105 139 155 143
121 96 81 99 132 157 164 156 133 90 78 95 123 130 122 98
75 84 99 117 126 115 104 91 86 85 94 98 105 109 103 103
115 126 140 142 129 111 84 68 84 102 94 77 60 73 82 87
75 61 46 40 56 80 97 95 83 60 58 89 113 134 140 144
139 141 143 142 141 141 143 144 143 141 143 143 140 140 142 142
141 142 143 144 145 146 147 147 145 143 143 143 142 143 145 143
144 143 143 144 144 144 145 146 145 144 144 144 145 144 143 143
143 144 146 146 145 144 144 144 146 146 145 145 146 147 147 147
179 177 177 177 175 175 176 174 176 174 173 173 172 171 169 168
168 169 170 169 167 167 166 166 165 165 165 165 166 165 164 162
162 163 163 163 162 162 161 160 161 161 159 158 158 159 159 157
155 156 155 154 155 155 155 153 155 155 152 151 154 154 153 154
156 154 153 152 152 153 154 155 152 153 153 150 150 153 153 152
152 151 151 151 148 145 144 142 117 62 42 55 89 98 67 46
76 95 69 92 55 57 63 55 38 22 20 56 97 85 39 13
71 138 123 203 241 195 116 94 50 56 60 16 8 7 20 63
99 147 129 148 153 143 59 83 172 160 124 80 152 144 104 70
65 94 71 67 64 129 180 140 28 52 158 175 125 63 44 115
137 112 76 50 41 37 47 38 48 93 126 120 137 93 144 180
168 183 159 143 141 135 133 123 122 112 142 108 114 104 97 128
106 107 93 118 144 145 133 107 159 191 195 166 145 157 142 141
134 126 123 138 145 138 136 139 145 138 140 154 160 147 134 135
132 139 134 122 131 136 125 131 152 156 143 141 154 139 108 101
106 114 119 128 142 146 141 142 149 144 146 155 163 158 144 132
142 155 154 136 118 130 151 140 122 100 94 108 115 133 141 135
124 114 98 100 121 149 164 152 142 117 107 119 139 143 135 113
98 112 126 135 135 128 121 112 108 109 122 131 134 132 122 118
121 125 138 148 140 123 106 98 101 118 111 102 80 81 90 103
95 73 53 40 40 62 84 87 75 66 50 69 115 133 145 142
141 140 139 139 141 143 143 141 141 141 142 143 142 142 143 142
144 143 142 143 145 146 146 145 146 144 144 143 142 143 145 143
144 144 144 144 144 144 146 147 144 143 144 145 145 144 145 145
143 145 146 146 145 144 144 144 144 144 144 146 147 147 145 143
180 177 177 176 174 174 174 173 174 173 172 172 171 170 169 170
170 171 171 169 167 166 166 165 164 164 165 164 164 163 163 163
163 163 162 161 162 162 160 158 160 160 159 158 158 159 158 156
155 156 156 156 156 156 155 154 154 154 152 151 154 154 153 154
156 155 153 152 152 153 154 154 152 151 151 152 152 151 151 152
151 150 149 148 149 148 136 118 65 34 37 53 94 127 105 60
54 60 74 67 88 68 35 59 39 30 36 96 92 32 8 29
83 141 80 137 194 127 115 90 64 74 105 25 21 12 29 133
139 105 51 126 134 99 47 47 159 168 99 92 100 76 102 138
79 82 149 139 109 101 138 101 66 64 128 156 94 52 52 104
115 55 8 18 40 66 92 80 59 56 95 111 84 73 130 177
185 177 161 180 168 154 165 179 155 137 134 105 164 156 151 117
101 114 75 95 101 104 123 128 144 166 174 157 138 147 126 110
109 128 132 133 148 147 136 139 153 141 133 137 149 152 140 130
128 138 140 125 121 130 139 150 154 145 140 151 153 123 100 107
102 96 95 108 130 145 147 142 137 138 145 156 167 172 161 141
149 158 157 149 141 145 152 147 136 141 134 125 126 146 143 128
129 138 135 128 128 146 163 155 151 143 131 130 142 141 132 120
120 139 153 161 157 151 146 139 129 124 132 142 141 132 120 113
114 118 125 144 147 140 126 124 127 136 127 120 93 81 87 102
113 97 71 49 40 48 63 76 66 70 62 65 101 125 139 142
141 140 138 139 141 143 142 140 140 141 140 141 142 143 143 143
144 143 141 141 143 143 143 142 144 143 143 142 141 143 145 143
144 144 144 143 143 144 145 145 143 143 145 145 144 144 145 147
146 146 147 147 146 145 145 145 143 143 145 146 147 147 145 144
181 178 177 177 174 173 174 173 172 171 171 171 170 169 171 173
172 172 170 167 166 166 166 166 163 165 165 165 164 163 163 164
163 162 161 159 160 160 158 155 158 158 158 158 158 158 158 156
157 157 157 157 156 155 154 153 154 154 152 152 154 154 153 154
154 154 153 153 154 154 153 152 152 151 151 152 152 150 149 150
149 147 147 143 133 119 107 98 74 53 41 50 88 129 146 110
62 70 118 117 94 57 60 101 57 86 63 82 99 17 22 69
121 135 49 24 107 126 102 90 67 90 122 64 32 21 25 124
133 90 56 80 138 82 54 32 111 119 56 76 95 70 125 174
91 85 136 95 55 22 45 59 104 99 89 112 127 95 115 167
114 50 36 68 99 130 128 106 92 68 44 70 81 94 90 136
161 138 140 172 159 160 170 173 128 150 138 129 176 154 152 129
131 153 114 86 93 91 133 157 134 138 146 144 132 138 123 110
124 151 157 153 163 142 126 145 153 139 130 146 157 146 130 115
141 150 132 109 117 135 141 140 141 137 148 153 132 111 112 118
102 83 91 115 125 132 139 133 118 116 131 154 172 182 177 162
155 162 167 164 158 153 152 157 153 154 149 145 136 125 121 130
131 144 152 146 134 133 145 153 156 151 134 123 128 123 118 127
128 148 162 171 170 168 160 150 140 128 128 136 132 117 99 86
88 98 108 132 141 145 140 139 140 141 131 118 94 78 79 91
104 105 79 56 48 45 48 68 75 72 74 72 83 117 129 141
140 142 143 142 141 142 143 143 142 143 140 139 142 144 144 145
143 142 141 142 143 144 144 143 143 143 144 143 142 144 147 145
144 144 144 144 144 145 145 144 143 144 145 145 143 142 144 147
145 146 146 146 145 144 145 145 145 145 145 145 146 146 147 147
179 177 177 178 176 175 175 174 174 172 171 172 172 170 171 173
172 171 169 168 167 168 167 166 164 165 167 166 165 163 163 164
162 163 162 160 160 160 158 154 157 158 158 158 158 158 157 156
157 157 157 157 156 154 153 153 154 155 153 153 154 154 153 154
153 152 152 153 154 154 152 151 152 152 151 151 151 151 150 149
149 146 137 116 90 78 86 97 97 89 61 51 97 151 180 143
95 84 97 105 57 33 29 75 65 86 51 33 44 43 89 88
135 134 38 47 112 103 98 86 80 88 93 76 31 31 20 65
108 63 61 48 78 81 67 93 72 30 38 104 141 112 134 156
131 79 96 81 39 17 75 97 156 153 150 131 120 173 187 151
79 144 111 92 99 115 142 92 74 133 136 104 120 129 107 73
82 114 109 139 138 121 150 154 133 150 131 155 175 146 153 147
144 164 154 139 100 58 109 160 127 146 147 126 129 155 147 123
127 165 168 149 155 138 124 138 145 136 142 157 152 133 126 133
154 150 120 115 135 134 126 127 137 139 148 147 132 127 124 112
93 88 105 126 126 120 118 114 95 93 118 157 179 187 179 162
130 127 144 154 146 134 132 147 160 163 162 146 126 108 109 118
136 155 168 162 140 110 107 137 143 144 123 91 83 89 93 112
140 152 155 163 171 182 176 161 142 122 108 104 91 75 60 46
42 59 88 120 130 134 144 144 137 126 116 101 87 70 69 80
101 96 90 77 54 57 65 63 71 72 74 75 78 103 121 133
139 142 144 144 143 143 144 144 144 146 142 140 144 145 144 144
142 142 142 144 145 145 144 142 144 145 146 144 143 145 147 145
144 144 144 144 146 147 146 144 143 144 145 145 143 141 143 145
143 145 146 146 144 143 144 145 146 145 144 144 145 146 147 147
177 175 177 179 177 176 175 174 175 173 173 174 174 171 169 170
170 170 170 170 171 171 168 165 164 166 167 167 166 164 163 162
163 165 165 163 162 162 159 156 158 159 159 159 158 158 157 155
157 157 157 157 156 155 154 154 153 155 154 153 154 153 153 154
152 152 151 151 152 153 153 152 150 152 151 149 150 152 152 149
147 133 101 66 61 86 105 103 81 80 66 65 117 158 166 136
117 95 74 87 52 32 15 52 55 44 34 74 46 87 100 66
85 132 34 38 113 101 104 84 81 83 95 82 52 49 34 65
110 91 101 127 125 103 105 140 101 38 88 148 120 114 144 148
146 97 85 77 100 110 161 170 139 146 144 136 133 159 177 115
97 180 166 87 91 95 106 72 102 147 167 155 131 137 139 125
115 142 140 157 136 83 108 129 108 103 119 137 136 160 177 145
147 123 150 137 116 114 121 130 123 130 126 121 140 149 132 121
113 136 142 133 139 134 137 148 142 129 140 134 127 126 118 132
142 143 130 136 138 125 122 116 126 137 145 144 137 120 102 93
95 111 111 104 113 120 116 113 105 106 128 157 177 187 176 148
107 91 119 149 149 132 120 133 156 159 161 144 130 124 131 131
136 155 166 165 150 104 78 109 130 128 116 88 67 57 59 88
119 142 153 161 164 177 174 161 141 113 85 65 48 42 43 39
49 43 69 107 129 136 150 141 123 103 97 89 86 72 73 90
100 103 97 84 65 69 69 64 62 78 64 57 62 67 105 118
138 139 140 141 143 144 143 141 144 146 143 141 145 145 141 141
139 140 142 144 145 144 142 140 145 145 146 144 142 144 145 142
143 143 143 143 145 147 146 143 144 144 144 144 143 142 143 145
143 146 149 148 146 144 145 147 145 144 143 143 144 145 144 143
182 180 178 177 176 175 175 174 175 175 173 172 172 173 172 171
172 168 167 170 170 167 166 167 168 167 165 162 162 165 165 164
162 162 161 160 161 162 160 157 161 158 156 157 159 158 157 156
157 157 156 155 156 158 157 155 155 153 153 154 155 155 152 150
152 152 152 152 151 149 150 152 148 148 149 151 152 150 148 145
135 108 50 45 77 107 117 114 106 79 72 88 128 167 184 158
112 92 57 80 55 29 60 57 69 83 80 83 54 83 79 24
49 131 54 63 114 105 103 87 85 82 82 78 65 47 44 110
150 143 147 144 145 146 117 140 127 78 130 131 94 88 138 112
86 72 92 148 145 135 135 109 103 144 149 128 126 136 138 125
143 167 153 58 50 99 93 49 102 151 155 142 130 141 160 154
151 154 129 152 151 142 140 131 127 108 97 79 104 133 136 144
128 133 152 114 134 157 118 88 98 116 109 115 140 116 101 88
73 108 133 136 134 132 154 160 136 128 126 114 118 112 95 118
139 145 140 140 133 113 114 130 125 123 132 132 128 120 104 102
115 114 110 103 115 132 132 131 134 135 131 147 168 185 173 141
107 90 123 157 166 155 141 126 134 144 151 144 143 142 144 137
132 142 161 167 148 117 101 108 134 132 125 113 88 72 60 71
98 124 144 157 162 174 169 156 129 106 73 47 37 43 54 60
63 64 79 99 125 133 137 136 120 107 92 94 101 92 87 98
102 105 96 84 71 72 69 66 63 67 57 47 45 48 77 113
127 143 145 141 141 142 142 139 143 143 143 142 142 141 141 140
144 143 142 143 146 144 143 145 143 143 143 143 143 143 143 143
144 143 143 144 145 144 145 146 144 144 144 145 144 144 144 145
144 147 148 146 144 144 144 144 145 144 144 144 146 148 145 142
181 179 176 176 176 176 175 173 173 173 172 171 171 172 171 169
170 168 167 169 169 168 167 167 168 168 166 164 164 165 164 163
162 162 161 161 161 161 160 158 158 157 157 159 159 158 155 154
154 155 156 156 156 156 155 153 154 153 152 152 153 154 154 153
152 152 152 153 152 151 152 153 150 152 152 150 148 150 150 146
128 68 33 44 75 104 123 120 101 91 100 103 113 175 217 171
97 70 83 116 134 109 108 76 57 140 121 138 75 72 135 94
51 68 70 100 108 96 85 82 62 57 102 148 95 45 92 141
162 184 152 143 158 143 92 153 148 136 147 144 104 74 126 100
50 134 120 164 146 109 104 55 60 81 86 91 98 118 122 137
144 128 149 77 50 55 113 105 89 117 133 133 129 153 160 147
144 147 129 127 142 148 135 141 162 142 133 143 127 102 115 137
128 169 144 108 157 167 119 108 82 104 113 111 119 95 88 109
113 121 134 145 139 132 151 145 124 108 111 127 120 98 97 117
138 144 142 138 129 118 117 114 114 109 122 131 128 116 108 121
116 112 113 121 138 153 159 164 156 147 133 133 149 166 168 159
137 117 133 157 170 170 156 122 102 115 141 144 139 136 128 120
97 115 149 169 163 141 126 127 139 155 137 125 114 80 72 72
91 117 132 144 151 153 152 142 114 90 64 51 51 55 63 78
92 92 95 104 121 128 125 119 116 119 120 122 122 109 97 98
102 103 93 80 67 69 68 67 61 58 53 43 36 44 57 95
122 137 141 141 143 143 143 141 141 141 141 141 142 143 143 143
141 142 143 145 148 145 144 146 142 140 141 143 143 141 141 144
144 143 143 144 144 144 144 145 143 144 145 145 146 145 145 144
146 146 144 144 145 147 146 144 144 145 146 146 146 147 146 144
180 178 176 175 177 177 176 174 173 173 172 172 173 173 172 170
171 170 170 170 170 169 168 167 169 167 166 166 166 164 163 162
162 163 162 161 161 161 161 160 162 160 159 157 156 155 156 157
154 156 157 157 156 155 154 154 155 154 153 152 152 153 153 153
151 151 152 153 153 152 152 153 152 151 152 152 152 155 152 141
109 51 43 54 65 88 93 88 98 132 116 115 85 72 113 104
75 61 70 105 142 126 119 71 59 144 152 139 50 34 81 119
111 93 84 100 69 46 33 25 58 57 95 158 104 74 124 150
149 150 146 142 164 163 122 156 135 125 155 151 95 80 107 131
131 146 101 105 108 82 141 92 45 89 91 111 107 110 119 148
159 132 129 65 63 19 45 92 110 72 135 123 94 117 99 114
109 133 169 141 130 151 153 118 159 153 149 155 131 134 107 115
148 142 120 133 164 155 141 146 103 114 131 117 124 111 116 144
143 140 157 143 132 132 116 106 102 93 99 118 113 99 110 120
122 131 143 145 135 131 128 112 100 93 103 118 126 124 115 118
121 120 125 141 153 161 170 174 166 143 119 116 135 156 161 162
159 145 145 158 170 167 151 123 87 94 127 142 132 122 96 79
82 104 146 175 179 169 155 148 147 152 151 135 130 102 95 94
100 110 113 120 133 136 130 120 95 75 62 59 64 66 73 94
111 115 110 108 109 113 111 112 118 131 139 134 122 109 99 96
95 91 76 61 52 57 62 65 63 57 48 40 30 38 42 74
112 130 139 142 144 142 141 140 141 140 140 141 142 143 144 144
142 143 144 146 146 143 142 145 143 141 142 146 145 141 142 146
143 142 142 143 143 143 143 144 141 143 145 145 146 146 145 142
147 146 144 143 145 147 147 145 142 145 147 147 146 146 146 147
179 178 177 177 178 179 177 176 175 174 174 174 174 174 173 172
171 172 171 170 170 170 168 166 169 166 165 166 166 164 162 163
162 163 163 162 161 161 162 162 164 163 160 157 156 156 157 158
157 157 157 156 155 155 154 154 154 154 154 153 152 152 152 151
150 150 151 152 152 152 152 152 152 148 149 152 152 153 149 139
99 47 46 61 75 83 52 43 88 113 95 107 105 70 56 73
78 69 45 62 62 70 84 55 91 140 133 120 70 60 41 42
89 121 133 125 101 100 60 63 119 102 66 90 115 110 124 162
154 160 139 108 150 163 134 122 116 127 117 98 81 114 120 111
135 128 123 86 101 115 138 131 140 149 147 120 109 114 87 123
165 110 92 77 64 64 36 79 140 136 175 163 87 72 79 98
116 126 136 135 132 131 138 145 146 126 159 141 135 142 122 128
126 114 117 123 117 128 156 154 132 130 128 116 145 123 105 104
112 146 150 127 124 123 112 105 105 105 110 112 109 106 105 108
116 126 143 148 135 124 113 97 87 96 114 125 132 135 131 131
128 135 143 154 158 163 175 174 154 114 87 95 117 149 158 166
161 158 149 145 159 162 151 146 120 113 128 143 130 124 107 93
105 118 151 175 180 177 165 153 145 135 145 127 125 113 111 122
120 115 107 95 89 96 90 87 77 64 66 71 76 85 97 118
134 137 124 112 99 99 101 112 121 137 146 135 114 96 85 79
79 72 57 45 41 49 54 57 61 58 41 38 33 37 45 61
95 122 138 143 144 141 141 140 142 142 141 141 141 142 143 143
143 144 142 142 143 141 141 145 144 143 145 147 145 143 144 147
142 142 142 143 143 143 144 144 139 142 144 144 144 145 144 142
147 147 147 146 144 144 145 147 141 143 145 146 145 146 147 147
178 179 179 178 178 179 179 177 176 175 173 173 173 173 173 173
169 170 170 169 169 169 168 166 169 166 165 166 166 164 163 164
162 163 163 163 162 161 162 163 161 161 160 160 160 159 157 155
158 157 155 155 155 154 153 152 152 153 154 153 153 153 154 153
151 151 152 152 153 153 152 151 151 149 149 148 146 148 147 141
101 42 46 72 90 67 25 30 52 66 81 114 135 147 126 119
70 78 48 31 30 50 65 79 108 128 97 109 83 56 37 23
37 47 76 96 67 65 49 36 55 86 83 69 104 96 134 151
131 116 145 148 162 176 157 135 130 139 159 106 115 168 165 142
96 45 145 166 172 155 120 142 123 125 110 100 93 73 101 122
137 103 74 119 137 112 109 99 132 163 152 134 103 139 137 141
135 101 111 98 99 83 115 113 95 130 163 131 152 149 128 118
120 140 127 122 115 122 129 136 131 139 121 120 146 118 87 73
98 120 113 120 135 119 99 90 108 109 121 132 125 114 112 113
115 123 132 130 124 114 102 92 85 100 121 132 137 142 146 150
140 147 153 160 162 167 178 175 146 102 84 112 123 142 147 161
164 158 144 124 134 161 164 165 160 150 147 156 142 139 146 143
136 139 155 167 169 169 159 146 133 133 128 112 116 112 117 135
140 129 102 82 59 67 74 67 65 50 56 70 77 92 114 133
155 154 131 105 87 91 95 102 118 129 131 114 92 75 66 63
63 58 50 44 46 50 51 47 44 43 33 31 35 40 47 52
79 113 137 143 143 142 144 143 141 142 142 141 141 141 142 144
143 142 140 140 142 141 142 146 142 144 145 144 143 143 143 143
142 143 143 143 143 144 144 145 140 142 144 143 143 143 143 144
145 146 147 147 145 144 145 146 143 143 144 145 146 146 146 146
177 179 180 179 178 179 178 177 177 175 174 174 174 174 173 173
169 169 169 169 169 169 169 169 168 167 165 166 166 166 165 165
162 162 163 163 162 161 161 162 160 159 158 158 160 161 159 156
158 156 156 156 157 155 153 151 154 155 154 152 152 153 154 153
152 153 153 153 153 153 153 152 150 151 149 146 149 151 144 135
101 51 62 86 95 55 31 40 49 45 63 117 149 154 129 121
68 52 56 54 80 124 153 110 146 151 105 73 41 28 16 48
45 41 44 45 34 13 8 36 9 97 106 81 119 123 152 123
49 85 169 146 128 179 200 124 117 159 188 124 148 169 186 175
119 44 142 162 172 113 121 188 154 125 147 185 165 87 128 177
194 125 99 126 151 118 153 137 109 154 140 116 109 136 152 136
116 126 142 124 94 125 116 91 87 93 93 122 160 137 102 119
151 149 123 142 119 106 98 108 104 117 111 122 123 131 113 83
92 87 102 139 134 97 84 98 101 107 128 150 136 124 138 130
121 122 114 102 104 109 100 92 103 113 120 123 134 150 156 153
145 148 156 168 173 172 173 172 147 111 108 149 153 147 134 138
153 142 138 128 129 160 175 173 171 167 159 166 159 155 167 167
159 155 160 164 163 160 150 140 129 122 124 107 105 120 127 143
152 147 108 90 67 65 87 74 68 47 48 68 83 100 128 149
164 161 135 95 69 74 82 82 100 103 95 78 64 56 57 61
59 54 50 46 49 50 50 46 44 41 47 44 52 62 60 66
84 116 137 142 142 142 144 144 140 140 141 141 141 142 144 145
143 143 141 142 144 142 141 144 142 144 144 142 142 143 143 141
143 143 143 143 143 144 145 144 143 142 143 144 143 142 143 146
145 144 144 145 147 146 145 144 146 145 145 146 146 146 145 145
178 180 180 179 179 179 178 176 177 175 174 175 175 175 174 174
171 169 169 170 170 168 169 170 167 167 166 165 166 167 166 165
164 164 164 164 163 161 161 161 162 160 157 156 158 160 160 157
157 156 156 157 157 155 153 153 155 156 155 152 152 154 153 152
151 153 153 152 151 152 152 152 150 151 147 146 146 135 122 118
109 83 77 94 112 100 82 66 65 52 79 124 137 107 71 105
101 91 122 119 125 133 151 105 105 122 92 80 83 106 62 37
39 54 30 30 30 16 19 38 43 78 95 102 130 147 131 85
26 130 169 112 147 195 192 106 127 186 132 65 109 149 160 182
168 123 146 167 157 114 144 187 168 146 150 157 150 102 138 174
153 130 122 152 128 116 162 180 104 104 109 91 115 151 180 150
120 131 158 150 134 170 149 132 123 98 88 88 107 128 132 120
118 112 119 145 126 132 125 118 113 106 118 127 121 153 131 91
115 99 93 134 118 86 99 98 91 111 131 137 122 128 144 129
107 103 91 80 93 114 113 107 109 117 116 108 110 124 137 138
141 145 157 169 172 164 157 161 144 126 124 152 162 147 126 114
121 127 134 151 156 168 177 173 165 169 168 170 170 163 168 172
164 157 157 157 154 148 138 135 131 108 116 105 98 121 138 152
156 163 137 108 81 58 77 75 57 45 37 55 75 91 122 144
158 150 129 88 59 57 65 60 69 77 73 63 60 56 55 59
58 54 51 45 47 46 50 51 48 46 55 60 65 76 76 87
110 129 139 142 143 141 141 142 141 140 140 141 142 143 143 143
143 144 144 145 145 142 140 143 144 144 144 143 144 144 143 142
143 144 144 143 143 144 144 143 146 142 141 144 145 143 143 146
146 144 144 146 147 147 145 144 147 147 147 147 146 145 145 146
179 180 180 179 179 180 178 175 176 174 174 175 176 175 174 174
173 170 169 170 169 166 167 169 166 167 166 165 165 167 166 163
167 165 165 165 164 162 161 161 162 161 160 159 160 160 158 154
155 154 154 155 154 153 153 154 152 154 155 154 154 156 154 151
149 151 152 150 149 150 151 151 150 150 147 144 130 101 90 105
127 125 90 105 132 155 132 101 84 89 110 140 114 69 63 80
88 72 133 145 135 121 110 117 113 89 86 146 137 132 87 47
41 34 29 31 8 11 11 73 106 69 102 110 133 141 82 54
69 90 119 90 155 216 143 95 158 185 126 118 84 97 83 151
192 179 148 147 102 103 130 100 121 156 134 133 133 84 127 146
113 93 78 87 72 90 120 132 97 98 127 84 79 136 155 150
135 136 169 152 140 167 162 141 157 165 132 109 104 135 138 121
128 102 96 104 139 148 127 149 140 121 140 128 122 137 110 110
122 103 95 105 96 102 107 88 66 94 119 109 110 136 142 133
108 99 90 82 94 116 118 113 118 116 111 106 100 100 115 129
144 149 159 157 150 137 128 136 145 147 141 143 155 138 114 90
97 129 132 157 175 173 165 150 154 172 186 183 179 160 152 157
154 147 145 143 141 133 125 128 130 111 96 98 99 105 139 155
162 165 156 114 94 61 58 64 54 56 39 46 63 73 99 120
134 117 102 77 59 54 60 52 50 63 65 60 62 59 53 55
56 54 55 47 47 44 51 53 58 61 60 76 78 88 99 114
132 140 140 142 145 141 141 142 144 142 140 141 143 143 141 139
141 143 144 145 145 142 141 145 145 143 142 144 145 144 143 143
144 145 144 143 142 143 143 142 148 142 140 145 147 144 143 146
146 146 147 148 146 144 145 147 145 146 148 148 146 143 145 149
180 180 179 178 178 178 177 176 175 175 175 174 174 174 174 173
173 171 169 169 169 169 168 167 166 168 165 166 166 166 167 164
164 165 166 166 164 162 161 160 161 160 159 158 159 158 156 155
156 158 157 154 153 155 155 153 152 151 152 153 152 152 154 154
153 151 151 151 151 150 151 153 151 147 146 131 99 65 84 121
135 135 105 117 141 138 137 122 106 128 137 150 122 86 90 91
83 81 99 120 123 108 71 113 157 125 133 109 98 127 119 65
62 34 15 14 11 11 21 133 110 62 110 123 170 130 104 111
128 99 90 79 140 158 74 54 138 142 140 183 183 151 98 144
183 171 150 137 125 104 80 110 121 104 121 133 128 142 103 125
174 90 48 53 66 48 65 105 126 133 132 135 92 119 124 111
149 152 143 145 132 116 137 150 131 125 126 154 130 105 118 120
136 167 119 117 159 131 125 151 139 138 134 113 110 101 106 114
127 117 113 107 110 125 114 79 69 79 80 82 115 136 123 124
128 116 104 92 100 117 114 107 116 119 118 110 91 87 95 114
145 168 161 143 118 92 92 120 139 140 139 149 150 131 108 90
85 115 138 158 167 164 153 136 153 184 221 214 194 168 131 126
137 140 138 131 127 122 116 113 121 114 93 78 84 107 133 146
160 155 148 122 82 64 54 58 55 58 56 53 57 62 73 85
93 88 77 69 69 70 65 60 54 54 61 65 64 59 51 49
53 55 52 46 41 43 50 55 53 57 61 72 94 103 119 131
140 139 138 140 140 140 140 141 142 143 143 143 143 142 142 142
144 145 145 144 142 141 141 142 145 145 142 140 142 145 145 143
144 144 144 144 144 144 144 143 143 140 139 141 143 143 143 145
141 143 145 145 145 147 148 148 149 145 143 146 148 146 146 148
179 180 180 180 180 179 178 178 176 174 174 175 175 173 173 173
171 171 171 171 171 169 168 167 169 170 166 166 166 166 168 166
168 167 165 163 162 162 163 164 160 159 159 160 160 160 158 156
157 158 157 154 154 156 156 155 156 154 155 155 153 152 153 152
152 152 153 154 153 151 151 153 152 145 138 109 59 60 104 133
141 116 120 138 131 113 108 128 115 122 136 129 127 116 94 102
139 147 85 100 105 97 103 103 106 118 130 97 108 133 120 56
32 28 17 18 12 62 117 110 70 68 115 166 162 155 160 128
143 174 149 151 178 97 17 66 148 108 122 164 175 152 98 140
142 157 164 161 186 151 140 175 133 107 121 106 156 172 145 160
162 103 119 122 145 106 125 194 162 127 157 170 107 142 154 124
117 118 119 139 131 117 95 132 119 128 128 133 127 83 93 101
121 152 114 137 173 128 133 145 127 123 109 99 122 118 108 103
127 139 137 124 129 134 117 98 83 77 64 71 109 125 114 117
133 117 107 112 110 98 96 102 109 117 116 112 113 104 105 124
142 160 149 117 85 75 87 106 119 123 115 118 127 116 107 115
105 106 124 147 149 145 148 160 178 214 249 238 207 166 117 98
116 126 124 109 98 95 97 101 103 108 97 80 74 88 116 135
143 134 120 99 75 69 66 67 71 73 68 61 57 53 51 55
60 63 67 73 78 73 62 55 49 54 62 63 62 62 55 52
53 55 55 50 45 47 52 57 54 54 56 72 102 118 133 140
141 139 139 140 141 141 141 141 143 143 143 143 143 143 143 143
142 142 142 141 140 140 140 140 142 143 143 143 143 143 143 143
144 144 143 142 142 143 144 144 145 143 142 143 144 144 144 144
145 144 142 143 146 149 149 147 146 145 144 145 146 147 147 147
181 181 181 181 179 178 179 179 177 173 172 175 176 174 173 175
170 171 172 172 170 169 169 168 170 171 168 168 167 166 168 166
168 166 163 163 163 162 161 159 161 160 160 160 161 160 159 158
157 156 156 155 155 156 157 157 155 153 154 155 153 152 153 152
151 152 153 153 151 150 150 152 148 140 109 68 41 54 89 110
97 94 128 148 137 113 78 96 69 96 113 97 128 138 102 107
115 102 100 91 52 50 68 49 78 142 115 142 132 101 106 96
75 35 21 33 96 136 123 81 105 126 124 150 155 187 181 146
158 192 180 183 193 119 60 122 174 165 130 115 146 94 73 101
74 107 152 140 110 144 175 165 91 153 147 92 139 149 118 155
113 102 125 152 142 112 160 179 154 135 131 146 134 167 185 147
134 108 96 130 156 163 102 130 161 146 138 140 149 126 79 75
81 90 102 144 163 131 135 122 107 128 130 122 133 126 119 107
120 141 134 120 131 130 116 125 132 106 79 82 102 100 96 112
117 128 124 118 110 101 96 80 90 111 121 105 100 105 121 128
136 135 112 81 61 74 92 95 83 75 76 87 100 102 102 112
129 122 126 140 145 146 147 174 200 220 246 248 214 150 90 68
80 94 92 81 82 91 98 104 116 122 113 94 79 79 98 114
126 117 98 83 70 71 73 70 84 90 90 81 68 57 53 56
60 63 67 75 79 74 65 61 52 56 63 61 60 60 56 54
53 56 57 54 49 49 52 56 61 59 65 87 117 132 141 138
141 140 140 141 141 141 141 142 144 144 143 143 143 144 145 145
143 142 140 140 140 140 141 141 142 143 145 145 144 142 142 144
144 144 143 143 143 144 144 145 145 144 144 143 144 145 145 144
144 146 147 146 145 146 147 148 144 146 146 145 145 147 147 146
183 183 181 179 178 177 178 178 177 175 174 175 176 174 174 174
172 172 171 170 170 170 170 170 168 170 168 169 169 166 167 164
164 163 162 163 163 163 160 158 164 162 161 159 159 158 158 158
156 155 155 155 155 155 155 156 153 151 153 154 153 153 154 153
152 152 152 151 149 149 150 151 143 122 70 41 52 52 55 63
59 71 103 136 142 114 53 33 35 48 52 74 132 150 123 117
85 105 141 118 42 42 53 75 124 128 125 131 103 99 143 142
148 86 75 107 173 130 93 114 167 168 130 133 149 151 151 152
166 171 150 161 174 120 103 161 191 183 121 100 108 84 133 156
137 81 90 63 54 96 138 106 85 168 155 111 100 106 77 77
63 62 72 99 81 80 87 68 111 99 89 115 130 158 142 141
160 150 121 132 152 137 143 142 166 137 141 145 142 156 110 88
70 54 81 114 132 131 138 123 127 150 155 138 126 123 127 105
103 116 115 113 124 115 108 136 149 135 108 88 84 89 99 104
100 124 133 123 110 104 97 80 92 108 116 107 99 101 112 112
104 102 85 71 61 73 80 72 69 56 63 81 98 109 112 119
133 149 154 149 145 159 167 180 201 206 222 233 198 124 70 56
56 71 77 79 96 112 120 125 134 134 121 103 85 74 80 88
98 96 83 79 71 71 76 75 81 88 91 83 70 60 60 64
68 71 72 75 77 72 64 60 59 58 61 61 59 57 55 59
55 57 59 57 53 52 54 58 62 61 74 104 129 139 144 140
141 141 140 141 142 142 142 142 144 144 144 143 144 144 145 145
143 142 142 141 141 142 142 142 145 145 145 146 144 141 142 146
144 144 145 146 146 145 144 144 142 143 143 142 143 145 146 144
143 146 148 148 145 144 144 146 145 146 147 146 145 146 147 146
183 182 181 180 179 178 178 177 178 179 178 175 174 174 173 171
174 172 171 171 171 171 170 170 167 169 168 169 169 166 166 164
164 163 162 162 163 164 164 164 163 162 160 158 157 157 157 157
156 155 155 156 156 154 154 154 155 153 154 155 153 152 153 152
154 153 152 151 150 151 151 151 143 96 43 42 54 52 42 32
37 52 94 132 124 85 49 45 40 33 47 92 136 152 118 110
94 80 106 101 71 51 79 124 91 95 119 97 109 143 148 147
140 127 166 159 138 114 107 106 161 157 140 119 125 114 95 136
163 172 138 138 132 96 143 180 183 153 123 160 103 131 169 180
160 115 136 152 123 56 64 85 85 95 138 137 86 115 153 111
63 70 58 56 103 144 115 106 132 88 140 157 131 101 113 148
157 156 133 148 119 134 129 112 127 133 133 128 154 142 128 134
139 90 67 80 110 118 140 159 142 144 129 120 128 140 138 106
78 80 93 102 108 100 96 118 135 127 117 102 88 96 114 115
116 110 109 111 119 121 101 83 101 119 110 100 99 99 94 94
93 95 83 76 73 77 70 57 58 56 60 71 94 110 117 136
149 157 159 156 133 128 149 172 177 178 176 166 130 82 60 60
61 80 97 108 123 133 138 144 140 137 124 108 86 66 63 67
76 78 71 75 71 67 71 74 81 83 82 76 67 63 61 61
66 69 68 67 69 70 66 63 61 58 60 61 61 61 59 63
61 61 61 61 58 56 58 62 63 62 75 108 130 137 141 141
142 142 141 141 142 143 143 143 144 144 145 145 145 145 144 144
142 143 143 142 142 141 141 142 145 144 144 145 143 141 141 144
145 146 146 146 146 145 144 144 142 143 143 142 142 144 145 143
144 142 142 143 146 146 144 141 147 146 146 146 145 144 145 147
182 181 181 181 182 181 179 178 175 178 178 175 174 176 176 173
174 173 172 173 173 173 171 169 169 170 167 169 168 165 167 166
165 165 165 164 164 163 162 162 159 160 160 159 158 157 156 157
156 157 157 157 157 155 154 153 155 152 153 154 152 152 152 151
152 152 152 151 151 151 150 148 139 86 35 49 51 57 46 26
29 59 100 127 130 98 72 87 67 58 83 105 126 128 80 124
135 66 40 41 49 97 124 134 93 92 124 117 135 128 135 132
146 157 138 120 113 134 142 121 141 157 137 149 156 140 87 72
128 152 171 146 121 101 132 165 173 130 161 176 116 135 164 166
105 132 160 166 153 99 125 141 126 100 142 143 132 167 152 66
87 131 126 127 143 163 132 122 170 134 147 160 134 119 91 139
176 156 136 142 124 140 139 107 131 145 150 125 149 149 147 139
132 114 117 106 106 112 111 125 134 141 125 119 133 137 131 121
113 99 101 102 106 113 108 112 109 95 103 115 106 101 117 133
121 110 107 106 116 123 108 98 104 115 101 94 95 101 94 83
96 103 92 86 89 96 87 74 60 59 68 86 106 123 137 150
152 158 146 142 136 108 103 118 139 131 115 95 74 62 68 77
81 97 117 133 143 145 145 146 137 128 114 106 94 74 65 65
72 71 67 73 72 69 68 74 83 83 82 76 67 65 65 64
68 68 63 58 61 65 66 65 61 61 63 61 63 68 67 66
70 67 64 62 59 55 55 58 60 61 72 107 131 138 137 139
142 142 142 142 142 144 144 143 144 145 145 145 145 145 144 144
142 143 143 143 143 142 142 142 142 142 143 144 143 141 140 141
147 146 145 145 144 144 145 145 143 144 144 143 143 144 144 143
144 142 142 143 145 146 146 146 146 145 144 145 144 143 144 147
182 182 182 182 181 181 180 180 176 177 177 176 176 178 178 176
174 173 173 173 172 171 170 168 170 170 168 169 167 164 166 166
164 165 166 165 164 162 160 158 159 160 161 160 159 158 158 158
157 159 159 157 156 156 155 152 153 151 151 153 152 152 153 152
151 151 151 150 150 151 150 148 137 97 56 60 64 71 73 55
40 81 106 113 133 104 82 105 100 104 123 123 127 104 44 96
117 75 59 78 127 135 127 120 119 109 130 149 138 136 129 139
135 113 95 94 116 160 166 140 143 129 118 158 168 171 126 100
137 150 162 121 146 177 147 130 122 166 170 185 106 137 184 125
94 146 155 173 144 130 136 158 115 137 159 137 136 162 107 68
117 120 106 143 138 167 138 148 163 124 146 136 126 150 127 126
155 131 120 131 140 162 146 133 127 160 163 110 116 147 142 136
122 117 157 152 109 83 58 69 93 125 136 131 131 128 131 147
131 127 132 129 136 139 113 97 88 75 82 97 105 105 106 119
123 108 99 106 121 125 114 102 102 89 81 101 114 109 96 76
76 94 99 101 102 109 106 97 77 68 80 107 125 137 148 146
146 154 133 102 112 115 107 97 96 83 71 64 63 69 77 84
96 103 119 134 142 144 141 134 118 100 84 88 94 85 77 73
68 68 69 77 82 86 84 92 87 87 87 79 67 63 66 64
64 66 67 68 71 70 65 61 64 63 64 62 66 73 73 73
77 71 65 62 58 52 50 51 53 59 68 101 128 140 141 144
141 142 142 141 142 143 143 142 143 143 143 143 144 144 144 144
143 143 143 143 143 143 143 143 140 142 144 143 143 143 143 142
146 146 145 144 144 144 145 145 145 144 144 145 144 143 143 144
144 145 146 146 144 143 146 149 144 145 144 144 144 145 146 146
184 184 182 180 179 179 180 182 181 179 178 179 179 178 177 177
174 173 172 171 170 169 169 169 169 170 168 170 168 164 165 164
166 165 163 162 162 162 163 163 162 162 162 161 159 159 160 161
157 160 159 156 155 156 155 153 155 152 153 154 153 153 154 153
152 153 152 150 149 150 151 151 141 109 88 77 82 84 114 100
73 80 74 90 122 90 79 98 95 136 151 125 114 111 78 74
113 108 122 133 154 118 70 98 118 124 140 142 144 131 113 124
86 87 88 121 158 140 152 149 148 162 142 153 164 152 144 171
190 166 143 147 168 186 178 112 109 146 168 181 130 142 136 114
143 162 172 155 116 149 171 165 135 147 161 148 119 133 96 93
131 131 99 143 153 178 137 156 140 125 137 132 144 155 182 152
143 154 133 142 147 137 142 150 118 141 147 121 108 106 120 139
116 127 139 140 124 121 92 58 57 101 136 141 135 132 126 128
126 132 136 126 137 146 129 127 111 83 72 87 111 107 88 99
107 108 100 105 121 130 120 94 85 84 76 90 115 106 93 79
72 82 89 102 109 119 117 105 93 86 85 109 130 132 137 141
133 120 126 103 92 101 115 101 90 79 71 64 70 86 96 99
102 104 116 127 130 133 130 121 106 84 64 72 83 79 74 71
67 71 77 84 91 100 96 105 107 102 97 86 74 70 68 62
63 68 74 82 88 84 76 72 68 62 62 64 68 74 77 83
78 70 64 62 58 52 49 49 58 66 70 94 118 134 139 145
140 141 141 140 141 142 142 141 142 142 141 141 142 142 143 144
143 142 140 141 142 143 144 143 142 144 145 143 142 144 146 146
145 145 145 145 145 145 145 145 144 143 143 145 145 144 144 146
147 145 145 146 146 144 143 144 142 145 146 143 144 148 148 145
185 183 182 183 183 182 181 181 182 182 180 177 176 177 176 175
177 176 175 175 173 171 170 171 171 171 170 169 168 167 165 163
165 166 166 166 166 165 164 164 161 161 160 160 159 159 160 160
160 161 159 155 153 155 157 157 155 154 153 153 153 153 153 152
150 156 153 147 149 151 147 142 138 127 120 111 81 95 118 128
117 77 48 84 125 110 100 100 90 138 151 118 103 115 142 109
108 87 120 133 149 130 57 78 97 117 123 133 112 86 92 105
94 102 108 137 128 131 129 152 149 136 146 151 148 105 113 166
179 131 123 144 156 169 166 112 81 120 149 143 133 137 122 90
123 165 133 165 161 155 182 165 144 170 137 90 144 175 121 89
125 151 120 154 159 170 121 97 126 140 145 134 148 154 174 150
145 158 164 137 134 118 142 170 140 106 113 136 136 92 118 132
111 113 134 116 128 144 142 107 64 71 110 123 144 138 123 114
114 137 136 114 132 138 132 152 137 97 79 91 100 111 88 89
111 112 112 102 110 114 110 110 103 98 84 83 92 101 102 91
88 75 84 94 94 107 116 111 102 90 82 90 104 113 117 119
122 116 101 97 80 92 100 90 81 85 78 75 84 96 103 100
92 90 98 107 110 114 111 100 93 76 66 71 76 75 73 71
70 81 85 92 104 113 120 119 124 127 118 101 88 74 69 68
70 78 87 105 110 104 100 90 78 68 63 61 65 73 78 85
82 70 64 65 61 54 51 52 60 67 73 86 113 135 141 141
140 140 140 139 140 142 143 142 141 143 141 141 144 142 140 144
143 141 140 141 142 143 143 144 143 141 143 145 143 139 140 145
144 143 142 142 143 144 144 144 145 143 144 144 142 142 145 146
145 144 143 144 145 145 144 144 148 147 146 145 145 147 146 145
186 184 184 184 184 183 182 182 181 181 180 178 177 177 176 174
175 174 173 174 174 172 170 170 171 171 171 171 171 170 169 169
168 168 167 167 166 165 164 164 164 161 159 159 161 162 161 158
159 160 158 155 154 156 156 155 155 154 153 153 153 153 152 151
154 150 151 153 150 143 136 130 114 115 129 130 102 83 104 135
128 96 44 89 136 142 100 77 74 108 133 113 94 122 149 122
81 66 93 106 129 123 72 74 130 129 86 99 93 73 97 105
104 131 124 148 130 128 133 158 141 132 143 159 158 165 140 122
112 111 168 125 98 148 159 140 125 157 172 137 139 150 144 92
92 117 133 175 168 136 153 141 126 146 88 62 147 146 114 106
124 131 89 109 126 119 112 97 94 116 129 129 121 125 133 140
151 161 152 147 157 143 148 169 124 96 100 104 140 141 109 103
108 99 97 108 130 147 154 141 109 62 59 98 143 138 128 116
116 131 117 111 125 124 134 138 120 92 84 90 84 84 78 93
112 118 111 99 97 96 88 91 104 104 95 91 92 100 108 105
90 82 88 94 88 79 88 112 107 94 81 78 80 82 94 111
124 121 110 100 78 78 77 85 91 96 89 84 85 89 92 89
71 72 80 89 93 99 102 98 87 84 85 87 85 83 82 81
85 92 96 103 116 125 130 135 135 139 129 111 96 81 71 70
80 97 111 127 133 127 119 106 93 75 62 58 64 75 81 86
84 73 66 61 58 53 55 55 62 70 75 85 108 129 138 140
141 141 140 139 141 143 145 145 142 143 141 141 143 142 141 144
141 140 140 141 143 143 143 144 144 142 143 144 142 139 140 144
144 144 144 144 144 144 143 142 144 143 146 147 144 144 146 148
146 146 146 146 145 144 143 143 146 145 143 142 144 145 145 144
185 185 185 185 184 182 181 182 181 181 181 180 179 178 177 175
175 174 174 175 175 174 172 170 171 171 172 171 169 168 167 167
169 169 168 167 166 165 163 162 163 163 162 162 161 160 160 160
157 158 157 155 156 157 156 154 154 153 153 153 153 152 152 151
154 151 151 150 148 145 124 92 81 100 131 132 93 64 79 105
112 93 52 69 117 124 106 79 67 95 116 102 89 96 80 127
64 31 49 41 64 116 123 122 135 129 100 105 95 87 124 117
152 125 101 154 136 138 151 139 119 159 168 140 152 199 168 94
97 137 175 150 109 164 161 143 167 166 129 111 153 143 101 83
90 99 122 139 108 103 136 128 109 94 53 50 66 48 33 50
50 41 27 49 70 103 145 175 140 88 102 83 84 72 72 90
131 115 114 149 163 144 153 141 124 126 112 104 126 155 145 114
137 140 117 124 129 143 147 136 140 108 70 70 104 131 147 128
114 105 98 124 132 108 118 123 108 91 85 79 67 69 81 95
121 127 108 97 92 84 72 76 100 113 118 112 107 112 121 118
94 79 82 89 80 66 62 70 86 86 78 72 70 70 84 106
117 111 99 88 76 72 65 86 100 105 99 91 84 77 76 74
68 70 80 93 102 109 113 112 103 97 96 97 95 93 91 89
89 94 101 112 129 136 134 139 137 142 135 119 101 83 71 73
95 123 140 151 155 148 137 122 103 79 60 53 61 77 87 94
89 78 69 59 55 53 58 58 64 72 77 84 102 123 136 140
140 141 140 140 142 144 145 145 142 143 141 141 143 142 141 144
143 142 142 143 144 143 142 141 144 144 143 143 142 142 144 146
143 144 144 145 144 143 143 143 145 144 146 146 143 142 144 145
145 146 146 145 144 143 142 142 145 144 142 141 143 146 146 144
185 185 186 186 184 182 181 182 182 182 182 181 181 180 179 178
176 175 175 175 176 175 173 172 171 172 172 171 168 166 166 166
169 169 169 169 168 166 164 162 164 164 164 163 161 160 160 161
156 157 157 157 158 158 157 155 154 154 153 153 153 153 152 151
151 151 154 154 144 125 102 83 78 105 134 124 66 58 70 71
84 101 91 89 87 78 90 96 79 98 112 112 86 102 52 58
54 37 60 92 84 119 161 113 83 114 104 113 88 96 144 142
171 157 111 141 138 130 178 133 125 172 171 116 157 180 126 125
159 143 161 158 141 130 129 144 136 92 36 44 81 65 43 39
90 90 61 85 100 74 80 84 92 62 43 20 0 15 38 36
30 46 97 126 110 136 162 184 152 144 144 100 68 55 34 47
80 79 89 137 141 136 158 112 145 152 120 129 133 144 158 121
142 169 140 131 127 140 134 126 145 134 100 67 63 109 154 144
112 102 119 141 136 110 112 126 119 97 76 62 70 90 110 107
112 122 105 100 103 90 76 79 109 129 140 131 118 121 124 115
101 85 84 85 76 65 59 59 63 74 73 64 61 60 66 80
98 97 88 83 78 75 71 89 105 111 108 100 91 81 77 74
72 73 86 108 128 137 136 130 128 112 102 103 103 98 94 93
90 94 102 119 144 153 142 141 136 143 139 127 106 82 70 82
113 147 163 166 164 153 142 129 111 82 60 52 58 75 89 97
93 81 69 62 54 55 57 58 64 72 77 81 97 120 136 141
138 139 140 141 143 143 142 141 142 142 141 141 141 141 142 143
144 143 143 144 144 143 142 141 144 145 144 143 143 144 145 145
142 143 143 143 143 143 145 146 146 144 144 143 140 140 143 144
144 144 145 144 143 143 143 143 146 145 143 142 145 148 148 146
188 188 188 187 186 184 183 184 184 183 183 182 182 182 181 181
177 177 176 175 175 174 174 174 173 174 174 173 171 170 170 171
170 169 169 168 168 167 165 164 167 164 160 161 163 163 160 157
156 157 158 158 158 158 157 155 155 155 154 154 154 153 152 151
152 153 152 149 133 102 86 93 107 125 134 106 58 73 86 67
82 115 131 138 121 75 70 92 90 92 138 118 73 147 73 38
73 100 105 126 102 87 111 112 109 128 110 104 108 165 151 149
164 149 112 164 143 150 167 145 154 152 141 138 142 127 125 149
137 120 120 103 93 63 87 100 84 37 58 66 79 55 39 71
104 114 149 133 134 128 120 95 131 152 136 115 75 104 130 130
99 122 173 180 130 134 151 138 125 159 165 149 120 138 132 109
113 96 45 83 109 117 149 130 144 154 134 127 136 140 129 118
141 160 120 110 135 141 112 118 132 119 118 101 67 89 138 152
145 122 131 145 143 117 105 117 108 81 65 74 106 124 125 101
111 118 100 94 108 99 92 97 118 136 153 146 126 118 114 106
99 90 79 76 78 67 57 68 68 79 76 64 58 54 57 69
86 99 99 96 83 73 79 90 108 118 120 116 108 97 89 81
68 67 84 116 143 156 153 144 137 124 114 110 105 97 92 90
87 86 92 117 153 166 153 142 135 142 141 132 105 75 62 86
128 162 176 172 163 148 138 128 106 75 54 50 60 80 94 100
92 80 65 65 55 57 55 58 66 72 76 80 93 117 135 140
140 139 140 142 143 142 140 139 141 141 141 141 140 141 142 142
142 142 142 142 143 143 144 143 143 145 144 143 142 143 143 142
141 142 143 143 142 143 145 147 145 144 144 143 142 143 146 146
145 145 145 144 144 144 145 146 147 145 144 144 146 149 149 147
190 190 189 189 188 186 186 186 186 184 184 184 183 182 182 182
180 180 179 177 176 176 176 176 173 174 174 173 172 171 171 172
170 168 166 165 165 165 165 165 166 164 162 162 162 162 160 158
158 159 160 159 158 157 155 154 155 155 155 155 155 154 153 152
152 154 148 139 118 83 75 100 137 144 129 84 67 98 109 78
58 94 126 148 152 95 70 96 97 90 131 113 68 152 111 68
98 109 103 104 93 93 86 100 113 122 120 110 122 154 155 170
144 142 138 151 125 101 123 162 140 124 155 154 112 85 126 128
100 73 26 24 43 74 90 115 127 143 138 146 173 156 139 143
117 167 144 121 167 166 156 130 140 148 164 151 143 154 161 127
100 129 161 182 139 154 135 107 102 129 154 132 151 157 169 177
153 140 70 45 80 85 133 143 135 151 151 126 112 104 92 117
143 149 104 85 111 106 85 116 126 119 134 140 112 91 106 143
154 127 122 146 154 120 98 97 84 60 54 79 114 120 113 98
104 99 78 73 101 102 96 97 105 114 133 134 115 105 107 113
105 91 76 68 73 74 64 61 80 85 83 76 69 61 66 82
89 102 103 98 81 71 86 99 121 137 143 139 130 115 95 77
60 57 79 118 147 163 165 155 140 132 121 109 100 95 86 74
68 63 71 111 156 170 156 135 133 140 141 132 100 67 53 84
135 167 180 173 157 141 132 121 95 63 45 48 64 87 100 102
93 81 66 65 55 56 55 60 71 77 80 81 91 115 135 140
143 141 140 141 142 142 141 141 140 139 141 141 140 142 143 142
142 142 142 141 141 143 143 143 142 143 144 144 143 143 144 144
141 143 144 145 144 144 144 145 146 145 145 146 145 147 147 144
145 145 145 144 144 144 145 145 146 145 144 144 145 147 147 146
194 192 191 191 190 189 189 189 188 186 186 186 185 183 182 182
182 183 181 180 179 179 179 178 175 175 174 173 172 171 170 170
171 169 167 166 165 165 165 164 163 165 166 164 160 158 159 161
161 160 160 160 159 158 156 155 155 156 156 155 155 154 153 152
152 149 145 134 99 59 70 116 149 146 129 90 73 101 121 102
68 82 91 122 148 140 99 95 103 115 121 86 62 112 111 125
97 111 84 98 127 129 101 84 99 123 169 135 135 144 141 143
128 150 139 137 125 126 130 116 130 116 156 150 91 44 102 84
97 83 69 127 137 105 152 187 186 177 142 150 177 191 165 149
149 201 169 150 164 156 154 120 144 136 153 146 127 158 151 87
86 150 156 174 117 117 89 105 118 122 142 122 136 142 146 159
163 165 132 81 90 71 110 153 152 153 156 163 125 90 97 123
149 146 126 103 81 66 72 101 114 111 124 143 142 108 98 127
119 118 123 142 146 115 94 79 60 64 76 90 102 99 93 94
97 91 75 77 108 117 102 99 96 93 106 106 91 90 104 119
113 94 81 71 69 79 81 72 79 82 84 83 76 67 69 80
90 91 88 82 73 69 89 115 146 166 173 164 149 127 96 66
45 40 68 115 147 167 170 157 143 135 123 110 103 98 82 61
51 43 53 110 160 171 161 135 137 145 145 134 100 67 49 81
135 166 178 170 151 136 127 112 89 59 46 52 68 90 103 105
103 91 78 64 54 51 58 64 75 81 85 82 86 109 132 140
144 141 140 141 142 142 142 142 140 139 141 142 141 143 145 142
143 144 143 142 141 142 142 142 143 143 144 144 143 143 144 147
143 144 145 145 145 144 144 144 148 146 145 146 146 148 146 141
145 144 144 144 145 145 144 144 145 145 145 144 145 146 146 145
197 195 193 193 193 193 193 193 189 188 188 188 187 184 182 181
182 182 181 180 180 181 180 177 177 176 175 174 174 173 173 172
172 171 171 170 170 169 166 164 165 165 164 163 162 161 160 160
162 160 159 160 161 160 158 156 155 156 156 156 155 154 153 152
153 152 142 115 78 62 86 123 143 131 130 116 69 81 116 130
109 113 132 123 145 154 139 108 111 112 102 116 99 88 117 111
82 117 121 121 114 94 87 107 136 131 141 140 147 131 119 136
113 126 130 118 134 141 76 86 75 61 65 60 63 48 74 108
125 115 158 187 151 103 168 162 121 137 157 148 158 173 139 121
165 189 149 122 142 134 149 118 136 146 143 141 115 114 109 44
71 142 105 139 125 106 91 113 154 145 113 110 141 141 144 143
154 167 147 124 145 140 99 107 134 140 139 166 135 112 129 127
138 118 138 157 119 105 111 93 78 89 113 124 124 126 131 121
119 107 113 131 131 96 68 53 60 93 112 99 88 88 92 102
105 101 84 79 95 106 94 99 101 99 110 107 92 93 99 103
98 78 66 71 83 84 77 78 76 80 85 86 82 77 76 77
83 77 76 70 67 66 85 126 159 182 188 174 155 129 91 54
30 23 56 111 150 173 174 156 142 136 129 121 114 104 83 62
46 33 42 108 160 170 167 142 140 150 148 133 98 66 45 73
135 164 176 166 146 135 126 106 77 54 48 58 73 96 115 121
115 102 90 64 53 47 61 65 74 81 85 80 80 103 128 138
141 139 139 141 142 142 141 141 140 139 142 143 141 144 146 142
142 144 144 143 143 144 144 143 146 146 145 145 142 139 141 144
145 145 144 144 144 145 146 146 148 145 144 145 146 149 148 143
144 144 145 146 147 147 146 144 145 146 146 145 145 146 146 145
199 198 197 196 195 194 194 194 190 192 192 189 187 187 186 184
183 184 184 184 184 183 182 181 178 178 175 176 178 175 172 175
174 172 171 171 170 167 166 166 166 167 167 165 163 162 161 162
163 162 161 162 161 159 158 158 157 156 155 155 155 154 152 150
149 141 122 86 73 101 118 131 122 110 121 95 60 71 103 138
129 140 155 139 147 134 109 84 61 85 109 108 131 109 119 92
59 124 104 115 124 92 102 175 140 116 103 132 128 108 126 151
119 116 120 102 108 123 80 46 12 23 24 62 87 97 121 156
112 115 150 192 152 87 102 81 132 161 187 176 123 141 124 89
133 126 141 128 108 104 171 121 99 135 137 160 125 72 41 31
44 94 116 155 161 184 193 99 94 140 153 114 124 132 127 139
138 158 156 143 162 180 133 61 63 73 126 137 98 147 157 120
120 108 141 156 143 139 150 115 83 93 103 98 106 145 149 135
134 113 105 112 107 66 50 64 98 122 129 115 94 88 104 113
117 109 95 93 94 96 91 97 119 120 117 106 103 99 101 90
82 79 75 72 75 84 88 83 84 90 88 85 81 86 81 81
80 74 69 65 69 62 77 128 170 192 192 178 153 120 77 47
30 26 40 106 150 174 178 159 142 133 131 131 128 118 92 60
40 35 38 94 158 174 174 154 154 159 151 132 95 62 42 72
131 163 172 163 147 135 119 106 73 49 49 58 76 99 120 128
123 115 101 75 56 46 61 76 85 82 84 78 79 107 130 135
137 138 140 141 141 142 144 145 142 140 142 145 144 142 143 142
140 141 142 142 143 144 144 143 146 143 141 144 146 142 140 145
143 144 145 144 145 146 145 143 145 146 146 147 147 147 147 147
143 146 145 145 147 148 147 148 148 147 146 146 146 144 143 144
203 202 201 199 198 196 196 195 195 195 195 193 192 191 189 188
186 187 187 186 184 182 181 181 184 181 178 177 178 176 175 178
175 173 171 172 171 170 168 167 169 169 169 167 165 164 164 165
164 163 163 163 162 161 160 161 160 158 156 155 155 155 155 154
146 129 89 64 89 122 143 135 99 101 109 67 60 77 108 123
115 82 77 108 133 110 102 61 50 94 116 103 174 137 120 132
96 123 99 113 152 125 141 156 112 106 123 132 129 129 98 76
72 67 63 64 42 40 34 24 41 74 127 155 109 93 155 163
89 107 158 157 132 119 127 106 156 165 205 178 153 167 183 133
85 133 174 171 113 132 184 134 64 142 165 182 158 91 77 79
84 152 144 148 158 165 165 156 91 136 180 146 88 128 130 141
136 154 142 139 147 123 114 123 86 54 76 109 103 156 167 110
82 110 144 147 133 134 151 128 121 130 98 70 92 118 126 151
145 123 109 98 74 57 70 105 121 127 132 128 109 91 97 110
117 103 75 75 89 81 89 114 126 127 116 106 103 105 98 83
83 89 89 80 73 78 84 84 85 88 85 83 79 84 82 84
86 83 75 60 56 51 68 126 173 195 194 178 148 112 70 44
35 29 36 96 155 180 180 164 149 139 137 140 139 128 98 62
39 29 31 88 155 172 176 168 169 170 155 129 89 56 37 63
132 163 172 165 145 135 122 101 66 46 49 57 75 98 120 129
130 125 108 82 56 50 65 84 89 84 84 81 81 107 129 137
138 139 140 141 141 141 142 142 141 140 142 143 142 141 142 141
141 142 143 143 143 144 142 140 145 144 142 143 146 145 143 144
143 145 146 145 145 145 145 144 142 143 144 145 145 145 145 145
144 147 146 144 145 145 145 146 146 145 145 146 147 147 147 149
206 205 204 203 201 200 198 198 199 198 197 197 196 194 192 192
190 191 191 189 186 184 183 183 185 181 179 180 179 179 180 181
177 175 173 173 174 173 171 170 171 171 170 168 167 166 166 166
164 163 163 163 163 162 161 162 160 159 159 159 158 157 155 153
146 118 64 59 101 133 145 111 100 118 110 72 53 88 115 121
113 92 58 74 103 115 116 60 65 75 124 144 154 99 125 121
108 120 129 158 129 112 135 91 90 110 106 109 119 98 38 61
51 60 97 121 70 43 76 119 114 120 119 161 104 105 161 149
92 90 129 142 147 170 176 121 141 178 172 138 143 157 205 163
121 143 168 181 148 131 168 173 100 147 151 166 133 120 135 120
99 151 140 133 135 130 134 144 122 126 144 132 145 164 154 118
141 150 108 110 104 82 122 144 163 148 115 98 112 138 128 104
96 115 143 144 127 133 140 116 136 154 120 93 113 109 110 144
150 124 96 73 63 89 113 131 127 124 125 117 100 88 85 89
96 101 78 62 65 59 85 113 134 140 126 116 107 103 88 76
79 84 82 72 68 74 81 82 81 84 84 84 78 82 90 101
113 108 98 73 57 42 56 127 173 195 194 176 144 107 69 47
36 31 31 82 153 180 180 169 152 145 145 151 152 137 100 61
38 27 28 80 149 169 173 174 169 167 151 125 85 53 33 51
125 161 171 165 142 131 122 94 59 44 49 59 75 94 115 124
126 125 109 87 61 59 69 84 86 83 84 84 84 109 129 141
140 141 142 143 143 142 141 140 142 141 142 142 141 142 143 141
141 142 143 143 143 144 143 141 145 146 143 143 146 146 143 141
142 144 145 145 144 144 144 144 142 143 144 144 143 142 142 142
144 147 146 144 144 144 144 146 145 145 145 145 145 145 146 148
207 206 205 205 204 203 202 201 202 200 199 200 199 196 195 195
194 194 193 192 190 188 187 187 185 181 182 184 182 182 183 181
179 178 176 176 176 176 174 173 172 172 171 170 169 168 167 167
165 164 164 163 163 163 162 162 161 161 161 161 160 159 156 153
146 115 58 61 94 120 113 87 110 130 121 99 56 93 125 133
139 145 118 98 83 100 113 101 102 73 148 112 64 82 99 112
106 122 132 97 84 96 107 105 58 69 72 78 91 82 74 124
122 94 99 129 126 91 114 152 98 96 137 145 131 99 145 171
154 153 156 130 143 163 185 159 122 146 112 116 160 166 177 131
138 131 150 193 146 118 154 136 88 155 149 121 111 94 84 93
92 143 135 116 92 75 126 124 118 88 105 124 154 158 144 127
159 121 114 112 66 85 132 136 158 162 159 119 105 104 105 144
144 132 135 134 128 145 139 122 137 152 143 139 149 129 119 122
132 105 68 55 77 126 147 137 125 128 136 124 99 84 77 81
82 96 102 91 68 49 70 96 121 136 132 122 106 92 80 77
83 80 72 67 70 75 76 76 79 85 87 81 71 79 107 130
144 142 132 97 67 43 49 124 171 193 190 172 139 104 68 49
38 34 34 73 144 171 179 171 158 153 153 157 155 136 97 59
37 31 33 78 146 169 169 169 163 159 145 122 87 57 36 45
115 160 171 164 142 128 118 89 55 43 49 64 80 93 110 118
122 119 104 86 68 68 72 78 77 78 81 84 84 109 128 139
142 142 142 143 144 143 141 140 141 141 142 142 141 144 146 143
142 142 142 141 142 144 145 144 144 145 143 143 145 145 142 141
143 144 145 145 144 144 144 144 144 144 145 144 143 142 142 142
145 147 146 144 145 146 146 148 146 146 146 145 143 143 144 145
208 208 207 207 207 206 205 204 205 203 203 204 202 199 198 199
197 196 194 193 193 192 190 189 189 186 187 188 184 183 183 180
181 181 181 179 178 177 176 176 175 174 174 174 173 171 169 168
168 167 167 166 165 165 164 164 165 163 161 159 159 159 157 153
136 103 62 64 88 106 83 80 112 132 145 134 105 106 124 113
126 143 149 121 70 66 114 165 97 67 129 50 34 50 77 90
95 130 121 83 72 53 78 94 82 100 81 60 116 120 127 163
146 81 87 129 128 116 141 116 83 116 140 140 112 78 123 175
156 145 181 149 135 141 163 193 137 69 68 79 112 134 136 104
136 140 148 164 145 76 74 143 132 91 92 95 128 87 63 86
67 117 126 100 115 116 123 128 111 110 103 127 145 155 135 114
144 117 166 176 116 114 137 136 130 134 135 151 135 85 107 140
165 156 128 113 113 126 127 128 131 141 136 142 153 128 101 77
74 75 65 71 96 123 150 150 121 116 132 133 96 58 56 82
102 114 127 117 83 60 61 84 109 126 127 110 96 78 72 70
62 60 58 63 71 76 80 86 84 90 86 70 57 73 123 158
172 173 158 115 76 49 49 117 170 190 185 164 131 97 63 45
45 38 38 68 132 164 180 173 170 166 162 158 149 126 89 58
37 33 36 81 150 172 169 164 159 149 133 113 84 56 37 39
99 155 166 158 140 122 108 85 56 43 48 68 88 96 110 118
124 116 103 82 73 71 75 75 72 77 84 85 89 114 131 141
141 140 140 141 142 142 142 141 141 141 141 141 140 143 145 142
141 141 141 141 142 144 145 145 142 142 142 144 146 144 142 145
145 144 144 145 146 146 146 146 144 144 144 144 144 145 145 146
145 147 145 144 146 148 147 148 146 146 146 145 144 145 146 147
213 212 211 210 210 210 209 208 207 206 206 206 204 201 201 202
200 198 196 196 196 195 193 190 192 190 189 188 186 185 185 184
184 184 184 182 180 179 179 178 177 176 176 175 175 173 172 170
170 170 169 168 167 167 166 166 165 164 162 161 160 156 147 138
119 73 57 69 94 118 106 95 114 137 155 152 151 136 129 100
96 130 150 127 90 54 83 125 68 39 111 47 13 34 58 46
60 107 90 75 113 94 107 121 129 121 83 126 157 106 118 171
164 107 146 157 106 115 144 109 124 126 111 134 147 120 111 156
124 130 171 147 90 124 142 168 164 129 171 129 86 150 183 139
127 163 151 143 120 70 124 161 168 94 105 134 121 103 70 81
35 110 125 115 125 140 126 67 126 123 98 125 148 156 156 106
108 144 165 138 140 138 133 133 117 127 161 168 143 112 125 142
161 163 132 122 107 98 111 114 139 156 135 126 136 104 67 54
60 89 108 111 109 110 143 161 131 106 108 116 87 53 65 102
126 134 138 123 94 68 50 74 108 119 114 92 82 71 67 57
52 48 44 50 60 62 67 79 89 94 88 67 50 70 133 176
193 182 158 121 79 45 41 109 166 185 178 156 125 94 62 43
45 36 37 62 124 164 185 179 175 172 165 156 140 112 75 46
39 33 37 87 153 171 169 162 147 133 118 105 83 57 39 34
86 142 155 149 134 116 100 84 62 49 51 71 91 96 109 116
116 110 100 83 77 72 74 72 66 73 82 84 95 119 136 143
141 140 140 141 141 142 143 143 142 141 142 142 141 143 143 140
140 141 142 142 143 144 143 141 143 143 143 145 146 143 143 146
145 144 143 145 146 146 145 145 145 144 144 144 145 145 145 145
146 147 145 144 147 148 146 146 146 147 146 145 145 146 147 146
218 216 215 214 214 213 212 211 210 210 209 207 206 206 205 204
203 201 200 200 200 199 197 194 195 195 192 190 189 189 189 190
187 188 187 185 184 183 182 181 180 179 177 176 176 175 174 173
173 173 172 170 169 169 169 168 164 165 164 161 156 143 123 107
85 57 56 97 136 154 126 82 107 126 135 142 149 159 160 140
118 128 120 107 102 68 63 80 85 48 97 97 33 55 48 66
97 125 127 122 152 71 74 87 121 127 105 148 133 89 89 123
120 127 148 130 112 106 118 128 144 174 123 144 166 145 98 99
118 152 159 145 108 121 137 167 115 144 192 183 113 151 199 164
44 92 128 128 80 107 179 143 112 122 146 122 62 90 85 67
40 105 128 119 117 107 94 98 156 146 117 135 156 148 140 154
108 144 139 73 119 168 122 117 88 140 158 132 129 134 134 116
124 137 136 141 131 125 130 122 137 148 119 96 89 67 55 72
103 119 137 131 110 106 123 139 120 91 78 84 77 73 94 116
119 117 124 128 110 70 48 70 98 101 93 80 70 63 59 51
46 42 37 42 53 55 60 72 89 103 108 89 63 70 133 177
192 175 145 115 75 42 38 98 158 179 173 150 121 95 65 46
40 37 40 65 127 170 190 187 178 171 158 143 126 98 62 37
36 34 39 91 155 174 175 162 141 122 107 100 85 63 47 39
74 121 138 135 124 111 97 85 70 61 61 75 92 95 106 110
107 102 93 84 78 75 73 71 64 67 81 85 105 122 136 139
141 141 141 141 142 142 143 144 143 140 141 143 143 142 142 140
141 142 143 143 143 144 142 140 144 145 144 144 145 144 143 144
145 144 144 145 145 144 144 145 146 144 143 144 145 145 144 142
145 147 146 145 147 147 145 145 147 147 146 145 145 146 145 144
219 218 216 216 216 216 215 214 213 214 212 210 209 210 209 207
205 205 204 204 204 203 201 200 200 201 197 194 195 193 191 193
190 190 189 188 187 187 186 183 184 182 179 178 178 178 177 176
176 176 175 173 172 173 172 171 169 167 163 157 147 128 103 82
95 91 56 99 153 164 113 64 92 106 127 138 142 167 188 175
152 125 96 88 87 88 74 75 104 71 121 124 106 102 82 89
87 120 160 117 88 57 59 80 141 133 127 99 107 127 90 81
141 154 108 108 158 131 140 127 143 162 117 149 164 153 98 113
94 117 126 111 144 139 153 140 77 127 164 191 138 133 162 123
31 39 49 51 120 151 147 106 32 61 115 92 96 69 77 59
54 56 86 80 85 101 94 92 91 128 138 136 125 97 136 174
143 125 113 73 89 156 125 109 107 150 170 145 126 150 159 87
65 98 125 127 146 166 150 138 121 116 94 76 54 52 73 102
111 98 116 127 111 104 92 95 85 69 61 70 74 86 108 112
100 96 108 117 109 85 77 75 86 84 78 76 58 45 40 40
43 45 44 46 50 46 46 56 88 113 132 119 82 71 125 168
182 175 144 109 75 56 52 92 153 175 169 146 118 95 67 48
41 47 51 75 136 177 193 193 184 170 146 126 110 87 58 38
31 36 42 93 157 181 186 164 144 118 99 91 80 61 50 42
57 95 115 117 107 101 90 78 74 71 70 80 95 97 107 108
110 102 87 82 77 79 76 75 75 75 90 97 121 131 140 140
140 140 141 141 141 141 141 142 141 138 139 143 142 141 140 139
143 143 143 143 143 144 144 143 142 145 143 141 144 146 144 143
147 147 147 147 146 144 145 146 144 142 142 144 147 147 144 141
143 146 146 146 147 147 145 145 147 147 146 145 146 148 147 144
221 220 220 218 218 218 218 218 215 215 216 216 215 214 213 213
209 208 208 208 206 204 203 204 202 202 201 199 197 196 196 196
197 193 192 193 191 190 190 188 186 184 184 184 182 179 178 179
181 179 177 176 178 176 171 173 172 169 155 148 128 119 117 107
119 99 64 99 138 148 93 55 88 124 156 160 134 137 166 158
136 98 80 97 87 111 79 54 72 96 90 99 108 87 130 73
74 116 102 109 90 76 104 109 96 136 139 114 185 165 70 100
178 157 123 138 165 125 96 125 170 147 128 172 165 113 137 184
109 51 117 131 97 122 147 83 76 142 156 118 106 131 142 101
111 179 107 21 125 128 109 97 85 59 103 103 114 93 75 56
42 70 91 75 80 84 104 104 84 104 127 127 98 87 133 154
147 83 97 63 98 133 109 140 150 143 170 154 127 143 153 97
62 79 120 127 131 156 179 155 114 95 73 61 69 98 119 114
87 73 81 100 103 99 80 71 72 74 69 61 67 100 104 87
83 76 75 94 108 105 100 98 84 67 62 58 49 44 38 46
60 73 73 73 62 43 43 47 89 136 161 140 105 77 112 169
185 172 138 113 75 61 58 89 151 174 162 138 115 93 67 48
41 52 62 84 137 178 196 195 182 166 143 119 102 75 54 40
36 38 38 91 150 186 180 173 148 118 97 86 76 63 47 44
56 72 79 95 93 93 89 74 74 75 79 83 99 105 109 107
106 97 87 83 82 79 78 77 83 89 102 120 132 137 139 142
141 142 141 141 142 143 142 139 141 141 142 142 144 145 142 144
144 143 141 141 142 142 142 142 144 144 143 143 143 143 144 144
146 147 147 147 146 146 146 146 143 143 145 148 147 144 144 145
150 151 147 147 149 146 147 146 147 146 145 146 147 147 147 148
222 222 221 221 220 219 219 219 216 217 217 217 216 215 214 214
212 212 211 211 209 206 205 206 205 204 203 202 201 200 199 199
198 194 194 195 193 192 192 190 190 188 188 189 187 184 183 184
184 181 179 179 180 178 175 176 173 167 154 115 100 121 143 115
105 93 81 81 131 136 100 71 113 153 176 171 131 93 100 96
102 78 74 77 89 126 111 80 81 83 48 62 71 54 108 79
110 92 84 147 107 92 79 81 64 152 158 120 128 93 80 126
186 140 137 147 168 97 88 147 163 128 117 132 133 122 140 186
120 95 162 175 88 26 39 48 70 153 133 111 126 104 97 121
177 163 123 49 36 86 71 63 71 86 106 94 68 62 51 45
81 107 118 107 89 101 112 116 104 97 130 114 104 123 119 121
153 105 81 81 109 100 96 143 159 120 127 115 101 112 113 107
124 92 99 121 127 143 170 149 85 76 59 66 108 147 150 114
79 67 59 87 91 69 68 87 105 113 95 66 78 101 94 77
63 66 68 77 92 105 112 107 76 54 49 54 47 41 51 72
95 104 101 101 86 56 45 43 92 144 165 154 115 82 118 164
184 175 143 115 81 62 54 82 142 166 159 129 100 86 65 50
51 59 65 86 137 177 195 195 181 159 130 103 87 66 52 42
39 40 39 86 142 173 184 171 144 112 91 79 70 62 52 49
58 73 77 87 89 90 85 77 73 79 87 90 102 104 105 103
104 93 83 78 77 79 82 85 99 108 122 132 139 141 142 141
141 142 142 142 143 144 144 142 140 142 144 142 143 143 141 146
143 143 143 143 143 143 144 144 145 145 146 146 146 145 144 143
146 145 145 145 146 146 146 145 146 145 146 147 146 143 144 146
146 149 145 146 147 145 146 146 144 146 147 146 147 148 147 144
225 225 224 224 224 223 222 221 220 220 220 220 219 217 216 216
216 215 214 214 212 209 208 208 208 206 205 204 204 204 203 201
200 198 198 198 197 196 196 194 193 192 192 193 192 189 188 188
187 184 181 181 182 180 179 179 173 163 137 102 98 134 137 105
86 98 115 96 90 116 116 114 130 143 154 161 144 89 70 76
90 103 95 98 75 93 124 102 73 76 119 109 102 65 84 105
95 60 73 116 121 121 93 85 81 111 108 116 89 80 103 136
145 117 123 158 164 105 136 138 98 72 98 114 75 109 136 160
116 116 123 147 89 71 118 167 125 81 99 163 195 144 86 137
121 92 78 69 54 44 47 50 41 78 68 33 63 69 55 64
77 97 112 116 106 121 145 140 128 162 200 168 126 131 111 113
125 142 128 121 99 89 103 130 161 127 97 94 114 108 91 124
151 118 109 116 108 106 112 94 58 58 81 116 139 149 154 121
79 69 55 76 84 76 88 109 126 139 122 82 87 101 92 73
60 61 66 76 79 83 90 89 77 58 51 55 45 44 80 116
133 137 128 122 103 67 48 44 69 131 160 157 122 86 112 165
183 176 146 114 85 63 53 75 134 157 155 125 94 80 60 48
59 64 66 86 137 176 194 192 177 146 111 83 72 60 53 46
39 38 39 67 126 159 173 162 138 107 85 73 65 61 55 49
58 72 79 86 90 92 84 79 72 79 88 94 105 106 104 102
105 95 84 79 79 84 92 98 115 127 139 141 141 143 143 140
140 142 143 143 144 144 144 143 141 142 144 141 142 143 141 144
143 144 144 144 144 143 143 143 144 145 146 146 146 146 144 143
146 144 143 144 146 147 146 144 147 146 146 146 145 144 144 146
144 147 145 145 145 143 145 146 144 147 147 146 146 148 146 143
227 227 227 227 226 226 225 225 224 224 223 223 222 220 219 219
218 217 216 216 215 212 210 210 211 209 208 207 207 207 205 204
204 202 202 202 200 200 200 197 196 195 195 196 195 193 191 190
189 186 184 185 184 182 182 180 172 161 137 111 107 135 126 107
87 111 134 93 62 112 148 148 126 117 120 132 144 115 92 100
108 125 138 124 82 91 126 120 87 63 139 143 176 121 52 105
126 49 96 87 128 110 81 115 101 74 93 163 121 107 131 116
86 91 113 135 148 98 87 77 99 144 151 147 91 103 131 135
86 117 147 121 102 156 163 164 117 83 134 110 104 131 64 45
91 59 51 78 84 56 97 69 34 58 83 56 55 65 57 57
61 79 98 113 117 156 198 175 188 219 221 208 184 179 145 122
96 94 86 113 131 147 126 124 144 146 86 97 156 144 118 126
137 142 135 115 95 77 59 60 75 104 141 140 128 136 144 113
94 69 61 80 87 91 93 99 102 115 123 101 90 99 95 73
56 54 64 77 72 65 69 71 70 63 56 48 36 49 114 160
174 174 157 142 122 88 64 56 63 122 154 147 114 78 92 165
179 168 141 107 82 62 56 70 126 150 143 119 94 76 56 47
60 62 61 84 138 177 193 188 167 130 94 69 65 59 54 48
39 35 38 44 104 147 150 148 129 100 79 70 64 63 59 50
51 60 69 73 78 85 81 77 77 79 85 95 107 108 106 105
111 104 96 90 89 94 103 111 126 136 143 142 140 142 143 142
141 142 143 143 143 142 142 142 143 141 140 139 143 145 140 141
142 142 143 144 144 143 142 141 143 144 144 144 144 145 146 146
146 144 143 144 146 147 147 145 145 145 146 147 147 145 146 147
145 148 145 145 146 144 146 146 147 148 147 145 145 146 146 145
229 229 228 227 228 228 228 228 226 226 226 225 224 223 222 221
220 219 218 218 217 215 213 213 214 213 212 211 210 209 208 207
207 205 206 205 203 203 202 200 199 199 198 199 198 196 194 193
192 192 189 191 189 186 185 177 167 145 135 109 115 139 130 93
76 112 124 93 71 125 156 145 109 114 115 117 129 128 123 111
92 116 146 126 126 121 130 116 97 85 133 89 190 122 78 104
107 56 58 78 158 90 75 165 82 36 97 179 141 87 107 115
134 130 98 88 164 135 91 121 167 171 171 142 80 103 125 100
42 64 102 67 124 141 115 130 83 81 118 82 63 80 55 26
45 64 62 53 66 96 82 48 37 58 77 48 49 47 42 53
53 56 104 147 138 178 202 189 203 214 215 209 212 223 198 164
120 100 98 105 116 144 149 128 130 140 92 111 146 132 142 130
117 130 115 97 83 60 61 92 126 135 149 129 113 109 115 131
124 99 81 87 91 94 86 74 76 90 115 119 99 94 80 59
51 56 64 71 67 68 75 71 73 72 60 41 28 51 131 183
199 197 173 150 135 108 78 62 77 117 138 133 100 69 86 152
166 151 130 99 76 60 55 61 107 138 126 107 92 72 55 48
59 59 55 82 141 178 193 183 159 117 84 65 64 59 52 47
43 35 37 36 74 124 134 131 113 87 66 62 63 67 66 58
54 53 57 55 59 73 81 79 81 82 86 99 108 109 107 110
120 117 111 106 103 106 115 124 135 139 142 142 141 142 143 143
140 142 143 143 142 141 141 142 144 142 141 140 143 145 141 142
141 141 141 143 144 144 142 140 144 144 144 142 142 144 146 147
146 145 145 145 146 147 147 147 145 145 146 147 147 146 147 148
145 148 144 146 148 147 148 148 150 147 145 146 146 145 146 148
231 230 228 228 229 229 229 229 228 227 227 226 225 224 223 223
223 221 219 220 220 219 217 216 216 215 214 213 212 211 210 209
209 208 209 208 205 205 205 202 202 201 201 200 200 198 196 195
196 197 194 196 193 189 184 166 146 117 97 91 117 135 100 57
65 85 105 117 94 118 138 130 110 116 110 123 129 129 123 83
79 127 136 117 123 107 100 120 107 69 88 81 178 115 110 122
80 90 74 56 85 61 80 126 55 70 129 125 116 146 129 117
151 168 124 101 118 135 121 94 77 144 125 104 65 72 84 64
32 67 103 91 137 100 87 113 87 86 79 58 53 51 79 78
56 72 62 55 54 43 43 51 50 68 80 62 63 46 47 50
41 33 144 195 179 197 195 189 204 218 212 195 213 225 195 116
159 136 109 98 101 107 135 111 89 71 81 128 114 92 135 138
106 86 56 70 93 88 108 131 120 107 111 99 88 93 98 124
152 138 95 91 94 88 86 76 76 89 112 130 119 99 68 53
62 68 73 76 75 79 85 80 89 85 69 45 32 49 128 188
203 199 169 140 133 120 93 77 98 108 98 95 72 61 105 141
148 135 117 94 75 60 51 51 77 114 110 97 87 71 52 45
60 59 54 85 145 179 191 177 152 109 82 69 66 58 49 47
45 37 37 41 47 87 114 105 93 71 49 50 59 65 68 64
65 60 55 48 54 67 81 81 78 82 87 99 107 112 112 118
129 129 126 121 118 120 128 135 140 140 141 142 143 143 142 142
141 141 142 143 143 142 143 144 142 143 145 142 143 143 141 145
144 143 142 143 144 144 141 139 142 144 144 143 142 143 144 143
146 146 146 146 146 146 147 147 147 147 146 146 145 145 146 148
145 147 144 146 149 148 149 149 150 146 146 148 148 146 146 149
233 232 231 231 231 231 230 230 230 229 228 227 227 226 225 225
226 223 221 222 222 221 220 219 219 218 216 216 216 215 213 211
211 211 212 211 208 208 208 205 205 204 203 203 203 202 200 199
200 201 196 198 196 191 179 151 115 91 70 88 110 103 61 51
50 55 108 143 128 107 121 111 92 73 68 107 128 134 107 56
76 128 129 104 93 95 62 120 108 56 64 62 154 173 149 77
71 140 100 60 97 92 74 84 58 116 96 92 87 133 126 55
106 151 111 79 91 144 96 67 61 66 57 64 70 111 142 151
137 167 189 154 130 120 102 75 73 79 66 52 63 56 61 59
57 61 91 73 68 48 51 73 70 65 63 73 60 58 49 41
24 25 169 199 182 194 185 151 178 216 183 184 218 211 156 64
146 180 149 112 96 97 109 112 78 47 79 142 139 130 140 134
90 55 57 105 151 142 123 113 100 76 85 93 80 89 87 94
104 95 81 118 134 108 94 87 77 85 100 118 124 103 73 64
72 76 80 89 94 95 98 97 97 94 81 54 38 43 115 183
203 200 169 133 127 124 111 105 123 118 77 60 61 75 123 135
135 127 107 89 79 65 48 50 55 76 88 86 80 70 47 44
59 61 58 93 151 180 186 168 140 100 83 75 67 54 46 49
48 43 45 51 45 60 81 77 73 55 36 43 60 65 66 64
63 64 50 42 56 64 77 79 76 81 81 90 102 119 124 128
136 136 136 134 132 133 137 141 141 140 140 142 142 142 141 141
142 141 142 143 143 143 143 144 141 143 145 143 143 143 141 145
146 145 144 144 144 144 142 140 141 144 145 143 142 143 143 141
147 147 146 146 145 145 145 146 147 147 147 146 145 145 145 146
146 149 146 147 149 147 149 149 148 146 146 148 149 148 148 149
235 234 233 233 233 233 231 230 231 230 229 229 228 228 227 227
228 225 222 222 223 222 221 221 223 221 219 219 220 220 217 215
213 213 214 213 211 211 211 208 208 208 207 206 206 206 205 203
203 204 198 199 198 192 176 140 92 70 77 105 117 83 56 59
48 71 111 137 109 101 119 140 115 77 77 113 136 150 99 50
83 116 80 53 62 95 86 127 133 96 88 101 129 178 136 97
100 78 98 120 102 88 64 111 117 64 67 94 90 128 104 102
142 125 64 47 101 140 73 92 124 87 71 25 102 170 171 151
160 183 159 152 152 112 84 78 89 98 116 101 83 92 105 88
63 68 73 81 67 65 86 87 82 49 57 57 49 42 37 30
30 28 164 204 173 169 148 99 154 211 168 193 219 187 113 80
166 206 198 147 67 103 114 126 122 109 103 126 149 165 130 102
106 75 106 133 151 124 92 108 106 97 104 110 87 84 78 85
102 82 84 125 138 120 96 78 78 76 86 96 106 90 70 62
76 83 86 93 103 108 111 110 106 107 98 66 41 35 101 172
196 199 170 129 117 115 110 116 127 131 91 67 92 113 133 129
131 127 101 85 83 70 48 57 47 44 64 73 71 68 46 51
57 62 62 99 156 180 181 160 127 90 81 77 67 50 44 51
52 52 58 60 58 55 51 60 58 46 31 44 66 69 67 65
56 63 43 34 57 64 77 84 82 84 75 79 97 127 135 134
137 139 140 140 139 139 139 140 139 140 140 140 141 142 143 142
144 142 142 142 143 142 142 143 142 142 143 142 144 145 141 143
144 143 143 144 145 145 145 144 141 144 146 144 143 144 145 144
147 146 146 145 144 144 144 145 145 147 148 147 146 145 145 145
148 151 148 148 148 146 147 148 147 147 147 147 147 149 149 149
234 234 233 233 235 233 231 233 232 231 230 228 229 229 229 228
228 227 226 226 226 224 224 225 224 223 222 221 220 220 220 220
215 217 217 216 215 216 215 214 212 211 210 208 208 208 207 206
207 205 202 199 195 192 174 119 67 63 88 122 130 90 64 64
58 77 125 139 108 92 130 159 154 135 131 138 144 137 80 43
76 110 57 36 58 82 101 145 122 113 120 110 112 145 121 150
72 93 131 170 105 39 44 159 179 92 92 55 79 99 79 101
90 61 65 82 91 92 37 48 76 76 46 21 133 148 149 118
134 160 116 120 155 124 111 97 129 149 151 137 122 125 133 88
81 65 69 72 75 77 93 74 56 58 59 52 50 46 41 31
31 26 156 205 181 105 95 87 148 190 150 189 206 158 96 94
197 197 182 150 55 121 158 149 116 93 97 100 96 116 133 111
130 121 104 108 107 94 91 86 114 117 109 99 89 95 88 103
133 119 96 103 116 93 73 73 76 88 96 89 81 67 63 65
72 72 65 90 114 132 143 138 135 124 119 87 54 33 75 158
188 188 167 130 107 110 108 113 124 134 126 113 121 136 136 130
129 127 90 76 76 75 61 62 39 65 70 52 66 60 56 53
56 62 68 105 151 174 173 146 117 89 79 71 60 50 51 48
53 63 61 65 66 56 44 55 60 53 35 52 100 75 73 69
60 56 43 39 59 69 75 80 86 85 79 65 96 134 139 138
141 140 139 140 141 140 140 139 141 140 139 139 140 142 142 142
142 141 142 144 143 141 141 144 141 142 143 144 143 142 142 141
143 142 142 144 145 144 142 141 145 145 144 143 143 144 145 145
147 144 143 144 146 146 146 145 145 146 147 147 146 145 145 145
148 147 147 147 146 144 144 147 146 147 147 147 147 147 148 149
236 237 236 236 236 234 233 235 233 233 232 231 230 231 230 229
229 228 228 228 227 225 225 226 226 225 224 223 223 222 221 221
220 220 219 217 216 216 216 216 215 215 214 212 212 212 212 211
205 204 202 198 189 180 165 122 71 65 84 115 126 91 65 71
69 102 141 142 105 81 137 163 170 165 155 150 135 94 91 60
58 101 59 41 76 90 106 146 117 75 81 106 126 153 105 154
59 90 90 130 132 31 28 133 157 82 136 74 46 55 66 43
33 64 105 89 109 74 75 153 142 84 56 81 124 119 116 86
109 164 142 134 125 116 99 108 138 145 114 121 113 96 104 77
73 75 68 64 84 76 64 64 65 56 52 50 51 55 49 32
21 21 169 210 170 83 61 42 104 178 125 174 188 135 89 121
212 193 173 143 65 131 200 202 188 140 68 84 83 90 118 120
111 101 87 87 78 92 123 105 117 121 96 104 115 120 101 90
120 115 96 87 82 86 84 82 96 95 92 89 87 79 71 61
62 60 55 85 137 167 178 177 167 154 138 113 79 49 61 134
174 179 162 130 108 106 104 115 123 127 131 135 137 132 128 131
129 129 87 68 75 73 68 54 35 102 97 55 56 65 61 61
58 59 57 100 149 159 156 129 107 92 79 65 58 51 52 48
54 82 67 63 63 64 52 56 60 58 37 59 122 94 70 76
61 56 44 42 60 69 78 83 85 91 83 68 102 136 140 139
140 140 140 141 141 140 140 141 144 142 140 139 140 141 142 142
141 140 141 142 142 141 141 143 142 142 143 143 144 143 143 142
144 144 144 144 142 141 142 144 144 144 144 142 142 143 143 143
146 145 145 146 146 147 147 148 148 146 145 145 146 146 146 144
146 146 146 146 146 145 146 148 147 147 147 147 147 147 147 148
237 238 238 237 237 236 235 237 234 235 235 234 233 233 232 231
231 230 230 229 229 227 227 227 228 226 225 225 225 224 223 221
223 222 222 221 219 218 217 218 217 217 217 215 214 213 213 212
207 202 196 189 178 164 153 126 91 81 86 102 113 89 65 74
79 85 128 120 115 123 123 139 144 154 145 138 103 90 135 109
76 106 85 60 78 84 84 84 106 88 62 89 105 142 94 114
41 26 66 140 133 103 81 142 97 60 139 122 73 96 115 93
88 127 166 100 50 62 156 168 166 112 144 168 148 89 54 68
125 150 134 142 120 137 134 145 100 98 94 95 82 65 76 87
81 76 73 76 88 73 46 50 56 53 55 51 48 59 56 31
23 8 148 200 138 84 61 27 25 92 122 182 156 122 84 154
211 174 135 109 75 148 228 214 206 160 80 117 101 71 74 93
88 90 100 93 66 91 141 138 132 105 72 105 123 123 111 85
86 87 84 77 62 83 92 90 89 91 92 100 100 94 83 66
65 61 52 74 143 183 193 196 194 181 161 145 115 78 56 111
161 170 156 130 109 101 98 114 125 127 130 133 132 130 131 135
130 128 76 65 74 71 62 38 59 131 116 69 69 66 60 70
61 65 54 80 131 139 133 113 93 87 75 61 57 51 53 52
60 105 75 62 61 68 54 54 68 71 49 61 125 111 74 75
67 60 47 44 56 63 81 94 85 96 88 83 117 138 140 140
140 140 140 141 140 139 140 142 142 141 139 139 140 141 141 141
143 141 141 143 143 142 141 142 144 143 143 143 143 143 142 141
144 144 145 143 141 140 142 145 143 144 143 143 143 143 143 142
146 146 146 147 146 146 148 150 148 147 145 145 145 146 146 145
145 146 147 146 145 146 147 147 147 147 148 148 147 147 147 147
238 239 237 236 237 237 236 238 234 236 237 236 235 234 233 233
233 232 231 231 230 229 229 229 230 228 226 226 227 226 225 223
224 223 223 225 223 220 218 219 219 220 219 218 217 216 213 210
203 194 183 173 165 152 142 123 97 99 103 105 107 84 58 64
58 70 78 105 130 142 123 116 123 120 129 126 79 93 130 128
129 121 124 123 100 67 68 79 109 112 88 106 55 154 99 90
55 48 120 128 94 194 190 174 58 44 153 147 85 127 184 146
82 91 142 85 57 126 130 136 126 91 151 171 139 135 109 130
174 151 105 112 116 128 128 129 75 56 105 105 82 87 111 109
84 69 64 70 67 63 52 53 54 49 50 45 53 59 53 27
22 8 128 194 118 82 62 26 19 5 75 193 146 103 84 172
191 151 105 84 73 147 226 210 194 141 116 167 132 74 42 88
94 90 110 106 88 96 115 128 111 82 58 72 81 87 90 72
70 60 66 71 59 69 72 74 86 101 106 115 115 107 94 76
70 67 55 62 123 176 192 199 198 189 174 165 141 111 72 99
148 165 155 131 110 97 95 114 125 129 131 129 128 132 134 131
129 129 74 71 75 75 66 64 108 138 111 65 73 60 81 106
58 64 54 60 102 113 111 110 87 78 70 63 59 52 55 57
71 119 82 63 65 68 56 56 66 70 64 76 123 125 85 65
62 53 44 48 57 62 91 115 95 102 101 110 134 138 140 141
141 140 140 140 139 138 139 140 138 139 140 141 142 142 141 140
145 143 142 143 143 142 141 141 144 143 142 142 143 143 143 142
142 143 144 144 143 142 142 143 143 143 144 145 145 146 146 145
145 146 147 147 146 145 146 148 144 147 149 148 145 144 145 148
145 147 147 145 145 146 146 146 146 146 147 148 148 148 147 147
240 240 238 236 238 238 237 238 235 237 238 237 236 235 235 234
234 234 233 232 232 231 231 230 233 231 228 228 228 228 227 226
224 224 225 226 226 223 221 222 220 220 219 218 217 214 207 201
189 180 168 155 149 140 132 117 107 108 112 120 122 99 63 54
51 49 61 93 130 140 103 121 127 119 124 97 76 108 100 99
115 99 107 131 89 48 82 120 89 98 115 81 113 194 139 104
137 111 186 86 50 156 183 209 103 14 87 138 45 56 149 132
27 57 111 97 71 84 75 128 114 84 130 132 107 100 127 163
172 144 125 109 76 69 84 81 76 60 115 127 80 73 115 79
64 65 54 58 59 62 60 61 57 49 46 37 47 38 34 23
20 11 104 196 125 79 50 15 19 14 70 184 130 90 87 181
179 127 90 78 58 139 222 213 185 119 136 207 173 105 33 104
125 97 86 91 93 85 82 100 99 83 82 78 84 77 74 92
85 67 65 67 66 68 69 76 89 107 118 128 135 129 112 91
80 75 63 59 96 159 188 197 195 186 178 168 153 135 97 88
129 158 158 135 109 93 95 116 130 129 132 135 133 131 131 131
132 129 82 74 84 87 73 85 129 136 112 65 67 64 104 116
59 59 55 64 80 90 112 120 88 70 69 65 60 57 60 59
87 128 94 64 70 69 65 64 66 64 67 87 127 135 101 74
62 49 45 60 71 72 103 129 116 118 122 133 142 138 143 139
141 140 139 140 140 139 139 140 139 140 142 143 143 143 143 142
144 142 141 142 143 143 142 141 141 141 141 141 143 144 145 145
143 143 143 144 146 146 144 142 144 144 145 146 147 147 147 147
145 145 147 148 147 146 146 147 143 146 149 148 145 144 146 148
145 147 148 146 145 146 147 146 144 145 146 147 148 148 148 148
240 242 241 239 239 239 238 239 237 238 239 238 237 237 236 235
235 235 234 233 233 233 233 231 232 231 229 228 229 229 228 227
227 227 227 227 226 225 225 226 222 221 219 217 214 207 196 187
175 163 146 126 120 121 122 114 116 118 129 151 150 122 82 58
55 44 53 92 133 120 89 108 120 117 100 84 92 114 68 83
99 81 85 109 67 54 86 75 50 82 93 53 135 175 108 130
85 71 193 109 34 134 167 198 163 73 89 131 73 16 75 116
43 48 93 92 85 96 123 127 110 84 108 126 97 128 148 148
138 114 103 83 64 64 67 80 83 64 68 83 60 54 81 70
57 61 54 66 68 61 58 61 59 60 56 37 39 26 22 16
19 8 70 202 132 94 50 14 24 23 32 143 114 65 74 196
168 108 84 72 38 150 225 199 164 116 143 224 196 132 36 94
163 124 78 89 104 82 72 70 74 83 105 86 87 98 89 87
81 70 58 52 61 67 70 75 73 95 134 158 170 163 143 116
97 84 72 63 75 133 175 190 193 183 174 164 157 150 119 84
110 148 156 136 106 91 97 117 128 129 132 133 131 128 130 136
134 129 100 74 87 90 85 99 135 136 121 88 80 95 126 114
67 62 61 73 66 86 131 128 87 64 68 63 61 65 66 64
105 135 110 67 69 69 71 68 69 71 68 86 129 141 115 85
67 47 41 63 77 80 112 133 135 134 138 140 139 137 144 136
140 139 140 141 141 141 141 142 142 142 142 142 141 142 142 143
144 142 142 142 144 144 144 144 141 141 142 142 143 144 145 145
145 144 143 144 146 147 146 144 146 145 145 146 146 146 146 146
145 145 146 148 148 147 147 148 146 146 146 146 146 146 146 146
144 146 147 146 146 147 147 147 144 145 146 147 148 149 148 148
235 240 242 241 240 239 238 240 240 240 239 238 238 238 238 237
236 236 235 234 234 235 235 233 231 231 231 231 231 230 229 228
230 230 229 227 226 226 226 225 224 222 217 211 204 193 178 167
151 132 111 89 88 101 113 111 112 132 157 177 156 127 102 77
58 50 54 93 124 108 97 102 98 124 101 79 100 128 80 73
109 64 71 78 39 57 79 63 69 53 71 64 90 94 41 103
41 13 112 169 80 115 100 114 160 161 88 123 120 47 75 118
92 99 95 71 87 112 126 107 77 82 113 136 122 105 99 96
80 63 77 86 74 75 72 76 72 69 70 78 71 55 51 75
66 58 54 61 59 55 55 58 69 65 54 40 39 33 24 13
14 12 44 173 128 97 45 17 18 24 8 97 97 42 60 177
144 98 88 64 29 169 223 184 149 118 142 210 179 126 50 81
167 132 71 97 139 109 68 31 63 71 94 89 75 90 98 89
88 82 66 64 72 78 75 73 64 80 147 185 195 185 169 138
111 89 79 69 64 102 155 182 188 184 172 164 159 157 136 95
95 130 140 129 106 96 105 121 124 130 132 132 133 131 129 131
131 132 123 90 88 96 113 133 128 130 132 128 125 134 138 115
67 64 66 74 73 107 135 130 95 65 69 63 67 73 67 75
122 139 126 77 67 67 71 70 69 77 74 94 134 140 125 89
71 50 43 65 81 88 122 137 139 139 142 140 139 138 142 136
139 140 141 142 142 141 141 142 141 142 142 141 140 140 142 143
144 144 143 143 144 145 146 145 143 144 144 144 143 143 144 144
145 145 144 143 145 146 146 145 147 146 145 146 146 145 146 147
146 146 147 148 148 147 148 149 147 147 147 147 147 147 146 146
146 146 147 148 147 146 146 148 146 146 146 147 148 148 147 147
228 236 241 241 241 239 239 240 242 241 240 239 239 240 240 238
237 237 236 235 235 237 236 234 232 233 234 235 234 233 231 230
231 232 232 229 226 226 224 222 217 214 207 197 186 171 155 143
120 97 78 63 69 90 106 104 124 143 157 164 137 126 121 94
69 58 54 84 107 118 119 114 121 128 101 68 121 158 134 94
92 55 89 67 21 42 49 76 110 46 42 74 115 91 49 22
21 13 69 174 174 168 42 43 135 170 170 143 155 115 110 119
84 84 56 49 74 138 126 85 66 62 60 105 106 79 85 53
53 61 73 85 79 72 75 79 65 57 71 80 75 59 55 65
60 60 58 48 52 63 58 54 70 52 40 42 29 21 17 23
17 20 17 100 126 91 36 17 25 21 17 21 45 28 24 135
127 86 78 52 35 183 212 174 140 107 141 204 169 115 62 71
157 131 72 106 177 156 95 54 67 90 97 88 61 78 109 113
110 101 83 94 99 99 89 85 63 62 138 182 191 187 182 151
126 98 89 77 61 76 134 173 184 187 172 167 160 159 144 109
87 113 122 120 108 105 115 128 135 135 131 132 137 132 127 131
133 132 132 118 109 117 129 133 136 131 133 132 134 135 132 117
67 62 73 81 100 138 127 139 108 72 73 69 77 77 66 85
130 137 134 88 69 68 70 73 77 74 73 103 134 132 135 107
89 73 66 84 93 98 128 138 136 136 140 142 145 140 139 139
140 141 143 143 141 139 139 140 140 141 142 142 142 142 143 144
145 145 144 143 143 144 144 144 143 144 145 145 144 143 144 146
142 144 145 144 143 144 145 144 148 146 146 146 147 147 148 150
147 147 147 147 147 146 147 149 146 148 151 151 148 146 146 146
147 147 147 149 148 145 145 147 147 147 147 147 147 147 146 145
220 229 237 240 243 244 242 242 239 240 240 239 240 241 241 239
238 239 239 239 238 238 237 236 234 234 235 235 234 233 232 232
231 230 230 230 227 223 217 212 205 196 189 179 162 145 123 101
75 61 63 78 88 99 110 117 133 140 150 145 120 110 124 119
79 61 59 76 98 118 110 124 131 112 84 77 121 171 174 133
93 53 83 73 32 44 49 49 57 45 71 61 147 163 52 25
66 43 87 125 138 199 116 85 142 180 184 175 178 180 200 164
139 84 71 95 104 152 136 105 94 77 72 90 85 72 80 87
73 79 72 87 87 77 64 69 53 59 72 67 56 42 45 55
55 51 53 48 39 49 61 57 55 40 29 23 22 22 19 21
21 24 20 32 55 47 22 16 13 25 20 15 19 13 23 56
98 77 65 30 40 185 212 167 138 95 131 195 156 101 61 67
152 152 84 101 187 172 114 68 90 125 131 125 101 83 104 116
114 106 106 116 123 117 108 91 62 64 114 171 190 192 177 155
131 108 89 76 68 71 105 163 184 187 178 173 163 158 152 118
96 109 120 121 121 125 129 130 135 134 131 132 136 134 130 133
131 132 132 130 131 132 133 132 133 136 133 136 133 134 136 117
69 66 71 99 132 137 131 135 120 81 76 81 78 78 67 113
136 134 139 107 72 72 73 70 72 73 79 113 133 134 136 117
92 95 95 93 101 121 135 136 137 139 140 139 139 142 142 141
141 142 142 141 138 138 139 141 140 141 140 139 140 143 144 142
142 143 144 144 143 143 143 143 143 143 143 143 145 146 145 142
142 143 144 146 145 144 144 146 147 146 145 145 146 147 146 146
145 147 148 147 147 148 148 146 146 147 147 147 146 146 148 149
149 148 149 149 147 146 147 145 146 148 150 149 146 145 147 151
203 219 233 240 243 243 242 242 241 241 241 241 241 242 241 240
240 240 240 239 238 238 237 236 236 237 237 237 236 235 234 233
236 231 229 227 221 211 202 195 187 174 164 153 136 113 87 66
52 56 69 84 93 104 104 101 120 136 143 137 116 104 120 132
99 71 82 74 85 95 92 118 131 103 73 79 127 169 173 162
141 82 72 66 28 37 29 44 36 45 67 117 60 103 156 108
103 124 143 88 67 175 167 142 175 145 84 86 124 142 155 141
118 87 82 93 91 89 66 71 86 126 99 87 97 97 118 138
84 74 68 81 75 66 52 38 29 43 50 44 44 50 47 47
51 44 39 48 40 38 43 43 35 26 22 24 29 31 27 27
29 23 17 16 20 23 23 22 25 20 20 19 16 16 23 27
28 30 32 14 60 200 199 161 123 100 89 156 142 87 52 42
136 140 86 77 164 166 100 41 90 179 178 169 151 141 130 129
128 101 103 143 156 147 131 102 77 61 95 162 188 189 178 160
135 112 94 78 68 68 95 148 176 181 175 171 161 158 153 122
102 116 129 132 130 131 133 133 132 132 130 132 136 135 133 136
131 132 132 132 132 133 133 134 135 136 135 135 132 134 137 124
83 67 91 127 133 135 141 131 130 94 82 85 87 77 84 125
134 132 139 126 83 73 74 73 77 78 87 121 137 136 139 125
103 92 89 102 121 136 139 134 138 138 139 140 141 140 139 139
140 140 140 140 140 140 141 142 142 142 142 141 140 140 141 143
143 143 144 143 143 143 144 144 145 146 145 144 144 144 144 143
142 143 144 146 145 144 144 145 147 146 145 145 146 147 146 146
145 144 145 147 149 148 147 146 148 147 147 148 148 148 148 147
147 147 148 149 147 147 148 147 145 146 148 147 145 145 146 147
177 197 218 230 239 244 245 244 244 243 242 243 243 242 241 242
241 241 241 239 239 239 238 237 236 236 237 237 237 236 236 235
232 231 227 218 205 194 183 174 161 150 136 118 94 68 54 50
54 77 110 123 96 69 64 85 120 141 148 142 121 107 118 133
113 95 97 80 79 76 89 107 128 122 81 81 131 152 167 175
165 121 108 63 23 21 31 49 49 53 37 78 45 16 90 143
129 143 84 66 32 149 191 148 188 86 16 31 48 41 38 75
77 88 98 79 57 59 80 76 103 95 61 78 85 90 95 82
67 58 55 59 52 46 40 27 25 37 39 37 36 43 41 50
65 66 47 52 47 49 40 23 19 18 24 27 28 26 24 26
25 31 29 25 28 28 24 23 22 18 24 25 18 25 34 28
27 27 24 19 76 203 197 153 111 92 45 76 117 88 55 12
70 111 56 16 120 162 80 21 60 193 193 178 164 164 162 173
165 113 110 177 193 182 163 126 89 61 73 140 179 184 179 165
140 116 102 84 71 69 87 132 167 176 173 169 158 154 152 127
105 117 130 134 132 131 132 132 134 133 131 133 136 134 133 135
132 133 133 134 133 132 133 135 136 135 136 134 131 134 136 131
126 111 122 139 134 133 139 136 139 102 83 85 72 74 113 137
135 133 137 137 94 76 79 78 78 80 94 127 140 136 140 133
112 107 111 124 133 137 141 143 140 138 138 141 142 140 140 141
142 141 141 141 142 142 141 141 143 142 143 143 141 139 140 144
145 144 144 143 143 144 145 146 142 144 145 144 143 143 144 145
145 144 145 146 146 145 145 146 147 146 145 145 146 146 146 146
146 144 144 148 150 149 147 147 147 146 146 147 149 149 148 146
147 147 149 149 147 147 149 149 147 148 148 148 148 148 148 146
164 183 202 216 230 240 243 242 246 245 244 244 243 242 242 243
242 242 242 240 240 240 240 239 239 239 239 239 240 240 238 236
229 227 219 205 190 177 160 143 124 110 92 78 65 52 49 55
67 104 144 144 94 56 60 101 135 148 149 148 134 124 128 133
131 122 107 91 94 109 122 114 131 135 78 77 118 104 140 164
132 115 106 39 28 38 64 76 72 56 54 44 40 24 12 85
86 59 34 17 26 80 107 48 110 70 23 38 44 45 54 61
63 117 133 102 101 56 78 82 79 54 58 54 69 59 68 65
60 57 47 38 38 38 41 44 39 52 48 36 39 56 56 57
62 77 59 44 41 54 44 21 20 20 25 24 19 15 12 16
12 23 26 26 30 29 22 20 19 24 25 20 18 21 28 32
29 30 31 23 90 214 198 154 108 83 42 8 37 45 28 20
24 37 24 10 40 84 49 9 36 176 196 184 169 155 177 201
188 124 110 188 205 195 175 138 93 67 63 113 171 183 184 169
142 118 105 87 74 72 85 125 160 173 175 169 156 150 149 131
113 121 129 132 131 131 133 135 136 135 133 134 135 133 132 133
134 134 135 135 133 131 133 135 135 132 136 135 132 134 135 134
137 139 135 134 139 137 133 135 135 109 84 84 65 90 132 137
136 138 135 138 109 83 83 81 77 79 98 130 140 136 139 137
130 129 132 135 137 140 142 140 143 140 139 140 141 141 142 143
142 142 142 142 143 142 142 141 141 142 143 143 142 141 143 146
144 144 144 143 143 144 145 146 140 142 144 145 145 144 144 144
147 145 144 144 144 145 146 147 146 145 144 144 145 146 146 146
148 146 146 148 149 148 147 146 146 145 145 147 149 150 149 147
148 148 149 149 147 146 148 148 148 149 149 147 148 150 150 147
141 161 183 199 215 230 238 241 247 246 246 245 244 242 243 244
243 243 243 241 241 242 242 241 241 241 240 239 239 237 233 229
223 213 200 186 169 147 119 96 80 71 61 56 53 51 53 61
72 116 144 111 60 54 81 122 146 148 132 140 147 141 136 144
155 138 116 86 105 149 153 130 128 131 86 80 83 68 116 136
88 97 98 48 26 40 66 106 124 80 46 65 47 27 33 56
91 37 82 94 46 33 58 56 52 75 71 70 71 63 53 43
61 83 52 64 84 68 43 54 59 46 46 41 52 61 51 62
46 42 36 37 49 51 44 40 32 49 63 55 56 65 71 71
58 69 60 37 41 54 40 25 26 20 18 16 15 14 9 9
8 7 16 20 14 17 22 18 16 20 14 8 11 11 11 17
26 25 24 12 96 212 180 150 93 78 28 21 14 8 12 11
9 10 11 16 9 16 7 10 25 159 196 188 175 146 170 195
187 126 105 180 203 196 170 133 92 70 57 86 162 183 185 172
145 118 103 84 71 71 86 123 154 169 176 172 157 147 145 134
122 126 130 131 131 132 135 136 134 133 133 134 134 134 134 134
135 135 136 136 134 132 133 136 134 132 135 135 135 135 135 136
133 136 136 135 137 137 135 133 134 127 105 103 105 128 139 136
134 140 137 139 126 87 79 83 80 82 105 133 141 138 139 139
141 140 139 137 138 141 142 137 143 143 141 139 140 141 141 140
138 139 140 141 141 141 142 142 140 142 143 142 142 144 145 145
142 143 143 143 143 144 144 144 144 144 145 146 146 145 144 143
145 144 143 144 144 144 144 145 147 146 145 145 145 146 147 147
148 149 148 146 146 148 147 146 147 146 146 147 148 149 149 149
148 147 149 149 146 146 148 147 146 147 147 145 146 148 149 148
109 135 163 183 199 214 230 241 245 246 247 246 244 244 245 245
243 244 244 243 243 243 243 242 242 242 240 238 236 232 225 219
210 195 180 165 138 104 77 64 57 56 54 53 56 65 73 76
73 74 73 52 50 80 112 139 151 144 112 124 145 135 122 143
161 151 122 83 99 131 149 126 121 130 131 120 70 68 107 117
64 76 118 98 46 47 76 121 150 109 71 73 65 35 42 45
59 55 52 95 55 43 36 51 35 49 100 114 98 64 37 51
69 60 63 51 51 50 46 36 32 21 26 31 47 55 56 57
65 46 34 37 46 57 55 51 55 41 45 50 62 72 76 65
50 65 69 47 50 56 34 22 22 17 16 14 15 16 13 15
13 9 11 16 17 17 17 15 12 12 11 10 10 8 8 9
12 10 19 11 32 130 159 106 86 46 15 18 19 21 15 12
11 10 10 14 13 11 9 3 21 159 202 189 177 150 166 199
184 129 105 171 201 197 165 129 97 72 56 68 147 183 184 175
151 122 100 83 69 68 89 125 146 161 173 175 161 145 138 130
124 129 132 132 132 133 135 135 134 133 134 135 134 134 136 135
134 136 136 135 134 135 136 136 136 136 135 135 136 136 138 138
138 138 138 138 135 133 136 139 135 133 133 131 136 143 140 135
136 138 137 138 134 86 70 84 85 89 114 137 141 140 139 139
139 139 141 141 139 139 142 143 142 144 144 142 141 142 141 138
138 140 142 142 141 141 142 143 141 143 143 141 142 145 145 143
143 143 144 145 145 145 144 144 146 144 143 144 145 146 146 146
144 144 145 146 147 145 145 145 148 148 147 146 146 146 147 148
146 148 147 145 145 147 148 147 148 147 147 146 146 146 147 148
148 146 148 148 146 147 149 148 148 147 147 147 147 148 150 151
77 105 138 162 180 195 214 230 239 244 247 246 245 246 246 244
244 245 245 244 244 244 244 243 244 243 240 235 230 224 213 203
189 171 152 131 101 74 61 59 54 50 48 53 71 95 103 94
72 45 43 42 67 97 123 143 142 128 95 103 112 106 104 126
152 157 128 106 101 96 116 103 111 117 150 144 82 70 109 132
81 55 100 105 89 91 98 104 138 109 90 134 119 48 34 38
35 29 22 21 24 20 33 42 36 35 49 55 40 29 41 41
31 34 62 48 36 34 48 51 53 59 45 46 42 50 41 41
47 37 29 36 42 53 55 66 57 51 63 62 54 67 69 46
41 66 72 54 46 48 29 19 16 15 17 15 15 16 17 21
18 16 6 6 16 16 10 12 15 18 19 17 13 11 10 9
4 14 8 15 4 10 46 49 41 21 12 7 10 9 14 12
11 9 9 14 15 7 7 4 14 149 206 188 170 140 152 190
177 126 109 169 198 193 160 126 102 76 63 60 121 178 182 177
155 126 101 88 74 69 94 126 139 153 168 175 162 141 126 118
122 130 136 136 135 138 139 137 137 135 137 138 134 135 137 135
134 137 137 135 135 137 138 136 136 139 135 136 137 136 140 139
132 137 138 138 139 135 134 139 134 129 138 139 135 136 136 134
141 136 137 137 136 93 63 76 86 95 124 139 140 141 139 139
140 137 138 140 142 144 144 141 141 143 144 143 142 142 141 141
142 143 145 144 143 142 142 144 143 143 143 142 143 143 143 142
145 145 145 146 146 146 145 144 145 143 142 143 145 146 147 147
145 145 146 147 147 146 146 147 149 148 147 146 146 146 147 148
146 146 145 145 146 147 148 147 148 148 147 146 145 145 146 146
148 146 147 148 147 148 150 148 150 148 148 149 150 149 150 152
37 65 102 134 158 179 201 219 233 241 246 245 245 247 246 242
245 245 246 245 244 244 244 242 242 240 234 226 218 207 192 180
165 143 115 88 68 60 58 57 54 53 54 57 74 103 112 98
65 44 52 53 84 114 126 122 126 105 80 81 70 79 100 116
141 143 130 129 110 89 78 80 89 100 129 111 77 69 122 150
129 75 78 78 97 94 64 63 104 142 104 117 148 92 57 30
21 15 16 17 13 20 31 36 45 31 21 25 29 34 46 49
37 32 45 45 46 37 59 53 52 48 58 61 54 50 51 48
51 54 42 42 43 41 32 58 74 65 77 72 40 50 68 64
73 79 61 51 48 50 27 10 17 14 15 14 16 19 17 19
22 18 15 13 11 13 14 13 15 22 18 13 16 15 11 12
14 15 10 8 11 10 5 6 6 9 9 12 12 13 10 14
8 14 7 11 11 7 2 8 17 134 203 185 166 131 148 186
165 119 114 175 200 190 155 123 97 74 65 49 90 164 173 170
153 127 102 94 80 72 97 127 136 148 164 174 162 136 115 105
116 127 135 135 135 138 139 138 139 137 139 140 136 137 140 138
136 139 139 135 135 138 139 135 134 141 136 138 139 135 141 139
136 138 138 136 135 138 138 134 138 138 132 137 137 144 136 139
142 135 140 142 140 106 62 63 86 98 130 141 139 142 141 141
139 140 141 139 140 143 144 139 139 139 140 142 141 140 141 145
141 143 144 144 143 143 144 145 144 142 142 144 144 142 142 143
144 144 144 144 145 145 144 144 147 145 144 146 147 147 146 146
145 145 145 145 144 144 146 149 149 148 147 146 145 145 146 147
148 145 144 147 148 147 146 147 150 149 148 148 148 148 148 148
149 147 147 148 148 149 150 148 149 146 146 149 149 147 147 150
28 33 58 98 129 157 179 202 218 234 241 249 248 246 244 247
245 248 247 245 245 245 244 244 243 235 225 213 199 184 166 149
127 103 81 64 61 58 60 55 47 49 46 57 78 101 106 85
61 47 60 58 98 125 122 99 92 86 80 73 79 94 103 111
116 120 130 135 122 96 95 95 85 88 97 99 104 102 135 161
139 97 86 57 63 80 93 58 91 156 111 124 158 149 137 101
61 31 19 17 17 25 37 38 45 39 40 29 41 52 60 60
47 55 36 40 59 57 55 51 50 55 64 67 58 63 81 76
70 68 47 41 23 25 18 42 74 71 66 61 56 64 75 89
88 80 66 52 52 36 10 15 14 15 15 15 18 19 19 21
25 22 16 13 14 14 13 15 16 18 19 17 17 18 15 10
13 12 11 10 10 10 10 10 13 9 8 11 14 13 12 11
8 8 10 8 5 4 4 7 10 129 204 181 167 123 125 176
152 100 108 180 199 188 150 116 88 72 74 38 57 144 161 165
153 128 110 100 85 75 98 134 137 146 159 172 167 136 108 103
123 133 135 136 141 140 136 140 141 140 140 141 139 137 138 140
138 138 138 138 138 138 138 138 138 138 138 139 139 138 138 138
140 140 139 137 137 139 139 137 141 140 139 138 139 141 140 139
140 139 139 142 139 109 60 61 87 120 136 138 140 141 142 141
139 143 144 140 137 137 140 142 139 141 143 144 144 143 142 141
141 142 143 144 144 145 143 141 140 141 142 142 142 142 143 144
146 145 144 143 143 144 144 143 146 146 148 149 147 146 148 148
148 148 145 144 147 149 148 149 147 145 145 147 148 146 146 147
147 147 146 146 149 148 146 146 148 149 150 150 149 148 148 149
148 147 147 148 149 149 149 149 151 149 147 146 147 147 148 148
27 25 35 59 90 135 165 181 203 221 232 245 249 249 247 248
249 249 247 246 247 246 243 242 233 226 213 196 177 158 132 109
83 71 63 57 58 55 53 47 47 49 52 62 79 96 109 98
71 58 65 74 102 119 105 77 71 67 67 79 95 105 106 97
88 107 137 148 131 107 107 105 99 101 72 77 115 128 138 133
87 89 90 56 43 74 110 74 88 165 94 108 166 179 169 162
129 98 63 37 25 39 42 37 30 46 47 41 42 41 33 30
48 69 45 33 67 74 58 61 56 63 65 58 70 83 78 78
78 76 56 51 35 27 22 24 64 75 51 50 67 70 75 81
76 70 65 56 51 26 17 15 19 19 17 16 18 20 21 23
21 20 16 14 14 13 12 15 15 18 19 18 18 19 18 14
12 11 11 11 11 11 10 10 13 11 10 9 11 12 11 9
7 6 8 6 3 3 3 8 12 122 203 186 167 122 100 135
133 97 95 171 197 185 151 107 88 81 66 34 24 105 157 162
155 139 122 108 90 86 109 135 141 144 154 166 158 128 109 111
130 137 139 139 142 141 137 141 140 140 141 141 139 138 139 141
139 140 141 141 140 138 137 136 138 138 139 140 140 139 138 139
140 140 139 138 138 139 139 138 139 140 140 139 140 140 140 139
140 144 140 137 149 118 60 82 116 134 140 142 143 140 139 141
142 142 141 141 140 141 141 141 139 141 142 143 143 143 143 143
143 143 143 142 143 145 145 145 142 143 144 144 144 144 144 144
145 145 144 145 145 145 145 145 146 145 147 148 147 147 149 149
148 148 146 145 147 148 147 148 148 146 147 149 149 148 148 150
147 150 150 149 148 146 146 149 149 149 148 148 148 148 149 149
152 150 149 149 149 148 148 149 149 149 148 148 148 148 148 147
24 21 22 31 53 100 137 156 184 205 219 236 245 248 246 247
247 246 245 246 246 244 238 234 223 207 190 172 144 111 86 74
68 62 61 57 55 51 50 46 43 42 52 72 103 124 129 112
90 76 77 90 107 115 81 59 55 54 63 91 105 101 100 95
91 115 143 143 123 106 109 104 112 117 93 73 78 75 98 110
85 69 93 75 58 60 70 110 113 123 119 121 169 168 169 157
142 117 109 93 70 53 43 40 50 57 67 57 50 38 34 35
53 70 69 57 62 61 57 73 72 57 51 54 69 79 77 81
72 85 81 65 52 32 17 21 46 69 61 56 74 81 82 74
72 77 57 47 40 16 16 21 22 22 18 17 19 20 20 22
19 19 18 16 15 12 12 15 14 17 19 17 17 19 18 16
16 14 11 9 9 9 10 10 12 12 10 7 7 10 10 7
7 5 7 3 1 2 3 8 10 121 202 183 155 114 90 97
116 102 66 137 193 179 139 97 89 75 47 36 13 59 142 157
157 142 122 108 92 91 117 137 145 142 144 148 138 120 116 125
137 142 142 141 143 141 139 141 140 142 142 141 140 140 141 142
140 142 144 144 142 140 139 139 139 139 140 141 141 140 139 140
140 141 140 139 139 139 139 139 140 141 141 140 140 140 141 141
143 145 143 137 144 134 102 114 137 143 140 141 144 141 140 140
141 140 140 141 142 141 141 142 141 141 142 142 142 143 144 144
143 143 142 141 142 144 145 144 143 143 144 144 144 144 143 142
145 145 145 145 145 145 144 143 147 145 146 148 147 148 149 148
148 148 146 147 148 146 145 148 148 147 147 148 148 147 148 149
146 149 149 148 147 146 146 148 150 148 147 146 147 149 149 149
150 149 148 148 148 148 149 149 149 149 149 149 149 149 148 147
20 22 23 26 34 63 101 139 167 190 206 226 238 246 247 249
248 247 247 248 246 240 231 223 209 186 162 138 104 73 61 63
65 61 59 54 48 45 47 47 42 46 59 81 115 142 140 122
108 104 111 116 122 115 64 53 56 65 83 108 117 103 99 108
120 137 144 127 116 113 113 104 127 130 139 111 75 31 55 108
107 69 75 75 81 66 51 104 145 145 137 144 173 177 180 170
139 117 104 122 141 93 79 63 64 41 52 55 55 60 58 56
66 62 73 75 62 56 63 74 75 77 76 77 73 74 81 73
68 80 81 65 46 29 22 26 27 50 71 59 72 100 107 116
112 96 54 52 37 20 15 19 21 22 20 19 20 19 18 19
17 18 17 15 14 12 11 14 16 18 18 17 17 19 19 17
21 19 16 14 12 10 9 9 10 10 9 6 6 8 8 7
9 6 6 3 0 1 2 7 3 117 203 190 162 110 94 68
60 66 29 113 194 176 127 89 79 57 37 42 26 28 110 148
154 143 120 104 93 100 128 142 148 144 142 140 133 131 136 142
144 147 145 143 144 144 142 144 142 144 144 142 142 144 144 143
142 143 144 144 144 144 144 145 141 141 141 142 141 140 140 141
141 142 142 141 141 141 141 141 143 143 142 141 140 142 143 143
145 144 140 141 138 141 144 136 139 145 141 140 143 144 143 139
140 140 142 142 141 140 142 145 142 143 143 143 142 143 143 144
143 144 143 143 143 143 143 141 144 143 143 144 145 144 143 142
146 146 145 145 146 145 145 144 148 145 146 148 148 148 148 146
147 148 147 148 149 146 145 149 149 147 147 147 147 146 146 147
147 147 145 145 148 148 146 147 150 149 147 147 148 149 150 150
147 147 147 147 148 149 150 150 150 150 150 150 150 150 149 148
17 22 20 21 24 36 65 113 143 168 187 208 224 238 246 251
250 248 249 247 239 230 218 206 189 163 128 95 71 61 61 62
61 56 51 50 48 49 48 45 47 56 70 92 122 143 127 111
108 127 136 141 145 114 59 48 53 74 105 126 136 117 94 105
135 148 141 119 125 129 116 100 107 105 123 133 110 44 29 84
110 82 85 84 94 77 44 56 132 174 146 127 129 166 173 187
153 133 110 111 162 142 119 107 81 71 65 61 46 52 52 42
53 60 68 78 82 78 75 71 66 74 73 77 80 81 84 77
84 83 73 64 37 29 35 30 29 37 64 75 110 142 143 170
181 112 57 51 24 16 21 22 20 22 22 20 19 16 14 15
13 13 11 11 11 9 9 11 17 17 17 16 17 19 19 17
18 19 19 19 17 14 10 8 9 7 7 8 7 5 5 6
8 6 6 2 0 1 2 7 2 100 201 191 168 106 85 41
13 22 16 114 194 173 125 88 61 47 41 44 32 12 64 134
146 146 123 99 92 104 129 145 147 146 145 145 143 146 148 148
148 149 147 146 147 147 147 147 146 147 146 144 145 147 147 144
144 144 144 145 146 147 147 146 145 144 143 143 142 141 141 143
142 142 143 143 143 142 142 142 145 145 144 143 143 144 143 142
143 144 138 141 144 139 142 142 141 145 144 144 144 143 144 142
142 142 143 143 142 142 145 148 143 143 144 144 144 143 143 144
144 145 145 144 144 145 144 142 146 145 145 146 147 147 145 144
145 145 145 145 146 147 148 148 147 145 146 149 149 149 148 145
146 147 147 148 149 146 145 148 149 149 148 148 147 146 147 148
147 148 146 146 149 149 148 149 149 149 148 148 149 149 150 150
148 149 149 149 149 149 149 149 150 150 150 150 150 150 149 149
17 23 18 18 22 26 37 71 113 143 167 191 209 228 240 248
249 247 245 238 227 217 202 184 160 126 88 66 60 61 63 62
62 54 49 56 64 74 71 64 64 76 88 91 108 115 92 85
102 128 130 146 159 122 79 60 55 73 114 144 151 116 79 97
129 138 132 119 136 141 121 101 101 82 84 125 122 82 48 59
90 77 86 103 117 81 35 45 74 122 142 141 127 155 173 176
166 145 111 96 134 157 148 124 122 140 119 79 67 54 74 66
49 59 62 72 83 83 81 78 81 61 61 65 67 74 77 80
93 100 133 130 83 67 34 22 27 31 58 102 127 135 139 165
180 118 79 56 30 16 20 15 20 20 18 15 14 12 10 11
9 9 7 7 9 8 7 9 10 10 10 9 11 14 14 12
13 13 12 12 12 12 11 10 8 6 6 8 8 5 3 5
5 3 4 2 0 2 2 7 3 80 196 182 156 106 67 21
13 17 17 106 191 164 112 82 55 41 39 46 35 13 26 114
151 149 124 98 91 89 107 143 151 150 149 150 151 149 148 149
149 149 148 148 148 150 149 148 149 149 148 147 148 149 149 147
147 147 147 147 148 148 146 144 147 146 145 144 144 143 143 145
144 143 143 145 145 144 143 143 145 146 146 146 146 145 143 141
143 143 145 138 145 144 137 144 143 143 142 146 144 139 142 145
145 143 142 142 144 146 146 145 143 144 145 145 145 145 144 144
144 144 144 143 144 145 145 145 146 146 146 146 147 147 147 146
145 145 144 144 145 146 147 148 147 144 146 149 149 149 149 147
145 147 147 147 148 147 145 147 148 148 149 149 148 148 149 150
147 150 150 149 148 147 147 150 148 148 149 149 149 149 149 150
148 149 150 150 150 150 149 148 150 150 149 149 149 149 149 149
18 20 19 20 20 23 23 38 75 113 145 174 194 214 229 239
245 241 235 224 209 196 174 147 115 86 63 61 63 60 59 60
56 53 54 69 84 102 104 100 98 117 114 66 60 59 57 71
104 117 121 140 152 131 104 94 87 89 119 147 144 106 83 107
123 117 115 116 137 146 132 116 117 85 76 97 106 116 97 70
80 106 111 130 123 70 43 63 96 134 122 163 160 162 190 184
196 183 114 94 123 153 185 144 117 137 137 130 162 156 163 152
129 111 99 89 79 74 69 66 65 56 65 63 55 65 79 87
112 153 181 163 139 107 37 45 38 42 47 94 117 128 131 134
150 116 85 55 36 20 21 19 17 15 11 9 10 9 8 9
8 8 7 7 9 8 6 8 5 6 5 5 6 8 8 7
8 7 5 4 4 6 8 9 7 6 6 7 7 6 5 4
3 2 4 2 1 2 2 6 1 48 153 160 138 106 50 11
12 18 11 86 182 152 97 70 51 36 38 46 40 24 12 80
150 148 123 96 93 77 76 121 149 154 155 154 155 154 152 155
151 150 150 150 151 152 152 148 150 150 149 150 150 149 150 151
151 150 150 150 149 149 147 146 147 147 147 147 147 146 146 147
146 145 145 147 148 147 145 145 146 147 148 147 146 146 145 143
146 141 150 141 143 149 147 147 146 143 141 144 142 139 142 144
144 145 144 142 145 148 147 143 145 145 146 146 145 145 145 145
144 144 143 142 143 145 146 145 146 146 146 146 145 145 146 146
146 146 145 145 145 146 145 145 147 145 147 149 149 149 150 148
146 149 148 146 148 148 146 146 147 148 149 149 148 148 149 150
146 149 150 149 148 147 147 150 150 149 148 149 150 150 150 149
148 149 150 150 150 151 151 150 150 150 150 150 150 150 150 149
17 15 19 22 15 18 21 29 35 78 118 152 175 196 212 223
234 228 220 205 186 169 139 104 73 63 60 64 64 59 56 55
55 60 67 85 96 113 116 116 127 146 130 46 36 40 52 68
102 105 126 136 130 124 106 118 121 112 118 128 121 104 102 118
124 103 101 109 128 137 130 118 113 97 99 77 96 134 135 116
106 115 133 147 145 129 69 62 107 145 123 150 157 152 172 166
186 201 151 79 93 124 163 176 142 128 119 143 171 188 169 173
178 164 161 139 116 103 87 86 81 78 70 79 83 72 84 106
142 156 177 189 142 116 89 35 41 86 88 108 126 149 159 174
133 96 68 59 39 21 18 13 14 12 7 6 10 11 9 9
8 8 7 7 8 6 4 5 7 7 7 6 6 6 7 7
4 4 4 4 5 4 3 2 5 6 6 5 6 8 7 5
3 2 4 3 2 2 1 5 5 9 79 122 114 90 33 9
12 14 7 73 163 139 99 68 40 37 47 44 41 33 14 46
127 141 121 88 91 76 54 84 132 149 156 153 156 158 157 158
154 152 153 154 154 155 154 150 150 150 150 152 151 149 150 154
153 152 151 150 150 150 151 151 147 147 148 149 149 148 148 148
148 146 146 148 150 149 147 146 148 149 149 147 145 146 147 147
149 143 147 149 151 144 147 148 150 150 146 144 143 144 146 141
142 147 148 146 145 148 148 144 147 147 147 146 145 144 144 144
146 146 145 144 145 146 146 145 146 146 146 146 145 145 146 147
147 147 147 147 148 148 148 147 150 147 148 149 148 148 149 149
147 151 150 147 148 150 148 146 149 150 151 150 149 149 149 150
147 148 147 148 151 151 149 149 152 150 148 149 150 151 151 150
150 152 152 151 151 152 152 152 151 151 151 151 152 151 151 150
18 18 18 19 19 20 21 21 21 46 85 122 151 173 190 201
207 207 196 178 155 130 100 71 62 62 64 59 58 59 54 51
56 54 81 83 86 107 116 128 134 152 123 49 44 49 48 72
99 115 123 124 128 122 118 133 133 125 114 114 110 122 138 143
139 106 88 102 114 125 128 118 127 118 102 70 73 110 134 124
110 106 117 127 148 151 133 84 114 166 136 129 152 165 170 147
169 200 173 113 126 117 106 140 145 138 140 127 123 152 172 180
181 188 195 172 169 152 129 125 123 134 108 119 125 118 125 143
152 148 149 185 203 133 74 34 30 92 150 134 147 161 177 198
178 110 65 54 28 10 11 10 9 8 7 7 7 8 8 7
6 7 8 8 7 6 6 6 11 9 7 7 7 6 6 6
6 5 4 3 2 3 4 5 2 1 7 7 8 11 6 8
10 10 7 9 6 2 6 3 6 3 6 29 40 31 13 12
9 11 8 44 141 132 93 70 34 33 41 42 41 39 28 22
81 135 113 93 80 54 46 47 77 133 161 158 159 158 153 158
157 155 157 158 156 156 158 158 155 154 154 156 156 153 152 152
154 152 151 154 155 153 152 153 154 153 151 150 149 149 149 149
153 150 149 152 152 149 148 150 148 149 150 150 150 149 149 148
149 149 148 147 148 148 147 145 148 146 144 144 145 146 146 146
146 148 148 147 147 147 147 145 146 147 147 146 146 145 145 146
147 147 147 147 147 148 148 147 147 148 148 148 147 147 148 148
144 145 147 149 149 149 148 148 151 150 150 149 148 148 148 149
150 148 147 148 150 151 151 150 151 149 147 147 149 151 151 150
151 150 150 152 151 149 148 148 150 150 150 149 150 151 151 150
150 150 150 149 148 147 148 149 150 150 150 150 151 150 149 148
18 17 18 20 19 16 17 20 25 24 44 85 125 149 164 173
181 178 166 145 112 84 72 64 66 57 56 57 57 53 47 49
48 60 79 77 73 95 111 115 90 85 79 50 51 63 70 85
105 118 125 122 128 134 131 129 122 105 110 103 103 139 153 160
150 127 95 105 119 118 112 109 123 131 120 75 56 78 91 76
86 97 76 95 125 140 159 105 98 183 159 119 121 174 191 177
165 181 177 177 183 155 127 128 144 147 150 141 126 153 179 175
164 176 187 171 173 172 168 159 181 196 174 193 189 153 159 160
150 155 158 161 172 129 84 80 48 79 136 143 150 160 163 168
177 125 62 48 23 6 11 7 8 7 7 7 7 7 7 6
6 7 7 7 7 7 8 8 10 8 6 6 7 7 6 5
4 4 5 5 5 5 5 5 8 7 9 9 14 18 17 15
16 17 14 16 15 15 18 12 9 8 2 1 3 5 3 7
6 11 7 16 50 82 76 44 23 26 35 38 40 40 30 19
42 98 108 92 68 43 35 36 47 105 154 160 162 162 159 161
160 159 160 161 159 158 159 159 159 157 158 160 159 157 156 157
157 156 155 155 156 157 157 156 156 154 153 152 152 152 152 151
154 152 152 153 153 151 151 153 150 151 151 151 151 151 151 151
152 151 150 150 151 152 151 149 148 147 147 147 148 148 148 148
145 146 147 147 149 150 150 148 147 147 147 147 147 147 147 147
148 148 148 147 147 148 149 148 147 148 148 148 147 147 147 148
147 147 148 149 149 149 149 149 150 149 149 148 147 147 148 149
150 149 148 149 150 151 150 149 149 148 147 148 150 151 150 149
152 151 152 153 152 150 150 150 151 151 151 150 149 150 151 150
149 150 151 150 148 147 148 150 149 149 150 150 150 150 149 149
18 16 17 20 18 14 14 19 18 18 28 53 90 121 137 140
148 140 120 95 71 60 62 60 61 56 55 53 52 48 41 40
54 78 92 94 71 70 84 86 60 48 49 49 67 86 94 104
116 113 117 124 130 130 116 103 100 106 87 79 109 134 131 149
155 141 112 118 122 110 101 85 96 116 114 77 56 72 74 58
67 86 63 47 70 120 155 125 63 139 193 134 104 164 186 173
160 155 169 173 154 174 169 132 127 131 141 150 136 115 129 176
168 169 177 182 183 175 183 181 168 180 179 177 180 177 177 169
174 158 177 197 166 138 133 122 76 58 109 155 161 161 157 161
178 128 102 69 37 5 12 5 8 7 7 7 6 6 6 7
8 7 6 6 7 7 8 8 9 9 10 10 8 6 7 9
8 7 6 5 4 6 8 10 12 13 11 12 15 17 18 16
17 19 19 19 17 18 22 19 20 23 20 12 14 14 11 6
6 9 10 13 5 18 20 22 15 23 29 34 38 40 34 20
17 52 78 70 56 46 43 40 47 92 154 166 165 165 164 163
164 162 163 163 161 160 160 160 161 160 161 162 161 159 159 161
159 160 158 156 157 160 160 158 159 157 155 155 157 157 156 154
156 156 156 155 154 154 154 155 153 153 152 152 152 152 152 153
153 153 152 151 152 154 153 151 148 148 149 150 150 150 150 150
148 148 148 149 151 152 152 150 149 148 148 148 149 149 149 148
150 150 148 147 147 149 149 149 150 150 151 150 150 150 150 151
149 149 149 149 149 149 150 150 149 149 149 148 148 148 149 149
151 150 150 150 151 150 149 148 149 149 150 151 152 152 151 150
150 151 152 152 151 150 149 150 152 152 151 149 149 150 151 151
149 150 151 151 149 148 149 151 149 149 150 150 150 149 149 148
16 15 16 19 18 15 16 19 17 23 26 30 51 84 107 113
114 103 81 65 59 62 65 56 53 51 52 48 43 40 36 38
51 78 94 104 79 69 69 65 56 51 51 57 78 104 107 106
98 100 116 133 132 113 88 78 91 91 78 84 111 130 127 133
147 146 130 119 120 107 97 77 73 81 69 47 41 57 51 39
49 62 49 45 49 66 94 96 50 53 133 167 120 136 131 151
162 129 128 166 156 166 175 132 120 128 152 143 144 153 159 179
179 195 193 179 172 177 200 195 182 186 177 175 175 179 175 153
161 175 180 206 198 168 124 107 108 64 94 155 158 155 157 174
151 131 113 56 39 7 4 13 9 9 8 7 6 6 8 9
8 7 6 7 8 9 10 9 15 11 10 11 14 14 13 11
15 14 11 8 6 8 12 15 10 15 14 18 17 14 18 17
23 22 22 21 18 18 22 23 23 22 23 19 22 17 14 8
7 5 5 7 11 10 2 13 16 24 27 33 35 37 39 29
16 21 34 37 44 49 53 47 52 76 144 164 166 168 168 165
167 165 166 166 164 163 163 162 162 162 163 163 162 161 162 164
162 162 160 159 159 161 161 160 161 160 159 159 160 160 159 158
159 160 159 157 156 156 156 155 155 155 153 152 152 152 153 154
154 154 153 152 152 153 153 152 148 149 151 151 151 151 151 151
152 151 151 151 152 152 151 150 152 151 150 150 151 151 150 149
151 151 149 148 148 150 150 149 149 149 149 149 149 149 149 149
149 149 150 150 149 149 149 150 149 150 150 149 149 150 150 150
151 151 150 150 151 150 150 149 150 151 153 153 153 153 152 152
149 150 151 151 150 149 149 150 151 151 150 149 150 152 152 151
149 150 152 152 150 149 151 152 150 150 151 151 150 149 148 148
15 16 17 17 18 19 19 18 21 19 20 26 39 55 71 81
79 71 62 63 64 63 63 58 62 50 46 48 48 47 52 66
72 91 103 114 105 108 95 79 66 62 66 70 73 85 86 75
75 106 137 140 124 98 75 71 88 81 92 101 121 140 122 123
134 142 130 100 112 102 97 100 100 105 87 58 38 35 25 26
35 38 41 45 41 35 41 56 54 41 77 166 149 117 112 153
174 143 131 140 153 166 158 148 150 156 160 126 150 180 186 182
189 183 171 179 184 176 193 206 190 190 194 188 178 179 140 108
136 149 170 192 181 169 115 111 133 83 71 122 155 163 159 158
149 116 73 49 40 18 7 7 9 9 9 9 8 7 8 9
7 6 6 8 10 12 12 12 12 14 16 17 16 15 17 20
18 19 19 17 15 14 15 17 12 14 14 21 22 17 22 23
27 21 20 20 18 18 20 23 26 23 24 20 20 16 18 17
16 7 8 5 7 11 11 14 16 22 25 31 32 34 42 40
26 19 17 25 42 44 52 52 52 61 133 167 170 169 169 166
170 168 168 169 167 166 167 166 165 165 166 166 165 164 165 167
166 164 163 164 164 162 162 163 164 163 163 163 162 161 161 161
161 160 159 158 158 159 159 157 159 158 156 155 154 154 155 155
156 157 157 155 154 154 155 155 151 152 153 153 152 152 151 151
154 154 154 154 153 152 152 152 153 152 151 152 153 153 152 151
151 152 151 150 150 151 151 149 151 150 150 150 150 150 150 150
149 150 150 151 150 150 150 150 149 150 151 150 150 151 151 151
151 151 151 151 150 151 151 152 151 152 153 152 152 151 151 151
150 151 153 152 151 151 151 152 150 150 149 150 152 154 153 150
149 151 152 152 151 151 152 153 151 152 152 152 151 151 150 150
16 18 18 17 18 21 20 17 20 18 22 32 41 45 50 56
56 58 57 60 64 72 79 76 77 61 51 52 62 77 91 105
109 113 119 126 122 122 109 102 90 89 87 85 78 64 63 66
82 118 143 132 112 94 81 82 92 100 82 86 128 141 115 120
135 136 129 97 104 99 108 128 129 144 136 111 90 68 42 38
42 54 58 35 33 52 62 65 79 81 70 119 163 167 173 186
178 162 147 137 137 139 150 159 144 145 138 141 175 162 169 191
179 174 166 176 187 185 188 192 188 187 203 185 172 180 123 99
117 126 159 190 175 163 133 122 157 106 41 74 138 150 148 140
143 123 131 111 63 22 10 7 7 8 9 10 9 8 6 6
5 6 6 8 10 11 12 12 10 15 20 21 17 15 18 23
20 21 22 20 17 16 18 21 20 16 13 17 19 17 18 20
21 18 22 20 15 15 20 26 22 20 21 20 22 22 21 15
22 22 24 23 7 5 5 8 13 17 23 28 29 32 40 42
35 27 16 28 44 43 53 60 58 62 131 172 174 170 169 169
172 169 170 170 169 169 169 168 168 168 168 168 167 167 167 168
169 167 166 168 167 165 164 166 166 166 166 165 164 163 164 164
162 161 159 160 162 163 162 161 163 162 160 159 158 158 159 159
158 159 159 158 156 156 156 156 155 155 155 155 155 154 154 153
155 155 155 156 155 155 155 157 154 153 153 154 155 155 155 154
153 153 153 152 152 153 152 150 154 153 153 153 153 153 153 152
151 151 152 152 152 151 151 151 149 151 151 150 150 151 152 151
152 152 152 151 151 151 152 154 152 153 153 152 152 151 151 150
151 152 153 152 152 152 152 152 150 150 150 151 153 155 153 151
151 152 152 152 152 152 153 153 153 153 152 152 153 153 153 153
16 17 17 17 18 19 20 19 19 23 28 31 36 44 50 53
54 59 56 53 62 84 101 99 90 79 70 68 81 102 115 123
124 118 117 122 114 105 109 121 114 122 117 107 98 75 80 94
92 111 125 117 104 99 93 90 96 93 59 74 117 137 140 138
148 145 135 105 94 90 105 123 126 134 131 129 144 130 94 79
78 100 90 69 68 79 107 96 101 105 68 85 128 152 167 194
189 155 161 133 116 140 148 150 159 150 140 150 167 161 179 191
181 184 190 183 176 182 188 195 188 192 190 185 187 192 170 158
123 115 127 150 169 182 178 129 117 106 41 68 145 141 151 150
144 150 157 90 57 25 2 9 7 7 7 8 8 7 5 4
5 6 7 8 10 12 15 16 20 17 16 20 25 24 18 13
20 22 23 20 17 16 19 22 22 19 17 13 13 15 14 16
19 20 24 21 19 25 27 30 28 22 20 23 24 28 26 20
24 33 28 28 27 29 17 6 13 15 21 22 23 30 35 36
37 27 12 23 36 41 52 64 62 64 126 170 173 173 173 175
174 171 171 172 171 171 172 171 170 170 170 170 170 170 169 169
171 170 169 168 168 168 168 169 168 168 168 167 166 166 167 167
165 163 162 164 166 165 164 165 165 164 164 163 162 162 162 162
160 161 161 160 159 159 159 158 160 159 158 158 158 158 157 157
157 156 156 157 158 158 158 159 156 156 156 156 156 156 156 156
156 156 155 153 153 154 154 153 154 153 152 152 152 152 152 151
153 153 154 153 153 152 152 152 151 153 153 152 152 153 154 152
153 154 154 153 152 151 152 153 154 153 153 153 153 153 152 151
152 153 153 152 152 152 152 151 151 152 152 152 153 154 153 152
153 152 152 152 153 153 154 154 155 153 152 152 153 154 154 153
16 15 16 18 18 18 19 21 21 27 34 39 44 51 56 58
59 59 55 55 64 84 105 111 109 97 92 95 104 113 119 128
110 104 92 86 79 77 98 115 127 136 141 124 103 85 101 101
92 104 119 111 99 101 93 74 76 65 59 86 119 143 148 152
153 161 131 94 77 68 75 94 93 96 95 102 134 131 115 116
123 128 131 104 101 109 116 108 102 104 65 83 144 126 152 187
193 152 159 133 112 142 147 139 157 160 148 150 164 160 160 181
181 173 187 186 174 178 180 188 185 196 196 174 189 214 199 186
165 128 126 125 166 182 171 123 110 127 56 67 146 138 159 156
154 149 125 81 70 41 11 9 8 7 5 5 5 6 6 5
4 5 7 10 13 18 23 26 20 23 26 27 24 18 14 13
19 23 26 25 21 18 18 20 17 20 23 15 12 18 19 23
24 18 18 16 25 39 33 23 32 27 25 31 25 26 26 28
37 33 24 30 39 40 37 27 16 16 21 17 19 29 29 28
36 26 15 22 27 38 49 64 67 70 124 171 176 177 174 173
178 175 174 175 174 174 175 175 173 173 173 172 172 173 172 171
172 173 172 169 168 171 172 172 170 169 168 168 168 169 169 169
168 166 166 168 168 166 165 167 165 164 164 164 164 163 163 163
163 163 162 162 163 163 162 160 163 161 160 159 160 160 160 159
161 159 158 159 159 159 158 158 159 159 159 158 157 156 156 156
158 157 156 154 154 155 155 155 156 155 154 154 154 154 154 153
155 155 154 153 152 152 152 153 153 155 156 154 154 155 156 154
153 155 156 155 152 151 151 152 153 153 153 154 154 153 152 151
153 154 153 152 152 153 153 151 153 154 155 153 152 152 153 153
154 153 152 152 153 154 154 154 157 154 151 151 152 152 152 151
23 15 18 21 19 21 26 27 30 34 37 42 53 58 57 59
61 59 56 57 55 76 92 94 103 110 121 127 110 104 114 103
87 84 72 76 75 84 79 108 121 136 130 114 81 71 100 108
98 113 125 114 108 99 84 67 53 56 83 107 127 143 153 154
150 150 126 75 71 62 79 99 89 86 70 66 87 73 81 102
111 127 124 108 122 125 127 131 131 132 82 94 165 143 104 137
134 155 178 148 149 135 143 146 123 137 151 159 162 164 166 170
172 180 183 189 186 192 185 199 187 187 204 197 194 203 203 184
153 134 134 122 151 182 161 84 95 117 89 52 75 126 144 152
145 155 142 96 66 41 10 9 6 7 7 5 4 5 5 4
8 9 9 14 15 20 21 33 47 53 45 43 24 27 38 23
22 27 23 27 23 23 26 20 18 23 17 15 11 11 15 25
25 27 29 29 21 34 25 16 29 22 23 24 24 26 36 34
34 23 33 36 31 29 35 41 39 28 15 18 18 25 26 22
27 25 14 16 26 38 44 57 69 66 103 164 177 181 182 177
178 177 176 176 177 178 177 176 175 175 175 175 174 174 175 175
176 176 175 174 174 173 173 174 169 171 173 173 172 172 172 170
172 170 168 167 167 168 169 170 168 169 169 168 168 169 168 166
163 165 166 165 165 164 163 162 163 162 162 163 163 162 161 161
162 161 161 161 161 160 161 163 160 161 160 159 158 159 160 160
160 161 161 160 158 158 157 156 161 157 155 157 159 157 155 156
155 157 155 156 155 153 156 156 156 157 157 156 155 154 153 153
155 156 158 158 155 152 152 155 153 154 155 155 154 153 154 155
151 154 155 154 156 155 153 152 151 154 154 153 154 157 155 152
151 151 151 151 152 153 153 153 154 153 152 152 152 153 153 154
35 29 28 31 37 49 57 56 50 40 36 46 58 59 57 58
58 61 66 70 81 87 71 80 88 105 125 134 119 107 105 87
82 94 98 89 75 70 72 103 106 116 94 55 35 55 89 113
124 122 131 126 117 107 94 84 75 83 106 120 131 135 139 140
151 151 135 90 75 91 119 136 122 78 71 66 61 57 69 81
95 120 127 131 141 139 149 156 135 114 116 126 144 157 115 100
108 169 177 174 159 126 104 130 147 150 161 167 161 169 184 177
159 180 184 183 198 205 187 211 198 178 195 198 184 184 202 191
139 131 122 125 144 176 189 102 124 122 105 55 63 141 147 158
152 162 133 81 96 54 4 8 5 6 6 4 4 4 5 5
5 10 14 15 23 30 60 94 99 100 85 76 77 89 79 60
55 39 46 20 43 59 51 42 38 26 31 25 16 22 10 12
20 46 39 32 33 21 14 38 38 38 41 34 27 26 32 21
21 35 41 37 37 24 35 41 39 41 30 26 20 19 21 22
23 17 11 21 28 27 29 46 58 65 103 168 178 180 181 177
180 179 178 178 179 180 179 179 176 175 175 175 175 176 175 175
177 177 176 176 176 176 176 176 172 174 174 173 173 174 174 173
173 172 171 171 170 171 171 172 170 171 171 170 170 171 170 168
167 168 168 167 166 167 167 167 167 165 165 165 165 164 164 164
164 163 163 163 163 163 164 164 161 162 161 160 160 161 162 161
161 162 162 161 160 160 160 159 160 159 158 159 160 160 160 159
158 159 157 158 158 156 157 156 156 156 156 156 155 155 155 156
155 156 157 157 156 155 155 157 160 158 155 153 153 155 156 158
152 155 156 155 157 157 155 156 153 154 155 155 155 155 155 155
154 153 153 153 153 153 153 153 154 154 154 154 154 154 155 155
54 50 50 61 82 99 101 94 78 68 58 51 50 60 76 84
80 77 88 105 120 119 93 89 91 89 99 119 119 108 104 93
82 109 120 86 60 51 61 85 97 95 58 23 14 34 72 121
141 128 133 128 106 97 93 99 103 107 121 129 134 125 122 132
142 149 150 124 101 115 129 145 138 107 99 97 67 63 88 80
99 132 142 156 156 151 154 149 111 82 80 95 98 142 141 130
151 157 167 180 189 161 103 107 125 121 133 153 179 175 184 183
172 179 187 191 176 173 185 181 182 187 208 206 187 177 191 188
130 109 118 128 152 172 172 171 174 151 104 71 52 136 160 166
188 162 122 127 182 109 5 7 5 4 4 4 3 3 5 7
12 12 11 25 24 65 105 116 113 124 114 117 126 115 89 72
58 51 63 55 47 86 76 98 69 54 61 63 54 43 19 23
19 19 27 44 63 70 70 69 59 42 55 47 28 25 31 37
41 39 34 31 34 25 27 33 41 41 39 43 33 35 37 16
19 18 13 17 17 17 20 36 51 67 102 171 180 181 184 182
182 182 182 182 182 182 182 182 180 178 177 177 178 179 178 177
179 178 177 177 178 178 178 177 176 176 176 175 175 175 176 176
174 175 175 175 174 173 173 174 172 172 172 171 171 172 171 170
169 170 170 169 169 170 170 170 170 168 167 167 167 166 166 166
167 168 167 165 165 167 166 164 164 164 163 163 163 164 164 163
163 164 164 163 162 163 163 163 157 160 161 160 160 162 162 162
162 162 159 160 160 159 160 158 159 159 159 159 158 158 159 160
158 158 158 158 157 156 157 158 161 159 157 157 158 158 158 156
154 156 156 155 156 156 156 157 155 154 155 156 155 154 154 156
155 154 154 153 153 153 153 152 153 154 155 155 154 154 154 155
59 61 66 85 111 127 127 120 110 97 81 63 56 79 108 117
110 109 115 136 144 137 124 105 105 89 88 111 118 108 100 94
95 104 94 55 39 43 62 85 103 92 47 29 18 18 56 108
130 120 123 115 93 87 83 98 107 92 93 111 133 126 120 131
141 141 142 134 118 112 96 110 129 144 139 129 93 72 79 68
98 141 158 167 155 153 152 144 115 97 99 89 84 133 143 176
173 158 171 177 176 157 145 121 62 111 138 126 170 165 165 172
165 163 177 151 97 100 142 138 145 164 188 198 199 196 182 171
148 140 146 136 133 154 169 182 186 146 86 67 76 110 156 144
153 133 131 158 158 114 24 6 5 3 3 4 3 3 5 8
10 12 15 32 45 97 120 126 135 129 95 107 123 104 98 95
86 89 95 82 60 65 55 51 109 114 81 60 65 68 50 28
31 23 42 85 107 133 107 92 77 64 59 56 80 81 55 52
53 68 64 50 29 33 46 44 39 38 38 40 28 33 51 40
17 17 12 13 12 14 13 19 39 59 89 168 183 181 183 184
184 184 185 184 184 183 183 184 183 182 181 180 181 181 180 179
182 180 179 179 179 179 178 177 179 179 178 177 177 177 178 179
177 177 178 177 175 174 174 175 174 174 173 173 173 174 173 173
171 172 173 173 172 172 172 171 172 170 169 169 169 168 168 169
171 171 170 167 167 169 168 165 167 167 166 165 166 167 166 164
164 165 165 164 164 165 166 166 159 161 163 163 162 162 163 163
165 164 161 161 161 160 162 161 163 163 163 162 161 161 161 161
160 160 160 160 160 159 159 159 160 159 159 159 161 160 158 156
156 158 157 156 156 156 156 157 157 157 157 157 156 155 155 155
156 156 155 155 155 154 154 154 153 154 155 155 154 153 154 155
46 55 61 76 99 118 128 124 106 95 89 81 76 96 127 141
123 126 130 147 154 143 139 131 119 112 112 120 116 105 95 84
84 67 45 36 40 53 74 104 120 103 58 32 17 21 49 76
99 97 96 94 88 86 74 83 81 66 71 97 130 135 134 145
138 136 140 126 105 90 75 88 119 143 138 115 99 93 81 94
111 133 142 152 147 146 133 128 115 116 137 125 105 137 146 165
173 158 160 167 176 181 161 104 81 143 167 123 137 149 159 179
160 156 158 107 103 134 136 142 165 154 163 192 204 204 177 172
192 175 160 151 137 135 148 165 151 122 75 79 109 95 110 135
142 157 166 163 143 123 41 1 5 3 2 3 4 3 6 9
15 12 25 37 74 118 134 110 129 128 104 107 113 103 111 108
114 108 90 74 86 74 77 64 95 101 83 99 103 74 52 40
46 100 86 80 130 122 114 80 93 129 107 68 95 99 80 102
105 105 84 79 70 59 70 58 53 55 45 43 38 23 30 41
39 27 12 11 11 14 13 17 32 50 76 163 190 187 185 185
185 186 187 186 185 184 184 185 185 184 183 183 182 181 181 181
183 183 182 181 181 181 180 179 181 181 181 180 180 179 179 180
179 179 179 178 177 176 177 177 177 176 176 177 177 177 177 177
174 176 176 176 175 175 175 174 174 173 172 172 172 171 171 172
172 173 171 169 170 172 171 167 170 170 169 168 169 169 168 166
167 167 167 166 166 167 167 167 165 164 164 166 166 164 163 165
164 165 163 164 163 162 164 163 164 164 164 164 163 161 161 160
159 161 163 164 163 162 162 163 162 161 160 159 159 159 159 158
159 161 160 158 159 159 158 159 159 161 160 158 158 159 158 154
157 157 157 157 157 157 157 157 156 157 157 156 154 154 155 157
34 44 48 61 84 107 118 107 80 79 85 87 87 108 138 151
137 118 129 146 154 154 156 155 143 136 136 134 117 98 80 63
48 38 26 37 45 61 86 122 133 108 79 46 39 55 64 66
65 68 68 72 74 65 55 66 56 51 67 93 123 135 133 128
116 129 150 133 103 92 85 82 98 120 104 83 101 134 138 145
136 127 114 130 135 118 85 83 93 101 131 141 118 126 144 151
170 149 153 159 179 194 183 142 110 122 138 129 114 136 158 181
177 173 161 110 97 116 133 156 193 166 149 173 191 192 173 189
175 128 136 139 134 144 140 158 163 144 96 139 155 92 53 121
158 175 175 159 152 107 41 4 5 3 2 3 4 5 7 9
10 9 17 41 106 136 112 104 119 124 124 117 127 131 110 76
80 95 82 79 98 101 87 79 54 63 75 96 87 67 59 57
42 83 101 69 105 116 152 104 99 138 100 81 108 86 78 101
111 112 106 83 95 84 73 63 50 33 21 27 36 27 28 35
56 49 32 18 6 9 16 23 37 49 68 152 190 191 188 189
187 187 188 188 187 186 186 186 187 187 187 186 185 184 185 185
185 185 185 184 184 184 183 183 183 183 183 183 182 181 181 182
181 180 180 180 180 180 181 181 179 178 178 179 180 180 179 180
178 178 178 176 175 176 177 177 175 174 173 173 174 173 173 173
172 173 173 172 173 174 174 172 172 172 171 170 171 171 171 169
169 170 170 169 168 169 169 169 170 167 166 169 168 165 164 166
164 166 165 167 167 165 166 164 165 165 166 165 164 163 163 163
162 164 167 167 165 165 164 164 163 163 163 162 161 160 159 159
160 161 160 159 161 162 161 161 160 162 161 158 159 161 159 155
158 158 158 158 157 157 158 158 159 158 158 156 155 155 156 157
30 36 44 66 87 100 104 88 71 66 67 73 82 105 131 140
144 117 123 140 148 152 160 155 156 147 149 146 126 103 72 40
33 34 31 41 46 66 92 122 121 99 92 78 85 95 91 78
49 52 59 70 63 35 37 57 56 47 65 90 119 132 116 85
96 118 144 144 127 119 104 89 90 115 103 86 106 142 146 127
121 124 113 129 131 94 59 63 82 78 123 136 115 110 105 143
154 154 155 163 170 146 171 154 128 120 129 145 121 129 144 149
196 202 190 158 94 73 123 130 154 150 136 154 177 180 180 194
149 109 118 133 148 154 155 191 224 171 119 142 161 80 52 104
157 151 147 149 119 77 63 5 4 3 2 3 5 8 10 9
12 22 28 106 133 129 142 136 134 133 137 123 121 122 109 92
77 94 104 90 88 94 74 46 50 60 69 71 73 92 92 81
52 54 66 61 93 136 148 178 145 85 101 97 89 104 101 114
114 101 97 88 95 68 43 45 43 30 34 34 36 41 41 27
47 58 57 40 14 9 11 16 33 43 59 136 183 190 187 190
188 189 189 190 190 189 189 189 190 189 189 189 189 189 189 189
186 187 188 187 186 185 185 186 186 185 185 186 185 183 183 184
184 183 182 182 182 183 183 182 182 181 181 182 182 181 180 181
179 179 179 177 177 178 179 179 177 176 176 176 176 175 175 175
175 175 175 175 175 175 175 175 174 174 174 173 173 174 174 173
171 172 173 172 171 171 171 170 172 170 170 170 169 168 167 168
168 169 167 169 170 169 170 168 168 168 168 167 166 166 166 167
166 168 169 168 167 167 166 164 164 165 166 166 166 164 163 162
163 163 160 159 162 164 163 163 162 163 162 160 159 161 161 160
160 160 160 159 158 158 158 158 159 159 158 158 157 157 157 157
26 32 48 78 89 87 91 82 65 52 51 58 60 70 97 122
128 128 123 135 151 146 156 154 148 145 150 143 127 119 91 49
32 32 34 53 66 77 89 105 96 89 94 101 118 114 110 86
52 50 67 88 72 26 32 57 67 62 87 111 127 133 116 82
88 121 145 153 143 130 120 129 122 135 139 107 104 121 99 83
93 122 120 138 142 102 69 67 89 78 106 138 137 128 116 148
161 168 161 162 178 158 169 170 142 128 118 138 140 137 151 153
170 193 190 166 103 85 135 133 119 145 164 182 179 169 192 192
168 123 140 141 128 142 168 201 198 142 127 127 133 85 73 92
148 172 166 182 118 66 63 8 4 3 2 2 6 10 11 9
16 22 83 118 118 142 150 154 141 132 134 139 134 111 107 111
108 87 107 113 74 62 58 43 77 97 93 77 80 97 82 56
79 84 48 82 127 118 133 121 101 101 119 123 117 101 94 99
105 99 64 81 73 48 60 57 53 53 52 26 29 53 53 33
51 59 65 60 33 14 10 17 22 36 58 131 185 194 191 191
190 190 191 191 192 192 192 191 190 189 188 189 190 191 191 190
188 189 190 189 187 185 185 186 189 187 187 187 186 185 185 187
186 185 183 183 184 184 182 181 185 184 184 185 185 183 182 182
179 181 181 180 180 181 181 181 181 180 179 180 180 178 178 178
178 178 178 178 177 175 174 175 175 175 175 174 174 175 176 176
173 174 174 174 173 173 173 172 173 174 174 172 171 171 171 171
173 172 168 169 171 171 173 171 171 170 169 167 166 166 168 169
167 168 168 168 168 169 169 167 168 167 166 165 166 167 169 170
168 167 162 160 164 166 165 164 165 164 163 163 162 162 164 166
164 164 163 162 160 159 159 159 160 160 160 160 160 160 159 159
22 37 62 81 76 63 81 92 62 51 48 58 66 61 55 84
109 124 120 131 143 149 148 147 143 127 132 123 117 117 101 50
31 35 45 73 88 97 96 94 82 89 100 104 114 101 101 102
69 63 80 115 95 39 46 74 83 95 110 129 143 145 127 105
94 110 138 148 136 115 124 133 135 145 146 127 108 110 90 62
80 110 127 138 144 119 96 108 129 88 96 147 152 135 129 158
147 164 176 165 178 169 172 182 178 161 143 128 137 166 171 152
171 193 195 154 114 117 150 174 143 161 196 198 180 191 189 176
181 147 137 157 126 145 172 168 164 162 140 139 129 98 87 75
145 172 177 170 119 54 59 10 2 8 1 4 6 9 9 13
11 43 111 110 130 135 146 149 140 132 108 116 132 106 104 116
109 107 114 112 71 107 77 88 67 87 97 80 81 88 80 56
49 83 123 103 81 78 117 148 137 98 103 123 138 112 78 101
100 98 70 96 82 88 82 70 79 55 67 66 58 70 77 45
68 74 72 68 53 17 16 16 24 31 44 125 182 191 193 190
192 192 193 192 193 194 193 191 189 190 191 191 190 190 191 192
191 192 193 191 190 190 191 191 188 188 188 188 188 188 188 188
184 185 186 186 186 186 185 185 184 185 185 184 186 188 186 183
183 183 184 184 183 183 183 183 182 182 182 181 181 180 179 179
177 180 180 179 181 181 179 179 180 178 177 177 177 177 177 179
175 175 176 175 174 174 174 175 175 175 175 174 174 174 174 174
174 174 170 171 175 173 172 176 173 172 172 171 172 172 171 171
171 171 171 170 169 169 170 171 171 169 168 168 168 167 166 166
167 167 167 167 167 166 165 165 168 166 165 166 165 163 164 168
164 162 164 165 163 162 162 162 162 160 159 161 163 163 161 160
57 72 92 91 70 71 100 100 79 74 78 93 102 89 64 72
97 110 116 126 139 147 143 137 126 108 90 92 98 101 67 39
38 47 63 93 110 107 98 94 93 98 110 107 95 93 107 111
103 76 82 97 76 53 77 94 106 103 113 125 130 135 134 115
111 106 113 125 117 92 101 117 117 124 123 123 130 126 116 110
117 130 124 116 122 135 137 141 147 99 94 125 136 126 111 127
138 144 173 179 172 154 166 178 203 204 188 167 157 168 148 145
172 173 155 149 126 134 151 170 163 177 182 186 193 198 185 159
158 150 154 145 142 136 135 150 176 190 169 156 130 96 87 98
129 177 168 162 130 64 62 19 5 3 6 4 6 15 13 17
14 57 96 106 113 142 146 145 145 122 92 100 123 127 115 125
112 109 120 104 74 51 70 99 87 95 99 106 103 92 72 57
42 54 96 171 104 35 63 102 153 167 96 124 142 132 122 126
110 76 93 108 96 107 109 83 70 57 93 94 96 70 60 67
77 76 79 73 70 41 17 19 26 26 36 110 185 194 194 195
193 193 193 193 193 194 193 192 192 193 193 193 193 193 193 194
191 192 193 191 190 191 191 191 189 189 188 188 188 188 188 188
186 186 187 187 187 186 185 184 185 186 187 186 187 188 188 185
186 186 186 186 186 186 185 184 184 184 183 183 182 181 181 181
181 183 183 181 183 183 181 181 180 180 180 181 181 179 177 178
179 179 179 178 178 178 177 177 177 176 175 175 175 175 175 175
177 177 174 174 177 174 173 177 176 175 174 174 174 174 174 174
173 173 172 172 172 172 172 171 173 171 170 171 171 170 168 168
169 168 168 168 168 167 167 167 167 166 166 167 167 165 166 168
166 164 166 167 166 165 165 164 167 165 164 164 165 164 163 162
88 104 113 98 81 89 111 99 85 95 105 113 115 105 86 93
109 115 123 129 134 132 123 109 89 71 56 71 91 98 66 62
75 85 98 117 126 107 96 100 112 118 119 107 91 94 106 113
109 74 55 51 56 69 99 119 113 106 115 127 128 118 120 111
98 89 93 121 126 97 95 105 89 100 98 93 112 128 145 154
157 159 133 105 102 129 147 159 153 111 90 85 104 146 134 130
147 146 153 154 145 124 139 171 170 176 177 181 167 163 130 143
177 151 125 139 138 117 134 178 135 132 162 176 188 166 152 159
165 145 152 142 141 128 109 147 183 191 185 181 161 115 128 121
109 151 153 156 139 64 60 36 6 2 4 5 7 11 13 15
23 53 109 121 117 152 120 141 145 143 107 113 127 123 125 112
112 131 115 105 95 49 73 102 110 90 70 97 82 67 40 62
61 63 53 109 115 41 54 90 91 124 131 128 131 124 119 93
70 59 118 110 95 124 107 72 81 109 98 71 48 51 88 77
70 75 88 99 87 70 30 22 21 28 44 102 185 191 192 195
195 195 195 194 195 195 194 193 194 194 194 194 194 194 194 193
192 193 193 192 192 192 193 192 190 190 190 190 190 190 189 189
189 189 189 189 189 188 188 187 187 189 189 189 189 190 190 188
187 186 186 187 188 188 186 184 186 186 186 185 185 184 184 184
184 186 185 183 184 184 182 183 180 181 182 183 182 180 179 179
182 181 181 181 181 181 180 179 180 180 179 179 179 179 178 178
180 180 178 177 178 176 175 178 177 177 176 175 176 176 176 176
175 175 174 174 174 175 174 173 173 172 172 173 173 172 170 170
171 171 171 170 170 170 170 170 167 167 169 169 170 169 169 169
167 165 166 168 167 167 167 164 167 166 165 165 165 165 165 165
108 113 104 92 97 105 110 100 85 100 109 112 116 120 111 114
116 117 126 137 138 125 120 101 62 39 49 67 100 115 108 107
119 124 124 125 125 100 96 111 125 131 111 84 85 85 84 98
97 65 35 39 73 97 120 134 124 117 119 128 132 102 96 98
81 85 96 130 138 111 104 109 101 113 107 74 80 120 138 126
148 163 140 112 110 131 142 158 145 119 119 122 109 156 163 146
158 160 143 134 149 148 146 155 167 163 175 195 183 170 152 168
181 141 126 163 158 128 151 154 160 149 148 144 179 157 140 162
158 161 183 179 189 191 135 123 164 167 167 159 147 103 97 65
69 69 126 163 136 63 78 59 3 4 11 7 8 20 13 20
31 84 155 139 131 114 122 149 123 133 125 134 127 147 110 101
118 124 126 130 118 115 88 89 111 55 61 66 61 64 61 64
87 85 76 54 75 78 85 83 95 99 86 104 119 84 77 86
101 124 130 135 109 76 105 106 110 92 60 44 45 78 96 81
79 79 85 108 101 86 52 29 32 34 43 91 179 194 196 194
196 196 196 196 196 196 196 195 195 195 194 195 195 195 194 193
194 194 193 193 193 194 194 193 192 192 192 193 192 192 192 192
190 191 191 191 191 191 191 191 190 192 192 191 191 191 191 190
187 187 187 187 188 189 188 187 188 188 188 187 187 187 186 186
186 187 186 185 185 185 184 185 183 183 184 183 183 182 183 184
183 183 182 183 183 183 182 181 183 183 182 182 181 181 181 181
181 181 180 179 179 178 178 180 179 178 177 177 177 177 178 178
179 178 176 175 175 176 176 177 175 175 174 174 174 174 173 173
174 174 173 173 172 172 172 172 170 171 172 172 172 173 172 170
168 167 168 170 168 168 168 166 167 166 165 166 166 165 165 166
104 89 73 74 94 101 106 108 97 109 108 106 113 124 117 113
125 128 129 138 134 122 129 107 56 31 47 63 107 133 139 131
136 135 127 122 123 104 104 115 123 125 96 55 62 62 67 93
104 70 40 63 106 121 136 136 124 116 116 128 136 108 102 96
75 90 110 141 142 111 95 94 104 105 97 73 85 125 115 93
116 143 140 127 132 151 153 153 144 128 119 150 138 158 187 149
151 161 159 150 160 178 177 147 163 159 175 206 220 200 189 189
173 131 121 136 135 161 162 156 181 161 125 134 158 149 154 157
148 194 204 152 158 156 128 128 137 142 144 155 135 90 65 85
129 115 120 143 161 117 97 63 2 8 3 14 14 14 18 34
79 129 151 122 115 105 122 132 109 125 151 134 129 127 117 124
125 113 121 131 80 80 82 97 117 80 83 85 78 73 65 90
104 85 66 53 43 46 97 75 66 119 128 125 92 65 114 169
143 101 117 101 65 64 107 99 97 100 58 70 92 76 98 93
88 105 115 113 104 96 79 36 32 32 41 93 178 196 198 196
196 196 196 196 196 196 197 197 198 197 197 197 197 197 196 195
195 195 194 194 195 196 196 194 194 194 195 195 194 193 193 194
192 192 192 192 192 192 192 191 193 194 194 193 192 192 192 191
191 190 190 190 190 190 191 191 189 189 189 188 188 188 188 188
188 189 188 187 188 187 186 189 187 187 186 185 185 185 187 188
184 184 184 184 184 185 184 184 182 183 183 182 181 180 181 182
181 181 182 181 180 180 182 181 181 180 180 179 179 179 180 180
181 181 180 178 177 177 178 179 179 178 177 176 176 177 177 177
176 176 175 175 174 174 174 174 174 174 174 173 173 174 173 172
170 170 172 172 170 170 171 169 170 168 168 168 169 167 166 165
77 60 58 71 89 95 105 109 112 115 109 108 114 119 106 96
105 118 125 133 124 115 120 92 43 32 46 67 113 139 139 135
137 133 124 121 121 112 108 105 110 112 97 55 53 60 84 114
127 95 57 78 120 124 134 140 139 128 129 138 134 119 117 91
66 77 102 140 146 119 86 72 84 72 63 71 103 126 108 112
113 124 134 130 124 127 130 123 138 149 97 123 143 126 166 145
141 143 151 156 157 159 164 144 121 142 165 178 174 143 166 205
201 140 96 127 120 131 178 159 142 138 119 157 169 159 148 172
179 200 155 100 110 94 80 107 145 146 156 177 138 130 149 121
175 139 86 134 174 113 72 72 14 14 11 10 9 16 27 54
100 122 91 103 117 109 112 108 96 131 126 138 136 106 136 129
114 126 125 116 95 99 69 98 124 107 47 108 93 73 67 63
62 95 102 72 59 71 84 62 41 83 120 89 121 107 92 165
149 107 121 72 89 135 81 76 76 99 109 103 108 107 84 97
98 60 62 113 108 101 85 54 33 32 40 101 182 195 195 197
196 196 196 196 197 196 197 198 199 199 198 198 198 197 197 197
197 197 196 196 196 197 197 196 195 196 197 196 195 194 193 194
195 195 194 194 193 193 193 192 195 195 194 194 193 193 192 192
195 194 193 192 191 191 192 193 191 191 190 189 189 189 189 189
189 190 189 188 189 188 188 191 189 189 188 187 187 187 187 187
185 185 185 185 185 186 186 187 184 185 185 184 183 182 183 184
183 183 184 184 182 184 186 184 182 182 182 182 181 181 181 182
180 181 182 181 180 179 179 179 181 181 180 178 178 179 179 179
178 178 178 177 177 176 176 176 177 177 176 174 174 174 174 174
172 172 174 174 171 171 172 171 171 170 169 170 171 170 168 167
73 71 75 78 91 98 100 95 98 93 86 97 104 99 81 70
82 100 121 131 112 92 74 47 34 31 48 78 118 131 128 130
134 133 124 112 95 93 96 90 94 97 93 61 57 77 102 123
129 107 76 86 118 115 115 122 122 122 133 146 137 133 140 117
93 90 106 137 150 145 119 106 107 95 78 86 111 118 113 128
122 118 125 115 97 82 92 98 126 132 66 102 152 133 144 140
134 125 124 140 153 124 121 127 75 115 150 156 140 130 169 219
239 151 81 120 137 109 142 150 146 140 162 188 179 186 172 184
177 176 119 109 149 118 87 107 118 160 162 160 133 118 141 113
168 145 64 79 128 97 78 89 53 0 18 19 18 21 37 107
86 91 109 108 137 107 104 128 130 129 102 101 128 109 126 102
124 146 112 94 99 78 53 92 98 106 81 84 80 82 45 44
73 108 90 76 68 87 73 59 43 77 118 117 136 120 76 108
158 135 128 131 117 120 94 66 111 119 103 120 90 74 82 94
113 68 41 99 96 92 91 71 59 50 34 88 182 197 198 198
198 197 197 198 198 197 198 199 200 199 199 198 197 197 198 198
198 199 198 197 197 198 198 197 195 196 197 197 196 195 195 195
197 197 196 196 195 195 195 195 197 196 195 195 195 195 195 194
197 196 194 193 193 193 193 193 194 193 193 192 191 191 191 192
190 191 190 190 191 189 189 192 190 190 189 188 189 190 189 187
188 187 186 186 187 188 188 188 188 188 188 188 188 188 188 187
186 185 187 186 184 187 189 184 183 184 184 184 184 184 183 184
181 181 182 183 182 182 181 180 182 182 182 181 180 180 180 179
180 180 180 179 179 178 178 177 179 178 177 177 176 175 176 178
175 175 176 175 172 173 174 172 172 171 171 172 173 172 172 172
93 103 92 71 85 94 84 73 63 58 54 64 61 52 51 62
78 86 110 121 98 81 59 49 42 29 49 84 119 118 120 120
128 131 121 95 59 61 79 82 81 83 74 50 54 83 97 107
98 82 84 96 106 98 87 74 75 98 125 152 146 136 141 131
116 108 114 126 132 144 137 135 144 140 121 110 117 120 128 121
120 121 121 100 93 81 96 111 136 126 79 102 128 153 152 142
132 129 125 128 132 88 88 110 118 158 186 169 134 152 180 199
210 135 92 150 170 136 118 126 136 151 190 187 162 160 180 199
178 167 124 132 194 116 66 83 93 145 160 153 144 161 146 117
170 169 120 70 81 112 143 115 48 15 12 13 17 24 88 128
102 131 141 131 146 120 118 133 116 128 122 117 122 128 113 104
102 131 146 98 101 98 88 65 76 108 122 93 73 104 85 88
74 88 90 84 90 53 47 58 49 51 100 153 118 113 132 78
107 130 131 112 115 107 98 104 144 120 85 93 70 60 92 98
107 107 55 74 109 93 105 82 72 69 42 81 180 197 201 199
200 199 199 200 199 198 199 201 200 200 200 199 198 198 199 200
199 200 200 198 198 198 198 198 194 196 197 198 197 197 197 198
196 196 196 196 196 196 196 196 199 197 196 197 198 198 197 196
198 197 195 195 196 196 195 195 197 196 195 194 194 194 194 194
192 193 193 193 193 191 191 194 193 192 191 190 191 193 193 191
193 191 189 189 190 192 191 191 191 190 189 189 191 191 190 189
188 187 188 187 185 188 190 184 186 187 188 188 187 187 186 186
185 184 183 184 185 185 185 184 183 185 185 184 183 183 182 180
181 181 181 181 180 179 179 178 180 178 178 179 178 176 178 182
179 178 178 176 175 176 177 174 176 175 175 175 174 173 174 175
112 111 96 83 85 89 67 52 36 37 36 33 24 24 40 51
60 84 106 109 88 64 58 59 52 53 67 86 102 111 114 119
118 128 102 65 36 47 70 76 66 71 58 43 56 75 79 83
87 89 103 107 103 82 80 65 59 86 125 144 136 120 113 119
100 116 112 101 117 138 142 139 144 134 114 92 94 119 133 129
116 122 99 93 93 106 120 142 161 137 90 65 79 113 167 154
134 149 150 135 163 138 117 142 154 173 201 229 192 162 171 180
161 125 109 174 217 194 131 119 125 157 174 176 173 186 174 175
171 158 116 148 128 48 57 132 104 102 177 165 144 167 166 146
171 202 142 80 73 156 165 90 56 25 14 15 31 74 117 136
132 143 134 119 136 128 128 124 102 98 130 151 162 154 141 119
85 74 111 117 131 147 127 104 103 95 88 99 90 77 97 83
64 66 87 72 61 40 45 85 63 36 85 74 105 81 127 101
53 156 136 103 125 102 84 127 113 73 75 52 69 109 116 112
92 96 89 65 78 84 112 89 62 73 53 69 173 203 198 198
198 201 203 202 200 200 200 201 198 199 199 200 200 200 201 202
200 199 199 198 198 198 199 199 198 198 198 198 198 198 198 197
197 198 197 196 196 197 198 198 197 196 196 197 198 198 197 196
195 197 197 196 195 195 195 194 194 195 196 196 196 196 195 195
194 194 195 195 195 196 196 196 197 194 192 192 193 193 192 192
191 192 191 191 191 192 193 193 192 191 191 192 193 192 191 191
190 192 192 189 188 189 189 188 185 187 189 189 188 188 188 187
188 187 187 186 186 187 188 190 186 184 184 186 187 186 185 185
185 185 184 184 182 181 181 183 181 180 182 182 180 180 181 179
176 178 178 177 176 178 179 180 176 177 177 177 177 176 175 175
105 104 98 95 95 92 63 40 21 32 28 19 17 19 26 30
45 88 115 105 77 63 72 80 81 88 94 87 79 91 114 124
113 98 59 47 45 42 52 62 62 77 70 46 45 58 71 89
95 96 108 113 107 91 95 90 80 90 123 134 105 88 91 83
76 94 89 91 123 144 144 128 103 79 84 81 77 101 125 142
131 116 98 89 89 124 142 153 154 148 107 63 90 106 164 179
166 144 128 148 176 185 179 161 161 165 157 187 196 144 133 130
121 119 129 144 177 173 114 96 130 154 162 172 193 184 158 170
204 182 127 152 111 67 118 136 119 99 133 129 145 156 158 157
130 140 162 120 63 118 152 113 60 41 9 22 29 57 117 143
132 122 150 114 98 127 126 128 94 96 150 169 159 155 151 141
88 113 109 86 102 113 118 81 70 68 56 62 71 61 43 42
43 50 71 93 55 62 63 88 50 49 65 45 88 126 151 122
68 181 138 76 91 105 85 110 100 53 86 150 146 104 91 100
114 99 59 63 81 99 106 102 69 73 67 63 164 203 197 202
200 202 203 202 201 202 202 201 199 199 201 201 201 201 202 202
201 201 201 200 200 200 200 200 200 200 201 201 201 200 200 200
199 201 201 199 198 199 200 201 199 198 198 199 200 200 199 198
197 198 198 198 197 198 198 197 195 195 196 196 197 197 196 195
197 197 197 197 197 197 197 197 195 194 194 194 194 194 194 195
194 195 195 193 192 193 194 194 193 192 192 193 194 193 192 193
192 193 193 191 190 192 192 190 191 191 190 189 189 190 191 191
190 190 190 189 188 188 189 191 188 187 187 188 188 187 187 188
188 188 187 186 184 182 182 184 183 182 184 184 182 182 182 180
180 180 180 179 179 180 181 180 181 181 180 179 178 177 176 176
115 107 97 84 69 63 42 25 28 32 23 22 26 20 20 31
61 109 129 104 76 78 100 110 107 105 100 91 80 95 120 117
94 76 55 67 68 38 40 60 75 91 80 55 59 74 77 84
90 95 105 109 96 85 91 92 77 85 116 127 93 78 88 75
72 97 100 103 126 136 140 122 93 65 72 75 71 104 140 151
135 108 108 94 72 102 125 141 139 140 112 54 90 113 170 185
175 133 115 154 167 140 145 179 166 144 153 161 156 144 81 91
111 124 101 96 125 135 148 136 142 154 150 147 172 170 146 174
203 167 145 184 152 107 135 123 95 80 58 124 218 177 164 171
135 148 176 130 65 82 131 96 60 66 21 20 46 75 108 124
175 201 166 141 139 123 112 129 118 167 160 147 162 169 174 161
166 168 172 142 135 118 120 106 91 108 118 69 90 98 85 77
58 78 89 88 78 78 60 71 69 39 40 28 74 120 148 132
106 131 124 119 118 147 122 82 104 104 112 134 125 119 64 45
71 92 83 107 113 119 102 98 77 74 75 74 179 201 199 203
201 202 201 201 201 202 202 200 200 201 202 203 203 202 202 202
203 203 203 202 202 201 201 201 202 201 201 201 201 201 201 201
200 202 203 201 200 200 201 202 201 201 201 201 201 201 201 201
199 200 200 199 199 199 199 199 197 197 197 198 199 199 198 197
199 199 198 198 198 198 197 197 196 196 197 197 196 195 195 197
197 199 199 196 194 194 195 195 195 194 194 195 195 195 195 195
194 194 193 191 192 194 193 191 194 193 191 190 190 192 192 192
191 191 192 191 189 188 190 191 189 189 190 190 189 188 188 190
188 188 188 188 186 184 185 187 185 184 185 186 185 184 184 182
183 183 181 181 182 183 181 179 185 183 181 180 178 178 178 178
123 119 112 87 50 40 35 30 44 48 34 25 28 28 32 41
79 124 142 123 106 111 124 125 109 98 98 110 106 110 124 109
78 60 53 70 68 44 59 75 95 109 95 70 83 103 101 98
96 109 118 112 84 72 68 64 63 87 116 132 111 93 102 98
102 111 120 121 120 111 121 121 101 75 53 57 76 122 161 153
131 102 104 95 74 93 108 124 129 126 118 75 94 107 132 155
137 123 140 152 147 112 133 185 170 145 153 140 141 133 78 120
175 151 115 115 114 120 173 197 197 155 130 165 166 168 158 133
145 139 145 147 141 139 173 177 109 77 103 134 175 174 167 168
168 186 172 113 87 82 109 78 85 104 25 28 108 124 114 87
133 161 130 151 135 116 143 151 159 157 151 120 146 184 155 150
162 187 195 165 153 128 130 133 107 76 135 102 80 77 80 83
75 52 86 102 91 97 83 83 86 68 65 55 74 95 109 165
121 77 133 91 92 134 129 86 103 129 106 77 91 102 43 52
100 124 122 105 97 105 107 93 81 71 77 51 151 203 204 200
202 202 201 200 201 202 202 201 203 203 203 203 203 203 203 203
204 203 203 202 202 202 202 203 203 202 200 199 199 201 202 203
200 202 203 202 201 201 201 201 202 202 202 202 202 202 202 203
201 202 202 200 199 199 199 199 199 199 199 200 201 201 200 200
200 200 199 199 199 199 198 198 199 199 199 199 198 197 196 197
200 201 200 198 196 195 196 196 197 196 196 196 197 196 196 197
195 195 194 193 193 195 194 193 193 194 194 193 194 194 194 192
192 193 193 192 191 191 191 191 191 191 192 192 191 190 191 192
189 189 190 190 188 187 188 190 187 185 187 188 187 186 186 184
186 185 184 184 185 185 183 180 184 184 183 181 180 179 180 181
126 129 130 101 51 39 45 49 45 43 32 28 32 38 55 71
103 131 142 137 132 129 128 126 119 101 104 128 126 119 122 103
66 40 36 46 52 65 94 90 97 109 104 93 108 121 111 106
106 126 135 118 81 71 59 47 56 87 118 140 129 106 112 120
119 94 100 111 111 106 111 117 106 92 66 76 109 139 156 141
119 99 92 92 94 106 112 127 131 134 133 110 111 123 99 115
125 146 167 147 137 111 137 179 149 128 116 86 79 116 106 134
174 126 142 195 164 134 153 194 176 112 127 178 189 196 159 124
131 145 139 118 135 169 183 175 135 96 132 152 145 173 191 147
142 179 176 147 152 114 63 89 98 125 68 7 67 126 141 122
96 97 120 122 96 120 131 157 172 153 139 115 106 120 123 132
147 150 162 170 179 157 139 123 115 123 108 120 100 87 68 101
87 80 68 100 108 88 88 74 80 83 63 66 74 54 81 130
113 93 102 132 119 103 75 83 93 102 104 80 82 89 102 126
128 94 88 102 107 106 108 97 91 55 76 29 88 197 204 202
203 204 204 202 202 203 204 204 205 204 203 203 203 203 203 203
204 204 203 202 202 203 204 205 204 203 202 202 202 202 204 204
202 203 203 203 203 203 202 201 202 203 203 202 202 202 202 202
201 202 202 201 200 200 200 199 200 201 202 202 201 201 201 202
201 201 201 201 201 201 201 201 201 199 199 200 201 200 199 198
201 201 201 199 198 198 198 197 199 198 198 198 198 198 198 199
198 198 197 196 196 196 196 195 194 196 198 198 197 198 197 196
195 194 194 194 195 195 194 193 194 194 193 193 193 193 194 194
193 193 193 192 191 189 189 190 190 187 188 190 189 189 189 188
188 189 188 188 188 188 187 185 184 186 186 185 183 182 182 184
110 116 123 102 55 45 56 65 52 42 36 47 53 54 77 107
135 135 127 130 137 133 128 130 124 105 100 112 108 104 110 102
75 39 27 37 60 96 109 83 80 94 107 112 117 110 99 102
114 131 138 116 82 74 60 44 54 78 117 147 135 105 104 114
117 90 89 95 103 115 106 95 101 114 115 115 123 128 125 120
103 93 87 98 113 110 113 134 135 137 140 126 107 132 111 112
138 179 182 159 136 122 143 156 141 112 143 138 101 138 117 114
150 76 104 182 155 117 113 161 143 92 123 170 200 189 162 152
123 167 184 153 144 170 138 133 137 117 144 143 122 165 197 154
141 126 152 183 159 122 59 57 107 113 101 18 29 95 113 136
138 140 114 122 133 140 130 128 117 110 102 94 97 97 92 94
120 147 138 136 173 178 160 139 139 126 111 80 82 97 89 100
42 61 82 103 104 98 87 84 75 61 83 57 53 46 53 68
159 118 60 156 102 83 131 115 64 85 94 85 95 86 72 99
146 82 66 111 109 104 97 106 102 51 67 39 44 161 207 205
203 204 205 204 203 204 205 205 205 205 204 203 203 203 204 204
205 204 203 203 203 204 205 206 203 203 204 204 204 204 204 204
203 203 203 203 203 204 203 201 203 203 203 202 202 202 202 202
201 202 203 202 202 202 202 201 201 202 203 203 202 201 202 202
202 202 202 202 202 202 202 202 201 199 199 201 203 203 202 200
202 202 201 200 201 202 201 199 201 200 200 201 200 199 199 200
199 199 199 198 197 197 197 197 197 199 200 199 198 199 199 199
196 195 195 196 197 197 196 194 195 195 194 193 193 194 194 194
193 192 192 193 193 191 191 192 193 190 190 192 192 191 192 191
189 190 190 190 189 189 189 188 186 187 188 187 185 183 183 184
83 88 104 99 66 58 69 81 77 74 66 70 75 69 83 111
138 127 115 126 139 129 123 131 117 99 85 78 70 75 93 105
99 59 39 53 87 112 91 65 67 85 108 113 102 90 93 113
128 133 136 116 87 76 60 45 58 72 111 146 135 97 86 99
128 120 105 92 86 94 82 76 111 136 149 139 118 112 124 126
101 97 95 101 112 111 105 113 122 119 134 136 96 95 118 141
148 168 162 137 110 152 185 147 120 120 174 176 165 170 160 113
97 62 89 139 132 111 107 131 122 91 143 161 164 155 162 187
131 143 196 207 167 144 106 119 101 137 145 111 118 158 174 150
112 105 147 179 131 100 83 53 90 88 99 68 10 56 110 112
118 122 134 147 130 115 98 78 56 42 68 81 87 90 96 106
94 134 123 129 141 139 178 141 181 149 101 103 82 78 76 87
76 73 72 89 89 96 70 70 37 54 81 60 25 38 37 37
112 148 121 98 47 119 169 156 116 102 104 108 93 71 73 121
141 109 86 88 63 62 62 83 107 58 52 37 25 99 199 204
202 204 205 204 203 204 205 206 204 204 204 204 205 205 205 204
205 204 204 204 204 205 205 206 203 203 204 204 204 204 204 204
203 204 204 203 203 203 203 202 204 204 203 204 204 204 203 202
201 203 204 204 204 204 203 203 203 204 204 204 203 202 202 203
202 202 202 202 202 202 203 203 201 200 201 202 204 204 203 204
201 202 202 202 202 203 203 202 203 202 203 203 202 201 200 201
201 200 199 198 199 199 198 198 200 201 200 199 198 199 199 199
197 196 196 197 198 198 197 196 196 197 197 195 194 194 195 195
193 192 192 194 195 195 195 195 196 192 192 194 193 192 193 192
190 191 191 190 190 190 190 189 188 188 188 188 187 186 185 185
80 79 93 95 68 61 74 91 97 90 78 87 92 70 74 110
133 126 118 127 129 110 106 122 129 98 69 57 62 76 91 104
98 79 74 90 112 105 64 62 64 78 99 106 100 96 101 114
129 124 128 116 95 81 64 52 59 68 100 137 135 97 81 105
138 136 108 90 68 60 60 85 123 139 146 150 120 106 132 125
108 118 120 94 87 97 90 76 93 108 130 136 106 82 125 159
158 148 144 146 139 165 175 152 125 103 148 167 148 148 149 75
82 131 104 102 93 87 155 144 104 150 166 144 162 169 173 177
134 111 170 216 168 144 162 143 123 112 129 145 150 150 161 133
102 111 155 153 130 120 144 108 76 98 79 73 13 11 46 99
125 132 117 110 106 90 83 77 58 43 72 68 61 62 76 101
106 88 75 99 135 152 191 144 135 154 67 82 120 69 68 107
75 75 83 70 105 103 91 85 59 36 60 90 60 59 79 46
28 114 193 70 74 123 124 129 91 65 66 75 93 104 140 96
74 71 78 81 77 63 68 105 115 48 38 36 38 49 169 208
204 205 206 205 205 206 207 207 203 203 204 206 207 207 206 205
204 204 205 205 205 205 204 204 206 205 204 203 203 204 206 207
204 205 205 204 203 204 204 203 206 205 204 205 206 206 204 203
202 204 205 205 204 204 203 202 206 206 205 205 204 204 204 203
204 204 204 204 204 204 204 204 202 202 203 204 204 203 204 205
200 202 203 202 202 203 204 203 204 204 204 205 204 202 201 202
203 201 199 200 201 202 201 200 202 202 201 200 200 200 199 197
199 199 199 199 199 199 199 198 199 201 201 198 196 196 197 197
197 195 194 196 198 199 198 197 198 193 192 194 192 192 192 192
192 192 192 191 191 192 191 190 191 190 189 189 189 190 189 188
79 57 65 74 70 71 71 76 74 76 83 84 94 89 78 107
133 123 109 114 123 105 85 91 110 100 72 56 58 71 89 91
89 91 102 111 107 90 81 70 70 76 96 114 118 115 113 117
120 122 121 108 99 85 76 46 41 57 93 132 135 100 94 106
123 112 98 84 59 50 71 114 135 119 135 143 122 109 102 93
103 125 145 106 64 77 88 81 92 111 110 114 105 94 112 147
149 141 134 147 177 162 154 146 120 87 110 144 149 114 95 66
70 154 134 78 93 135 186 146 122 169 170 145 146 181 190 169
133 118 155 189 170 179 209 199 163 142 120 134 146 137 145 118
98 127 166 157 150 141 183 127 82 111 69 83 67 5 24 44
67 85 79 75 75 63 63 52 48 43 63 72 81 88 94 106
115 112 110 107 94 102 176 197 143 154 83 64 115 114 114 109
53 61 50 55 84 80 79 82 76 48 63 93 57 60 60 73
64 72 117 80 140 135 124 116 54 37 60 127 112 93 86 69
85 113 103 98 113 103 73 109 114 74 43 44 49 54 101 200
200 204 202 203 206 207 204 208 206 206 205 205 206 206 205 205
204 205 206 206 205 204 204 205 207 207 206 206 206 207 207 207
206 206 206 206 205 205 205 205 207 207 207 206 205 205 207 208
204 203 203 204 206 207 206 204 205 204 204 206 206 206 205 205
206 204 204 206 206 205 204 204 204 204 204 205 205 203 204 205
204 204 204 205 205 203 204 205 205 204 204 205 205 204 204 205
202 203 204 203 203 203 202 201 204 204 203 202 201 202 201 199
201 202 202 201 201 201 201 200 200 199 199 199 199 200 200 200
197 196 196 197 197 197 198 199 196 197 197 196 197 197 197 195
196 195 193 193 193 193 192 192 191 192 192 191 191 193 193 192
95 64 54 82 110 117 98 67 74 88 96 96 101 103 105 118
124 111 97 98 106 92 74 82 100 102 73 58 52 48 54 73
85 111 127 115 99 95 103 96 96 107 124 134 136 134 127 120
123 121 120 112 93 88 96 46 26 50 94 129 134 104 95 93
94 88 90 96 77 85 111 135 123 102 107 118 115 106 93 83
84 121 141 138 112 93 92 77 83 92 86 84 77 89 123 118
122 126 118 156 174 139 125 123 111 73 123 150 125 91 92 136
137 136 112 67 134 187 169 118 81 136 171 147 134 154 160 146
108 122 163 179 171 174 165 161 166 161 113 112 160 152 131 124
114 161 168 111 135 169 173 161 118 113 74 60 110 44 11 18
29 46 61 44 39 49 45 42 45 73 85 66 89 105 112 114
133 114 112 114 119 106 91 172 155 141 163 118 64 95 156 97
46 78 74 91 71 43 43 47 43 54 60 70 63 42 55 71
64 63 46 125 131 140 141 87 49 72 120 119 77 103 129 130
115 117 85 63 92 93 71 114 105 81 46 50 55 66 45 132
206 200 206 205 204 206 209 206 209 208 206 206 206 207 207 207
206 206 206 205 205 205 206 208 206 207 207 207 207 207 207 207
206 206 206 206 207 207 206 205 206 207 207 207 206 206 206 207
207 206 206 206 207 207 207 207 205 204 204 206 206 206 206 206
206 205 204 206 206 205 204 204 206 205 205 206 206 205 205 206
205 205 205 206 206 206 206 207 204 204 205 206 206 205 205 207
204 204 204 203 204 206 206 205 204 204 204 204 204 203 203 203
203 203 203 202 203 203 203 201 202 201 201 201 201 202 202 201
200 199 199 199 199 199 199 200 198 198 198 197 197 198 197 196
198 197 195 195 195 195 194 194 194 194 194 193 193 194 194 193
110 86 64 94 135 149 134 89 82 100 101 106 116 124 130 117
98 76 69 81 99 90 67 73 100 99 63 49 39 34 44 76
96 128 147 129 107 103 117 119 114 122 131 138 142 138 127 114
119 127 123 117 96 84 102 58 14 36 83 121 136 111 99 89
92 88 84 95 99 122 131 115 85 81 89 104 124 129 111 90
92 119 123 137 139 120 115 104 110 110 90 74 80 93 128 141
135 119 115 149 156 143 130 94 91 126 153 197 164 104 101 162
184 161 87 74 141 137 131 68 41 63 134 143 136 146 148 124
74 132 177 173 165 120 102 148 154 143 68 126 202 188 150 137
177 195 118 57 126 188 174 154 114 113 102 79 79 117 26 11
30 48 47 75 61 30 43 40 116 200 150 67 97 97 104 122
115 121 113 114 105 109 87 97 131 147 151 116 95 76 111 87
39 75 61 70 81 56 69 66 74 72 87 111 86 68 57 48
31 41 41 85 89 125 131 68 69 122 110 67 79 117 116 118
140 114 112 101 103 107 100 82 80 97 63 45 58 84 62 73
185 205 206 209 206 204 211 204 208 207 206 205 206 206 206 207
207 207 206 206 206 207 208 209 207 207 207 206 206 207 208 208
208 207 207 207 209 209 208 206 207 208 209 210 209 208 208 208
207 207 207 207 207 207 207 207 207 206 205 206 207 207 207 207
207 206 205 206 207 207 206 205 207 206 206 207 208 207 207 207
206 205 205 206 207 207 207 207 205 206 207 207 206 205 206 208
205 204 204 204 205 207 208 207 204 204 205 207 206 205 206 208
206 205 204 204 205 206 205 203 204 203 203 203 203 203 203 203
203 202 202 202 202 201 200 201 200 200 200 199 199 199 199 198
199 198 197 197 198 198 197 197 196 197 197 196 196 196 195 194
90 73 48 71 118 149 142 97 78 97 98 104 113 123 133 120
88 55 57 88 114 97 60 61 97 94 70 62 51 53 68 88
108 127 138 128 116 112 125 129 120 117 118 131 137 127 117 112
114 121 119 121 103 81 98 73 15 21 65 112 135 107 88 76
85 83 66 75 106 135 127 88 62 78 100 122 144 149 127 101
105 118 117 115 125 127 127 137 142 140 117 95 110 110 111 149
157 145 151 143 141 135 132 135 137 156 148 191 197 138 104 166
187 179 121 118 161 100 71 99 65 104 105 93 87 127 134 98
66 123 174 169 140 88 111 134 142 115 100 141 188 197 194 164
156 169 136 86 111 152 142 131 117 117 130 128 69 102 131 26
10 43 59 49 70 74 63 133 201 196 115 86 100 118 124 132
135 131 114 116 114 115 102 84 107 150 135 93 145 148 110 62
45 108 98 79 82 88 94 89 106 72 36 86 105 86 52 80
67 50 51 102 114 103 87 72 102 136 81 69 81 117 95 115
115 78 83 91 70 88 109 81 95 120 93 60 67 78 75 32
125 208 202 209 210 205 208 206 206 206 206 207 207 206 205 205
208 208 208 208 209 209 208 208 209 208 207 206 206 207 209 210
209 208 208 209 210 209 208 207 208 209 210 211 210 209 209 209
207 207 208 208 207 207 207 208 209 208 207 208 208 207 208 209
209 208 207 208 209 209 208 207 208 207 206 207 209 209 208 207
207 206 206 207 208 208 207 207 207 207 207 207 207 206 207 208
206 206 205 206 208 209 208 205 205 204 205 208 208 206 207 209
208 208 206 205 205 206 206 205 204 204 204 204 204 204 204 203
204 203 203 204 203 202 201 202 202 202 202 201 201 201 201 200
199 199 198 199 200 201 200 200 197 198 198 198 198 197 196 195
51 44 32 48 92 131 125 87 76 83 76 78 93 109 124 126
91 55 64 104 122 91 50 54 85 107 111 104 88 74 74 75
87 109 125 126 128 126 127 118 121 115 114 128 131 116 110 115
113 107 114 122 104 76 81 62 18 15 51 99 125 99 78 71
55 54 54 78 116 132 129 104 79 94 121 147 158 149 132 117
104 108 108 100 107 111 104 112 123 131 125 111 114 116 103 121
131 124 147 139 121 109 123 174 193 161 136 143 162 132 106 148
177 164 128 133 151 109 103 174 159 137 122 98 130 166 109 83
108 126 141 140 109 91 152 168 174 165 139 133 144 171 184 189
147 174 202 164 125 127 154 137 104 125 127 118 103 71 141 119
15 14 39 71 66 67 162 203 142 146 104 79 113 99 82 125
146 135 111 105 104 103 113 115 108 117 131 128 155 130 101 55
54 85 112 103 100 93 87 98 87 102 61 63 95 101 89 64
44 75 64 77 83 53 77 134 148 143 117 88 66 110 121 132
104 61 90 114 97 110 126 102 85 99 92 59 53 79 73 44
63 185 207 205 210 207 206 208 207 207 208 209 208 208 207 206
209 208 208 209 209 209 208 207 208 209 208 208 208 208 209 210
209 210 210 210 209 209 208 208 209 209 210 210 209 209 209 209
207 209 210 211 210 210 210 210 211 210 210 210 209 209 209 210
210 209 209 209 210 210 210 209 209 208 208 208 210 210 209 208
209 209 209 209 209 210 209 208 208 207 207 207 208 209 208 208
209 208 208 208 210 211 209 207 207 205 205 209 210 208 207 209
209 209 209 207 206 206 206 206 205 205 205 205 205 205 205 204
205 204 204 205 204 203 203 203 203 203 202 202 202 203 203 202
201 200 200 200 201 202 201 200 198 198 199 200 200 199 198 197
20 22 29 43 75 111 112 89 83 75 56 48 63 89 111 124
87 59 68 95 96 64 39 50 87 126 138 125 100 66 52 53
65 94 125 141 145 131 118 105 119 124 123 131 129 113 110 114
108 109 121 123 103 57 38 28 22 28 61 102 124 104 78 71
52 49 73 113 127 115 115 113 106 118 128 138 140 132 125 120
113 113 103 101 104 93 84 89 104 114 113 119 118 121 110 92
84 105 133 137 104 100 119 151 178 177 141 141 139 127 104 109
148 172 129 121 117 80 101 165 169 155 138 105 159 168 73 90
136 163 143 114 103 140 191 199 198 201 178 123 118 137 178 165
135 145 195 207 176 122 127 131 91 91 93 101 107 111 99 129
102 23 12 32 34 85 206 175 112 121 91 41 49 43 76 121
127 105 103 106 114 116 95 123 102 120 132 142 154 71 52 81
56 73 118 93 99 87 80 102 93 112 83 72 106 100 92 90
58 81 86 47 58 28 102 162 131 126 83 74 101 98 94 175
139 98 114 132 118 100 93 138 95 105 111 77 44 66 69 44
39 137 214 206 208 208 207 207 208 209 209 209 208 208 208 208
210 209 208 208 207 208 208 209 207 209 210 211 211 210 210 210
210 211 211 210 209 209 209 209 211 211 210 210 210 210 210 211
208 210 211 212 211 211 211 211 212 211 211 211 211 210 210 211
211 210 210 210 210 211 211 210 210 210 210 210 211 212 211 210
210 211 210 210 210 210 210 209 208 208 208 208 210 211 211 209
210 209 208 208 209 211 211 210 210 208 208 210 211 210 209 209
209 211 211 209 207 207 207 208 207 207 207 207 207 207 206 206
207 206 206 206 206 205 205 206 203 204 203 203 203 204 204 203
204 203 202 202 202 202 201 200 199 199 200 202 202 201 200 200
21 18 29 48 72 101 112 101 97 94 75 53 50 78 114 126
82 63 63 69 65 54 51 60 91 112 117 115 93 62 47 49
69 93 124 146 148 124 111 107 119 131 129 133 133 121 116 111
102 110 123 126 107 51 29 30 40 53 75 103 121 111 82 75
88 91 107 128 112 87 81 94 125 133 119 103 99 93 92 95
109 119 107 103 94 69 72 96 115 106 108 124 123 122 112 79
75 118 125 129 131 145 143 134 154 165 127 125 118 107 63 89
146 155 138 84 117 164 154 152 158 152 146 116 115 148 83 122
171 176 145 125 137 175 186 164 173 182 185 145 118 115 134 154
106 127 170 192 142 110 167 152 135 110 92 91 102 99 100 84
112 69 17 15 16 94 194 151 110 109 75 37 24 125 164 135
110 95 96 127 132 135 128 96 99 114 124 123 145 100 47 106
113 92 88 70 81 82 52 71 105 97 77 66 89 98 96 100
85 60 68 70 56 52 135 156 114 89 60 131 129 111 72 167
151 96 103 81 140 114 102 87 100 108 111 108 72 54 61 34
37 85 200 209 209 208 209 206 208 209 209 209 209 208 208 208
209 209 209 208 207 207 209 210 208 209 211 212 211 211 211 211
212 211 211 210 210 210 210 210 212 212 212 212 212 212 212 212
210 210 211 211 211 211 211 211 211 211 211 212 211 210 210 211
211 212 211 210 211 213 212 211 211 212 212 211 212 213 213 212
211 212 212 211 211 211 211 210 210 210 210 210 210 212 211 210
210 210 209 208 209 211 211 210 211 211 212 212 212 211 211 210
210 211 212 210 209 209 209 209 209 209 209 209 209 209 208 207
209 208 207 208 207 206 207 207 205 206 206 205 205 206 205 204
206 205 203 203 203 203 202 201 202 201 202 203 204 202 202 202
25 20 29 46 54 68 87 86 95 95 75 49 38 68 106 102
76 64 56 54 60 76 88 90 81 76 80 108 97 79 65 56
68 91 121 141 145 122 109 106 116 127 122 127 135 126 116 104
102 95 111 129 112 67 66 69 64 66 64 77 97 109 98 105
122 139 130 116 85 72 64 91 132 135 106 83 77 63 62 79
110 126 120 112 102 74 75 110 114 92 113 117 94 98 116 102
105 135 151 148 134 139 147 127 133 141 112 95 104 94 87 155
189 152 115 75 158 194 158 147 157 162 148 97 76 91 108 114
157 153 98 79 148 189 192 169 154 159 160 146 127 108 127 119
125 137 129 105 88 108 174 218 197 143 112 101 128 101 71 62
59 83 35 24 10 104 162 146 107 103 79 43 110 227 168 110
91 100 89 97 113 121 135 126 98 102 112 129 128 137 92 112
148 86 52 37 77 105 90 80 103 62 62 78 68 56 97 100
89 67 60 83 46 49 60 94 87 82 108 135 117 173 101 76
128 129 115 100 114 60 45 75 129 137 112 123 101 67 46 28
34 51 172 210 211 208 210 207 207 209 211 211 211 209 208 207
207 209 210 210 209 208 209 210 210 211 211 211 210 211 212 213
213 211 210 210 211 212 211 211 212 212 212 212 212 212 212 211
213 212 211 210 210 211 211 212 210 210 211 212 212 211 211 212
212 213 212 211 212 214 214 212 211 212 213 212 212 213 213 213
212 213 214 213 212 213 213 213 212 213 213 211 211 211 211 210
210 211 212 212 212 212 211 210 211 213 214 213 212 212 212 211
211 212 212 211 211 212 211 210 210 210 210 210 210 210 209 208
210 209 208 208 208 207 207 208 207 208 208 207 207 207 206 205
206 205 204 203 204 204 204 204 204 203 204 205 205 204 203 204
26 30 35 38 35 40 55 64 71 64 53 35 48 79 105 107
82 79 78 82 84 101 106 99 69 62 78 102 119 102 75 60
67 80 113 141 152 133 122 120 117 115 108 118 133 126 93 87
88 92 118 136 118 88 96 104 74 52 48 60 74 97 118 131
137 134 118 74 69 73 48 93 133 129 113 111 102 98 86 100
108 109 111 119 115 87 73 89 90 87 107 102 75 97 135 132
122 132 148 144 136 129 138 127 127 112 116 170 171 134 150 190
214 168 84 90 170 180 138 100 142 143 141 99 78 127 148 138
134 120 99 120 158 180 181 160 150 147 141 136 118 105 124 144
174 146 138 124 127 169 151 161 165 113 117 174 198 163 142 120
115 114 68 36 30 132 139 117 100 104 71 56 154 198 161 91
70 81 88 81 102 117 117 129 115 110 105 114 131 127 149 130
110 57 47 72 113 97 115 124 92 62 73 85 76 71 100 96
78 86 56 64 46 56 49 50 76 116 115 106 88 195 157 84
111 142 131 101 61 92 98 96 81 160 135 133 115 93 64 45
50 31 128 215 212 210 212 208 207 209 210 211 211 211 209 208
211 210 209 208 209 210 211 211 211 211 211 211 210 211 212 213
212 213 211 211 213 213 211 211 211 212 212 211 210 210 212 213
214 214 213 212 211 211 212 214 212 213 214 213 213 214 213 212
212 213 214 214 213 213 214 215 213 213 213 212 212 213 213 213
214 212 211 212 212 212 212 213 213 213 213 213 212 211 211 211
211 213 213 213 214 215 213 211 212 213 213 213 211 211 211 212
214 213 212 212 213 213 212 211 210 210 210 211 210 209 210 212
211 211 211 211 210 210 209 209 209 209 208 208 207 206 206 206
208 207 207 206 205 205 206 206 206 207 206 205 205 206 206 205
22 27 31 33 30 26 32 43 56 57 60 66 80 107 116 114
105 99 105 106 92 97 94 81 66 81 89 100 109 122 104 92
85 88 112 143 158 139 123 117 103 104 109 127 134 115 83 84
73 80 117 149 140 115 117 115 85 47 43 50 65 77 108 129
127 117 106 73 62 52 59 102 127 121 127 139 134 135 122 111
105 99 98 104 103 77 65 90 91 87 103 105 94 106 117 110
97 99 127 135 120 122 127 106 135 105 135 200 172 147 180 183
174 176 122 116 161 160 127 61 101 113 104 55 86 175 162 160
156 108 102 161 174 152 160 153 134 135 142 104 98 103 144 183
196 190 197 173 157 165 168 150 137 103 150 208 215 192 183 177
152 134 131 98 89 163 150 96 88 85 56 47 163 186 138 88
72 47 61 57 58 102 121 112 120 113 113 125 119 121 134 125
63 92 113 66 78 80 102 110 87 54 77 109 88 91 78 78
42 59 73 48 40 47 62 24 110 172 129 129 119 116 162 108
106 123 101 61 109 113 97 97 81 131 118 115 128 105 71 58
72 55 96 203 206 210 212 211 207 209 211 211 211 211 211 210
211 211 211 211 212 212 211 211 211 211 211 211 211 211 212 213
211 212 211 211 212 212 211 212 212 212 212 212 212 212 212 212
212 213 213 213 213 213 214 215 212 213 214 214 214 214 214 212
213 213 214 214 214 214 214 214 213 214 214 213 213 214 214 214
215 214 213 213 214 214 214 215 214 214 213 213 212 212 212 213
214 215 214 213 213 214 213 211 213 214 215 215 214 213 213 213
213 212 212 213 213 213 211 210 213 212 213 212 211 209 210 211
212 212 212 212 211 211 210 210 211 210 210 209 209 208 208 208
210 209 208 207 206 205 205 204 206 207 207 207 207 207 207 205
23 31 38 43 45 36 32 40 52 65 87 111 108 116 105 102
102 90 100 102 87 100 106 97 83 100 99 88 112 142 142 130
118 105 111 135 148 126 105 100 98 108 120 135 139 123 96 91
81 82 108 143 154 136 126 118 100 55 41 40 46 50 81 107
126 130 106 64 44 45 82 117 125 117 128 136 132 134 127 112
111 114 113 103 102 93 82 102 102 89 94 99 103 102 88 85
81 91 120 129 118 134 141 118 151 149 143 160 151 139 158 172
162 145 128 106 151 159 127 74 116 150 156 122 122 157 149 154
162 149 148 167 159 155 151 129 107 110 113 103 134 155 173 183
189 197 202 187 142 170 193 168 148 153 169 209 224 209 179 155
137 160 157 140 113 114 143 105 70 52 40 33 146 189 141 99
87 45 18 40 31 43 101 110 99 102 101 111 121 90 108 127
111 95 96 94 76 85 60 83 92 81 96 102 62 74 88 66
51 31 47 34 33 30 52 30 68 169 117 120 137 99 126 104
107 79 106 150 113 76 97 109 109 72 50 54 109 86 69 64
71 62 99 206 206 209 212 208 210 211 212 211 210 210 210 209
212 212 212 213 213 213 212 212 211 211 212 211 211 212 213 213
212 213 212 211 212 212 212 214 214 213 213 213 214 214 213 211
212 213 214 215 215 214 214 215 213 214 215 214 214 214 214 213
213 213 214 214 215 215 214 214 214 214 215 214 215 215 215 215
216 215 214 215 215 215 215 215 215 215 214 214 213 214 214 215
215 215 214 214 214 215 215 215 214 215 217 217 216 215 214 214
213 213 213 214 214 214 212 211 213 213 213 213 213 212 212 213
212 212 212 212 212 212 212 212 212 212 211 211 210 210 209 209
209 208 207 207 208 208 207 206 208 208 208 207 208 208 207 206
34 40 47 52 55 51 41 37 51 65 94 124 116 110 88 88
91 85 100 106 100 117 120 110 101 102 91 81 117 140 138 129
127 110 108 124 128 104 87 91 105 121 128 125 130 133 115 93
84 82 90 118 142 132 109 98 81 55 33 25 27 43 64 87
117 136 105 71 52 57 89 122 115 108 105 102 110 109 108 112
117 122 129 118 107 87 73 97 107 87 87 93 99 88 68 79
97 103 107 119 141 155 147 119 124 148 143 141 150 150 143 157
152 142 128 91 127 150 119 90 128 167 183 165 152 149 157 136
145 153 142 110 110 145 131 107 70 113 176 165 155 164 173 181
178 171 170 140 116 178 212 197 160 140 176 198 227 224 196 125
118 181 180 154 128 91 94 91 57 58 40 30 148 184 136 105
94 74 20 13 32 65 68 102 99 90 97 99 106 80 107 120
121 91 48 88 130 101 38 70 132 122 98 95 93 53 90 74
52 52 62 43 30 31 39 33 32 105 122 138 109 157 107 115
97 60 134 163 98 61 61 87 97 106 105 118 122 114 119 94
64 86 67 168 217 209 208 209 212 213 212 211 210 211 210 209
212 212 211 211 212 212 212 212 211 212 212 212 212 212 212 213
212 214 213 212 213 213 213 215 214 214 213 214 214 214 213 212
214 215 216 216 215 214 214 214 214 215 215 215 215 215 215 215
214 214 214 215 216 216 215 214 214 215 215 215 216 217 216 215
216 215 215 215 216 215 215 215 216 216 216 216 216 216 216 216
216 216 216 215 216 217 217 217 215 216 217 217 216 216 215 215
214 214 213 214 214 214 213 212 214 214 214 214 214 214 214 215
213 213 213 213 212 212 212 212 213 212 212 211 211 211 210 210
208 207 207 208 209 210 210 210 211 211 209 207 207 208 208 207
44 44 54 58 61 68 58 41 45 63 95 114 99 86 81 102
115 114 114 105 94 102 100 94 85 86 78 91 114 124 107 110
116 102 97 111 116 99 88 99 111 114 105 95 108 128 117 82
80 73 71 83 101 110 93 72 64 71 58 40 51 74 80 84
96 121 101 71 62 79 97 108 91 86 84 88 108 102 99 112
113 115 122 112 102 89 83 111 114 93 97 104 98 76 60 81
108 99 79 96 139 143 133 106 112 139 138 119 130 135 111 126
142 138 128 85 101 131 88 117 171 152 157 168 173 146 135 146
144 144 117 73 111 163 143 95 101 140 178 193 202 155 155 161
166 175 170 129 128 177 189 194 165 128 140 168 143 132 132 98
133 195 202 157 153 130 81 57 100 104 59 98 151 185 141 121
94 76 38 16 145 189 108 78 110 93 81 91 101 103 90 98
94 135 84 72 125 126 80 58 93 94 80 90 54 55 75 66
43 47 65 53 46 33 38 47 29 58 132 123 91 129 105 87
46 70 136 103 53 61 91 104 103 86 105 90 101 115 124 113
75 78 38 92 208 212 208 214 212 211 210 210 212 213 213 212
212 211 211 211 211 212 212 212 213 213 214 214 213 213 212 213
212 214 214 214 215 214 213 215 215 215 215 215 214 214 214 214
216 216 216 215 214 214 214 214 215 216 216 216 216 215 215 216
215 215 215 216 216 216 216 215 215 216 216 216 216 217 217 216
217 217 216 216 216 216 216 215 217 217 218 218 218 217 216 216
218 217 217 217 217 216 216 216 217 217 217 217 216 216 217 217
215 214 213 213 213 214 214 214 216 216 215 215 215 215 214 214
214 213 213 213 212 212 212 212 214 213 212 212 212 212 211 211
211 211 211 210 210 210 210 210 211 211 209 208 207 209 209 208
37 33 49 59 65 76 64 43 43 65 95 96 77 63 73 113
125 130 116 97 81 79 77 78 82 88 95 110 123 113 99 111
122 102 86 102 124 126 118 124 118 92 68 70 102 131 121 79
75 57 56 65 77 107 104 74 74 102 107 82 96 104 92 73
70 87 87 64 76 109 125 109 87 87 98 107 114 101 96 106
111 102 103 102 107 115 121 142 130 112 117 123 112 90 80 99
120 109 93 101 132 137 136 106 139 157 128 103 136 123 85 143
140 106 107 86 141 155 96 145 166 142 136 153 158 143 107 107
139 107 65 76 159 169 156 138 138 140 144 157 168 157 151 140
144 164 152 125 151 176 165 174 146 129 131 110 110 131 117 119
141 194 212 169 159 146 127 94 73 111 138 137 154 178 152 123
106 82 47 57 204 195 138 78 93 94 74 83 87 102 103 99
94 112 121 85 115 119 117 91 76 43 113 105 54 45 56 39
30 22 30 30 33 40 47 50 36 36 139 144 114 110 114 75
80 106 85 68 89 129 126 92 114 84 93 74 64 78 77 122
116 101 78 69 172 219 210 208 212 212 211 210 212 213 213 212
211 212 212 213 213 213 212 212 214 214 215 215 215 214 213 213
212 214 214 214 215 215 213 215 215 216 217 216 215 215 216 217
216 216 215 215 215 215 216 216 216 216 217 217 217 216 216 217
216 217 217 217 216 216 217 217 216 217 216 216 217 218 218 216
218 218 218 217 217 218 218 217 218 218 218 218 218 218 217 216
217 217 217 218 218 217 216 217 219 218 218 217 217 217 218 218
217 217 215 215 215 215 216 217 216 216 216 215 216 217 216 215
215 214 214 213 213 213 213 213 215 214 213 213 213 213 213 212
212 213 213 212 212 211 211 211 209 210 210 210 210 211 211 209
45 35 47 59 66 72 61 50 52 63 80 84 86 79 73 98
127 129 107 92 79 81 94 104 108 107 114 120 135 118 108 117
135 116 93 103 128 141 135 138 123 88 64 72 109 139 136 93
66 52 62 82 93 116 115 99 92 110 117 93 93 85 68 48
43 48 61 76 108 127 127 112 99 105 118 118 112 102 101 110
110 90 94 107 104 95 105 133 130 117 116 124 127 116 108 117
115 106 103 104 114 120 119 100 115 141 118 96 137 153 121 139
152 118 86 80 163 168 136 139 151 138 121 134 141 141 94 49
72 75 60 104 167 154 144 149 159 136 119 152 123 130 166 172
144 123 120 105 156 167 160 143 128 153 148 156 154 175 156 150
155 190 233 200 176 154 136 129 101 91 138 145 154 189 167 130
110 86 46 104 197 183 141 99 47 77 93 82 91 94 109 106
106 87 113 111 65 91 127 100 44 53 129 117 75 37 39 44
39 30 31 43 41 46 44 43 36 51 136 91 124 147 138 115
80 66 72 136 104 96 155 112 103 122 121 113 119 121 119 103
113 134 92 75 113 194 213 212 212 213 212 211 211 212 212 212
213 212 213 213 214 214 214 213 213 214 215 215 215 215 214 214
214 215 214 214 216 215 214 215 215 216 218 218 217 216 217 218
216 216 216 216 216 217 217 218 217 217 217 218 217 216 217 218
217 218 218 218 216 216 218 219 218 218 217 217 218 219 219 217
219 219 218 217 218 219 220 219 219 219 218 218 219 219 219 218
216 216 217 219 219 218 218 219 219 219 218 218 218 218 218 218
219 218 217 217 217 217 218 219 217 217 216 216 217 218 218 217
216 215 215 215 214 215 215 215 216 215 214 214 214 214 214 213
213 213 213 213 214 214 213 213 210 211 211 211 212 212 212 210
50 31 33 43 53 57 53 60 68 73 82 94 111 108 80 88
115 118 105 105 97 94 105 109 115 106 101 119 137 134 117 123
136 131 112 108 111 113 107 114 123 103 88 86 108 136 143 106
77 72 81 101 104 103 102 120 119 115 105 83 61 50 37 30
34 47 51 81 117 126 102 87 95 106 109 103 105 108 110 122
106 98 104 101 70 51 74 110 114 105 98 107 121 117 104 99
98 89 95 92 85 88 101 129 137 121 92 88 115 133 119 115
142 132 96 90 139 148 116 106 150 141 125 116 120 120 82 47
87 135 140 147 132 145 148 150 140 125 87 117 141 133 139 186
159 116 133 138 140 149 131 99 138 179 156 146 166 193 170 116
131 159 203 207 216 195 148 142 134 128 124 127 161 199 174 133
117 90 51 119 202 176 151 120 77 18 69 72 73 83 97 101
82 102 103 137 103 75 109 71 74 104 97 103 77 47 68 73
65 63 68 77 84 70 53 42 36 41 54 62 127 140 125 94
97 114 138 144 65 92 138 113 121 124 93 74 64 105 117 115
115 129 129 91 70 134 213 211 210 212 213 212 211 211 213 214
214 213 212 212 213 214 215 215 211 213 214 215 215 214 214 214
216 216 214 213 216 216 215 216 214 216 218 218 217 217 217 217
216 216 216 217 217 217 218 218 217 217 218 218 217 216 217 219
218 219 219 218 216 216 218 220 219 219 218 217 218 220 219 218
219 219 218 217 218 220 221 220 221 220 218 218 219 220 221 221
219 219 219 220 219 218 218 220 218 218 218 218 218 218 218 218
218 217 217 217 217 217 218 218 219 219 218 217 217 218 217 215
217 216 216 216 216 216 217 217 216 215 214 214 214 215 214 213
214 213 213 214 215 215 214 213 213 213 212 211 211 212 212 211
42 29 27 28 33 40 50 69 96 100 100 108 120 119 97 96
111 107 109 112 113 98 92 99 90 71 68 101 140 154 146 134
138 138 115 93 76 79 68 72 106 125 108 100 97 117 139 130
108 93 98 100 84 70 89 109 121 125 99 79 54 36 31 32
41 57 55 77 109 112 103 93 91 85 71 82 106 113 110 104
106 110 112 108 105 84 82 98 99 99 105 104 104 99 92 100
94 86 93 91 90 96 116 157 169 161 151 162 156 140 127 143
143 99 80 133 149 135 110 75 106 109 99 76 87 90 62 71
133 163 166 157 146 129 126 133 130 106 77 141 139 145 155 146
138 137 171 163 126 124 88 76 142 171 170 159 153 157 172 132
101 132 181 181 192 209 167 138 143 150 139 127 181 220 180 140
120 110 66 118 211 181 163 121 97 41 14 40 46 78 89 98
70 102 118 126 126 130 128 96 86 118 100 71 72 63 108 83
41 72 75 65 69 56 47 47 32 32 44 125 126 120 133 129
132 131 169 138 84 141 122 106 106 92 111 104 79 81 71 66
119 133 133 117 78 93 182 215 215 210 210 216 209 212 212 210
212 211 211 213 213 212 212 213 214 215 215 215 214 215 216 218
216 215 215 216 216 217 217 216 214 215 216 218 218 218 217 216
218 218 218 217 216 216 218 219 220 219 219 219 219 219 219 219
220 219 218 218 218 218 219 219 219 219 218 216 217 220 220 217
220 219 219 220 221 221 220 219 221 220 220 221 220 220 220 221
222 220 220 221 221 220 220 221 220 220 220 219 220 220 220 218
219 219 220 219 219 219 219 220 218 218 219 219 219 218 218 218
217 218 218 216 217 218 219 218 216 216 216 216 215 214 213 213
215 215 216 216 216 215 215 214 214 216 214 213 214 213 212 212
40 34 35 38 44 48 53 68 100 116 100 95 114 119 111 90
89 76 73 90 105 101 81 79 70 60 49 67 117 145 150 144
142 118 87 79 86 89 73 63 96 122 111 88 71 83 115 135
119 94 100 101 62 47 70 87 102 115 105 86 58 38 36 36
53 56 62 71 87 110 121 114 97 78 62 77 101 104 99 98
106 108 109 124 143 129 108 108 116 112 105 110 115 113 114 116
102 90 97 100 100 106 118 142 153 162 173 174 164 158 155 160
174 165 141 155 171 156 114 73 51 88 108 136 171 145 157 163
128 157 141 137 168 177 132 91 80 60 93 176 151 110 133 142
129 120 151 149 127 140 148 149 145 165 172 161 142 137 142 141
109 103 153 175 185 173 125 105 163 165 143 141 152 157 130 118
120 126 54 108 210 177 172 137 99 71 11 21 19 57 80 87
88 85 114 114 78 108 144 130 68 95 106 60 85 58 99 78
42 46 49 46 33 38 36 33 37 41 69 152 131 101 110 111
109 124 122 107 112 166 121 59 63 87 97 100 109 107 90 83
86 123 137 117 64 74 150 219 205 213 213 211 211 214 207 216
215 213 213 213 213 213 214 215 215 215 215 215 215 215 215 216
216 215 215 216 217 217 217 217 218 218 217 217 217 217 218 218
218 219 219 219 219 218 219 219 219 219 219 219 219 218 218 218
218 219 220 220 219 218 218 218 220 220 219 218 219 221 221 218
220 220 220 221 221 221 221 221 222 222 222 222 221 220 220 221
222 221 221 222 222 221 221 222 221 221 221 220 220 221 220 219
221 221 221 221 220 220 220 220 220 220 220 219 219 219 219 219
219 220 219 218 218 218 218 217 218 218 218 218 217 216 216 216
215 215 216 215 215 215 215 214 214 216 215 213 215 214 213 214
40 41 42 46 57 63 65 77 87 84 69 72 95 117 127 88
45 27 30 48 77 90 82 82 82 82 52 39 76 110 135 148
140 103 79 90 108 99 82 71 105 116 98 67 53 64 88 120
111 86 92 101 58 34 44 60 81 98 98 78 58 50 58 54
63 56 66 69 69 92 114 119 103 86 75 77 85 83 75 77
92 95 94 113 126 104 90 114 141 141 122 118 118 118 127 120
83 76 96 114 109 98 96 106 123 142 154 154 146 141 150 147
149 162 163 142 143 156 144 93 87 143 170 174 158 111 133 177
140 131 118 110 154 165 149 88 111 153 138 131 135 121 97 144
141 122 138 154 137 131 176 188 154 131 151 164 151 130 101 103
104 142 133 111 112 79 57 82 196 218 168 149 142 118 98 92
97 146 55 112 210 189 172 140 103 91 37 34 55 53 74 92
103 105 118 130 89 84 122 141 193 125 118 63 78 50 91 85
63 52 37 38 34 52 64 39 41 34 41 102 85 74 102 97
114 104 91 83 101 108 92 95 104 111 105 89 98 83 113 135
123 126 98 99 91 69 77 186 216 212 214 214 217 210 215 212
217 215 215 215 214 214 215 216 216 215 215 215 216 216 216 215
217 216 216 217 217 218 218 217 220 219 218 218 218 218 219 220
218 218 219 219 220 219 218 217 220 220 220 220 220 220 219 219
218 220 221 221 220 219 219 220 221 221 221 220 221 222 222 219
221 221 222 222 222 222 222 222 221 221 222 222 222 221 222 224
222 221 221 222 223 222 221 221 222 222 222 221 221 222 221 220
221 221 221 221 220 220 220 220 222 221 220 220 220 220 220 221
219 220 220 220 219 219 218 217 218 219 218 218 217 217 217 218
217 216 216 216 216 215 215 215 215 217 216 215 216 216 215 216
48 50 44 45 60 70 78 92 96 66 41 38 65 112 139 115
66 31 33 26 46 62 75 76 98 110 79 43 38 57 94 132
135 102 84 101 110 95 91 93 110 112 101 65 45 53 73 109
112 95 89 94 73 43 32 44 62 75 81 69 65 70 76 58
53 47 51 51 47 66 98 117 102 93 94 91 82 71 64 70
93 92 77 82 84 63 62 106 139 146 126 112 112 121 124 101
73 81 112 138 132 107 89 85 106 135 133 141 146 138 144 140
128 132 143 112 107 110 135 127 123 139 151 134 140 101 104 154
152 119 85 94 138 146 112 53 123 189 173 133 120 104 128 143
163 131 133 145 133 118 151 166 149 97 101 112 128 126 96 101
143 184 189 139 116 102 126 118 166 203 207 179 160 145 125 120
117 117 153 180 204 194 176 151 122 93 39 19 39 69 143 131
89 102 107 113 83 71 110 140 165 163 105 114 113 70 89 94
83 72 70 55 63 80 87 73 59 40 19 49 107 150 130 93
145 136 115 123 128 116 77 137 117 115 115 122 116 108 93 99
121 129 98 72 117 116 73 90 213 211 215 215 214 216 213 213
216 216 216 217 217 216 216 216 217 216 215 215 216 217 217 217
218 218 218 218 218 218 218 218 217 218 219 219 220 220 220 220
218 218 219 220 220 219 219 218 220 220 221 221 221 221 221 221
222 222 221 221 220 220 222 223 221 222 222 221 222 223 222 220
222 222 223 223 222 222 223 223 221 221 222 223 223 222 224 226
223 223 222 223 223 223 222 221 222 223 223 222 222 223 223 222
221 221 222 222 221 221 220 221 222 221 221 220 220 220 221 221
219 219 220 220 220 220 220 220 218 218 219 218 218 218 218 218
219 218 217 217 217 216 216 217 216 218 217 216 218 218 217 217
41 46 40 39 54 73 95 116 130 105 52 27 47 94 131 142
100 44 35 21 27 42 62 60 64 93 92 67 28 24 58 112
141 119 95 101 102 98 106 110 89 94 102 79 59 60 72 99
114 107 94 85 86 69 54 52 55 58 71 80 92 94 85 57
44 44 54 64 52 57 91 105 90 81 93 103 92 76 73 88
119 123 102 92 93 86 84 115 131 133 122 110 122 134 115 81
73 97 126 140 125 99 89 90 108 138 121 113 121 121 114 127
129 124 114 96 153 147 131 117 140 167 141 132 134 127 94 115
128 95 117 159 160 125 80 73 150 169 170 158 124 109 152 142
114 80 105 140 139 114 115 158 132 85 124 160 132 115 105 111
166 182 167 112 120 187 182 140 140 184 192 204 174 151 145 146
142 123 133 185 213 193 175 152 111 78 46 45 8 107 231 180
103 94 94 94 104 94 91 120 119 174 141 113 120 110 79 78
84 86 77 65 66 61 74 59 41 45 34 25 124 198 130 89
141 101 87 115 132 133 116 111 90 120 102 139 141 107 102 109
117 139 138 115 98 130 105 67 137 220 209 213 212 213 213 215
215 216 216 216 217 217 217 217 219 217 215 215 216 217 217 217
218 218 218 218 218 218 219 219 217 218 219 220 221 220 220 219
220 220 221 221 220 220 221 221 219 219 220 221 221 222 221 221
224 222 221 221 222 223 223 223 222 223 223 223 223 223 223 222
223 223 224 223 222 222 223 224 224 224 224 224 223 222 222 224
225 225 224 224 224 224 223 222 222 223 223 223 223 224 224 223
222 223 223 224 223 223 223 223 222 222 222 222 221 221 221 221
220 220 219 220 220 220 221 222 219 219 220 221 220 220 219 219
220 219 218 219 218 217 217 218 216 219 218 216 218 218 216 217
26 37 36 36 47 67 100 127 140 123 66 41 36 58 108 142
114 58 37 30 22 34 43 39 35 72 100 86 36 15 35 90
138 135 113 111 107 103 106 97 59 63 87 100 106 100 86 80
97 107 112 103 106 104 90 66 53 46 58 84 104 106 93 71
52 50 78 110 83 60 83 92 87 81 97 111 102 91 96 108
139 143 128 119 123 120 115 128 130 129 128 125 138 140 110 90
93 98 110 120 100 75 85 103 114 114 118 134 136 107 81 135
123 126 123 105 153 161 150 123 163 187 161 131 130 123 95 113
122 69 124 174 155 103 73 114 153 158 147 146 157 169 140 126
88 120 154 173 147 110 105 130 116 78 129 191 146 122 124 133
141 156 135 87 103 188 182 147 137 145 185 183 151 122 169 191
171 152 124 140 216 202 180 145 127 96 47 45 35 164 212 169
120 74 68 77 101 104 98 102 117 169 175 133 133 128 101 60
83 81 86 70 55 67 73 61 55 47 31 19 68 123 148 167
109 74 114 110 125 99 99 84 91 111 129 147 166 113 82 87
84 113 112 124 114 133 103 85 52 187 221 213 216 210 219 212
215 216 215 214 215 216 218 218 220 218 216 215 216 216 216 216
218 218 219 219 218 218 218 219 220 220 220 220 220 220 220 220
220 221 222 221 220 220 221 222 220 220 221 222 222 223 223 223
223 222 221 222 223 224 223 222 223 224 224 224 224 224 224 223
224 224 224 224 223 223 224 225 225 224 224 225 224 223 223 224
226 225 224 223 224 224 224 222 222 223 223 223 223 223 224 223
222 223 224 224 224 224 224 224 223 223 223 223 223 222 222 221
222 221 220 220 220 220 221 221 220 220 221 221 221 220 220 220
220 219 219 220 219 218 217 219 217 219 218 216 217 217 216 216
24 33 33 33 38 52 80 101 116 98 67 54 42 47 93 131
119 85 60 45 32 42 45 39 38 71 108 86 43 19 31 80
139 146 133 130 127 104 95 75 39 45 73 111 139 121 89 67
74 99 125 130 127 122 98 63 47 37 43 69 92 105 96 83
64 62 93 120 87 55 74 95 101 93 101 116 115 115 124 125
139 134 122 116 127 130 127 126 127 129 133 131 133 123 108 119
131 108 106 125 107 87 106 118 116 122 137 142 139 130 117 149
144 139 150 146 138 136 145 133 145 153 157 157 136 113 78 123
167 141 134 156 154 138 101 135 148 155 147 139 150 136 100 79
111 151 168 182 154 111 122 146 115 109 134 163 139 112 130 179
156 131 115 85 125 163 182 167 141 114 130 152 92 123 188 186
176 171 141 138 186 202 161 128 109 92 50 37 40 187 196 147
111 92 76 59 79 102 104 96 86 137 168 173 159 132 104 77
77 83 91 82 55 48 65 53 50 53 40 31 27 74 175 172
139 131 122 113 101 71 95 58 94 117 128 118 129 132 134 139
128 92 84 95 131 133 124 90 55 121 222 213 215 218 213 215
215 216 215 214 214 216 217 217 219 218 217 217 217 218 218 217
219 219 220 220 219 219 219 220 221 221 220 220 220 220 221 221
220 221 221 221 220 221 221 222 222 222 223 223 223 223 223 224
223 222 222 223 223 224 224 223 223 224 225 225 224 224 224 224
226 225 224 224 224 225 225 225 225 224 224 225 226 225 225 226
226 225 223 222 223 225 225 223 223 225 225 224 224 224 224 224
222 223 224 224 224 224 223 223 224 224 224 224 223 223 223 223
223 222 222 222 222 221 220 221 221 221 221 220 220 220 220 221
220 219 219 221 221 218 218 219 218 220 219 217 218 218 217 217
20 25 24 27 32 42 63 75 82 80 77 67 72 74 88 117
129 113 83 45 35 41 41 27 29 61 101 72 47 34 50 98
135 134 120 121 121 82 67 47 32 37 55 98 133 107 72 51
50 79 111 130 126 114 83 56 43 40 43 63 86 108 98 81
71 84 107 104 72 52 65 93 110 87 85 114 128 132 140 135
129 132 126 111 118 132 141 135 136 140 138 128 119 103 105 136
134 121 131 144 115 101 127 128 141 147 152 145 131 126 130 126
140 138 129 134 125 124 129 137 140 127 132 141 145 127 111 140
158 150 121 131 151 138 115 100 118 144 135 132 141 126 70 96
165 152 151 159 154 130 124 150 147 103 126 159 147 98 132 189
193 136 116 97 108 158 173 178 161 123 123 107 92 143 184 193
200 186 160 148 136 123 101 89 94 124 50 41 54 190 198 164
131 92 88 53 56 113 119 106 96 99 151 156 171 139 108 85
61 53 77 85 75 44 49 50 55 45 43 39 19 43 128 112
118 144 144 126 134 115 102 94 110 125 119 77 85 100 138 151
162 154 114 73 110 141 142 118 105 100 179 217 212 213 214 219
214 215 216 215 215 216 216 215 217 218 218 219 220 220 220 220
220 221 221 221 220 220 220 221 219 219 220 220 221 221 221 221
221 221 222 222 222 223 222 222 223 223 222 222 222 222 222 223
224 224 223 222 222 223 225 226 223 223 224 224 223 223 223 224
227 226 225 225 225 226 226 226 228 226 225 226 226 226 225 225
227 226 225 224 225 228 228 226 226 227 227 226 225 225 225 225
224 225 226 226 225 224 224 224 225 225 224 223 223 223 223 224
223 222 223 224 223 222 221 221 223 222 221 220 220 220 222 223
221 219 220 222 222 220 219 220 219 221 220 219 220 220 218 219
20 11 11 14 21 37 54 67 71 86 86 88 97 105 100 118
143 141 102 50 32 45 41 20 31 71 105 97 75 83 111 129
130 114 97 98 106 82 46 41 43 39 45 85 114 92 57 36
37 55 84 106 115 98 63 46 44 48 56 67 86 86 76 91
95 108 118 101 82 79 63 72 104 93 84 110 129 134 137 144
140 131 118 99 113 135 153 156 143 150 139 133 121 105 129 141
136 127 143 138 119 108 121 141 142 138 130 136 137 125 118 114
123 123 116 122 115 108 131 131 134 119 119 127 126 128 122 142
145 130 119 102 119 120 115 86 152 145 122 95 99 94 40 119
171 165 134 128 153 140 116 104 82 60 124 160 144 112 111 150
155 131 115 122 125 113 147 173 147 109 163 177 175 179 185 181
183 193 201 182 151 120 86 92 108 151 101 26 82 207 191 166
149 115 90 64 35 97 118 124 109 87 109 129 149 138 121 108
85 58 67 78 98 60 43 54 60 50 45 47 39 22 60 77
100 127 117 134 127 99 67 54 79 115 108 82 77 84 90 135
141 147 122 117 111 102 125 145 121 99 102 190 216 210 214 215
217 215 217 216 218 219 216 217 215 217 218 217 218 219 220 220
218 218 218 219 220 221 221 220 219 220 221 222 222 221 220 219
221 223 223 222 222 223 223 222 224 224 223 222 222 224 225 224
223 225 225 224 224 226 226 224 222 223 225 225 225 224 224 224
225 226 227 226 226 226 226 227 228 226 224 225 227 228 227 226
227 227 228 228 227 227 227 227 227 227 226 225 226 227 226 224
227 227 226 224 224 225 226 225 226 225 225 224 224 224 224 224
224 224 223 222 222 222 222 222 222 222 222 221 221 222 223 225
221 222 221 220 219 218 218 219 221 221 221 220 220 220 220 218
30 17 10 11 21 35 52 70 77 81 76 81 92 94 89 99
129 149 121 66 44 59 62 39 56 81 108 117 118 133 143 137
121 113 96 86 91 74 45 38 33 37 53 85 108 97 63 32
34 45 63 84 96 80 53 38 43 48 63 75 80 72 71 95
111 112 113 107 91 76 62 61 86 104 99 117 134 127 126 141
136 119 106 102 126 143 148 149 143 129 127 140 139 135 142 143
147 145 150 147 133 101 93 127 134 116 118 132 141 130 109 109
117 116 97 126 114 119 160 134 118 90 122 139 125 117 107 146
136 137 106 131 177 137 83 84 171 170 140 122 134 132 125 136
155 159 116 104 140 131 79 104 112 137 148 126 144 123 77 105
116 114 110 143 180 149 123 127 88 111 178 179 187 166 170 180
183 181 180 194 160 146 139 101 107 117 144 57 119 220 181 170
163 126 89 79 48 71 114 125 119 102 89 126 139 156 130 121
101 89 84 70 84 69 48 48 54 60 57 53 51 28 29 81
88 138 84 123 82 49 54 93 104 114 111 105 109 96 86 77
70 103 134 110 139 141 129 118 131 132 82 94 206 219 216 213
215 217 212 215 216 219 220 216 216 218 219 218 218 219 220 220
219 219 219 220 221 221 221 221 221 221 221 221 222 222 223 223
222 223 224 223 223 223 224 223 223 224 223 223 224 225 226 225
225 226 226 225 225 226 226 225 225 225 226 227 226 226 226 226
226 227 227 227 227 227 227 228 227 226 226 227 228 228 227 226
226 226 227 227 226 226 226 226 227 227 227 226 226 227 227 225
226 227 227 226 226 226 226 225 227 227 226 225 224 224 224 224
224 224 223 223 223 223 223 223 222 221 221 221 222 222 223 224
221 221 221 221 221 221 220 220 221 222 221 220 220 221 220 219
44 25 11 9 20 35 55 80 98 78 57 59 68 57 53 51
86 129 120 73 52 72 96 88 85 74 75 91 115 138 137 115
111 109 86 60 62 63 47 39 40 58 80 90 95 94 70 42
41 48 49 66 87 91 84 70 55 50 62 73 73 63 62 80
85 93 111 100 88 64 34 51 91 113 106 114 123 119 120 123
122 113 119 126 143 151 142 123 100 112 139 153 142 141 135 139
155 157 155 149 129 87 75 123 139 112 109 116 117 119 123 133
125 134 107 110 140 130 136 144 141 113 139 154 138 110 93 159
146 113 105 157 188 175 125 119 145 147 135 116 166 167 179 156
130 136 95 129 150 100 90 149 174 178 158 114 79 85 108 153
167 142 125 156 176 173 164 113 73 124 179 165 169 155 163 167
171 169 168 165 150 168 175 124 87 112 126 133 171 206 187 170
177 124 78 81 51 39 92 108 121 115 102 86 138 165 145 117
121 116 98 56 57 70 54 43 42 45 57 61 49 40 33 110
124 116 107 105 104 120 138 132 122 93 104 136 123 117 102 116
108 86 97 147 158 157 140 137 120 122 88 57 91 128 177 209
216 223 218 219 218 216 212 220 218 219 219 219 219 220 220 220
220 220 220 220 221 221 221 221 223 222 222 222 222 223 224 224
223 224 224 224 223 224 224 224 223 224 224 224 225 227 227 226
227 228 227 225 225 227 227 226 226 227 227 227 227 227 227 228
228 228 227 227 227 228 228 228 227 227 227 228 228 228 228 227
227 228 228 228 228 227 228 228 227 228 228 227 226 227 227 227
226 227 228 228 228 228 227 226 228 228 227 226 225 225 225 225
224 224 223 223 224 224 224 225 223 223 222 222 223 224 224 223
221 221 221 222 222 222 222 221 222 222 221 220 220 221 221 220
56 39 30 25 23 34 59 84 103 84 61 61 79 75 61 20
41 78 80 67 74 96 119 108 76 55 49 65 87 108 110 92
93 93 71 46 59 81 82 78 88 108 114 88 69 69 63 61
65 72 55 54 78 103 114 97 60 44 52 67 71 64 52 52
52 76 106 89 74 50 28 47 86 108 107 108 121 128 123 114
103 96 118 129 140 143 138 108 97 123 144 140 128 123 120 135
144 140 132 122 99 82 89 130 136 123 117 126 128 138 152 144
133 126 132 123 131 127 118 122 130 126 121 136 150 141 111 140
148 144 127 136 127 151 159 122 125 115 96 95 140 141 142 121
110 135 88 147 160 107 117 149 153 154 158 163 136 129 168 170
171 146 114 153 166 165 177 120 119 127 150 170 160 156 168 161
142 127 94 105 137 186 197 168 120 114 124 139 178 197 185 172
173 127 83 72 57 19 99 119 108 120 111 94 96 135 175 136
128 108 95 66 41 51 57 64 49 59 56 57 63 65 35 87
154 109 90 79 139 153 144 120 130 107 104 124 119 113 124 118
140 139 99 81 125 124 138 141 128 102 87 83 49 65 94 154
217 216 219 216 217 221 215 217 218 219 220 220 219 220 220 220
220 220 220 220 221 221 221 221 223 223 223 223 223 223 223 223
224 224 225 224 224 224 224 225 224 224 225 225 226 227 227 226
228 228 227 226 226 227 228 228 227 227 227 227 227 227 228 228
229 228 227 227 228 229 229 228 229 228 228 228 228 228 229 229
229 229 230 229 229 228 229 229 227 228 229 228 227 226 227 228
227 227 228 228 228 228 227 226 228 228 227 227 226 226 226 226
224 224 224 224 224 225 225 225 223 223 223 223 224 225 224 223
223 223 223 223 222 221 221 221 222 223 222 221 222 222 221 220
59 54 62 56 33 33 58 81 111 107 77 51 80 116 114 42
10 34 49 71 103 116 115 83 53 51 56 60 63 77 90 88
69 71 67 70 95 114 112 112 116 123 104 59 39 43 57 83
112 114 78 57 70 95 110 91 56 38 46 65 72 61 39 32
46 76 98 99 85 74 80 58 69 104 119 119 139 142 122 117
103 95 113 109 115 111 125 124 128 140 143 130 115 103 114 130
119 101 79 77 86 104 106 109 118 130 128 131 143 148 145 132
124 119 102 106 100 115 113 116 124 115 89 112 130 126 94 103
139 142 140 129 122 135 134 96 124 165 156 168 129 127 141 110
126 164 101 128 149 106 82 121 128 133 147 151 142 99 139 151
146 123 88 130 154 153 147 101 124 145 107 114 101 99 153 198
181 167 118 81 102 183 194 215 177 132 117 125 175 187 167 142
159 121 74 68 37 90 183 147 100 105 103 110 84 108 146 162
133 108 106 86 41 46 76 83 49 67 62 61 69 79 48 35
110 81 50 127 99 102 122 118 153 136 117 127 120 99 102 98
105 144 138 78 82 125 150 140 126 120 108 95 77 76 68 96
211 213 222 219 216 219 223 214 218 219 219 220 220 220 220 221
221 221 220 220 221 222 222 222 224 224 223 223 223 223 223 223
225 225 225 225 224 224 224 225 225 226 225 225 226 227 227 227
228 228 227 226 226 228 229 229 228 227 227 227 227 228 228 229
230 229 228 228 229 229 229 229 229 229 229 229 228 229 229 230
229 229 229 229 228 228 228 228 227 228 229 228 227 227 228 229
229 228 228 228 228 227 227 227 228 228 228 227 227 227 227 227
225 225 225 225 225 225 225 225 223 224 224 224 224 224 224 223
224 224 225 224 222 221 221 222 223 223 224 223 223 223 221 219
41 48 69 65 35 26 47 69 95 111 97 66 85 126 128 53
2 15 38 72 111 121 107 62 46 55 63 58 51 61 80 90
74 77 93 118 131 114 89 86 89 86 58 28 26 34 52 83
120 113 70 43 47 63 78 70 48 32 39 60 75 69 50 48
70 95 103 101 100 111 122 94 77 100 123 132 144 143 130 124
118 123 125 103 113 112 127 138 120 132 141 128 102 91 114 115
100 98 85 90 118 134 117 99 107 121 111 97 118 129 122 138
125 96 73 103 114 121 111 107 114 101 93 131 145 121 85 115
141 120 117 79 100 139 123 101 78 140 146 135 86 88 119 91
79 138 103 90 130 95 81 135 131 138 139 139 140 81 79 130
95 69 63 87 103 131 121 95 136 168 149 166 130 115 182 187
195 204 164 133 164 185 183 196 226 173 128 129 118 128 129 112
128 88 46 45 65 186 197 142 92 99 106 107 114 77 125 173
156 126 111 92 50 44 79 70 53 55 56 63 60 73 74 36
62 73 116 127 120 122 123 101 142 157 141 115 98 119 120 128
123 95 97 75 95 116 144 152 136 127 119 111 92 61 66 87
191 211 203 207 220 217 218 220 219 219 219 220 220 220 220 221
222 221 221 221 222 223 223 223 225 224 223 223 223 224 225 226
226 225 225 225 225 224 225 226 227 227 226 225 226 227 228 227
228 228 227 227 228 229 229 230 229 229 228 228 229 230 230 230
229 229 229 229 230 230 229 229 229 230 230 231 231 230 230 230
230 230 229 229 228 228 228 229 228 229 229 229 228 227 228 230
231 230 229 229 228 228 228 229 228 228 228 228 228 228 228 228
227 227 227 227 226 226 226 226 225 227 227 225 225 226 226 224
224 225 225 224 223 222 222 223 224 224 224 224 223 223 222 220
22 32 53 58 40 23 27 45 69 95 107 100 112 133 123 59
17 9 22 47 86 109 107 67 43 49 55 57 54 57 74 94
105 108 122 134 123 84 51 50 65 62 41 30 35 36 44 61
88 83 53 35 36 44 55 54 39 39 47 63 86 91 78 82
106 122 116 92 91 114 125 129 105 97 108 132 139 132 139 128
116 121 119 107 127 142 141 131 107 114 118 107 88 97 119 108
103 119 127 133 145 137 120 110 99 105 101 94 112 123 119 130
121 75 72 107 130 124 107 112 131 126 123 138 154 150 129 148
162 144 109 108 159 167 133 117 120 155 133 68 95 142 159 113
115 135 118 102 137 112 137 189 164 126 108 89 65 66 92 126
90 97 137 146 135 156 127 118 153 184 195 216 170 129 166 179
175 188 177 125 152 178 181 184 194 222 186 148 126 105 112 133
146 65 52 34 106 204 183 148 88 89 72 43 107 100 90 144
166 138 107 96 72 37 65 56 58 54 42 45 52 55 57 40
57 71 152 117 96 140 135 118 140 155 143 106 109 137 157 158
109 100 106 111 119 124 140 146 139 122 113 113 108 79 59 63
175 204 179 160 187 222 215 220 220 220 220 221 221 220 220 221
222 222 221 221 222 223 224 224 225 224 224 223 223 224 225 226
226 225 225 226 226 225 226 228 227 227 227 227 227 228 228 227
228 228 228 229 229 229 229 229 230 229 229 229 230 231 231 230
229 230 231 231 231 230 230 230 230 230 231 231 231 231 230 230
230 230 230 230 229 230 230 231 230 229 230 230 230 229 230 231
230 229 229 229 229 228 228 229 229 229 229 229 229 229 228 228
228 228 228 228 228 227 227 227 228 229 228 226 227 228 227 225
226 225 224 223 224 224 224 224 225 225 224 223 223 223 223 221
26 34 50 64 61 35 17 25 50 77 104 119 137 148 121 53
24 8 15 25 52 82 105 89 44 39 40 47 44 36 56 93
122 123 122 110 85 56 42 52 67 67 55 51 50 43 46 51
57 61 49 41 41 40 40 36 42 63 77 79 94 101 87 89
110 128 120 104 88 104 129 138 126 108 100 129 140 118 126 119
93 95 105 110 114 134 136 122 111 107 97 92 87 105 120 119
114 109 112 123 135 121 105 93 89 107 128 138 124 114 112 96
73 57 72 113 116 110 99 108 117 113 117 112 111 121 127 120
133 148 145 156 165 156 151 170 174 179 148 108 157 178 174 160
168 181 175 154 153 173 179 189 175 141 148 134 127 134 174 175
156 155 177 143 108 168 164 139 139 171 184 183 150 114 112 158
171 171 176 136 115 161 181 178 182 198 223 189 145 120 94 104
121 71 52 35 115 205 179 138 100 86 51 24 75 120 83 93
142 154 126 104 92 54 78 59 60 61 71 69 60 61 63 47
50 81 93 127 139 113 109 143 134 114 121 111 111 133 116 133
139 163 142 107 67 111 117 116 113 93 116 122 122 101 64 63
180 217 199 126 120 213 220 218 221 221 221 222 221 220 220 221
222 221 221 221 222 223 224 224 224 225 225 225 225 224 224 223
226 225 225 227 227 226 228 230 227 228 228 228 229 230 229 227
229 229 229 230 230 229 229 229 229 229 228 229 230 230 230 230
229 231 232 232 231 231 230 230 232 231 230 230 231 231 231 231
230 230 230 230 230 230 231 232 231 230 230 231 231 230 230 232
229 228 228 229 229 228 228 229 230 230 230 230 230 229 229 228
229 229 229 229 229 229 228 228 228 228 227 225 226 228 227 223
229 226 224 223 225 226 225 223 225 225 224 222 223 224 224 223
40 46 66 74 79 65 29 18 36 67 94 119 143 139 97 49
30 24 19 19 40 64 89 97 84 40 34 39 34 40 47 86
111 120 99 68 59 52 42 44 55 59 61 58 49 52 45 41
50 57 56 55 64 56 36 35 48 74 101 91 84 84 73 82
104 126 121 110 106 121 144 136 125 106 100 126 128 110 115 117
108 103 113 108 95 100 101 94 102 104 95 88 89 91 91 86
87 78 72 78 89 90 79 68 67 92 110 123 112 94 89 72
54 64 76 91 89 77 74 70 84 96 102 98 96 120 115 85
114 129 134 126 130 140 130 137 141 146 139 120 123 137 141 123
132 172 167 169 151 155 154 164 151 144 166 166 171 180 170 146
169 165 171 117 98 159 151 128 119 150 145 140 130 142 161 135
166 173 163 154 147 145 165 180 179 180 185 208 189 127 103 108
106 89 67 44 140 202 181 150 107 80 49 24 44 103 98 64
102 153 131 90 97 92 79 76 78 85 77 77 52 62 54 59
49 80 62 62 158 132 124 136 91 119 127 120 105 102 104 117
110 124 138 61 68 118 123 109 113 124 118 116 117 106 89 54
158 206 169 116 88 203 220 220 219 220 221 222 221 220 220 221
222 222 222 223 223 224 224 224 224 223 223 223 224 226 225 222
225 225 226 226 227 227 227 227 227 228 229 228 228 228 229 231
230 230 230 230 230 230 231 231 231 231 231 231 231 231 231 231
231 232 232 231 230 231 232 232 229 232 233 232 231 231 232 232
232 231 231 230 230 231 232 232 230 230 230 230 230 230 231 231
229 230 230 230 231 231 230 228 231 230 230 230 230 229 228 229
230 229 228 229 229 229 228 227 229 227 226 227 227 226 226 227
227 225 224 225 227 227 226 224 224 225 226 225 224 225 225 225
51 69 82 68 66 74 53 26 20 41 71 101 126 109 65 54
51 40 35 33 31 37 65 89 98 71 35 35 37 49 72 96
110 109 86 59 57 66 58 43 30 45 57 70 69 63 56 46
51 54 56 60 68 59 39 36 47 57 80 90 92 86 76 88
112 127 123 114 114 129 142 129 117 97 95 126 126 102 108 116
110 106 109 90 62 57 62 64 64 69 67 66 66 62 60 58
61 56 51 53 62 67 63 56 58 68 72 74 66 61 66 61
69 72 71 70 61 54 56 54 54 61 74 86 93 110 116 107
127 134 121 124 107 130 135 129 125 129 131 117 99 131 141 90
105 144 143 158 148 132 132 149 142 135 167 155 148 148 111 105
162 166 141 93 78 155 162 117 116 152 138 111 93 160 198 140
130 164 164 160 191 180 153 146 160 123 109 193 233 146 119 113
110 94 97 51 159 205 181 151 113 76 42 29 51 87 99 79
71 158 163 100 108 99 83 55 61 78 76 60 55 60 55 65
57 55 73 70 127 184 128 101 98 129 109 93 149 126 128 141
106 109 109 111 126 114 114 108 124 142 126 120 126 113 113 86
59 160 154 116 78 187 224 219 219 219 220 221 222 223 223 222
222 223 224 224 223 223 224 225 224 224 224 225 226 227 227 225
226 227 227 227 226 226 226 226 228 229 229 229 229 229 229 230
230 230 230 230 230 231 231 231 232 232 232 231 231 231 231 232
231 232 233 232 231 232 232 232 230 232 233 232 232 232 232 232
231 231 231 231 231 231 231 231 230 230 231 231 231 231 231 231
230 231 232 231 231 231 231 230 231 230 230 231 231 230 229 230
232 230 229 229 230 229 229 229 229 228 228 228 228 226 226 226
227 227 226 227 227 227 227 226 226 226 225 224 224 225 225 224
50 72 80 55 39 55 62 46 27 21 37 73 108 110 82 64
58 49 39 33 23 24 41 63 97 93 50 43 50 70 92 95
95 92 87 79 79 85 71 42 31 50 61 71 75 70 74 64
57 50 41 36 48 57 48 39 43 43 57 74 84 84 90 110
119 122 112 104 112 132 140 126 115 116 120 134 121 96 92 88
77 73 71 57 43 44 50 52 50 49 42 43 46 45 50 55
56 56 52 49 52 59 61 59 53 52 53 52 48 48 53 55
62 66 63 58 51 52 59 58 60 54 56 60 66 75 94 108
124 117 127 120 104 140 140 120 94 123 128 100 88 147 148 91
91 137 136 141 148 124 112 128 132 101 159 166 138 125 89 109
162 155 134 98 107 138 150 110 128 162 150 118 106 155 162 146
112 122 124 150 185 200 199 124 109 86 125 187 230 189 131 119
114 111 109 77 160 205 169 145 116 73 70 156 163 109 91 90
69 105 162 110 104 107 98 66 56 65 85 74 53 54 56 57
56 53 71 81 96 126 132 129 134 138 153 123 141 103 119 137
122 121 122 116 130 94 102 139 150 105 90 122 100 93 117 115
80 77 134 119 87 165 224 218 220 221 223 223 223 222 221 220
222 223 224 224 223 224 225 226 224 226 227 227 227 228 228 227
226 226 227 227 227 227 227 228 229 229 229 229 230 230 229 229
231 231 231 231 231 231 232 232 233 233 233 232 232 232 232 232
232 233 234 233 233 233 233 233 232 233 233 233 233 233 233 232
232 232 232 232 232 232 231 231 231 231 232 233 233 232 232 231
231 232 233 232 231 231 232 232 230 230 231 232 232 231 231 231
234 231 230 230 230 229 229 230 229 229 230 230 228 227 226 227
226 227 228 227 226 226 226 227 227 226 225 224 225 225 225 224
45 58 63 55 35 30 45 53 43 45 40 55 85 111 110 74
47 45 32 31 32 32 28 42 72 83 72 58 63 80 82 68
62 63 76 86 81 70 55 39 41 64 73 64 62 65 85 86
69 48 31 28 42 58 54 42 46 48 51 60 69 81 103 125
119 114 104 99 110 128 131 117 115 136 146 143 122 99 84 64
51 46 42 42 47 54 54 51 44 39 32 36 44 46 49 50
51 52 49 43 40 42 46 48 46 43 48 48 48 49 47 51
54 58 60 56 52 55 60 60 59 58 61 61 63 58 64 72
90 90 98 108 100 124 139 121 93 131 138 102 92 135 142 144
141 140 140 125 136 107 88 155 127 82 126 157 160 146 119 138
153 157 128 94 136 153 119 91 128 164 157 132 117 144 149 138
111 116 96 116 172 173 159 162 168 187 178 190 199 229 159 126
125 132 130 154 171 194 170 156 121 67 151 218 170 115 87 87
86 64 114 135 118 119 96 98 67 59 91 91 76 65 65 57
52 39 61 89 97 94 143 126 126 181 171 131 99 112 134 141
146 146 131 117 110 105 145 159 103 43 105 124 129 130 102 93
97 83 83 113 80 152 224 217 216 218 219 219 219 222 224 226
222 222 223 224 224 225 226 227 225 227 228 227 227 227 227 227
226 228 229 229 228 228 229 230 229 229 229 229 230 230 230 229
232 231 231 231 232 232 232 232 234 233 233 233 233 232 232 232
233 234 234 234 234 234 234 233 234 233 233 233 234 234 233 232
233 233 233 233 233 233 233 233 232 233 233 233 233 233 233 232
232 232 232 231 231 231 232 232 231 231 231 233 233 232 231 232
232 231 230 230 230 229 229 230 228 229 229 229 229 228 228 228
226 227 228 228 226 226 226 227 226 226 226 226 226 226 225 224
47 51 51 58 51 33 38 50 61 71 52 39 58 83 81 52
47 52 41 43 54 44 22 38 57 66 73 56 57 73 75 62
54 51 59 72 70 59 56 62 72 87 86 58 46 54 80 99
83 48 32 38 45 47 46 47 56 61 65 72 74 75 96 119
124 122 116 112 113 116 108 91 100 113 118 116 102 83 69 52
42 42 40 42 45 46 44 41 38 36 30 34 44 49 50 48
53 52 49 42 35 33 36 41 47 43 46 45 47 50 48 56
57 57 59 56 52 54 57 59 62 62 63 59 62 56 56 58
60 65 67 101 102 119 123 130 134 138 146 147 142 129 119 134
133 127 129 133 133 97 113 179 163 130 136 139 146 154 171 164
136 141 133 98 144 183 172 147 141 160 160 126 122 174 145 112
120 179 187 152 144 157 160 176 184 183 169 186 182 211 207 141
133 123 128 175 177 165 161 151 103 64 183 189 151 103 78 76
75 56 61 113 147 121 102 108 98 63 83 81 85 78 89 74
60 62 36 67 109 111 132 155 137 139 127 155 154 121 102 127
115 144 147 111 115 126 155 129 72 103 110 109 124 109 110 91
98 106 103 83 79 149 224 220 219 221 222 222 223 223 223 221
223 223 223 223 225 226 226 226 225 227 228 227 227 227 227 227
229 230 230 230 229 229 229 229 230 229 229 230 231 232 231 231
232 232 232 232 233 233 233 233 234 234 233 233 233 233 233 233
233 234 234 234 234 235 234 233 234 233 233 233 234 234 233 232
233 233 232 232 232 233 233 234 234 234 234 233 233 233 233 233
233 232 231 231 232 232 232 232 232 232 232 233 233 232 231 232
231 230 230 231 231 230 230 230 230 229 229 228 229 229 229 229
229 229 229 229 228 228 228 228 225 226 228 228 228 226 226 226
49 55 50 50 53 54 67 80 71 65 66 48 36 44 45 50
63 76 64 54 65 54 25 35 53 56 61 57 62 78 92 84
68 63 64 76 86 86 87 93 102 97 82 56 47 52 68 88
79 51 42 44 38 31 34 44 60 70 85 101 92 67 78 115
134 137 134 127 116 109 109 102 99 91 77 70 65 58 50 39
35 38 38 39 36 33 36 37 39 40 34 35 43 52 59 60
56 53 49 44 38 36 40 45 50 49 51 50 53 55 52 59
53 50 55 56 56 58 60 63 59 57 57 59 63 58 55 55
60 58 60 81 103 115 96 96 128 121 109 112 123 107 111 119
127 103 96 117 103 71 108 153 154 163 140 110 138 147 156 140
128 142 116 75 140 172 172 169 150 154 159 145 112 151 133 87
117 185 194 164 140 151 161 168 172 152 162 182 190 189 215 167
131 130 122 142 176 157 138 131 62 87 204 184 141 108 104 71
59 23 46 60 121 144 108 97 106 92 83 81 83 86 82 82
71 65 95 108 98 122 104 125 136 107 132 135 133 149 144 106
122 112 106 111 126 136 130 62 97 107 110 130 98 116 149 127
127 111 88 77 92 150 223 215 218 219 219 218 220 223 224 223
225 224 223 224 225 226 226 225 225 227 228 227 227 228 229 229
230 230 230 230 230 230 230 230 232 231 231 231 232 233 233 233
233 232 232 232 233 234 234 233 234 234 234 233 233 234 234 234
234 235 234 234 234 235 235 234 234 233 233 234 235 234 233 233
233 233 232 231 231 232 233 234 235 234 234 233 233 233 233 234
234 233 232 232 233 233 233 233 233 233 232 233 233 232 232 232
230 230 231 232 233 232 231 231 232 231 229 228 228 229 229 228
230 229 229 229 229 229 228 228 226 227 229 230 229 227 226 227
45 54 53 47 45 61 92 116 89 51 56 59 51 52 47 53
64 80 73 52 59 55 36 43 53 52 50 66 78 90 90 85
71 71 77 92 105 107 95 81 84 81 66 59 57 54 56 66
60 55 63 65 51 39 36 39 56 70 95 120 114 78 75 114
135 146 144 135 114 105 123 132 109 91 63 47 47 49 46 39
39 40 40 42 38 35 41 41 38 42 40 42 48 54 59 60
57 56 53 49 46 47 51 54 48 50 51 51 54 53 49 52
50 47 53 56 57 59 58 59 56 51 50 57 58 58 57 61
56 57 50 72 117 134 144 126 122 115 93 84 115 115 97 85
102 97 128 131 131 144 122 130 131 137 133 99 116 134 140 127
122 169 155 128 136 171 166 174 156 137 134 109 98 116 94 85
145 150 153 163 151 103 92 169 172 154 139 175 176 188 183 132
137 152 128 124 151 141 113 110 52 118 207 186 156 131 100 62
43 24 25 60 91 135 127 91 71 101 86 86 87 82 65 86
104 63 94 123 93 97 112 107 109 134 110 92 112 158 134 100
127 106 102 148 144 127 69 67 113 101 113 113 98 119 143 150
121 123 104 100 104 130 186 210 209 217 223 223 220 221 225 228
225 225 225 225 226 227 227 226 227 228 228 227 228 229 230 230
230 230 229 230 231 232 232 231 233 232 232 232 232 233 234 234
234 233 232 233 234 234 234 234 234 234 234 234 234 235 235 235
235 235 235 234 234 235 235 234 235 234 234 235 235 234 234 235
235 235 234 234 233 233 233 233 234 234 234 234 233 233 233 233
234 233 233 234 234 233 233 234 235 234 233 233 233 232 233 233
231 231 232 233 233 232 231 232 231 231 231 230 229 230 230 228
230 230 229 229 229 228 228 228 229 228 229 230 229 228 227 228
37 41 52 52 42 49 83 114 84 51 46 60 67 60 46 47
49 62 66 49 52 47 46 66 71 56 41 57 70 85 66 69
72 75 88 104 110 104 81 53 66 76 63 61 52 46 51 59
52 55 76 85 71 52 44 48 54 69 95 125 134 103 84 107
132 150 150 137 104 84 104 118 97 76 48 36 39 42 44 45
42 43 44 47 41 37 44 43 44 46 43 45 50 52 54 53
54 56 55 50 49 53 56 56 55 57 52 49 52 53 52 54
56 52 57 57 57 61 59 59 55 54 54 60 56 57 55 56
58 51 58 91 130 164 183 189 159 125 106 86 111 122 106 121
130 140 145 133 138 145 103 101 139 115 118 91 112 145 126 107
91 146 171 158 137 156 144 153 141 111 126 115 120 124 152 184
157 157 150 160 149 120 124 140 166 158 129 135 164 183 151 130
178 157 124 117 114 112 109 99 62 142 206 191 160 125 120 70
34 25 24 55 94 103 131 127 81 84 105 106 90 90 127 126
120 97 84 84 88 92 103 100 92 110 148 145 130 111 96 126
130 144 143 143 113 55 72 112 137 110 73 104 127 137 128 96
120 124 121 118 104 109 116 129 127 160 199 220 223 220 221 223
224 224 225 226 227 228 229 229 229 229 228 227 228 229 230 229
233 232 231 231 232 233 231 230 234 233 232 232 232 232 234 235
234 233 233 233 234 235 234 234 234 234 234 235 235 236 236 236
236 236 235 234 235 236 236 235 235 234 235 236 236 235 235 236
238 237 237 237 236 235 235 234 234 234 234 234 234 233 232 232
234 233 234 234 234 232 233 235 235 234 233 234 233 233 234 235
233 232 232 232 232 231 231 232 229 231 232 231 230 231 231 230
230 231 231 231 230 229 229 229 231 229 228 229 229 228 228 228
29 21 45 62 55 48 58 84 93 60 43 51 56 54 50 42
28 41 55 52 56 57 74 97 87 47 37 42 56 63 51 53
61 81 94 104 114 96 49 44 54 68 64 49 54 57 65 66
49 48 71 85 74 58 49 50 48 73 107 133 124 98 85 106
130 132 135 104 70 59 73 83 68 48 36 29 28 38 41 38
36 39 48 46 41 46 45 41 42 46 50 52 52 50 45 41
41 52 56 54 53 49 43 43 51 56 52 52 51 48 53 55
57 60 57 58 59 59 61 57 60 59 56 55 57 57 55 55
60 57 73 103 136 163 186 206 213 199 188 165 116 101 109 114
110 100 110 124 105 120 97 93 155 142 96 103 157 150 124 107
114 125 149 156 139 111 105 112 104 132 164 174 155 151 172 183
144 138 147 152 169 157 182 164 135 92 143 166 137 127 99 150
193 194 135 110 79 69 103 92 67 158 207 182 152 130 125 70
45 26 27 47 85 106 108 121 119 105 102 106 111 110 113 115
122 109 105 101 90 85 90 64 98 100 133 153 125 107 142 154
128 124 140 104 48 76 127 130 140 75 94 137 130 128 98 112
135 112 94 110 130 122 107 107 118 117 114 170 204 219 228 220
225 229 225 225 231 229 225 229 227 231 230 231 230 228 230 232
230 230 231 231 231 232 232 232 232 233 233 232 233 235 235 233
233 235 236 235 234 234 235 237 236 237 237 236 235 235 235 234
236 236 236 236 236 235 236 236 235 236 235 235 234 234 235 236
235 235 235 235 235 235 235 235 235 235 234 234 233 234 234 234
234 233 233 233 233 232 233 234 236 235 234 234 235 235 233 231
232 231 231 231 232 233 234 235 231 231 230 231 232 232 231 231
231 229 230 233 233 230 229 229 230 230 230 229 230 230 230 229
27 23 42 60 59 45 40 56 81 78 56 43 43 51 59 45
53 50 47 45 45 58 89 104 76 39 30 37 52 70 62 47
51 68 78 87 96 75 44 36 48 60 65 62 71 78 84 76
46 41 49 53 52 52 51 55 70 87 104 107 104 98 103 121
123 116 91 60 60 81 79 65 54 43 41 39 35 38 35 28
28 31 39 41 42 50 50 45 42 47 51 52 51 49 44 39
47 51 50 48 51 50 44 41 48 52 49 51 53 53 57 59
62 64 60 57 56 55 58 56 58 58 56 55 55 54 53 54
58 60 79 107 137 164 188 209 217 217 223 226 202 175 145 123
126 96 74 110 96 114 145 127 135 133 132 138 150 122 102 169
172 154 140 128 101 91 138 143 142 157 169 172 165 137 155 159
164 126 123 107 104 155 168 189 153 99 161 183 169 139 102 162
167 186 181 134 92 67 89 106 113 167 196 177 151 126 118 73
43 23 23 42 83 94 112 116 116 133 101 100 97 99 117 99
103 96 94 102 99 92 93 77 96 110 112 126 125 133 117 122
130 134 128 96 101 120 117 140 138 135 126 116 107 109 131 133
119 109 115 93 121 113 110 130 148 132 123 113 117 160 206 229
224 222 230 228 227 232 226 227 230 232 228 229 231 230 230 229
232 232 232 233 233 233 233 233 232 233 234 233 233 235 235 234
235 235 236 236 235 235 236 237 236 237 237 236 236 236 235 234
237 237 237 237 237 236 236 237 236 236 236 236 235 235 236 236
236 236 236 236 236 236 236 236 236 236 235 235 235 235 235 236
236 234 233 234 234 234 233 234 236 235 234 234 235 235 233 232
232 232 233 233 233 234 234 234 232 232 232 232 232 232 231 231
233 231 231 233 233 231 230 231 230 230 230 230 230 230 231 231
33 29 33 45 50 40 34 43 61 73 61 45 46 52 58 59
67 68 44 33 34 48 74 84 69 40 36 45 52 69 66 43
47 57 56 58 67 59 59 52 59 75 88 85 79 77 77 64
48 44 35 28 39 59 71 80 98 109 106 82 92 114 130 132
128 115 75 51 67 94 82 68 48 40 40 40 37 39 35 29
34 33 37 38 42 48 48 45 44 48 49 44 42 44 47 47
48 49 47 46 50 51 49 48 51 50 43 44 49 53 59 62
59 62 58 55 52 53 59 60 58 57 56 56 56 56 56 55
59 62 80 106 136 165 189 209 218 219 216 221 226 229 221 219
221 191 124 119 112 89 97 119 111 108 121 108 99 113 90 122
153 150 134 119 121 108 161 165 162 135 150 158 145 125 122 152
156 132 126 127 106 136 175 172 130 135 150 175 170 190 185 150
170 158 185 170 112 92 70 111 120 159 191 175 139 127 111 50
66 126 116 94 82 88 102 124 126 134 128 117 109 99 120 115
120 104 109 123 109 110 110 80 81 95 109 126 131 130 117 122
166 150 127 122 134 140 141 147 130 139 135 127 106 147 133 151
124 128 113 95 109 112 111 117 118 121 129 118 114 98 127 206
229 224 227 225 222 229 230 226 229 232 230 232 235 232 231 230
233 233 233 234 234 234 234 234 233 234 235 235 234 235 236 236
235 235 235 236 236 236 236 236 237 237 237 236 236 236 236 235
236 237 237 237 236 236 236 236 236 237 237 237 236 237 237 237
236 236 236 236 236 236 236 236 237 236 236 235 235 236 236 237
237 235 234 234 235 235 234 234 236 235 235 234 234 234 234 233
233 234 234 234 234 234 234 233 234 234 234 233 233 232 232 232
234 232 231 232 233 232 232 233 231 231 232 231 230 230 230 231
29 31 34 43 48 44 43 43 44 54 56 47 72 88 59 49
56 67 47 33 32 45 58 66 54 38 42 54 54 59 62 51
67 70 53 48 51 56 78 75 82 96 98 82 65 57 56 48
63 65 50 35 50 78 99 113 124 132 122 95 102 128 139 132
132 121 86 55 55 66 60 59 48 38 36 35 38 44 45 44
41 36 37 39 41 45 45 48 47 51 49 40 36 43 51 54
46 49 52 51 50 50 53 58 53 50 43 42 46 50 54 58
55 57 54 50 47 47 53 53 54 52 52 54 57 59 58 55
60 56 70 98 133 165 191 211 218 225 225 224 226 228 228 232
224 227 227 211 178 151 136 131 101 88 92 88 70 100 106 110
127 121 101 121 169 157 140 145 147 132 123 149 142 115 119 128
118 94 134 200 176 129 159 155 94 140 152 152 179 182 167 162
156 135 148 171 133 113 107 84 130 161 175 161 131 127 95 54
166 204 165 134 89 104 108 117 121 129 133 143 126 111 106 122
128 129 125 130 126 128 129 126 114 116 105 123 110 125 123 109
125 130 134 115 121 140 132 128 134 125 146 129 148 178 139 142
123 142 135 123 121 117 124 101 89 112 121 119 127 104 96 109
167 219 225 223 233 226 224 228 227 231 229 230 232 231 234 236
232 233 234 234 235 235 234 234 234 235 237 236 236 236 237 238
235 235 235 236 237 237 236 235 237 238 237 237 236 237 237 236
237 237 237 237 236 236 236 236 237 237 237 237 237 237 238 238
236 236 236 236 237 237 237 236 237 236 236 235 235 235 236 237
237 236 235 235 236 236 235 235 236 235 235 235 234 234 234 235
234 234 235 235 234 234 233 233 234 235 235 234 233 233 233 233
235 233 232 232 232 232 232 233 232 232 232 231 230 229 230 230
26 33 43 48 45 46 51 46 34 42 49 53 88 99 57 44
49 50 48 44 35 43 47 49 37 33 37 53 61 64 71 73
84 82 59 55 47 52 76 80 90 97 81 62 54 54 53 49
67 75 63 48 58 82 105 121 128 135 133 120 115 125 125 125
130 122 94 48 32 39 45 44 40 35 36 36 39 45 48 52
43 38 40 43 43 40 39 47 50 52 50 45 45 49 50 47
39 45 53 56 52 47 50 54 54 55 57 57 58 56 52 54
47 50 48 47 45 45 48 48 47 46 49 52 53 55 56 53
53 45 58 92 131 164 191 214 221 224 227 225 225 226 228 226
230 232 232 230 233 234 237 220 197 174 149 144 120 102 108 127
130 113 107 87 131 132 101 113 136 131 100 126 143 101 141 170
147 135 151 175 137 116 134 106 71 167 171 148 172 172 145 128
152 150 158 151 104 96 129 100 143 169 154 145 137 112 57 82
210 205 161 116 82 88 99 107 114 116 121 106 137 138 112 126
121 124 126 134 128 131 135 135 135 140 113 102 82 93 105 106
117 126 133 116 124 145 129 117 123 138 128 138 136 149 143 147
146 144 137 130 135 134 135 116 104 127 118 110 119 123 118 91
98 181 224 227 223 222 230 226 229 233 232 234 236 233 233 232
232 233 234 235 236 236 235 235 235 236 237 237 236 236 237 238
237 237 237 238 239 239 238 237 238 238 238 237 237 238 238 237
238 238 239 238 238 237 237 237 237 237 237 237 238 238 238 238
236 236 237 237 237 237 237 237 238 237 236 235 235 235 236 236
235 236 237 236 236 236 236 236 235 236 236 235 234 234 235 236
236 235 235 235 234 234 234 234 234 234 235 234 234 234 233 234
233 232 232 232 233 232 232 232 232 233 233 232 231 230 231 231
31 34 44 42 33 37 46 45 31 41 38 44 68 70 54 56
54 49 49 51 47 41 31 33 32 31 30 46 67 76 79 82
88 87 69 62 47 45 60 75 84 96 84 72 69 68 59 52
54 60 58 57 66 82 103 117 126 134 133 126 117 122 112 104
108 97 77 40 27 34 44 43 34 35 39 38 35 36 39 46
41 39 44 47 47 41 37 45 51 48 45 45 51 56 51 42
31 33 42 52 52 48 45 44 49 54 62 63 61 55 48 50
48 52 51 51 50 49 51 48 46 46 51 55 52 53 55 52
44 37 52 89 128 160 187 214 223 221 225 225 227 230 234 230
233 227 228 233 234 227 233 232 233 234 226 223 214 180 145 132
107 108 114 84 129 135 87 103 134 115 88 135 132 86 138 156
169 176 145 137 105 76 121 143 132 161 183 169 144 160 124 107
138 155 170 119 118 170 177 135 138 167 150 128 112 82 38 108
207 197 156 99 83 86 93 98 76 99 96 109 110 125 141 128
105 119 131 127 118 131 133 116 117 125 124 106 105 108 113 119
122 106 101 103 105 118 128 122 123 123 123 130 113 130 151 140
132 122 114 135 152 133 129 129 120 124 117 121 114 109 116 123
105 102 145 203 230 232 229 232 230 232 228 230 234 234 235 234
234 235 235 236 237 237 237 237 236 236 237 237 236 236 236 238
238 238 238 238 239 239 238 238 239 239 239 237 237 238 238 238
238 238 239 238 238 237 237 237 237 237 237 238 238 238 238 237
237 237 237 238 238 238 238 238 238 238 237 237 236 236 237 237
235 237 238 237 236 236 237 237 235 235 236 235 235 235 236 236
236 236 236 235 235 235 235 235 234 234 234 234 235 235 234 234
233 233 232 233 233 233 232 232 233 233 233 232 232 233 233 233
32 29 37 36 30 30 31 37 40 47 33 24 45 60 57 54
62 60 51 49 58 48 36 35 31 29 29 43 65 72 65 64
83 94 87 65 47 43 51 69 79 97 97 90 80 75 65 55
53 51 58 78 92 101 116 123 126 126 123 115 114 119 105 86
80 62 46 32 29 32 36 41 37 39 42 39 35 33 34 42
37 39 42 42 46 47 46 53 50 45 39 39 46 53 51 45
34 27 32 45 52 52 48 42 39 44 54 55 52 47 41 47
56 60 58 56 53 50 51 47 50 46 50 56 55 56 55 48
36 30 47 84 125 157 184 209 222 223 229 229 231 228 230 227
231 230 236 229 234 236 229 231 230 233 231 223 220 219 210 207
170 136 125 133 101 121 107 122 142 138 123 127 152 153 131 147
149 157 153 129 99 101 169 185 178 138 167 160 127 122 103 141
143 132 128 99 156 185 195 170 134 147 150 128 109 77 38 103
202 177 142 104 74 78 90 91 45 62 75 91 118 115 110 114
138 140 159 144 115 134 147 108 84 115 125 122 113 128 118 115
121 114 118 98 95 110 108 125 123 124 157 131 104 132 144 135
122 123 134 130 138 109 122 125 138 138 128 122 111 117 125 110
105 97 103 127 165 182 192 226 230 233 231 232 234 232 235 236
236 237 237 237 237 237 237 237 238 237 237 238 237 236 236 237
239 238 238 238 239 239 239 239 239 240 239 238 238 238 239 238
238 238 238 238 237 237 237 237 238 238 238 238 239 239 238 237
237 237 237 238 238 238 238 238 238 238 238 238 238 238 237 237
236 238 239 238 237 238 238 237 235 235 235 236 236 236 236 236
235 235 236 236 236 236 235 235 235 235 234 234 236 236 235 234
234 234 233 233 234 234 234 233 234 233 233 233 233 233 233 232
35 26 29 29 30 29 24 38 53 47 39 33 49 59 51 58
71 67 53 44 47 47 53 37 30 27 36 52 67 65 51 49
58 85 93 58 44 46 52 67 77 91 91 84 70 73 73 66
64 53 64 98 116 120 127 125 107 94 96 100 110 108 100 92
84 64 41 35 38 44 38 43 41 41 43 42 42 41 39 45
44 46 43 35 39 46 47 52 50 45 40 38 41 47 49 49
45 32 31 43 53 57 54 48 36 42 54 56 53 48 43 50
48 53 53 53 52 52 55 53 52 43 44 51 56 59 53 40
30 24 40 78 122 158 185 207 224 226 229 227 232 228 230 232
234 234 234 232 236 235 233 235 233 231 227 228 227 225 214 210
209 201 193 190 152 131 125 120 120 118 125 104 127 147 131 118
142 149 119 134 173 160 159 164 155 128 127 126 117 162 152 173
171 126 102 121 177 186 174 186 166 132 123 118 125 82 35 96
199 189 150 109 88 78 85 92 42 28 70 101 100 104 107 125
129 126 130 125 135 142 128 95 105 128 122 123 124 117 117 121
132 122 120 118 122 128 125 127 132 131 130 118 124 132 125 128
115 122 144 123 125 163 144 116 126 163 132 107 114 112 114 114
113 115 120 117 99 89 106 129 143 169 198 224 237 236 237 237
238 238 237 237 237 237 237 237 240 238 238 239 239 238 237 238
240 240 240 240 240 240 240 240 240 240 239 238 238 238 239 238
239 239 239 239 238 238 238 238 239 238 238 239 239 239 238 237
236 236 237 237 237 238 238 238 237 238 238 238 238 238 238 237
238 239 239 238 238 239 238 237 235 235 235 236 237 237 236 236
233 234 235 236 236 236 235 234 237 235 234 235 236 237 236 234
235 235 234 234 234 235 235 235 236 234 233 232 233 233 231 230
48 31 20 27 36 34 28 25 41 48 52 58 54 43 49 65
71 70 63 46 39 48 47 39 33 44 43 44 54 50 42 46
52 63 64 63 62 59 58 54 63 77 73 60 50 54 84 80
64 60 79 111 127 134 126 119 89 78 90 89 86 95 91 95
83 62 40 43 49 46 46 44 41 42 48 51 47 44 47 48
51 48 45 45 44 41 40 45 47 43 42 42 40 39 44 50
42 37 37 43 49 54 51 45 44 52 60 58 53 52 51 47
43 45 48 50 51 52 53 54 49 48 47 53 61 57 42 30
17 24 35 71 116 150 181 206 222 229 229 230 231 231 232 231
232 233 234 234 232 232 232 232 233 231 230 229 228 226 222 219
210 205 200 196 192 184 174 166 153 133 101 81 110 139 117 92
126 122 85 143 191 181 140 150 153 114 111 112 138 171 177 157
154 137 154 137 155 173 174 194 213 165 130 114 106 87 37 81
193 183 153 116 99 96 85 81 45 28 39 91 87 80 94 115
129 125 113 90 102 134 136 130 136 125 104 96 97 115 133 115
112 128 138 143 143 142 144 138 135 141 127 123 127 120 119 125
118 125 108 102 122 138 133 119 112 121 112 91 126 116 101 112
118 110 108 118 115 110 113 101 110 114 122 156 208 224 235 240
240 238 240 237 240 234 242 234 239 239 238 238 238 239 240 242
238 239 240 240 239 239 239 239 240 240 239 238 239 240 239 237
240 240 239 238 239 240 240 238 238 238 238 238 238 238 238 237
238 238 238 238 238 238 238 237 238 238 238 238 239 238 237 236
240 238 236 236 237 237 237 237 237 237 238 237 236 236 237 238
235 235 235 235 235 236 237 237 236 236 235 234 234 236 236 236
236 235 234 233 233 233 234 235 232 233 233 233 232 231 231 231
44 39 33 32 34 36 35 33 36 52 63 65 58 50 53 58
57 53 53 48 43 43 39 36 38 46 43 36 39 44 43 41
36 43 52 59 69 68 54 46 53 62 58 47 43 53 80 80
64 69 90 117 127 130 119 114 85 76 88 85 71 65 61 65
57 51 42 45 47 46 49 49 44 44 40 38 41 43 45 48
50 49 46 46 47 44 41 43 36 39 48 50 40 38 44 44
49 49 51 48 43 44 47 48 52 54 57 56 53 54 51 46
38 43 48 49 49 51 51 49 45 45 49 57 62 53 35 24
21 26 36 68 113 147 180 205 223 229 229 230 232 231 232 231
231 232 233 234 233 233 233 233 233 232 231 231 230 228 225 223
218 214 208 203 199 192 183 177 173 162 138 108 113 133 132 130
131 142 116 134 159 164 146 116 98 101 140 159 159 167 168 144
102 106 174 159 143 158 174 169 216 198 139 124 98 79 64 70
178 180 150 123 99 97 88 68 54 38 27 54 92 78 78 93
115 107 105 101 96 106 118 122 132 140 130 124 127 127 118 97
128 147 158 159 157 157 157 148 156 142 147 154 139 133 136 125
128 122 109 120 137 125 112 114 106 120 125 115 126 112 108 109
106 119 113 100 103 121 129 118 122 104 103 120 123 147 210 239
240 238 236 239 240 244 234 243 240 240 240 239 239 240 241 242
239 240 240 240 240 240 240 240 242 241 240 239 240 241 241 240
240 240 239 238 239 240 240 238 239 239 239 239 239 239 239 238
237 237 237 238 238 239 239 239 238 238 238 238 239 239 238 238
239 239 238 238 238 238 237 236 236 237 237 236 235 235 236 237
235 236 236 237 237 237 236 236 236 236 236 235 235 236 236 236
234 234 234 234 234 233 233 233 234 235 235 235 235 235 235 235
35 45 48 40 34 37 39 38 36 45 54 60 60 56 52 43
37 37 48 56 56 50 39 33 37 44 45 38 32 36 39 36
37 42 49 51 60 62 51 52 48 53 50 41 42 51 68 69
70 96 118 124 120 119 102 89 76 80 92 86 64 48 38 35
37 44 44 42 39 40 48 50 51 47 37 32 40 48 49 49
47 47 44 44 46 44 39 37 28 32 45 48 37 40 50 47
52 54 54 49 44 45 49 49 53 51 52 52 51 50 48 43
45 50 52 49 47 47 44 39 42 43 47 52 51 39 24 19
24 28 35 65 109 144 179 206 224 230 230 230 231 231 232 232
232 233 234 234 233 233 233 234 234 233 232 232 232 231 229 227
224 221 216 211 206 200 192 187 182 170 170 164 144 117 106 120
114 124 147 121 139 156 164 128 127 165 160 138 118 139 161 140
106 120 162 170 140 138 159 155 187 213 162 132 102 74 66 53
171 183 135 118 107 106 89 67 57 38 26 45 90 88 77 78
92 94 87 91 101 101 99 97 97 119 134 135 136 136 132 127
135 148 155 157 159 161 162 156 160 158 166 165 154 153 149 138
148 141 140 142 129 119 132 145 134 142 141 142 143 131 130 124
121 122 112 102 108 109 105 111 123 109 115 129 124 104 126 206
240 242 239 241 240 233 246 239 241 241 241 241 240 240 241 242
240 240 240 241 241 241 241 240 241 241 240 239 240 241 241 240
241 241 240 239 239 240 240 239 240 240 240 240 240 239 239 239
238 238 238 238 239 239 239 239 238 239 239 239 239 239 239 239
239 239 240 240 239 238 237 236 237 237 237 236 236 236 237 237
237 237 238 238 238 237 236 236 235 236 236 235 235 236 236 235
235 235 236 236 236 235 234 234 236 236 236 235 234 234 234 234
27 41 48 39 29 29 34 36 41 37 41 57 64 59 49 34
34 41 56 60 58 54 41 31 32 39 48 51 44 37 35 37
52 52 50 52 63 61 48 45 53 53 49 42 46 56 64 70
77 108 123 114 101 95 74 63 74 92 95 80 65 53 40 29
34 41 43 37 32 36 46 52 52 46 39 38 45 52 52 49
43 44 41 39 43 44 41 38 34 34 41 44 40 44 51 48
51 52 52 49 47 51 53 49 51 49 52 53 50 47 46 45
45 47 48 47 47 48 46 42 43 48 50 47 39 26 17 16
22 27 33 63 107 143 178 205 223 230 229 230 231 230 232 232
232 233 234 234 233 232 232 232 234 233 232 232 233 232 231 230
226 224 221 217 213 207 199 193 184 177 176 169 165 164 149 135
114 97 112 111 118 146 144 126 123 161 163 153 113 124 127 108
129 144 132 164 120 116 153 169 163 183 177 144 129 107 88 71
173 188 137 105 98 111 90 58 39 28 27 35 66 83 78 73
76 90 85 80 94 101 97 98 101 100 116 129 133 136 127 116
116 115 114 119 125 126 127 126 130 146 152 147 156 162 158 168
186 171 159 148 140 145 146 132 125 133 136 148 152 147 146 151
149 146 139 122 115 105 93 103 105 110 125 129 128 117 96 128
215 239 237 241 241 245 240 241 241 241 241 241 241 241 241 241
241 241 240 241 241 242 241 240 241 241 240 240 241 241 241 240
241 241 241 240 240 241 241 241 240 240 240 240 239 239 239 239
240 239 239 238 239 239 239 239 239 239 240 239 239 238 239 240
239 239 240 241 240 238 237 237 239 238 237 237 237 238 238 238
239 238 238 237 237 237 237 237 235 236 236 236 235 236 235 234
236 236 236 236 236 236 236 236 236 236 235 234 233 232 232 232
34 42 48 43 33 29 31 36 39 35 40 55 58 50 44 34
44 53 62 53 42 40 37 34 35 41 48 56 58 48 42 48
58 62 53 58 65 58 53 45 46 46 48 51 57 65 68 74
79 92 97 96 89 77 58 58 75 94 82 62 62 60 48 38
36 38 40 38 36 40 46 52 47 39 38 42 45 48 48 44
40 42 39 37 40 45 45 46 45 47 48 50 51 47 41 40
47 52 54 50 46 49 52 51 49 46 48 50 47 44 44 44
42 41 41 44 48 48 47 45 46 55 56 45 32 21 16 16
20 25 32 62 106 143 177 203 223 230 229 230 231 230 232 232
232 233 233 233 233 232 232 232 234 234 233 233 233 233 232 231
229 227 224 221 218 214 207 200 197 185 180 174 165 162 162 163
157 147 124 121 113 128 125 92 69 138 159 145 127 161 127 109
153 153 116 133 121 124 130 148 155 152 144 139 173 171 143 139
172 171 149 116 92 108 88 52 17 9 9 30 76 85 67 75
81 88 102 104 109 116 110 108 101 97 114 123 118 112 111 120
121 114 110 109 107 103 97 96 98 100 105 109 118 123 127 146
155 159 154 157 171 164 136 119 127 133 147 160 153 156 166 192
177 164 159 144 133 129 118 118 120 112 110 133 132 123 112 95
131 218 237 237 240 243 240 241 240 241 241 241 242 242 242 241
242 241 240 241 241 242 241 241 242 242 242 242 242 242 241 240
241 241 241 241 240 240 241 241 240 240 240 240 240 239 239 239
241 240 239 239 239 239 240 239 239 240 240 240 239 238 239 240
238 239 240 240 239 238 238 238 239 239 238 238 238 238 239 238
238 238 237 237 237 237 237 237 236 237 237 237 236 236 236 234
235 236 236 236 235 235 236 236 234 234 234 234 233 233 234 235
41 45 51 53 48 41 36 34 37 38 38 43 43 40 41 38
41 48 55 44 29 27 33 41 44 45 43 47 57 58 55 59
59 65 55 58 58 53 61 56 44 42 45 53 55 60 62 67
71 74 75 81 83 76 55 52 65 74 61 50 58 59 50 45
37 36 41 43 43 40 38 41 43 36 36 38 38 37 37 35
39 41 39 34 35 38 42 47 50 53 52 52 54 46 38 41
45 48 50 48 45 49 53 54 51 46 45 47 45 43 43 42
43 40 41 45 48 46 44 43 51 56 50 34 21 17 17 18
22 26 32 62 106 143 176 200 222 230 230 230 231 230 233 233
231 232 232 233 233 233 233 233 234 234 233 233 233 233 233 232
232 230 227 223 222 219 214 209 203 193 188 184 178 172 166 158
164 155 160 145 123 123 136 99 103 146 150 147 115 142 155 150
136 131 138 114 130 168 153 138 114 112 93 142 192 198 179 166
170 165 162 129 102 113 75 46 33 64 118 49 70 96 69 83
107 102 104 101 111 125 120 123 121 114 110 110 112 104 97 112
112 114 118 115 113 113 107 104 112 106 102 98 95 93 93 98
105 119 125 126 134 135 133 146 146 137 149 159 142 151 164 184
183 161 166 169 157 150 140 136 128 121 112 114 107 112 117 102
95 143 228 242 236 241 241 243 242 241 242 242 243 243 243 242
242 241 241 241 241 242 242 242 242 241 242 243 242 241 240 240
241 241 241 241 240 240 240 241 241 241 241 241 240 240 240 240
240 240 239 239 240 241 241 241 240 240 240 240 239 239 239 239
239 239 239 239 239 239 238 238 239 239 238 238 238 238 238 239
237 237 238 238 238 237 237 236 237 238 238 237 237 237 236 235
234 236 237 238 237 236 236 236 235 235 235 235 234 234 234 234
42 45 48 51 54 52 43 34 39 41 36 34 36 37 42 43
33 35 40 32 25 29 37 44 44 42 39 40 46 54 60 61
59 58 50 55 58 60 64 51 52 43 38 45 43 48 55 62
61 63 62 65 68 67 49 42 48 49 48 47 51 53 49 45
39 38 45 46 42 36 31 35 43 43 35 29 31 28 24 28
38 42 41 35 31 31 37 46 50 51 49 46 46 46 45 48
43 41 41 42 44 48 51 50 51 48 48 49 46 44 44 44
40 39 40 43 47 48 48 48 52 49 35 19 13 14 16 19
25 28 32 60 105 143 176 199 221 229 229 230 231 230 233 233
231 232 232 233 233 233 233 233 234 233 233 233 234 233 233 232
231 231 229 226 224 222 219 214 207 203 197 190 181 175 173 169
162 162 158 156 158 143 119 131 134 162 148 141 104 104 150 151
122 103 144 147 131 148 157 164 165 156 129 178 186 193 205 183
176 173 161 118 90 102 49 34 129 187 167 115 53 88 80 82
104 107 104 98 105 110 108 116 121 122 115 112 116 109 98 102
106 108 111 106 103 105 100 97 100 107 107 104 105 107 109 105
107 109 114 112 116 124 124 124 127 124 132 147 140 148 153 158
161 147 160 167 155 156 156 149 144 124 123 104 85 102 124 123
115 99 148 228 241 242 246 244 243 243 242 243 243 243 243 243
242 242 242 242 242 242 242 243 242 241 241 242 242 241 241 242
242 241 241 242 241 240 241 242 242 242 242 241 241 241 240 240
240 240 240 240 241 241 241 241 240 240 240 240 241 240 240 239
239 239 239 239 240 239 238 237 238 238 238 238 237 237 238 239
238 238 239 239 239 238 238 237 237 238 238 237 237 237 236 235
235 236 238 238 238 237 237 237 236 236 236 235 234 233 233 233
48 48 45 43 51 60 56 45 30 36 35 35 36 33 37 43
35 31 28 20 22 36 42 41 37 34 38 40 37 44 56 58
55 52 51 51 51 58 62 53 45 38 37 51 47 49 54 57
61 58 55 56 54 52 44 47 42 37 45 46 41 46 48 43
38 39 46 45 39 35 33 41 45 51 35 22 28 24 16 23
37 43 45 40 33 31 39 50 52 50 47 43 41 47 51 48
43 40 40 41 40 42 44 42 42 44 48 48 42 39 40 42
40 41 41 41 43 47 49 50 49 41 26 15 14 16 16 16
27 29 32 59 104 143 176 200 220 228 229 230 231 230 232 232
233 233 233 233 234 233 233 232 233 233 233 233 233 233 232 232
230 232 231 229 226 225 221 217 213 208 200 194 189 183 177 171
168 159 163 159 157 156 158 132 118 125 141 132 113 125 147 106
104 127 114 131 131 135 132 156 170 191 157 174 189 188 195 206
182 149 133 109 67 64 22 42 191 211 165 123 67 84 88 94
110 103 102 107 101 97 105 108 109 118 124 118 112 112 112 108
118 111 110 107 109 114 112 113 106 111 117 121 111 106 111 103
104 109 110 105 110 110 100 102 101 120 125 138 141 146 154 166
149 119 118 134 144 159 165 156 151 143 131 119 114 111 121 115
105 103 98 152 235 243 243 245 244 243 243 243 243 243 243 243
243 243 243 243 242 242 243 244 244 243 242 242 242 242 243 245
243 242 242 243 242 241 241 243 242 242 242 242 241 241 240 240
241 241 241 241 241 241 240 239 241 240 240 241 242 242 241 240
240 239 239 240 241 240 238 236 238 239 239 238 237 237 238 239
240 240 239 239 238 239 239 239 237 237 237 236 236 236 235 234
235 236 237 236 236 236 237 238 236 236 236 236 235 234 234 234
32 47 43 40 51 65 72 66 39 37 38 34 40 36 35 42
38 42 33 23 20 35 43 46 33 33 39 35 32 38 41 47
58 55 46 41 43 51 55 48 45 38 44 53 51 53 64 70
71 65 52 48 54 50 41 40 35 41 46 43 39 42 45 44
45 44 37 38 46 42 39 47 49 49 38 28 33 34 24 17
27 37 43 43 38 35 41 45 45 48 48 44 43 47 51 53
43 44 43 47 45 39 37 35 33 38 41 43 45 44 43 45
50 41 45 42 40 41 51 47 43 31 20 15 14 15 16 18
24 27 34 57 107 144 176 199 223 227 229 229 231 231 231 232
233 233 232 232 232 232 233 233 234 232 231 232 232 232 232 233
233 232 230 229 228 226 222 220 217 210 204 199 192 186 180 175
169 163 161 162 161 157 156 159 151 127 118 94 87 133 158 143
126 144 119 100 121 126 125 142 162 173 141 162 181 189 189 201
190 135 132 79 42 44 11 49 190 192 174 128 61 52 100 94
76 94 105 107 104 104 96 102 106 109 114 119 113 107 113 118
122 121 112 108 120 134 120 126 112 113 119 120 113 109 112 113
114 112 117 111 111 108 92 98 100 102 107 122 139 138 138 151
152 131 117 117 137 159 159 150 149 150 149 128 117 123 124 98
87 97 102 92 186 239 240 242 242 245 242 244 245 243 244 244
242 242 243 243 243 242 242 241 243 243 243 243 242 242 242 242
241 241 242 242 241 241 242 243 241 241 241 241 241 241 241 241
240 241 241 241 241 241 241 240 240 241 241 242 241 241 240 240
239 239 239 239 239 239 239 239 238 239 240 240 240 239 240 240
239 239 240 239 240 240 239 237 238 238 238 237 236 235 235 236
237 238 238 237 235 235 236 238 238 238 237 238 238 238 236 235
26 35 44 54 54 50 56 56 51 46 43 45 46 37 40 37
39 42 37 31 27 33 35 36 35 32 37 38 36 37 38 44
57 55 44 40 46 52 53 45 48 45 50 52 48 56 79 96
85 66 49 45 43 41 39 38 41 45 49 46 39 37 39 41
45 48 41 38 44 44 42 49 51 52 44 35 38 40 34 27
25 33 38 42 41 39 44 46 42 43 46 48 47 44 45 48
47 47 43 44 44 42 44 43 36 37 35 35 38 41 43 47
49 43 46 44 45 46 50 44 30 22 15 13 14 15 16 18
20 26 37 60 105 141 176 203 224 228 230 230 232 232 231 232
232 232 232 232 232 232 232 232 234 232 231 231 231 231 231 232
232 231 229 228 227 225 221 218 217 209 203 198 191 185 180 175
169 164 161 161 160 156 156 158 152 155 145 112 107 135 154 161
132 125 133 133 126 112 139 144 150 160 138 152 183 180 183 185
196 175 118 68 45 40 14 96 192 171 166 131 60 12 106 132
84 78 98 92 92 107 117 105 113 96 100 115 120 113 105 111
116 125 123 117 122 134 125 125 124 118 121 127 123 116 117 123
124 119 116 112 106 100 96 94 98 102 102 109 126 135 137 140
145 146 135 136 143 135 118 100 124 163 156 134 131 130 122 110
105 108 105 77 100 209 242 243 243 244 244 244 243 243 244 244
244 244 243 243 243 244 244 245 243 243 243 243 243 243 243 243
242 241 241 241 242 242 242 242 241 241 241 241 241 241 241 241
241 241 241 242 242 241 241 241 241 241 241 242 242 242 242 241
240 240 240 240 240 240 240 241 239 239 240 240 240 240 240 240
241 241 240 239 239 240 239 238 239 238 238 238 238 238 238 238
237 237 237 237 236 237 237 238 236 237 237 237 237 237 236 236
23 23 37 51 38 24 33 43 48 50 55 64 56 36 36 25
31 45 45 34 27 33 31 27 34 32 41 47 45 39 39 48
61 60 48 44 52 56 53 46 52 52 55 53 46 57 82 99
89 60 45 44 38 38 43 41 47 48 52 50 40 34 36 40
47 51 42 33 36 39 41 47 52 52 48 42 41 44 43 38
33 34 35 42 48 48 49 47 45 46 49 52 49 44 41 42
44 46 44 45 47 48 51 49 48 45 39 36 40 42 44 46
42 40 42 44 51 49 42 31 17 13 11 11 13 14 16 18
18 24 37 63 107 143 178 205 224 228 230 230 232 232 231 231
230 231 231 232 232 232 231 231 234 232 231 231 231 231 231 232
229 229 228 227 226 223 219 216 212 206 201 196 190 184 178 172
169 166 163 161 159 157 157 158 158 160 159 154 152 138 128 148
141 116 141 144 128 109 122 142 141 156 157 151 169 167 167 176
184 189 128 77 49 44 37 157 203 167 152 118 60 85 188 187
149 99 99 104 105 103 110 117 112 101 104 105 116 124 108 100
118 121 119 117 114 114 111 115 119 122 123 121 123 126 125 124
130 121 109 114 113 110 114 101 108 113 112 106 108 117 126 129
130 145 143 139 138 121 99 94 114 131 143 142 143 146 122 115
98 99 108 96 71 144 236 240 242 242 246 245 243 245 246 246
245 244 244 243 243 244 244 245 243 243 243 243 244 244 243 243
243 242 241 241 242 243 243 242 240 241 241 242 242 241 241 240
242 242 242 242 242 242 241 241 242 241 241 241 242 243 242 242
239 239 240 240 240 240 240 240 240 240 240 240 240 240 240 240
242 242 240 239 238 239 240 239 241 240 238 238 239 239 238 237
238 238 237 237 238 238 238 238 236 237 238 237 237 236 236 237
29 23 31 38 23 13 26 43 40 45 52 58 53 35 33 23
22 43 49 43 35 37 34 33 37 42 51 56 51 41 42 53
60 62 50 45 51 51 48 44 44 45 48 46 47 60 79 88
81 57 46 46 39 38 41 37 44 46 50 48 39 33 36 41
49 52 44 34 33 34 35 38 46 44 42 41 40 43 47 46
45 39 35 43 52 54 52 46 47 49 50 47 46 46 45 42
44 47 44 44 46 48 51 47 51 49 44 42 45 44 40 39
36 36 37 43 50 43 26 15 10 10 11 12 12 13 15 17
21 23 34 65 112 150 182 205 224 228 230 230 232 231 230 231
230 230 231 231 231 231 230 230 232 232 231 231 231 231 230 230
226 225 224 223 221 218 213 210 203 199 195 192 186 180 174 169
167 166 163 159 157 157 157 157 156 155 156 157 157 145 126 124
142 124 130 142 112 118 149 148 143 156 147 137 141 152 160 173
183 195 136 89 112 82 79 179 201 185 152 96 47 156 216 198
161 109 94 117 116 111 99 101 103 111 117 105 103 111 108 107
111 109 107 110 106 101 104 108 112 113 113 116 122 122 124 132
132 124 110 115 119 121 126 115 113 112 114 117 117 118 116 110
112 121 136 133 140 137 112 116 116 91 119 158 165 159 129 113
107 107 113 120 103 95 193 240 242 239 244 245 244 246 246 247
245 245 245 245 245 244 243 243 243 242 243 243 244 245 243 242
244 243 242 242 243 243 243 243 241 242 242 243 243 242 242 241
243 243 243 243 242 242 242 242 243 241 240 240 242 242 242 241
239 239 239 239 240 240 240 240 241 241 240 240 240 240 240 240
241 241 240 238 238 239 240 239 241 240 239 239 240 240 238 237
239 239 239 239 239 239 239 239 238 238 238 238 237 236 236 237
31 24 29 37 33 24 27 40 30 34 40 42 50 43 33 26
28 38 45 53 50 41 36 48 52 59 60 57 49 41 41 48
49 55 47 41 42 40 40 42 37 36 34 32 39 53 65 67
62 53 47 45 42 42 42 39 40 43 46 43 35 33 37 39
50 51 47 41 38 33 30 31 38 34 34 35 37 41 47 51
49 45 40 45 51 51 50 45 44 44 42 40 41 45 46 44
47 49 44 42 43 45 47 42 47 47 45 46 49 47 41 38
35 38 38 42 41 28 12 7 9 10 12 12 12 12 14 17
22 21 33 69 116 155 184 206 224 228 229 230 231 231 230 231
231 231 231 230 230 230 231 231 230 230 230 230 230 229 227 225
222 220 218 216 213 210 205 201 195 191 187 184 179 176 172 167
162 162 160 156 155 156 156 155 157 159 159 152 153 158 152 142
121 124 131 136 117 142 150 147 148 156 143 148 141 142 156 164
176 183 131 157 174 155 148 171 182 155 154 113 41 161 215 194
165 110 81 105 106 118 115 112 108 108 105 106 105 99 102 111
103 107 109 107 102 100 105 102 104 107 106 107 110 112 116 125
125 124 117 114 116 116 117 120 123 119 123 130 131 129 124 116
106 100 112 116 129 137 117 114 101 87 104 158 179 163 155 133
121 113 106 115 115 97 128 222 242 240 242 244 243 243 243 245
245 245 246 246 246 245 245 245 244 243 244 244 245 245 244 243
243 243 243 243 242 242 243 244 242 242 243 244 244 243 242 242
243 243 243 243 243 242 242 242 244 242 241 241 242 242 242 241
241 240 240 241 241 242 242 241 242 241 241 240 240 240 241 241
240 241 240 239 239 240 240 239 238 238 238 239 240 240 240 240
239 240 240 240 239 238 239 239 239 238 237 237 237 238 237 237
38 25 31 47 53 41 28 28 26 31 38 38 47 43 33 32
43 46 43 46 45 40 37 50 64 70 62 51 44 40 40 40
41 48 46 41 38 35 40 46 42 41 35 30 35 44 48 46
48 51 49 46 47 49 50 51 44 43 42 39 34 35 40 42
49 47 43 39 34 29 28 31 36 35 33 33 35 40 45 50
49 51 49 49 47 44 45 44 48 41 36 37 38 38 37 38
39 43 43 46 49 50 50 44 44 45 44 45 47 45 42 41
41 45 41 38 27 14 5 10 9 11 12 12 12 13 15 17
19 21 37 78 121 158 186 209 225 229 230 230 231 231 230 231
232 231 231 230 230 230 230 230 228 229 229 228 227 225 222 220
216 214 211 208 205 200 196 193 188 183 178 174 170 169 169 166
159 159 157 155 154 155 156 156 151 152 151 154 158 153 150 156
146 120 137 132 129 156 144 154 136 124 149 160 155 147 142 152
172 122 87 184 188 186 158 157 145 134 137 115 45 150 198 182
156 103 74 90 105 101 87 86 102 108 102 102 108 107 105 101
101 102 106 100 94 91 96 101 101 111 112 107 106 108 105 100
101 106 110 109 114 116 110 115 117 116 118 118 115 119 122 120
111 104 104 112 117 121 120 112 98 99 107 126 145 155 170 157
123 99 95 112 100 101 95 170 236 244 243 243 243 241 243 243
244 244 243 243 244 245 246 246 244 244 245 245 245 245 244 244
242 243 244 243 242 242 242 243 242 243 243 244 244 243 243 242
243 243 243 243 243 243 243 243 245 244 242 242 242 243 242 242
242 242 241 241 242 243 242 242 243 242 241 240 240 240 241 242
240 241 241 241 240 241 241 240 238 239 240 240 240 240 240 241
238 240 240 240 238 237 238 239 239 237 236 236 237 238 238 238
67 40 35 48 57 55 41 29 32 35 40 42 43 34 37 40
49 59 50 39 35 37 37 45 64 73 63 48 42 39 39 39
38 46 48 46 40 38 47 53 54 50 41 35 39 46 45 40
47 52 54 51 48 49 51 51 48 41 36 35 33 36 42 47
45 43 38 31 26 24 28 34 37 43 40 33 36 42 45 48
50 53 51 47 44 43 47 47 51 42 35 35 37 36 33 31
30 37 42 51 57 55 50 42 37 40 41 41 41 39 38 40
45 46 37 27 13 8 5 10 10 11 12 12 13 15 16 17
18 22 43 88 128 164 191 214 226 229 230 229 230 230 229 230
230 230 229 229 228 227 227 227 225 225 224 221 219 217 215 212
208 205 200 196 193 189 185 182 178 174 169 165 161 162 163 160
156 155 155 155 154 153 154 155 153 156 153 152 156 154 152 155
156 147 137 138 157 160 151 156 149 117 155 161 158 155 138 140
125 78 123 182 176 190 185 158 137 130 127 120 66 165 208 186
145 105 80 68 90 87 55 46 61 96 113 102 99 106 104 99
100 94 98 93 92 89 94 105 111 109 111 115 114 108 100 93
86 88 95 99 106 110 106 105 103 102 102 103 107 112 113 108
105 107 110 119 118 114 115 108 107 109 120 110 109 138 156 159
133 100 93 113 99 97 92 120 216 242 245 244 245 241 244 241
243 243 242 242 242 243 244 245 243 244 245 245 244 244 244 245
243 243 244 244 244 243 243 242 244 244 244 244 244 244 244 244
243 243 243 243 243 243 243 244 244 244 243 243 243 243 243 243
243 242 241 242 242 243 242 241 243 243 242 241 239 239 241 243
240 242 242 241 240 241 241 240 240 241 242 241 240 239 239 240
239 239 240 240 239 239 239 239 240 239 238 237 237 238 238 238
94 52 33 34 42 59 56 39 33 33 40 52 50 34 40 34
46 62 59 49 40 37 36 47 58 73 66 52 43 37 39 41
36 43 48 48 41 39 49 54 65 56 40 30 34 41 38 33
40 44 51 51 46 47 50 48 46 34 26 28 29 33 41 48
39 40 38 32 26 24 28 33 34 47 45 34 38 46 48 49
49 50 45 41 43 48 54 52 46 40 33 31 36 41 38 32
32 37 42 50 54 50 44 36 33 39 42 43 43 41 40 43
45 42 28 16 5 9 7 6 11 11 12 13 14 16 17 17
19 24 47 95 136 171 195 217 226 230 229 228 229 228 228 229
227 227 227 227 226 225 224 224 221 220 218 214 211 209 206 204
198 195 190 186 182 178 175 172 169 166 163 160 156 157 156 153
153 152 152 153 152 150 151 153 153 154 156 156 151 152 156 152
154 155 146 134 131 149 158 133 119 110 142 160 152 151 161 152
144 125 153 177 171 179 179 185 172 146 126 127 119 184 201 197
155 105 86 60 70 82 49 33 30 64 99 100 99 100 93 100
105 102 106 94 98 101 97 99 107 104 102 102 106 112 107 92
91 89 90 90 87 91 97 95 99 99 98 95 90 88 92 97
89 87 94 99 102 100 89 85 94 112 125 126 117 128 145 161
130 108 91 106 114 109 86 94 193 236 243 243 245 241 245 238
243 244 244 244 244 243 242 242 241 243 244 244 243 243 244 245
244 244 244 245 245 245 244 242 245 245 245 245 245 245 245 245
243 243 242 242 243 243 244 244 243 243 243 243 242 242 243 243
244 243 242 242 243 243 242 241 243 243 243 241 239 239 241 243
241 242 242 240 239 240 240 240 239 240 241 241 240 240 240 240
240 240 240 240 241 241 240 240 242 241 240 239 237 237 237 238
78 46 26 22 28 55 71 50 30 30 42 49 45 36 37 34
48 58 69 61 41 33 37 39 56 66 59 57 54 42 42 41
41 45 40 45 46 40 49 59 65 55 35 30 35 36 34 25
29 34 40 38 38 45 47 48 39 33 25 24 33 41 44 46
44 41 42 39 31 31 36 37 41 41 40 40 43 47 48 45
49 49 49 45 43 48 51 46 42 35 27 27 37 45 45 39
41 42 40 46 47 42 40 34 30 37 45 48 48 45 42 39
31 20 10 6 7 7 8 8 9 10 10 12 14 14 14 17
19 23 57 109 147 173 201 223 229 228 226 226 227 228 228 227
227 229 228 225 223 223 220 216 216 212 208 203 200 197 193 191
185 183 178 174 171 167 165 163 159 158 156 156 155 153 153 153
152 150 149 150 150 150 150 151 152 154 154 153 152 152 153 152
152 156 149 153 140 117 129 144 122 124 127 130 138 155 158 164
165 161 145 165 169 173 176 171 141 148 146 124 166 201 197 188
155 105 81 53 31 55 60 23 26 32 71 95 94 98 106 116
119 113 102 104 101 96 100 94 105 98 103 105 102 100 101 92
91 98 98 93 87 85 85 80 85 89 97 89 71 62 58 58
63 53 53 57 54 54 56 54 62 73 101 126 132 131 132 136
125 124 108 107 117 111 80 70 131 222 243 244 244 244 243 244
245 244 243 242 243 243 244 245 243 243 243 242 242 242 244 245
246 245 245 246 245 244 244 245 244 244 244 244 244 244 244 245
245 245 244 243 242 243 243 243 245 244 242 242 243 244 244 243
244 243 243 244 244 243 242 242 243 243 242 241 242 243 243 241
241 241 241 241 241 241 240 240 241 241 240 239 239 240 240 238
240 240 241 241 240 240 240 240 240 240 240 239 237 237 238 239
43 28 25 16 23 45 68 65 38 28 37 40 41 37 38 45
54 57 67 63 46 42 45 42 51 55 52 54 57 56 56 49
44 44 43 42 42 44 55 72 67 50 35 36 36 30 30 33
33 33 36 35 35 39 43 49 44 34 24 26 41 51 52 50
46 45 45 43 39 38 42 46 40 39 36 36 41 45 44 41
44 45 48 50 48 46 44 43 38 35 32 33 35 39 44 47
48 49 45 46 42 38 40 40 41 41 41 43 44 42 35 29
19 12 6 4 6 6 7 8 9 10 10 11 14 14 15 17
16 33 74 121 155 182 206 220 228 227 226 226 226 227 227 227
225 225 224 221 219 218 215 212 206 204 200 196 192 187 182 180
174 172 168 165 162 160 158 157 154 152 151 151 151 150 150 150
152 150 149 150 150 150 150 151 152 153 152 151 151 152 153 153
153 153 155 150 158 138 107 133 157 153 148 115 124 151 158 162
156 143 136 157 168 167 176 137 85 144 181 158 171 199 194 176
147 106 86 51 13 12 36 36 27 29 42 86 97 106 112 116
120 107 109 109 102 100 102 105 98 100 99 97 105 102 100 102
97 93 101 99 97 96 85 87 73 73 77 69 52 45 44 45
44 35 29 30 28 25 27 26 34 43 58 87 111 125 137 138
129 123 117 103 108 108 87 77 87 187 238 245 244 247 247 245
243 243 243 243 243 243 244 245 243 244 243 243 243 243 244 245
244 244 244 245 244 243 243 244 247 246 245 245 244 243 242 243
244 244 244 243 243 243 244 243 245 244 244 243 243 243 244 244
243 243 243 244 244 243 243 243 242 243 243 242 242 242 242 241
241 241 241 241 241 241 241 241 241 241 241 240 240 241 241 240
240 240 240 240 240 240 240 240 241 241 240 239 238 237 237 237
30 32 45 38 29 32 54 78 62 44 39 27 31 36 40 54
56 53 60 60 45 42 53 59 51 54 50 40 44 64 71 56
52 44 42 38 42 50 54 67 63 42 37 41 37 29 29 37
40 37 39 39 36 36 39 47 46 41 35 34 41 46 49 52
44 43 41 41 40 38 41 46 41 41 40 39 40 41 39 36
38 42 46 49 50 46 43 44 39 39 40 40 39 39 44 50
50 51 47 45 41 38 41 42 42 41 41 43 43 38 27 18
10 7 5 6 7 6 6 7 9 11 10 10 13 14 15 17
21 49 93 133 163 190 212 223 224 224 224 224 223 222 222 223
222 221 218 215 211 207 204 202 195 193 190 185 179 174 170 167
163 161 159 156 154 153 152 152 150 148 147 148 149 149 149 149
150 149 148 149 149 149 149 150 151 151 151 150 151 152 152 151
159 149 152 155 153 154 148 138 138 132 154 141 133 145 145 158
151 156 154 150 163 168 165 114 124 170 192 174 170 186 188 173
146 106 88 45 28 21 11 17 13 23 34 69 104 100 97 96
97 104 102 99 102 100 98 101 109 104 100 92 92 92 101 107
100 87 95 103 104 93 76 81 81 67 60 52 44 42 38 36
29 28 22 26 27 21 22 21 28 42 45 63 84 101 124 132
119 113 124 114 118 119 98 79 72 130 235 241 245 249 245 240
244 245 245 245 244 244 244 245 244 244 244 243 243 244 245 245
243 243 243 243 243 242 243 244 245 245 244 245 245 244 244 244
244 245 245 244 243 244 244 243 244 244 245 244 243 242 243 244
243 242 242 243 244 243 244 245 242 244 245 244 243 242 242 241
242 242 242 242 242 242 242 242 241 242 241 241 241 242 242 241
240 240 241 241 240 240 240 240 241 241 240 239 239 239 238 237
49 75 101 91 45 31 38 71 85 74 56 29 28 36 46 59
68 52 42 42 40 39 49 62 63 44 38 37 40 56 64 58
52 49 50 45 41 43 49 62 55 38 40 43 38 35 33 36
41 41 46 45 41 38 38 44 47 49 47 41 37 35 40 48
45 44 40 40 43 40 40 46 47 49 50 47 42 38 35 33
32 42 45 44 47 48 44 42 38 38 39 42 44 44 44 44
46 45 44 45 45 44 43 41 42 43 44 43 38 30 20 13
8 8 8 9 8 6 5 6 8 10 10 9 12 13 14 17
30 63 108 146 173 196 215 225 222 223 222 221 219 218 217 217
214 211 208 205 201 196 191 189 185 182 176 170 166 162 160 159
156 155 153 151 150 149 149 149 148 146 145 147 149 149 149 149
148 147 147 148 148 148 148 149 149 149 150 151 152 152 150 148
150 157 148 152 153 152 161 144 135 113 131 158 150 165 143 140
155 168 165 143 145 162 138 106 151 175 183 198 191 183 186 175
139 119 80 52 41 36 71 107 65 20 24 51 87 92 96 91
83 93 97 89 87 90 91 100 102 101 102 96 89 84 91 94
99 99 96 98 98 93 89 82 81 62 51 47 43 41 32 25
24 29 23 24 24 13 13 15 29 46 50 54 64 76 100 121
130 129 135 120 112 108 94 83 65 87 204 241 247 247 244 249
245 246 246 245 245 245 245 244 244 244 244 244 244 244 244 244
243 243 243 243 243 243 243 243 242 242 243 244 245 244 245 245
245 246 246 245 244 245 244 243 243 244 245 244 243 243 243 243
244 243 243 243 244 244 244 245 244 244 245 244 243 243 242 242
242 242 243 243 243 243 243 243 242 242 242 241 241 242 242 242
241 241 242 242 241 241 241 241 240 240 239 240 240 240 239 239
98 85 86 82 40 23 29 66 89 94 74 44 33 31 47 57
66 57 41 33 35 37 44 58 69 42 32 35 38 50 58 57
58 54 47 46 43 43 55 63 54 39 41 42 41 42 39 37
38 40 46 44 41 41 40 43 49 50 48 43 38 34 36 43
44 42 39 40 44 43 41 46 50 51 51 48 44 40 38 36
33 41 42 40 43 44 40 37 42 42 42 44 49 53 50 44
42 41 42 44 48 49 47 45 50 47 42 35 27 19 14 12
7 8 9 9 7 6 6 7 6 9 9 9 11 11 14 18
38 76 121 155 181 201 213 217 215 214 213 211 209 207 206 205
202 198 194 193 190 185 179 176 173 169 162 157 155 154 153 151
151 150 149 147 146 146 145 145 146 144 144 146 147 147 147 147
147 147 147 148 147 147 148 149 149 149 149 151 152 151 149 148
149 152 151 150 153 149 144 153 147 126 124 158 141 135 118 135
163 166 162 144 130 137 119 116 156 181 185 217 210 184 175 152
142 122 91 49 38 134 207 176 145 68 21 24 49 79 87 91
95 91 98 84 84 99 92 93 92 100 99 95 102 93 89 95
99 100 97 96 89 78 72 67 59 48 45 43 37 31 22 16
25 31 25 22 19 9 9 17 33 41 47 48 58 67 76 98
129 140 131 116 103 96 82 70 69 75 146 242 248 249 244 245
246 246 246 245 246 246 246 244 245 245 245 244 244 244 244 243
244 244 243 243 243 242 242 242 243 242 242 243 243 242 242 243
244 245 245 244 244 245 245 244 244 244 245 245 245 244 244 244
245 244 243 244 244 243 244 245 245 244 243 243 243 243 243 243
243 243 243 243 243 243 243 243 242 243 242 241 241 242 242 241
242 242 242 242 241 241 241 241 239 240 240 240 240 240 240 240
100 54 37 42 44 37 45 65 87 99 83 58 42 30 45 52
54 65 57 40 37 40 44 51 55 49 48 49 48 51 56 53
64 54 40 43 44 45 59 62 58 43 38 40 41 42 42 42
40 41 43 37 37 41 41 41 45 46 45 42 38 34 35 40
39 38 37 39 43 43 43 44 46 44 41 41 44 46 45 44
42 40 36 35 37 39 41 45 49 50 49 47 49 54 52 46
41 42 45 44 46 49 48 49 52 44 34 25 19 14 11 9
7 8 8 8 7 7 8 9 6 8 9 10 11 10 15 23
51 90 129 153 177 200 208 204 204 202 200 197 195 193 191 189
189 186 183 180 177 173 167 163 161 157 153 150 150 150 148 146
147 146 146 145 144 143 143 143 144 143 143 145 145 145 145 146
146 146 147 148 147 147 148 149 149 149 149 150 150 150 149 150
155 145 154 153 146 152 154 156 158 150 136 158 155 124 114 149
156 158 142 137 147 143 136 142 162 179 176 202 203 178 164 143
117 112 92 46 79 193 208 183 140 78 50 39 21 34 62 68
68 73 79 91 92 89 93 90 92 88 84 82 90 90 92 94
94 87 90 78 64 53 37 38 39 31 32 29 23 20 17 14
15 22 22 19 16 10 10 20 42 43 49 48 56 59 54 70
104 128 118 105 98 97 90 80 81 72 139 242 238 243 249 243
245 246 247 246 247 248 247 245 245 245 245 245 245 245 244 244
244 244 243 243 242 243 242 241 243 242 242 243 243 242 241 241
242 243 243 243 243 245 245 245 245 245 245 246 246 246 245 245
245 244 244 244 244 243 243 244 246 244 242 242 243 243 243 243
244 244 244 244 243 243 243 243 242 243 243 242 241 242 242 241
242 242 242 242 241 241 240 241 240 241 241 241 240 240 240 240
71 48 32 31 58 71 74 67 71 82 75 60 55 49 50 44
50 57 52 42 44 54 52 41 41 45 56 77 75 52 46 51
55 53 55 56 45 38 50 62 58 48 37 36 37 40 45 48
45 43 40 35 37 43 40 37 38 41 41 40 37 33 34 41
42 43 45 45 45 47 48 47 42 40 38 39 42 45 46 46
46 40 35 32 32 37 46 50 50 51 49 46 44 45 45 42
42 42 47 45 44 47 45 47 40 32 23 18 15 13 10 8
8 8 7 7 7 8 9 9 7 7 9 11 11 10 18 31
63 98 130 149 170 190 194 190 191 188 185 182 180 178 176 174
173 172 169 164 161 158 155 151 151 149 146 145 146 146 144 142
143 143 144 144 143 142 142 142 143 143 143 144 144 143 144 145
145 145 147 147 146 146 147 149 148 148 148 150 150 149 150 152
147 154 152 151 152 152 153 149 149 159 151 148 152 129 132 158
141 132 109 120 165 169 155 156 160 168 172 187 192 167 138 132
108 119 99 75 119 190 187 170 132 80 56 46 49 38 25 28
70 159 147 91 84 77 69 75 85 75 78 80 79 81 88 81
75 73 67 42 32 39 32 27 25 21 23 19 12 12 13 13
17 19 25 21 20 18 13 22 41 44 50 50 53 51 47 59
69 98 108 104 99 92 86 84 87 79 168 240 247 242 246 244
239 244 247 247 247 248 248 246 245 245 246 246 247 247 246 245
244 245 244 243 243 244 243 242 242 242 242 244 244 243 242 243
242 242 242 242 242 244 245 244 244 245 246 246 245 245 246 246
245 244 244 245 245 244 243 244 245 244 243 244 244 243 244 245
244 244 244 244 244 243 243 242 242 243 243 242 241 242 242 242
242 242 242 242 241 241 241 241 241 241 240 240 240 241 241 241
54 41 30 55 93 91 60 37 36 47 53 49 62 68 53 28
29 29 34 37 45 63 68 55 42 46 50 73 80 58 50 52
48 51 70 72 56 43 42 55 54 53 40 34 35 40 50 52
46 40 37 35 40 45 40 35 35 36 36 37 38 36 36 41
47 49 53 51 47 48 50 47 44 45 44 42 40 38 39 40
41 41 40 35 31 38 45 43 50 50 49 47 46 45 44 43
41 41 46 45 46 48 41 39 32 24 16 11 10 9 10 11
9 8 6 5 5 6 6 5 8 7 8 11 11 10 20 36
67 97 128 149 169 180 180 177 174 171 167 165 163 161 158 156
155 157 155 150 147 148 147 145 145 143 141 140 141 141 140 139
140 141 142 143 142 142 141 141 142 142 143 144 143 142 142 144
143 144 145 146 145 144 146 148 146 147 149 151 151 150 150 152
149 150 149 151 153 151 151 154 152 152 151 148 144 123 131 152
139 111 104 125 155 159 146 154 162 159 166 174 191 177 133 129
109 121 125 101 129 190 180 147 111 89 71 42 46 81 56 61
155 194 212 118 46 60 60 61 56 57 62 61 62 59 63 65
55 44 32 29 24 14 13 15 15 20 31 27 13 10 11 14
16 12 18 14 16 21 16 25 40 48 51 53 54 51 53 62
63 63 70 72 82 81 74 73 79 136 222 245 206 140 134 171
233 240 246 246 246 246 246 245 245 245 246 247 248 248 247 246
245 245 245 244 244 245 245 243 244 243 244 245 245 243 243 243
243 244 243 242 242 243 244 243 242 244 245 245 244 244 245 247
245 244 244 245 245 244 244 244 245 244 245 246 245 244 244 246
245 245 244 244 243 243 242 242 241 243 243 242 242 243 243 243
243 243 243 243 242 241 241 241 241 240 239 239 241 242 242 242
48 65 85 96 92 71 49 44 43 41 30 26 44 77 66 28
21 24 29 35 48 64 65 54 45 43 42 46 54 58 67 53
45 46 64 78 54 42 46 51 50 50 45 35 39 39 44 48
45 42 43 45 45 43 40 36 35 39 33 39 39 39 42 46
48 54 56 51 45 45 48 49 48 49 47 40 32 30 33 37
35 39 41 39 38 41 43 42 45 43 44 48 48 46 45 47
48 47 43 40 43 43 36 28 24 20 16 13 12 10 8 7
10 8 6 6 7 8 6 5 9 6 7 8 10 11 22 45
68 93 119 143 159 164 164 161 157 153 151 150 148 147 146 142
145 142 138 138 139 139 139 140 141 140 138 137 137 139 140 140
138 141 142 141 140 140 141 141 142 140 140 142 143 144 144 145
144 145 144 143 143 145 145 144 148 147 147 148 149 150 149 148
150 148 146 148 153 154 152 149 152 150 153 154 143 134 138 147
148 128 130 139 142 155 134 141 164 156 157 164 170 131 111 131
107 120 137 113 125 194 192 154 121 109 81 51 66 158 188 172
194 182 164 120 35 30 36 38 34 17 24 20 17 18 22 18
22 18 13 12 11 16 23 25 26 19 35 37 30 15 7 16
13 14 15 14 15 16 15 21 42 48 54 52 47 50 53 53
55 50 48 58 71 68 111 143 174 219 237 228 113 68 76 83
131 220 243 245 246 246 248 244 243 244 246 247 247 247 246 245
245 245 246 246 245 244 244 245 244 244 244 244 243 242 242 243
243 244 244 244 244 244 244 243 243 243 243 243 243 243 244 244
244 244 245 245 245 245 245 245 246 245 244 244 244 244 243 243
245 244 244 244 244 244 243 243 243 244 244 244 243 243 243 244
242 242 242 242 242 241 241 241 242 241 240 242 243 242 241 241
50 66 108 117 83 70 73 62 53 42 26 17 33 65 71 41
29 31 28 28 40 53 57 56 48 38 33 35 44 50 61 56
43 44 64 74 51 40 43 41 37 38 39 36 41 41 44 44
48 48 49 46 41 40 41 39 43 39 35 37 39 33 37 43
46 50 50 45 41 43 46 49 47 46 41 35 31 31 33 34
31 37 42 45 45 45 44 41 42 39 39 43 46 48 49 51
47 45 40 39 40 37 30 25 24 20 16 13 12 10 8 7
7 7 6 7 8 8 7 6 5 5 9 11 12 12 22 44
69 93 118 137 148 147 145 140 142 139 138 138 136 136 136 133
132 134 137 137 134 132 133 136 136 136 134 133 134 136 137 137
136 137 138 137 138 139 140 140 139 138 139 141 143 142 142 141
141 142 143 143 144 145 145 144 145 145 146 147 148 148 148 148
148 149 150 150 150 150 150 151 153 149 149 152 152 148 144 139
128 104 134 149 142 155 128 123 158 160 155 160 156 111 151 149
116 114 131 137 133 190 196 166 141 130 79 69 38 148 196 183
186 151 124 108 127 144 121 124 119 90 73 48 46 40 22 20
15 18 23 29 30 30 30 27 32 42 37 41 38 19 15 8
11 10 11 11 14 16 16 22 31 40 50 55 54 50 44 39
42 45 52 63 65 59 136 236 233 239 250 172 73 77 81 84
84 154 240 245 244 247 243 246 243 244 245 245 246 245 245 244
247 246 246 247 247 246 246 246 245 245 245 244 243 243 244 244
243 243 243 242 243 244 244 244 242 242 241 242 243 243 243 242
242 242 243 243 243 243 243 243 244 244 244 245 246 245 244 243
244 244 243 243 244 244 244 243 243 243 243 243 242 242 242 242
243 243 243 243 242 242 242 242 242 241 241 242 243 243 242 242
37 44 83 106 98 92 77 51 36 30 23 20 34 57 73 54
35 34 24 20 32 46 57 67 62 45 37 38 49 52 52 52
45 48 71 76 53 39 40 32 31 28 32 34 40 42 47 47
47 52 52 45 37 38 43 43 45 36 37 36 38 28 29 38
45 46 47 46 44 42 41 42 44 41 36 33 34 37 35 30
28 32 39 45 48 47 44 42 43 41 40 41 44 47 47 46
42 35 29 27 29 30 31 32 26 22 17 15 14 11 8 7
5 6 7 8 8 7 7 7 6 6 9 10 11 12 24 47
66 90 112 128 135 133 131 129 130 129 129 129 128 129 129 127
129 129 130 131 131 131 132 134 133 133 132 132 133 135 136 136
136 136 135 136 138 140 140 139 138 138 138 140 141 141 141 140
139 140 142 143 144 145 146 145 144 144 146 146 147 147 148 148
148 150 151 150 148 147 149 151 149 149 150 151 152 152 148 141
117 128 139 134 128 140 126 122 156 157 162 161 124 121 176 185
152 123 115 136 172 190 194 175 152 122 76 68 43 57 141 185
161 150 127 84 97 127 139 159 193 166 169 176 107 79 63 37
29 23 24 28 28 26 27 29 29 38 41 30 32 36 17 8
10 9 9 9 13 17 18 23 25 31 36 41 44 39 30 26
36 56 55 56 68 60 116 242 240 234 189 107 79 84 90 87
94 105 217 241 246 248 242 246 244 244 244 244 244 244 244 243
246 245 245 246 247 247 246 246 246 246 246 245 244 244 245 246
243 243 243 241 241 243 244 243 243 242 242 242 244 244 243 242
240 241 241 242 241 241 242 242 242 242 243 244 245 245 244 244
245 244 244 244 244 244 244 243 243 243 243 243 243 243 243 243
242 242 243 243 243 243 243 243 243 242 241 242 243 243 243 243
37 45 76 96 92 75 50 36 28 34 36 42 51 59 71 65
43 32 19 15 27 44 58 66 58 43 42 52 69 72 56 50
47 49 72 74 54 40 43 34 34 29 33 36 41 43 50 50
41 46 48 40 36 41 45 43 38 33 40 41 42 33 30 41
49 48 49 49 46 41 37 36 38 35 33 34 39 43 38 30
27 28 33 40 46 46 43 41 46 47 45 43 43 42 38 34
29 27 27 30 33 36 37 37 29 24 19 16 15 12 8 6
6 6 7 7 7 7 6 6 8 7 9 9 10 13 25 49
66 88 107 120 125 125 127 127 127 126 127 127 126 127 128 127
129 128 128 129 130 132 133 133 132 133 132 132 133 135 136 136
137 136 136 136 138 139 138 137 139 139 138 138 139 140 140 140
138 139 140 141 142 143 143 144 145 145 145 146 146 146 147 147
148 148 147 147 148 149 149 150 147 149 151 149 146 149 151 149
128 138 151 140 116 118 117 119 151 165 162 147 87 125 170 178
179 155 128 144 159 177 188 167 151 121 86 64 46 40 147 180
159 145 112 86 72 67 87 103 109 114 143 138 117 84 52 54
34 20 18 25 28 25 24 29 30 33 38 40 33 27 19 13
11 9 10 10 15 18 19 25 35 35 31 31 34 30 25 28
45 65 68 65 67 60 106 230 229 125 72 68 87 88 90 103
98 87 192 245 246 241 246 246 243 243 244 244 244 244 243 243
245 244 244 245 246 245 245 245 247 247 246 246 246 246 246 246
244 244 244 242 242 243 243 242 243 243 243 243 244 244 243 241
241 242 242 242 242 242 242 243 242 241 241 241 242 243 244 244
246 245 245 244 244 244 243 243 243 243 244 244 244 244 245 245
242 242 243 243 243 243 242 242 243 242 242 243 244 244 244 244
43 49 86 93 61 39 34 34 51 53 44 46 51 53 61 72
62 38 21 22 34 51 56 46 40 30 39 57 80 85 57 43
43 40 56 59 51 45 54 50 39 34 39 40 42 43 49 49
38 40 42 40 41 48 48 41 32 35 44 49 46 44 39 49
54 51 49 48 44 39 37 38 36 33 31 34 40 44 41 35
33 31 31 35 40 42 41 39 47 49 48 42 37 32 27 23
24 26 32 36 38 42 42 37 29 24 18 15 14 11 7 4
7 6 5 5 6 7 6 6 6 6 9 11 13 15 25 46
70 89 105 115 119 119 122 122 123 122 124 125 123 124 127 126
122 127 131 132 129 128 129 131 130 131 132 131 132 133 134 133
135 136 137 137 137 138 137 135 138 138 137 137 137 138 138 138
139 139 139 139 139 139 140 141 144 143 143 144 145 146 146 145
148 146 145 146 147 148 148 148 150 147 147 148 147 149 151 150
149 138 143 118 121 147 126 128 137 152 160 128 97 151 173 173
181 195 159 139 139 170 190 162 141 113 82 70 50 61 160 182
163 143 105 96 89 48 61 94 104 108 105 99 114 108 72 44
38 22 20 26 32 33 27 27 27 26 32 41 32 28 29 9
10 8 10 11 15 17 18 25 40 42 36 32 34 28 25 34
58 57 68 72 63 65 74 112 114 59 71 99 98 106 96 90
90 90 172 247 241 241 250 242 242 243 244 245 245 244 243 242
246 245 246 246 246 245 245 247 246 246 247 247 247 247 246 245
245 246 246 245 244 244 244 243 243 243 244 244 243 242 241 241
242 242 242 242 242 242 242 243 241 241 241 241 241 241 242 243
245 245 244 244 244 243 244 244 243 244 244 244 244 244 244 244
243 243 244 244 243 243 242 242 243 242 242 244 244 244 244 244
34 49 97 104 68 52 57 67 91 74 45 36 34 34 37 57
77 49 32 35 49 66 61 36 25 20 32 52 70 78 54 40
42 39 44 47 46 51 63 67 46 41 40 37 39 40 47 49
41 41 43 45 49 53 50 41 35 42 46 49 45 46 42 47
48 48 48 46 42 37 37 39 40 36 33 34 38 41 41 40
42 37 31 28 29 33 36 38 44 45 41 34 26 21 19 18
25 28 35 39 40 44 45 37 30 24 18 15 13 11 7 4
6 5 4 5 6 7 7 7 7 6 8 8 11 15 26 47
70 89 104 114 119 119 120 120 120 119 121 122 122 124 126 125
123 126 128 128 127 127 128 128 129 130 131 131 131 132 132 132
133 135 137 137 137 137 137 136 136 137 138 138 138 139 138 137
142 141 140 140 139 139 140 142 143 142 142 143 145 147 147 146
146 147 147 146 145 145 147 148 149 146 148 151 151 150 150 149
148 146 128 99 127 163 141 133 123 124 140 129 126 161 156 159
176 190 149 125 144 174 194 173 149 125 90 73 49 70 163 183
169 141 107 78 84 49 62 109 135 136 88 101 105 114 106 67
49 31 25 23 26 32 29 31 24 26 33 38 36 30 34 20
9 8 9 10 13 15 15 22 35 45 41 34 35 29 28 42
59 63 72 72 64 73 63 48 59 75 86 140 149 137 117 97
101 94 149 241 241 247 245 241 242 243 244 245 245 244 243 242
245 245 246 246 245 244 245 247 245 246 246 246 247 246 246 245
244 246 246 246 246 247 246 245 244 245 245 245 244 243 242 242
242 242 242 242 241 241 241 242 241 241 242 242 242 242 242 242
242 242 242 243 243 243 243 244 245 245 245 244 244 243 243 243
244 244 245 245 244 244 243 242 243 243 243 244 245 244 244 244
51 72 109 108 80 62 69 103 117 83 54 38 29 26 26 42
68 52 39 38 50 67 63 40 20 18 29 45 51 59 50 45
49 56 57 51 43 45 53 62 49 45 39 32 36 39 47 50
48 46 49 54 55 53 49 44 45 48 46 47 47 44 42 41
40 44 47 45 39 35 36 39 39 35 34 36 37 34 34 36
41 40 35 29 26 28 30 31 33 32 28 22 16 15 18 21
28 31 42 51 50 50 46 36 30 24 17 14 13 11 8 5
5 5 5 5 6 6 6 6 8 8 8 6 9 14 28 51
69 88 104 115 119 119 121 121 121 120 121 123 123 124 126 125
126 125 123 123 125 128 129 128 128 130 131 131 131 132 132 131
133 134 135 135 135 136 137 137 135 137 138 138 139 139 139 138
141 141 141 141 140 140 141 143 143 142 142 143 145 146 147 147
145 146 147 146 145 145 147 149 147 147 150 152 149 148 150 150
150 151 149 148 143 146 153 138 117 121 119 144 143 155 164 160
168 148 122 152 139 161 175 169 179 144 94 87 56 98 182 185
160 125 104 73 76 45 44 94 109 107 108 112 114 108 117 110
61 36 26 24 25 31 39 58 48 55 50 64 79 42 32 30
13 10 9 9 12 12 11 18 31 46 44 36 36 30 33 53
68 78 77 81 77 68 72 83 109 103 104 160 170 163 147 128
106 90 130 235 244 244 239 244 243 243 244 244 244 243 242 241
244 243 244 244 245 244 245 246 245 245 244 244 245 245 245 245
244 245 245 245 245 246 247 246 246 246 246 246 245 245 245 244
244 243 243 242 241 241 241 242 242 242 243 243 242 242 242 242
241 242 242 242 242 242 242 243 244 244 244 244 243 243 243 243
244 244 245 245 245 244 243 243 243 243 244 245 245 244 243 243
95 77 71 62 54 45 49 83 107 69 57 44 37 34 38 52
50 47 38 30 36 52 53 42 30 28 35 43 35 38 38 41
55 75 77 62 38 32 33 43 46 45 39 33 40 43 47 49
53 51 55 60 57 51 48 47 53 52 47 47 53 46 47 42
41 45 46 40 33 31 35 41 33 31 34 38 35 28 24 25
31 38 43 40 34 29 25 21 19 18 16 13 12 14 22 29
35 33 42 50 48 47 45 38 28 22 15 12 12 10 7 5
4 5 7 7 6 5 5 5 6 7 10 10 12 16 29 51
70 90 105 114 117 116 118 119 123 121 122 123 122 123 124 123
121 124 126 125 125 126 128 128 127 129 131 131 131 132 132 131
132 133 132 132 132 134 135 135 134 136 136 135 136 138 139 139
138 138 139 140 140 139 140 142 142 142 142 143 143 144 145 146
146 145 145 146 147 148 149 148 149 147 148 148 147 148 151 150
149 149 147 145 141 143 152 151 141 139 141 140 131 152 167 162
164 132 124 172 157 140 141 149 178 181 123 94 101 141 201 186
155 128 97 66 69 45 28 73 92 105 115 113 114 106 120 139
88 48 30 28 26 28 52 93 109 106 107 100 157 141 67 43
19 13 10 9 11 11 9 14 24 43 43 34 34 29 33 55
102 125 122 111 90 79 120 163 160 138 131 171 175 169 167 153
121 98 119 222 241 243 244 243 244 244 244 243 243 242 241 241
244 243 242 244 245 245 246 246 246 245 243 243 243 244 245 245
244 244 244 243 243 244 245 244 246 245 244 244 245 246 245 244
245 245 244 243 242 242 242 243 243 243 242 241 241 241 242 243
243 243 243 242 241 241 241 241 240 241 241 241 242 242 242 243
243 243 244 245 245 244 243 243 243 243 244 245 245 244 243 243
89 56 47 46 41 35 27 69 108 88 49 46 43 40 54 67
62 46 40 30 22 29 35 36 40 44 49 45 32 24 32 46
63 85 75 55 41 29 31 34 39 46 46 46 44 43 49 48
48 50 54 51 43 46 44 48 54 49 46 52 58 52 42 42
43 40 37 32 25 23 28 31 26 29 34 35 32 31 28 24
33 39 48 43 31 26 19 11 15 12 16 17 16 23 32 37
42 44 48 51 54 46 40 33 30 18 14 13 11 10 6 5
4 4 5 5 6 5 5 5 5 5 5 7 9 14 32 53
75 94 109 114 118 119 117 114 120 119 119 119 118 121 122 120
121 123 126 126 124 124 126 128 127 128 128 127 128 132 133 131
129 131 133 133 133 133 134 135 136 136 136 137 136 136 136 136
138 137 137 139 140 141 142 143 144 143 142 142 143 143 143 143
143 145 143 143 146 147 146 146 147 147 147 147 147 148 150 150
150 150 149 148 145 138 139 147 144 137 150 128 112 140 161 162
156 107 122 181 185 151 134 121 128 149 170 144 111 149 202 181
155 132 103 72 78 54 29 100 121 100 117 98 95 111 134 171
114 65 40 28 24 30 38 87 124 124 117 107 125 202 137 68
31 10 11 10 10 18 14 16 20 37 42 42 46 65 92 100
128 152 147 148 121 125 166 192 183 147 148 175 169 167 173 167
136 103 107 212 244 237 240 242 242 242 243 244 243 243 241 241
244 245 245 245 244 244 245 245 244 244 243 243 243 243 244 244
245 245 245 244 245 245 246 246 244 244 245 245 245 245 245 245
244 245 246 246 246 245 243 243 243 243 243 243 242 241 241 241
242 240 240 240 240 240 241 242 242 242 241 240 240 240 242 244
243 243 242 242 243 243 243 242 243 244 245 244 243 243 243 243
60 46 47 46 35 25 34 78 121 112 68 49 45 36 45 75
77 45 28 28 31 33 37 49 60 73 71 49 26 20 30 44
62 69 55 47 45 39 39 36 32 40 45 47 45 47 53 48
48 50 51 46 39 42 39 45 47 48 50 54 55 50 45 44
38 33 28 23 17 18 23 27 29 27 29 33 35 35 35 33
38 35 38 33 23 18 15 15 15 10 16 28 37 45 49 50
53 51 51 49 51 44 40 33 29 19 17 15 13 11 6 5
6 5 5 6 6 7 6 6 7 6 5 7 10 18 37 58
77 92 109 114 113 115 116 112 118 118 121 121 119 120 122 121
118 121 124 126 125 125 126 128 128 129 128 128 129 131 131 131
131 132 132 132 132 132 133 133 135 135 135 136 137 137 136 135
138 138 138 140 141 140 141 142 143 143 142 142 142 143 143 143
142 144 143 143 146 147 145 144 144 145 147 147 147 148 149 149
148 149 149 150 148 141 138 141 133 116 145 138 118 140 163 164
142 108 128 167 184 171 134 119 116 123 146 177 137 139 201 190
158 140 102 82 80 46 80 167 164 111 101 77 87 124 133 128
87 67 44 28 21 24 33 50 115 121 120 106 103 146 196 88
35 10 9 11 15 15 21 29 43 59 91 102 105 118 126 129
124 146 163 170 166 177 189 193 180 139 150 178 165 160 168 170
142 102 104 197 242 240 240 240 240 241 242 243 243 242 241 240
244 244 244 245 245 245 244 244 243 243 243 243 243 243 243 244
245 245 244 244 244 245 245 245 245 245 244 244 244 245 246 246
245 245 245 244 244 244 244 245 244 244 244 244 243 242 242 242
243 242 242 242 242 241 241 242 240 241 242 242 242 241 240 240
241 241 241 241 242 242 243 243 243 244 244 243 243 244 244 243
64 57 50 39 30 24 46 82 96 77 53 47 41 36 44 68
84 63 43 32 30 31 41 62 72 72 57 35 23 22 31 47
53 57 48 44 44 44 46 39 32 35 42 49 47 48 54 50
53 55 50 45 39 38 34 41 44 46 51 52 49 45 42 39
33 27 22 18 16 18 25 29 31 24 25 32 36 37 37 36
36 28 25 20 13 12 12 15 12 16 32 55 73 81 80 76
66 58 54 47 44 39 38 34 27 19 17 14 11 9 5 5
6 4 4 4 5 6 5 4 7 7 6 7 12 23 42 61
83 95 113 118 113 115 119 114 115 117 120 121 119 120 124 124
121 122 124 125 125 125 125 125 128 127 127 129 130 130 130 131
131 131 130 131 132 134 134 135 134 134 134 135 136 137 136 134
137 138 139 140 141 140 139 139 142 142 142 141 141 141 142 143
143 144 142 142 145 145 143 143 144 145 146 147 148 147 147 147
150 149 147 147 147 144 141 142 130 116 134 132 135 149 142 139
132 100 125 161 178 183 153 127 122 124 128 144 172 195 202 189
157 133 103 82 67 104 169 165 160 164 108 80 85 112 110 76
62 61 55 35 25 29 32 32 73 115 97 103 108 114 191 118
50 17 11 10 14 11 35 57 88 102 135 142 130 138 145 140
142 150 183 201 190 184 189 184 167 121 155 182 166 153 152 159
143 101 102 181 241 244 241 240 239 240 242 243 243 242 241 240
243 243 243 244 246 245 244 243 243 243 244 244 244 244 244 244
245 244 244 244 244 244 244 245 245 244 244 243 243 244 245 246
245 245 245 245 245 245 246 246 244 245 245 245 244 243 243 243
243 242 242 242 242 241 241 241 239 240 241 242 242 242 240 239
240 241 241 241 240 240 241 242 242 242 242 242 242 243 243 242
82 62 44 33 40 41 47 55 47 36 46 49 39 44 56 70
105 99 75 46 29 24 36 60 75 60 34 23 31 37 44 58
59 63 57 47 41 49 57 49 37 31 37 47 45 46 53 51
58 57 49 49 47 41 34 43 49 48 52 53 46 40 37 31
25 21 20 20 21 25 32 35 33 29 30 34 35 33 31 28
21 16 13 8 7 10 10 11 15 36 65 92 108 113 109 101
78 63 56 47 40 33 34 35 26 18 15 12 8 7 6 7
5 4 3 3 4 5 5 5 6 7 6 9 17 31 49 66
86 98 111 115 113 114 115 113 117 117 119 120 118 120 125 126
125 125 125 124 123 123 124 125 126 124 125 128 130 128 129 131
130 130 130 131 133 134 135 136 133 133 133 133 134 135 135 134
136 137 138 139 139 139 138 138 141 141 141 140 139 140 141 143
144 145 142 140 142 143 143 144 145 145 146 147 148 148 147 146
149 149 146 145 147 148 146 146 145 140 157 140 117 138 133 120
132 111 124 158 165 183 193 168 135 132 128 132 185 200 193 178
153 131 101 74 82 173 209 174 159 160 119 78 84 94 82 53
58 54 52 46 35 24 28 33 34 85 105 105 107 110 172 148
81 29 12 8 11 13 38 72 104 117 137 141 129 144 168 155
141 150 195 223 188 163 184 182 142 99 161 179 167 150 135 143
141 105 98 170 241 242 240 241 239 240 241 242 243 242 240 239
242 242 242 243 244 244 244 243 243 244 244 245 245 245 245 244
244 244 243 243 243 243 243 244 243 244 244 244 244 244 244 244
244 244 245 245 245 245 244 244 245 245 246 245 245 244 244 244
243 243 243 243 243 241 240 241 241 240 240 241 242 242 241 241
242 242 241 240 239 239 240 240 241 241 240 240 241 242 241 240
83 53 42 45 60 54 40 36 41 60 75 56 43 46 60 91
118 98 65 41 30 21 31 54 57 49 34 36 55 64 63 67
64 59 51 41 35 48 60 54 45 38 43 48 47 53 58 55
55 51 44 52 54 47 40 49 49 47 51 53 43 33 29 26
19 19 22 27 29 32 37 38 36 36 38 36 30 25 21 17
11 9 10 9 11 12 10 14 34 68 100 120 131 133 129 116
92 66 55 47 42 34 32 33 24 17 15 12 8 8 6 8
5 5 6 5 5 5 6 7 6 7 7 12 24 39 58 74
89 103 110 112 116 115 111 114 119 118 119 119 118 120 123 123
123 124 124 123 123 123 125 127 126 124 125 128 129 127 128 131
129 131 132 132 132 132 132 133 132 133 133 132 132 133 135 135
134 135 136 137 137 137 137 138 139 140 140 139 138 138 140 142
143 145 143 140 141 142 143 145 146 144 143 146 148 148 147 146
145 147 147 147 150 150 148 147 148 131 138 147 128 139 130 132
132 130 135 162 163 170 183 170 155 140 130 136 185 184 165 154
150 130 100 70 105 186 179 164 130 110 71 76 99 73 44 41
40 46 43 49 46 31 28 26 58 139 161 121 97 100 132 181
115 37 10 10 13 16 25 68 100 110 126 136 135 152 173 161
152 162 187 189 147 134 152 154 105 83 168 172 166 150 129 139
146 115 90 157 237 239 239 240 240 241 242 243 242 242 240 239
241 241 242 242 241 242 243 243 243 243 244 244 245 245 245 244
243 243 243 242 242 243 243 243 243 243 244 244 244 244 243 243
243 243 243 244 243 243 242 242 245 245 246 246 245 245 245 245
245 244 245 245 245 243 242 243 244 243 241 241 242 242 242 242
242 241 240 240 240 239 239 238 240 241 240 239 240 241 240 238
85 56 48 51 47 32 36 60 81 85 80 52 42 36 48 92
100 72 38 25 25 24 34 46 42 40 47 73 94 86 66 60
46 36 34 33 29 36 47 46 46 46 52 48 46 56 58 50
50 47 41 52 55 48 45 51 46 48 53 52 41 28 24 25
23 24 30 35 37 38 40 40 36 36 36 30 21 16 13 9
10 6 9 12 12 9 13 29 69 105 129 142 150 152 145 126
104 68 54 48 45 38 31 28 20 14 14 12 9 8 6 5
4 5 7 7 6 6 7 9 8 7 7 15 30 46 64 80
97 110 111 111 119 117 112 117 116 114 116 119 119 120 121 120
120 122 123 124 123 123 124 125 127 125 125 128 128 127 127 130
127 129 130 131 130 130 130 131 132 134 134 132 131 133 135 135
133 134 135 135 135 136 137 137 138 139 139 139 138 138 139 141
140 143 143 141 142 142 142 144 145 142 141 144 147 147 147 147
144 147 146 146 148 148 148 150 146 147 131 123 126 155 134 113
128 138 148 157 156 167 148 115 159 148 144 137 136 152 158 145
130 109 92 65 116 190 176 144 113 88 58 55 69 38 43 83
65 38 40 44 52 46 23 62 164 193 184 165 114 98 116 180
135 43 13 12 12 14 18 71 100 106 127 136 137 146 155 164
153 153 162 151 137 135 121 120 72 89 176 172 168 151 131 142
155 126 86 141 233 238 240 240 240 241 242 242 242 241 240 240
241 241 241 241 240 240 242 243 242 242 242 243 243 244 244 244
243 243 242 242 242 243 243 243 244 244 243 242 242 243 243 244
245 244 243 243 242 243 243 244 244 245 245 245 245 245 245 245
245 245 245 246 246 245 244 244 245 245 244 244 243 243 242 241
242 241 240 240 240 240 239 238 240 241 241 240 240 240 240 239
112 85 61 55 36 26 58 101 98 69 59 46 38 30 40 69
81 66 46 36 29 27 34 34 30 27 43 77 91 67 38 27
29 22 27 31 27 29 36 36 34 39 47 42 39 47 47 44
51 51 46 53 51 48 48 50 53 56 56 50 40 29 26 28
29 28 32 36 37 38 37 35 28 25 23 20 14 11 10 7
6 4 6 7 8 12 32 64 107 140 156 165 172 169 156 133
103 69 57 48 43 38 31 26 19 13 14 11 8 8 5 4
3 4 5 6 6 7 7 8 9 8 11 25 43 59 77 93
104 111 111 111 116 115 113 118 117 116 118 121 121 122 122 121
121 122 123 123 124 124 124 123 126 125 126 127 127 127 128 130
126 127 128 129 129 129 130 131 131 133 133 131 131 133 133 133
132 134 135 134 134 135 137 137 138 138 139 139 139 139 139 140
139 141 141 140 142 143 142 143 143 141 141 144 145 145 145 146
145 146 145 145 146 147 148 152 148 150 145 134 117 140 151 134
147 127 128 151 160 153 121 121 168 184 158 146 136 135 157 159
138 120 95 63 121 189 179 152 116 85 66 26 24 57 159 171
134 59 36 42 51 46 36 143 212 197 190 187 138 81 117 191
149 59 26 13 13 13 18 62 91 102 120 131 141 145 151 174
172 151 151 141 145 145 122 114 67 120 181 173 164 146 132 143
149 125 87 126 229 239 241 241 240 241 241 242 242 241 241 241
242 242 241 241 241 241 241 242 241 241 241 242 242 243 243 244
242 242 242 242 242 243 243 244 244 243 243 242 242 242 243 244
245 244 244 243 243 243 244 245 243 244 244 244 244 244 244 245
244 243 244 245 245 244 244 245 245 245 246 245 244 243 242 242
242 242 242 242 242 241 240 239 240 241 241 240 240 240 240 240
120 92 52 48 36 36 70 98 78 56 55 48 41 36 44 56
69 65 62 59 40 28 31 26 25 26 40 62 68 52 33 24
27 21 24 26 23 28 31 28 26 30 41 40 39 43 44 50
54 56 51 54 48 49 52 50 59 60 52 40 34 28 23 24
28 25 26 29 30 30 29 26 21 14 12 14 13 11 10 9
5 8 10 8 12 31 66 107 132 163 177 185 188 177 159 132
96 69 61 48 38 35 31 28 21 15 14 11 8 8 6 5
3 4 5 6 7 8 8 8 8 9 17 37 60 77 94 110
113 115 116 116 116 117 119 121 126 123 124 126 124 124 124 124
123 122 121 122 124 125 125 125 124 124 125 125 126 127 128 130
129 129 128 128 128 129 129 129 129 131 132 130 131 132 132 130
132 134 136 135 135 135 136 136 138 138 139 139 139 139 139 139
140 141 138 137 141 143 142 143 143 142 143 145 144 142 143 145
141 143 145 148 150 148 147 149 148 149 146 148 143 136 144 147
141 145 127 131 153 149 116 136 172 180 185 164 143 132 136 144
146 121 93 61 110 190 183 152 120 89 79 40 31 158 200 174
145 93 40 40 50 55 81 189 220 209 182 174 132 83 97 179
162 78 37 13 18 18 16 34 84 103 106 124 147 146 147 161
167 145 150 146 148 143 134 108 82 151 180 168 153 137 131 142
134 116 89 116 226 239 239 240 240 240 240 241 241 241 241 241
242 242 241 242 242 242 241 240 241 241 241 241 242 243 244 244
242 242 242 242 242 243 244 244 243 243 243 243 243 243 242 242
242 242 243 243 243 243 243 243 243 243 244 244 244 244 244 244
243 243 243 245 245 245 245 246 244 245 245 244 244 243 244 245
244 245 246 245 243 241 240 240 238 240 241 240 239 240 240 240
111 105 63 41 30 39 88 108 72 60 55 41 43 46 43 40
35 35 55 67 55 34 32 31 28 33 41 57 65 64 49 42
43 36 35 33 40 37 23 31 24 29 43 42 41 43 52 56
58 51 56 55 48 44 44 53 60 56 45 31 22 20 18 14
17 16 16 18 18 18 18 18 14 13 13 15 16 16 14 12
8 11 10 6 34 78 109 139 164 181 191 196 190 175 154 124
88 70 57 45 39 31 30 29 18 15 11 8 8 8 6 3
4 4 4 5 7 8 8 8 8 16 29 54 83 102 114 125
130 127 127 129 129 130 131 130 131 129 128 129 128 126 125 125
124 125 124 122 121 122 124 124 123 124 124 125 126 126 126 126
126 127 129 130 129 127 127 129 130 132 133 132 130 130 131 133
131 132 133 134 135 135 135 135 138 137 137 138 139 140 139 138
137 137 138 139 141 142 143 143 143 143 144 146 145 143 144 146
143 143 143 143 145 148 149 148 151 148 148 149 145 142 142 141
131 138 133 124 125 149 122 143 167 173 176 182 163 140 127 113
126 122 96 80 112 191 172 145 114 89 79 53 71 182 201 174
133 93 54 37 53 78 119 198 210 195 170 143 115 82 92 145
157 94 57 17 7 15 20 15 70 104 98 125 147 147 147 149
157 146 149 148 155 169 138 112 118 166 179 170 156 132 137 140
133 110 88 93 149 239 241 239 243 238 239 243 238 243 240 240
241 241 241 241 241 241 241 241 242 242 242 242 243 243 242 241
243 243 243 243 243 243 243 243 243 243 242 242 242 243 244 244
242 242 242 242 242 243 243 244 243 243 243 244 245 245 244 243
244 243 243 244 244 242 242 243 243 244 244 244 244 244 244 245
243 243 244 245 245 244 243 243 243 242 240 239 239 239 239 240
87 123 111 64 45 47 78 97 65 50 45 48 55 50 45 31
30 25 39 62 65 55 40 29 28 39 50 53 64 65 60 70
72 59 43 45 47 38 33 33 30 34 43 42 50 56 58 55
54 51 58 59 54 48 43 46 56 50 36 21 13 12 11 9
10 10 10 11 12 12 12 13 14 15 16 17 19 20 17 14
14 8 14 36 76 113 139 165 183 198 203 200 189 170 145 111
79 67 56 44 38 32 31 27 17 14 11 9 8 7 5 4
5 5 4 4 5 7 10 12 9 21 41 69 100 121 134 145
148 145 145 145 144 144 143 141 140 136 133 133 132 130 128 127
125 126 125 123 122 122 123 123 122 122 123 124 125 125 126 126
126 126 127 128 127 126 128 130 131 131 132 131 131 131 131 132
132 132 133 133 134 134 134 134 132 134 136 136 136 136 138 140
140 138 137 138 141 143 142 140 145 143 143 144 144 142 141 143
143 144 144 143 143 145 146 146 147 146 147 147 146 144 138 130
115 108 113 126 124 135 131 139 166 169 170 175 176 165 134 119
89 107 112 88 115 190 174 147 115 97 84 56 96 186 182 160
118 89 67 43 59 90 140 196 200 189 163 133 110 87 94 125
149 122 84 26 15 13 20 23 58 104 108 113 148 153 147 154
154 148 150 156 166 193 156 127 146 174 175 169 157 141 141 143
124 103 99 101 110 182 237 236 241 242 237 240 241 239 239 241
242 241 241 241 241 242 242 242 242 242 242 242 243 243 243 242
241 241 241 241 242 242 242 242 240 241 241 242 242 242 242 242
242 242 242 242 242 242 243 244 243 242 242 243 244 244 244 243
243 242 241 242 243 243 243 244 242 243 244 244 243 243 244 244
243 244 244 245 245 245 244 244 243 243 242 241 240 240 240 240
61 98 104 58 38 30 39 53 53 68 62 55 54 41 38 37
33 28 30 51 62 66 55 48 48 47 58 59 61 61 77 98
105 66 38 41 44 39 38 35 42 45 44 39 53 64 61 54
49 52 58 56 50 46 44 49 56 45 28 13 6 7 8 7
8 9 10 11 11 11 12 14 15 16 17 18 20 22 21 17
18 17 37 77 114 139 163 185 201 212 210 200 183 163 135 99
83 73 62 46 38 31 28 20 16 13 11 10 9 6 4 5
4 5 4 4 3 5 9 12 11 27 53 85 116 139 155 166
164 161 159 158 155 153 151 147 148 144 139 136 134 132 129 128
126 125 124 122 121 121 122 121 121 122 122 123 124 125 126 126
126 126 125 125 126 126 128 130 130 129 129 129 130 130 130 129
132 132 132 132 132 132 133 133 132 134 135 135 134 134 136 138
139 138 137 137 139 140 139 139 142 140 139 141 142 142 142 143
142 143 144 143 142 142 143 143 144 145 146 146 147 148 139 124
111 132 125 136 136 137 138 148 157 161 168 169 176 191 166 127
93 93 136 103 133 191 183 150 129 106 87 56 122 196 177 157
113 88 76 49 63 97 159 197 200 193 166 135 119 95 94 111
125 150 136 74 23 13 19 31 65 102 107 108 128 143 153 152
154 149 149 152 159 186 157 136 150 173 177 172 162 164 159 152
130 108 94 145 171 160 177 227 233 239 241 240 240 240 241 241
242 241 241 241 241 241 242 242 241 241 241 242 242 243 242 242
241 241 241 241 241 241 241 241 240 240 241 242 242 242 242 242
242 242 242 242 242 242 242 243 243 242 242 242 243 243 243 243
245 243 242 242 243 243 243 244 242 242 243 243 243 243 244 244
243 243 243 244 244 244 244 244 244 244 243 243 243 242 242 241
37 52 63 43 28 23 25 33 48 64 57 49 53 46 38 37
37 35 33 45 60 70 68 69 76 87 88 72 56 53 86 118
108 52 30 33 35 36 34 39 43 49 44 34 48 62 55 47
47 54 58 53 46 46 51 59 58 43 22 8 6 9 10 8
7 8 9 11 10 10 11 13 17 16 16 18 20 22 23 22
17 30 59 98 128 156 186 204 213 219 212 201 185 167 145 114
103 89 74 55 43 32 25 16 16 12 11 11 10 5 4 5
3 4 5 5 4 5 7 9 14 34 65 98 128 151 169 181
178 175 172 169 165 162 159 153 153 149 143 139 136 132 129 127
126 124 122 120 119 120 121 121 122 122 123 123 124 125 125 126
127 126 125 125 126 127 129 130 129 128 128 129 130 131 130 129
130 130 131 131 131 131 131 131 134 133 133 133 135 136 135 133
136 137 138 138 137 137 139 141 139 137 137 139 141 142 142 143
142 143 143 142 141 141 141 142 143 144 145 144 146 149 143 132
113 147 147 155 121 122 135 146 160 156 163 167 150 139 163 164
131 103 125 127 157 207 186 164 136 109 90 54 131 199 180 154
122 92 81 65 77 106 173 203 201 188 163 134 117 100 99 96
107 131 180 136 45 20 14 21 65 100 102 116 118 132 148 141
147 146 151 153 157 157 144 134 137 161 178 177 167 170 162 149
126 95 111 177 177 154 138 171 236 232 240 242 238 244 240 241
241 241 240 240 240 240 241 241 240 240 240 241 241 242 242 242
241 241 241 241 241 241 241 241 241 241 241 241 241 242 243 243
242 242 243 242 242 242 242 243 243 242 242 242 242 243 243 242
245 244 242 242 243 243 243 242 242 242 243 243 243 244 244 244
242 242 242 242 243 243 244 244 243 244 244 245 244 244 243 242
30 51 59 48 31 35 37 35 36 36 50 58 49 41 37 42
44 45 45 50 67 71 67 62 84 121 91 53 44 50 76 101
87 42 35 43 36 31 31 41 36 45 41 36 50 61 49 41
49 58 59 55 53 54 58 62 53 35 15 5 7 11 10 8
8 8 10 11 10 9 11 13 18 15 15 18 21 22 23 25
23 36 62 95 126 161 196 211 218 220 211 203 191 176 162 139
124 105 87 67 53 35 25 16 16 12 10 11 10 6 4 4
3 4 6 7 7 7 8 9 16 39 76 112 140 164 183 193
188 185 182 178 173 170 165 159 153 151 147 141 136 132 129 127
125 123 121 121 121 121 121 121 122 122 123 123 124 124 124 124
126 126 126 125 126 127 128 128 128 128 128 129 130 131 131 130
128 129 130 131 131 131 131 131 131 131 131 132 135 135 134 132
137 138 139 139 138 138 139 140 139 138 138 139 139 139 140 141
143 143 143 143 142 142 142 142 141 142 144 144 143 145 146 142
139 145 135 147 130 128 124 126 153 160 156 164 138 88 147 188
173 140 123 146 201 207 191 175 142 121 97 56 135 194 174 145
123 94 79 80 90 114 180 205 199 174 151 125 105 101 107 95
97 114 144 187 94 46 25 19 44 100 105 112 122 132 135 142
146 149 147 155 157 145 146 141 135 143 167 174 171 166 160 153
126 91 139 186 169 147 112 140 232 237 237 242 239 243 238 242
240 240 240 240 240 240 240 241 240 240 240 240 241 241 241 242
240 240 240 240 240 240 240 240 241 241 241 241 241 242 242 243
242 242 243 243 242 242 242 243 243 242 242 242 242 242 242 242
240 240 240 241 242 242 242 242 241 242 242 242 243 243 243 243
242 242 242 242 242 243 244 244 243 243 244 245 245 244 243 242
42 66 61 53 40 42 37 30 26 36 60 71 58 47 43 59
70 65 59 51 60 57 50 42 74 104 67 38 38 51 67 74
72 46 38 49 43 33 37 38 42 46 42 42 56 65 51 45
58 61 54 53 59 61 59 56 41 25 9 5 8 10 9 7
10 10 11 11 11 10 11 13 14 13 14 18 21 22 22 23
28 37 63 93 121 154 184 200 214 217 211 207 197 184 174 157
141 119 99 78 58 33 22 16 15 11 10 10 9 7 4 4
3 3 4 5 7 8 10 11 12 40 83 121 149 173 191 199
193 190 186 181 175 171 166 159 149 148 144 139 134 131 128 126
123 122 122 123 123 123 121 120 121 121 122 123 123 123 123 122
123 125 125 125 125 126 126 126 125 126 127 128 129 129 129 129
127 128 130 131 131 131 131 131 131 132 134 134 133 132 132 133
139 138 136 137 138 139 137 136 139 139 139 139 139 138 139 139
143 142 142 143 143 143 143 144 141 142 145 145 142 143 147 147
152 139 139 143 141 141 141 132 138 160 156 161 136 92 155 176
190 167 136 187 202 203 204 171 159 142 106 64 141 190 166 140
123 99 80 82 83 114 188 205 195 174 144 120 106 90 89 114
107 112 110 159 166 71 35 27 23 78 112 105 122 136 130 144
150 152 137 148 151 148 149 143 136 134 147 152 159 162 162 152
109 93 164 178 163 154 117 112 191 236 242 239 238 239 240 240
240 240 240 240 240 240 240 240 240 240 240 240 240 241 241 242
240 240 240 240 240 240 240 240 239 240 241 242 242 242 241 240
241 242 242 243 242 242 242 242 242 242 242 242 242 242 242 242
240 241 241 241 241 242 241 241 241 241 241 241 242 242 242 242
242 242 242 242 242 243 243 244 242 242 243 244 244 243 243 242
45 55 58 60 47 41 36 35 40 52 60 78 88 73 52 62
84 72 54 41 43 45 40 33 59 79 73 57 45 46 60 66
60 44 35 39 42 41 42 36 46 46 43 48 56 61 50 50
61 60 47 48 60 61 54 45 26 16 7 7 9 9 8 9
9 8 8 9 10 9 10 11 11 14 15 16 19 23 24 22
26 32 57 84 111 139 161 179 195 205 208 210 204 195 187 171
151 130 109 83 55 26 16 13 12 11 9 8 7 6 5 4
3 3 3 4 6 8 10 11 13 42 87 126 152 175 193 199
195 191 186 179 172 168 162 154 142 141 137 132 128 127 125 123
123 121 120 121 122 121 120 119 119 120 121 122 122 122 122 121
121 123 125 124 124 124 125 126 124 125 126 127 127 127 127 127
127 128 129 129 129 130 131 132 133 134 134 134 133 132 132 133
136 135 135 136 136 136 135 134 137 137 137 138 139 140 139 139
141 140 141 141 141 141 142 144 143 143 145 145 144 145 148 147
142 144 134 118 140 147 144 139 130 144 144 150 126 100 151 166
166 176 159 171 200 195 195 182 165 157 136 109 159 186 165 140
127 106 85 78 63 103 197 207 190 176 144 120 104 77 60 106
117 107 102 116 167 133 44 35 19 42 101 119 122 134 132 138
147 147 137 143 148 147 141 135 136 137 138 135 135 142 140 124
95 123 179 174 170 161 143 135 152 197 236 234 237 238 240 239
239 240 240 241 241 240 240 240 240 240 240 240 240 240 241 241
240 240 240 240 240 240 240 240 239 240 241 242 242 241 240 239
240 241 242 242 242 241 242 242 241 241 242 242 242 241 241 241
241 243 243 241 240 241 241 241 241 241 241 241 241 242 241 241
242 242 242 242 242 242 243 243 242 242 242 242 242 242 242 242
33 38 67 76 47 33 40 44 53 63 73 102 99 64 43 53
72 55 33 30 38 50 44 34 46 71 85 64 51 40 39 47
43 35 35 29 35 48 41 38 36 38 40 50 53 53 43 48
57 57 46 49 61 58 47 35 15 10 7 9 10 7 7 10
10 9 9 10 11 11 11 12 12 17 18 15 18 26 28 23
28 26 42 60 87 116 131 148 166 184 197 205 206 202 196 179
154 135 114 82 49 20 13 14 9 10 9 7 6 6 5 5
4 4 5 6 8 9 10 11 19 47 92 129 152 174 192 197
191 187 181 173 165 160 153 144 138 136 131 127 125 124 123 121
123 119 117 117 118 118 118 119 118 119 120 122 122 122 121 121
120 123 124 124 123 124 126 126 126 126 126 127 128 128 127 127
127 128 128 127 127 128 130 132 133 131 129 130 133 134 134 133
131 135 138 137 134 133 135 137 137 136 136 137 139 140 139 137
139 139 139 140 139 138 140 143 144 143 144 143 143 147 148 145
148 149 142 119 111 122 132 125 115 125 121 132 130 121 143 160
165 164 183 168 173 193 194 183 158 168 185 177 187 188 169 143
121 101 85 71 44 87 196 201 190 172 149 123 93 79 54 71
107 97 90 108 142 190 105 45 33 22 75 128 119 127 135 146
149 143 143 137 144 141 139 143 138 142 141 140 127 122 116 104
93 160 187 175 181 172 171 173 151 148 214 229 237 238 234 239
238 239 240 240 240 240 239 239 239 240 240 239 239 239 240 240
239 239 239 239 239 239 239 239 241 241 241 240 240 240 240 240
239 240 241 241 241 241 241 241 240 241 241 241 241 241 240 240
239 241 242 240 239 240 242 243 242 241 241 241 242 242 241 241
242 242 242 242 242 242 242 242 242 242 242 242 242 242 242 243
35 46 72 88 80 64 56 58 63 62 82 106 70 40 33 37
49 44 38 38 42 40 35 33 41 50 54 51 35 27 27 37
38 35 32 37 47 50 44 38 39 39 43 52 54 49 48 55
64 52 53 56 48 45 41 26 11 9 8 8 9 9 10 11
12 11 10 11 11 10 10 10 11 16 18 18 21 27 26 22
28 27 27 35 52 74 99 120 137 156 175 192 204 207 198 180
161 135 110 69 22 19 8 13 11 10 8 7 6 4 3 3
4 6 7 6 6 9 12 14 19 50 91 127 148 168 187 190
182 175 168 164 157 148 141 139 132 128 125 123 123 121 120 120
116 118 116 115 118 120 118 116 120 123 123 120 121 122 121 120
122 121 122 124 124 123 123 125 125 126 124 123 126 127 126 126
127 127 127 128 129 130 131 132 131 129 129 131 132 132 133 136
132 133 135 136 136 135 135 137 138 137 137 138 139 138 138 139
139 138 140 137 139 142 138 142 143 143 143 144 145 145 144 143
147 143 145 144 138 126 127 113 112 133 116 130 153 137 140 156
162 163 155 157 173 167 164 168 164 161 174 174 186 191 170 150
119 94 87 67 44 89 191 202 190 178 144 116 95 80 58 41
65 74 69 96 115 165 159 80 41 27 43 113 116 114 129 140
138 143 145 145 142 142 147 144 143 138 132 137 136 133 122 113
137 177 184 187 178 183 191 171 149 115 166 237 236 240 237 239
240 239 239 241 241 240 239 239 240 240 239 238 238 240 241 241
239 240 240 240 239 239 239 239 240 239 240 241 241 239 239 241
240 240 240 241 241 241 242 242 243 241 241 242 242 240 240 241
242 241 241 240 240 241 241 242 240 240 240 241 241 240 240 240
237 242 242 239 239 242 243 241 241 242 243 243 242 242 242 242
66 62 76 108 117 89 64 61 48 45 51 65 43 33 34 36
38 45 48 56 69 50 35 42 43 40 37 40 36 39 44 52
55 49 48 51 53 54 52 48 41 43 47 51 52 49 50 56
53 51 54 49 39 40 36 18 9 7 7 8 9 9 10 10
10 9 10 10 11 10 10 11 11 15 17 17 20 23 23 20
25 27 27 27 33 44 63 81 108 131 155 177 195 204 197 179
153 126 96 41 16 13 12 11 10 8 7 7 6 5 4 4
3 5 7 6 7 10 13 15 19 47 85 118 141 164 183 183
177 170 162 155 148 140 134 132 126 123 120 119 119 118 118 119
119 119 117 116 119 118 117 119 117 120 120 119 121 120 119 120
123 122 122 124 123 122 123 126 123 126 126 124 124 125 125 127
126 127 127 128 129 129 129 130 130 129 128 130 131 132 133 134
133 134 134 135 134 135 135 136 135 134 134 136 138 138 138 139
139 139 140 138 139 141 138 141 142 142 143 144 144 144 144 143
142 147 145 143 149 152 148 138 142 145 128 127 151 143 135 150
162 155 114 124 184 176 142 138 136 137 148 157 184 188 165 151
126 103 85 61 34 90 197 198 190 173 144 116 92 85 64 40
32 41 45 68 93 127 175 127 78 37 37 60 92 103 113 119
120 121 139 145 147 150 142 144 147 144 145 153 147 143 139 134
184 195 185 184 181 179 172 156 147 106 117 203 238 239 240 235
240 238 238 239 240 239 238 239 239 240 240 239 239 240 240 240
239 240 240 240 240 239 240 240 240 240 240 240 239 238 238 239
239 240 240 240 240 240 240 240 242 241 241 241 241 240 240 241
240 240 239 239 239 240 240 240 240 240 240 241 240 240 240 240
239 241 242 241 240 241 242 242 241 242 242 242 242 242 242 241
98 75 55 75 93 71 46 39 31 24 25 46 46 44 38 33
34 41 52 60 63 50 48 56 59 51 54 68 66 62 54 47
53 54 55 51 48 50 52 49 50 53 56 55 50 47 49 53
43 44 47 43 40 47 39 14 8 7 7 8 9 9 8 9
8 8 9 10 10 10 11 12 12 14 16 17 18 19 19 19
20 23 24 23 22 25 35 47 74 100 128 154 177 190 187 172
144 111 69 19 11 9 12 8 9 7 6 6 6 5 4 5
5 7 8 8 8 10 12 14 20 45 79 111 135 160 176 174
168 162 153 145 138 132 127 123 119 118 117 117 116 115 115 116
119 118 116 117 119 116 115 119 117 119 119 119 120 119 119 122
122 122 122 122 121 120 122 126 123 126 125 123 124 124 124 126
127 127 127 127 127 128 129 129 130 130 129 129 131 133 133 132
132 134 134 132 133 134 135 134 135 134 135 136 137 137 137 138
139 139 140 138 140 140 137 140 140 141 142 143 144 144 145 145
143 147 145 145 148 144 138 151 145 145 144 127 139 142 130 150
160 147 104 111 160 173 172 159 144 142 144 141 163 191 187 159
139 125 77 45 46 112 200 204 187 163 140 117 94 94 81 51
28 40 84 89 107 140 184 149 106 68 40 41 69 85 104 120
121 116 126 129 133 142 141 148 147 155 170 178 162 151 148 152
197 202 191 183 181 174 157 144 130 116 98 137 222 234 237 242
239 238 238 238 238 238 238 239 238 239 240 240 240 240 240 239
239 239 240 240 240 240 240 240 239 240 240 239 238 239 239 239
239 239 240 240 240 240 239 239 240 240 240 240 240 241 241 240
239 239 239 239 239 240 240 240 240 240 241 240 240 240 240 239
239 240 241 241 241 240 241 242 242 241 241 242 242 242 241 240
80 67 40 42 55 52 49 43 36 30 26 41 45 42 35 34
46 46 50 54 45 39 43 53 69 77 101 114 86 60 48 45
51 65 61 42 37 45 49 48 55 57 60 58 51 46 47 50
43 43 46 46 48 54 43 16 9 8 8 9 9 8 7 8
8 8 10 11 11 10 11 13 14 14 15 17 18 17 17 17
16 19 20 22 24 24 26 30 47 72 101 129 152 165 167 158
132 88 37 16 10 9 8 8 9 8 8 7 6 4 4 5
7 8 9 9 9 10 12 13 20 42 74 106 130 151 166 164
157 153 145 136 130 126 122 117 115 115 116 116 115 113 113 113
115 116 116 117 117 115 113 116 118 119 118 118 119 117 118 122
121 120 120 121 120 119 121 124 126 125 122 122 125 127 125 123
127 127 126 126 126 127 129 130 129 130 130 128 129 132 132 130
130 133 133 131 132 134 135 132 135 135 135 136 136 136 136 136
138 139 138 138 140 139 137 140 140 141 143 144 144 144 145 145
144 144 144 150 145 135 130 157 152 148 149 127 128 144 132 150
162 130 104 108 146 162 165 181 166 152 146 134 141 169 183 166
154 139 79 52 81 149 203 207 191 161 137 117 99 97 100 71
46 113 182 159 125 131 148 146 123 94 55 39 51 68 91 113
118 116 116 120 116 116 132 146 148 152 156 157 147 143 144 158
189 200 192 187 196 193 168 141 112 106 116 108 173 236 237 234
239 238 238 238 238 238 238 239 238 239 240 240 240 240 239 238
239 239 240 240 240 240 241 241 239 240 240 238 238 240 241 240
239 240 240 241 241 240 240 239 239 240 240 239 239 240 241 239
239 240 240 240 240 241 241 241 240 241 241 240 240 240 240 239
238 239 240 240 240 239 240 240 241 241 241 242 242 242 241 240
73 59 33 31 44 59 73 68 44 38 27 32 38 41 44 48
63 75 72 69 52 46 49 70 84 91 112 116 74 42 36 41
55 79 67 34 31 44 47 46 50 49 53 56 50 44 45 48
47 51 54 51 50 53 40 13 10 8 7 8 8 8 8 8
9 10 11 12 12 11 11 13 15 14 14 16 17 17 16 16
17 18 18 20 22 21 20 21 26 47 75 105 126 134 140 139
116 63 15 16 10 9 8 9 9 9 9 8 6 4 5 7
6 7 8 9 10 11 13 14 17 36 67 100 121 138 154 157
149 145 137 127 123 121 118 115 113 114 115 114 113 112 112 113
112 116 116 115 115 115 114 115 116 117 116 118 119 117 116 120
119 119 119 120 121 120 121 121 125 125 122 122 125 127 125 124
126 126 126 126 126 127 128 129 127 129 130 128 128 130 130 130
128 131 133 131 132 134 134 131 133 133 134 134 135 136 136 136
138 138 136 137 139 138 138 140 140 142 143 143 143 143 143 143
144 144 145 147 144 146 140 149 163 152 150 134 121 136 127 141
164 135 106 114 140 145 155 156 144 152 156 136 132 142 147 146
135 133 129 120 116 164 203 209 200 166 138 122 110 98 109 93
124 191 186 165 134 117 127 132 96 79 79 53 56 66 75 97
121 122 122 118 104 98 116 134 142 145 140 140 146 149 147 164
189 198 192 197 211 207 190 162 116 98 115 95 115 232 236 238
237 238 238 238 238 238 238 238 239 239 239 239 239 239 239 239
238 238 239 239 240 240 240 240 239 241 240 238 238 240 240 239
239 239 240 241 241 241 240 240 239 240 240 238 238 240 240 238
239 239 240 240 240 240 240 240 240 240 240 239 239 239 239 238
237 240 240 239 238 239 240 239 239 240 241 242 241 240 240 240
63 48 33 37 45 55 68 67 52 46 36 42 50 55 72 93
101 99 85 73 61 81 90 86 77 72 80 85 56 35 32 36
50 71 59 33 37 47 44 42 47 42 45 48 42 37 40 43
49 54 53 46 49 56 40 9 8 7 6 7 8 8 9 9
10 11 12 13 13 11 12 13 15 13 13 14 16 16 16 15
15 17 17 17 17 17 17 20 18 32 54 82 99 103 108 110
97 46 12 12 10 7 11 9 8 8 8 8 7 5 6 8
7 7 8 9 10 10 12 13 16 31 60 93 112 127 145 151
143 138 130 121 118 118 117 115 112 113 112 110 110 111 113 114
112 116 116 113 114 116 116 116 114 116 116 118 120 119 117 118
119 119 119 120 121 122 121 120 122 125 125 123 123 123 124 126
123 124 125 127 127 127 127 126 127 129 130 129 128 129 130 131
128 130 132 131 131 132 133 132 133 134 135 135 134 135 135 135
136 137 134 136 138 136 138 141 138 139 140 141 142 143 143 143
144 144 145 146 144 149 145 142 141 132 141 140 124 126 114 117
138 139 116 112 139 146 151 151 117 144 175 158 140 136 127 120
126 120 141 148 143 179 200 200 198 169 140 127 114 89 81 82
167 207 182 172 144 113 111 90 73 62 66 65 58 61 71 102
111 117 122 101 94 111 115 115 122 139 143 137 138 145 150 175
183 179 178 195 204 196 196 181 115 99 114 92 90 199 233 234
236 237 238 238 238 238 238 237 239 238 238 239 238 238 238 239
238 238 238 239 239 239 239 239 240 240 239 238 238 239 239 238
239 239 239 240 240 240 240 240 239 240 239 239 238 239 239 239
238 238 238 238 238 239 239 239 238 239 239 238 237 239 239 238
238 240 241 238 237 239 240 239 239 240 241 242 241 240 239 239
49 59 67 65 53 44 49 59 68 71 64 56 57 70 101 126
117 81 60 54 68 106 111 68 45 46 60 72 53 40 43 51
56 56 46 41 49 51 45 46 48 42 42 41 34 35 43 46
52 51 46 42 50 59 42 11 8 7 7 8 9 9 9 10
11 11 12 13 13 12 12 12 14 14 14 13 14 15 15 15
13 16 16 15 17 17 18 21 19 25 36 55 69 73 76 76
71 36 15 11 11 7 9 9 9 8 7 7 7 6 6 7
8 7 8 9 9 9 10 12 15 29 55 86 106 121 137 141
133 128 122 117 115 114 114 112 110 111 110 109 109 111 113 113
114 116 115 114 116 116 116 117 115 117 116 116 120 120 117 117
119 119 119 120 121 121 120 120 120 124 124 122 122 122 123 126
124 125 125 126 126 127 126 126 128 128 129 130 129 129 129 131
129 130 131 131 130 130 132 134 134 136 136 135 134 135 135 134
135 136 133 136 138 135 138 140 137 137 138 140 142 143 143 143
143 143 145 147 149 146 149 149 129 117 134 136 132 138 124 107
125 96 123 123 130 151 142 149 111 124 171 177 163 147 125 120
125 124 131 138 156 185 194 203 191 166 137 124 108 84 46 72
185 200 194 172 130 97 74 52 60 58 53 76 72 62 58 75
97 112 122 101 94 108 97 80 82 111 137 141 140 146 143 153
162 150 164 185 192 186 184 168 118 95 112 86 61 128 232 233
236 237 238 237 237 238 238 237 238 237 238 238 238 237 237 238
237 237 237 238 238 239 238 238 239 238 238 239 239 239 238 239
239 239 239 239 239 239 239 239 239 238 238 239 239 239 239 240
239 239 238 238 238 238 238 239 238 239 239 237 237 239 240 238
239 239 239 238 237 238 239 239 239 240 241 241 241 240 239 238
102 114 105 72 47 37 41 56 74 86 73 52 64 98 118 110
77 43 39 54 86 103 101 67 49 52 67 81 65 54 57 65
75 51 37 45 52 48 46 51 46 41 40 37 32 40 54 57
57 52 47 45 51 54 40 19 9 8 9 10 11 10 9 9
12 11 12 13 13 12 12 12 13 15 15 14 13 15 16 15
14 15 15 15 18 18 16 16 19 19 21 34 47 52 55 52
47 26 13 12 13 8 3 11 11 8 6 7 7 7 5 4
6 5 6 8 9 10 11 14 14 28 53 82 102 117 130 130
121 118 115 114 113 111 109 108 109 110 110 110 111 112 111 110
113 113 113 116 118 115 113 115 117 118 115 113 116 118 117 115
118 119 120 119 119 119 119 119 120 122 121 120 122 123 123 124
127 126 125 125 125 126 127 128 127 125 126 128 128 127 127 129
130 131 131 131 129 128 131 135 131 133 134 133 133 134 135 135
134 136 132 137 139 135 137 138 140 139 140 141 142 142 141 140
143 147 145 144 150 144 149 148 143 133 154 135 131 148 149 130
124 113 126 129 128 136 144 141 103 118 159 168 180 173 137 131
126 135 137 150 187 205 196 194 184 162 133 122 112 105 55 105
193 199 182 154 123 86 43 42 48 61 78 75 77 65 51 58
79 96 113 118 108 98 98 95 84 98 124 142 158 177 162 147
136 140 178 192 184 178 172 152 104 94 98 81 53 78 204 237
237 238 239 237 237 238 239 239 237 237 237 239 239 237 236 237
237 237 237 237 238 238 238 237 238 237 237 240 241 240 240 241
240 240 239 239 239 239 239 239 239 238 238 239 240 239 239 241
240 240 239 238 238 239 239 239 238 240 240 238 238 240 241 239
240 238 237 238 237 235 237 240 239 239 240 241 241 240 239 237
101 91 79 59 47 35 38 49 65 70 70 80 103 108 86 70
48 41 76 99 106 87 54 45 50 73 98 86 68 54 67 100
101 52 22 34 43 39 40 41 38 34 35 35 38 44 51 60
57 61 44 43 53 58 38 20 7 9 11 10 9 9 10 10
10 13 13 13 16 14 12 14 13 14 13 13 15 16 15 12
13 15 16 17 16 15 15 16 19 20 22 26 31 35 37 38
31 23 15 10 8 8 8 8 10 8 8 8 8 7 6 6
7 8 9 9 8 9 11 12 13 24 48 73 91 112 125 123
117 113 110 109 108 106 107 109 109 108 110 109 110 111 108 108
111 112 112 112 112 113 115 116 114 116 114 114 118 119 117 118
115 115 116 117 118 118 119 121 119 121 123 122 122 125 125 124
126 122 125 127 123 125 128 125 124 126 126 125 126 128 130 129
130 128 129 128 128 130 131 136 132 134 134 133 136 136 134 133
136 135 134 134 135 136 135 134 137 138 139 138 139 140 142 142
144 144 145 147 147 147 148 150 149 144 158 148 131 149 154 141
127 138 117 124 105 116 145 128 85 112 148 157 170 176 162 140
134 140 137 152 190 210 205 197 180 158 143 136 120 102 70 143
194 191 174 148 119 90 37 27 35 56 108 102 73 84 66 65
80 88 99 111 113 129 175 162 119 104 119 148 189 201 190 160
130 147 184 188 178 170 153 132 110 95 88 59 59 69 179 237
236 237 238 239 238 237 237 238 238 238 238 238 238 238 238 238
237 236 236 236 237 238 238 238 237 238 238 238 238 238 238 237
239 238 238 238 238 238 237 237 239 239 239 239 240 239 239 239
239 239 238 239 239 239 238 239 238 238 238 238 238 239 239 240
236 238 239 237 236 238 239 238 238 238 239 239 239 240 239 239
50 39 50 54 42 33 42 46 51 72 90 103 105 72 53 48
43 54 105 113 76 46 34 34 53 78 97 74 53 46 72 111
87 42 23 32 41 40 33 36 40 41 42 37 38 47 51 53
55 57 45 45 55 55 37 16 7 8 9 8 7 8 9 9
12 13 12 13 14 13 12 12 12 13 13 13 13 14 14 13
13 14 15 15 16 16 17 17 17 18 20 23 25 26 27 27
27 22 16 12 9 7 6 6 7 6 6 7 8 7 6 6
7 9 10 10 8 8 10 12 16 26 48 70 86 104 116 115
113 110 108 108 107 107 108 111 110 109 111 110 109 111 110 112
110 111 112 112 112 113 114 115 114 116 117 117 118 117 116 116
117 117 117 118 119 119 120 121 119 120 121 120 122 124 125 123
125 122 124 125 123 124 126 124 126 127 127 126 126 128 129 129
129 127 130 129 128 129 128 131 131 133 132 132 134 135 134 134
137 136 135 135 137 137 136 135 137 138 138 137 137 140 142 143
143 144 145 147 147 147 149 151 153 155 149 150 156 141 147 139
139 143 119 121 108 111 132 121 86 105 143 144 158 174 171 170
148 142 142 143 164 196 204 202 189 162 148 143 138 115 107 159
198 187 165 140 118 94 46 27 31 73 136 135 97 89 87 72
77 83 87 87 109 183 223 182 142 105 122 144 182 208 192 173
140 130 140 151 169 168 146 128 114 100 80 61 76 73 150 238
236 236 237 238 238 236 236 237 238 238 238 238 237 237 238 239
237 237 236 236 237 238 238 238 238 238 238 238 238 237 237 237
239 238 238 238 238 238 238 237 237 238 239 239 238 238 239 240
238 238 238 239 238 237 237 239 238 238 238 238 238 238 238 238
237 238 238 238 237 238 238 238 238 238 239 239 239 239 239 239
34 31 51 65 61 51 51 46 52 70 89 104 100 54 50 61
64 77 106 102 60 40 41 42 58 71 79 60 54 45 69 105
87 39 29 37 47 49 34 43 42 45 49 45 46 51 50 49
55 53 48 48 57 55 40 17 6 8 9 9 9 10 11 11
13 11 12 13 12 13 13 11 10 12 13 13 12 12 13 13
13 13 14 14 15 16 17 17 15 17 20 21 22 22 23 23
24 21 17 13 9 6 6 7 7 6 7 8 8 7 6 6
7 8 10 9 8 8 9 11 17 26 46 65 80 96 109 111
110 109 107 108 107 106 107 109 108 107 110 108 107 109 109 112
110 111 113 113 113 113 113 114 113 115 118 117 115 115 116 115
118 118 118 119 119 119 119 121 120 119 118 118 121 124 123 121
123 123 123 124 123 124 124 123 126 125 126 126 126 126 126 128
129 128 131 130 128 128 127 130 130 132 130 130 132 134 133 133
134 133 133 135 137 137 137 136 137 138 138 138 138 140 142 143
142 143 146 148 148 148 151 154 154 159 158 141 153 145 130 127
145 148 132 127 118 116 134 137 114 105 135 138 143 161 169 152
133 142 153 140 142 169 183 193 183 167 159 154 147 147 171 186
192 178 154 129 116 103 67 40 45 147 182 164 138 102 91 93
82 70 72 78 129 199 224 197 152 101 106 99 129 192 192 179
153 112 83 79 117 152 153 138 114 100 89 73 74 76 130 223
237 236 236 237 237 236 236 236 237 238 238 238 236 236 238 239
238 237 237 237 237 237 238 238 238 238 238 238 237 237 237 237
238 238 238 238 238 238 238 238 237 238 238 238 238 238 239 240
238 238 239 239 238 237 238 240 237 237 238 238 238 237 237 237
239 238 238 238 238 238 237 238 238 238 238 238 238 238 238 238
36 42 55 78 93 68 46 42 54 72 99 117 112 71 66 80
93 115 113 95 65 48 46 55 59 64 71 84 102 72 63 83
77 38 35 46 53 48 37 51 49 47 50 52 51 48 46 51
55 50 47 48 56 54 45 22 7 9 11 11 12 12 12 11
12 10 12 14 11 13 15 12 11 12 13 13 12 11 12 13
13 14 15 15 14 15 15 16 15 16 19 20 22 23 24 24
24 21 17 13 9 7 7 9 8 7 7 8 8 6 5 5
5 6 8 8 9 9 10 11 14 23 41 60 74 89 102 107
107 106 105 106 106 105 104 104 105 104 108 106 105 106 106 110
110 111 112 112 112 111 111 112 113 112 115 115 111 113 118 117
118 118 118 119 119 118 119 120 120 119 118 117 120 122 122 120
123 124 124 123 124 124 123 124 125 124 124 126 126 124 125 127
129 128 130 129 128 128 128 132 132 132 130 129 131 131 131 132
133 133 133 135 135 135 134 134 135 137 138 139 139 140 141 140
140 142 145 148 149 150 154 157 159 161 168 139 133 148 132 137
143 154 153 133 118 119 138 145 117 110 135 150 147 144 148 111
97 144 173 159 147 146 147 159 159 150 145 157 152 182 212 198
190 179 156 129 117 105 80 54 95 198 204 181 151 123 101 82
83 65 56 60 156 201 213 199 147 97 84 58 74 156 185 176
147 96 60 47 69 115 143 135 104 76 73 58 42 47 102 213
237 236 235 236 237 237 236 236 237 237 238 238 237 237 237 238
238 238 237 237 237 237 238 238 238 238 238 238 238 238 238 238
239 238 238 238 238 238 238 237 237 238 238 238 238 238 239 240
238 238 238 239 238 238 238 239 236 236 237 237 238 238 238 238
239 237 236 238 239 237 237 237 237 237 237 237 237 237 237 237
45 45 46 72 98 66 38 44 47 78 122 132 105 67 53 66
105 125 99 69 51 39 39 53 63 80 98 127 142 83 45 52
56 39 42 54 56 45 40 50 49 43 46 49 47 41 40 49
49 44 44 45 52 51 44 22 10 10 10 10 10 11 10 9
11 10 14 15 11 11 13 12 12 12 12 12 12 12 12 13
12 14 16 16 15 14 15 16 16 15 16 17 19 21 23 23
24 20 17 13 10 8 8 9 7 6 5 5 5 4 4 4
7 7 7 8 10 11 11 11 13 20 36 53 67 79 92 101
103 101 101 102 104 104 103 103 104 104 108 108 107 106 105 108
109 110 110 110 110 109 110 111 113 111 113 113 111 114 118 116
116 116 117 118 118 118 118 120 120 120 119 118 119 121 121 121
123 124 123 123 124 124 123 124 125 124 124 126 126 125 126 128
127 126 128 127 127 128 128 131 132 132 130 129 130 131 130 132
136 135 136 136 135 133 132 133 134 136 137 137 138 139 139 138
140 142 145 148 149 151 155 160 160 167 169 166 151 139 146 158
144 149 158 138 122 122 137 140 118 122 134 145 154 140 125 96
95 143 167 170 170 162 150 137 130 113 99 128 153 190 204 198
196 183 158 133 115 90 63 49 127 210 215 192 148 126 102 71
62 56 43 62 173 196 200 185 138 93 70 55 56 115 166 167
139 89 62 54 57 75 104 118 102 65 56 46 42 31 71 212
237 235 234 236 238 237 237 236 236 236 237 238 238 238 237 235
238 238 237 237 237 237 237 237 238 238 238 237 237 238 238 238
239 238 238 238 238 238 237 237 238 237 237 237 238 238 238 238
238 236 236 237 238 237 237 237 236 236 237 237 238 238 238 238
238 236 236 238 239 237 236 237 237 237 237 237 237 237 237 237
54 61 70 99 121 92 58 41 47 77 123 121 77 46 39 56
100 100 64 39 36 38 45 52 71 103 121 133 118 59 34 46
53 47 41 50 55 48 44 40 34 35 42 45 45 42 39 42
46 45 45 47 51 50 40 17 11 10 9 8 9 11 12 12
10 11 14 14 10 9 11 11 12 11 11 11 12 12 12 12
12 14 16 16 15 15 15 16 16 15 15 16 19 22 24 25
23 20 16 14 12 9 8 7 7 5 5 5 6 5 5 6
9 8 8 9 11 12 12 11 13 18 30 46 59 70 84 95
102 101 100 100 101 103 104 104 105 103 106 107 108 107 105 107
108 109 110 110 110 110 111 112 113 112 113 113 113 115 116 114
115 115 116 117 117 117 118 119 120 120 120 119 119 120 121 122
123 122 122 122 122 123 123 123 123 123 124 125 126 126 126 128
128 126 129 129 129 129 127 129 131 131 129 129 131 131 131 133
134 134 134 136 135 134 133 135 137 137 137 136 137 139 141 142
143 144 146 148 150 152 157 161 162 172 175 181 177 137 144 163
154 135 142 145 137 123 125 133 128 124 135 135 144 143 117 99
108 134 146 158 170 182 189 172 144 129 98 101 142 169 179 199
198 182 157 137 114 73 39 45 148 208 204 179 156 126 85 55
43 42 35 93 181 189 187 168 131 90 64 57 54 91 154 165
139 93 55 46 56 57 73 96 84 63 52 38 49 45 66 193
236 235 234 236 237 237 237 237 236 235 236 237 238 238 236 235
237 237 237 237 237 236 237 237 237 237 237 237 237 237 237 237
238 238 237 237 237 237 237 236 238 236 235 236 237 238 237 237
238 236 236 237 238 238 237 237 237 237 237 237 237 237 237 237
236 236 236 237 238 237 236 236 237 237 237 237 237 237 238 238
86 84 80 98 120 106 81 53 38 53 95 102 68 41 44 56
87 92 77 63 60 52 54 54 78 107 117 113 75 41 47 59
56 47 34 41 50 47 41 32 29 33 41 45 47 49 45 44
50 54 52 54 53 51 35 12 11 10 9 9 11 13 14 13
9 12 12 12 11 10 10 13 13 12 11 12 12 12 12 13
14 14 15 15 16 16 15 15 15 15 15 17 19 23 26 28
25 21 17 14 11 9 7 7 7 6 6 7 8 7 7 7
8 9 9 10 10 11 12 13 13 15 23 36 50 60 74 88
98 99 99 99 99 101 103 104 106 102 103 104 106 107 105 107
109 110 111 111 110 110 110 111 112 114 113 112 113 114 114 115
115 115 116 117 117 117 118 119 120 120 120 119 119 119 120 121
123 120 121 122 120 122 125 123 122 123 124 124 125 126 126 126
129 127 129 129 130 131 128 129 130 130 129 130 131 131 130 133
132 130 131 134 135 135 135 136 138 138 138 137 137 140 143 145
145 145 147 149 152 155 160 164 173 175 181 176 181 156 143 159
154 136 139 147 147 130 119 123 120 120 137 136 133 142 121 109
108 132 144 144 144 162 191 200 179 188 162 127 135 144 158 182
191 184 160 135 108 67 32 57 159 200 197 167 129 105 74 46
46 44 38 121 190 202 193 162 125 85 64 56 58 90 149 167
138 96 49 33 47 52 61 72 69 60 53 39 47 59 80 184
236 235 234 235 236 236 236 236 236 235 236 236 237 237 236 236
236 237 237 237 237 236 236 236 237 237 237 237 236 236 235 235
237 236 236 237 237 237 237 237 236 236 235 236 237 237 237 237
238 237 236 238 238 238 238 238 237 236 236 236 236 237 237 237
236 237 238 237 237 237 236 235 237 237 236 236 237 237 238 238
117 89 56 65 91 78 60 47 43 47 89 111 93 64 74 78
81 101 105 97 91 65 55 57 86 104 107 102 57 38 52 49
52 41 35 44 50 42 35 36 41 39 42 44 48 52 51 53
56 63 58 59 55 53 33 9 12 12 11 11 12 12 11 8
8 12 11 10 12 12 12 16 14 12 12 13 13 12 13 14
17 16 14 14 16 16 15 13 14 15 15 16 18 20 23 26
28 24 18 14 10 8 8 9 8 7 7 8 8 7 5 5
6 7 9 9 9 10 12 15 13 13 18 29 41 51 65 80
89 92 96 98 98 99 101 103 108 101 100 101 105 107 106 108
108 109 110 110 109 108 107 107 112 115 112 109 112 113 113 117
116 116 116 117 118 117 118 119 120 120 119 119 119 119 120 121
123 119 121 122 119 122 126 123 122 125 126 125 125 127 128 126
130 126 126 126 128 131 129 130 130 131 130 130 132 130 129 131
135 131 130 133 136 135 134 134 136 137 137 137 138 141 143 144
146 146 147 150 154 159 164 169 172 174 183 186 191 181 153 152
136 150 154 145 149 154 140 126 128 131 125 122 129 142 125 116
114 139 146 134 133 140 152 169 178 208 207 171 140 132 144 157
178 185 160 124 93 59 27 62 171 205 183 150 107 101 73 48
48 49 53 150 205 199 183 162 116 73 64 59 68 93 138 161
140 98 54 31 31 38 56 64 68 58 54 56 54 47 61 174
236 235 234 235 235 235 235 236 236 236 236 236 236 236 236 237
235 236 237 237 237 236 236 236 238 238 238 237 237 236 235 234
236 235 235 236 237 237 238 237 235 236 236 237 237 238 238 238
236 236 236 237 237 236 237 238 235 235 235 235 236 237 237 238
236 238 239 237 236 237 236 235 236 235 235 235 236 236 237 238
99 69 44 49 84 78 50 46 44 67 105 133 129 103 87 68
51 69 96 83 63 54 40 44 63 78 76 68 51 32 34 39
35 41 38 40 40 34 37 48 53 50 45 45 47 49 52 53
58 57 60 62 67 55 34 13 8 10 10 9 10 11 10 8
12 12 11 11 10 10 11 12 10 10 11 14 14 12 11 12
15 15 16 18 19 18 16 14 11 12 15 15 16 22 27 26
23 21 17 13 10 9 8 8 8 7 6 6 6 8 10 11
5 6 8 9 11 11 10 10 11 14 18 24 34 45 57 69
78 87 95 96 95 97 101 104 103 104 101 102 102 101 105 105
106 108 109 108 108 111 111 108 112 112 112 112 113 115 115 113
115 114 115 118 120 118 117 117 118 119 120 120 119 119 120 121
118 123 123 119 119 125 125 119 121 124 123 125 125 124 126 123
127 126 126 129 129 127 129 132 134 131 130 129 127 131 132 127
134 135 135 133 132 134 134 134 133 137 139 138 140 141 142 144
147 147 150 155 159 161 165 169 172 178 180 182 191 195 173 143
128 146 165 149 151 152 141 149 146 136 127 126 126 131 123 128
118 134 145 136 124 126 134 137 145 166 182 177 152 151 155 148
152 144 124 82 67 58 28 63 177 206 171 133 104 91 84 58
60 51 73 174 201 194 176 136 87 60 65 61 76 94 127 140
130 92 53 30 36 37 51 67 63 62 69 73 73 59 63 189
233 235 236 235 234 236 237 234 234 236 235 235 236 235 234 238
236 236 236 236 236 236 236 236 238 237 237 237 237 236 236 236
235 237 238 238 236 235 236 236 236 237 238 238 237 236 236 236
237 236 236 237 237 236 237 238 238 237 236 237 236 235 236 238
238 237 236 236 236 236 235 235 235 235 235 236 237 236 236 235
64 45 37 62 109 124 89 57 47 57 103 135 116 77 62 50
37 22 47 62 53 48 34 25 32 45 41 37 34 28 29 25
30 38 35 34 32 29 37 50 48 43 40 45 43 35 38 50
54 58 59 57 64 52 29 8 9 10 11 11 11 11 11 10
11 11 11 10 10 10 11 12 12 11 11 13 13 13 13 14
16 17 18 19 18 17 16 16 12 13 15 15 15 19 23 22
24 21 17 13 10 9 9 9 7 7 7 7 7 8 9 10
9 9 10 11 12 12 12 12 12 14 14 17 25 35 48 60
74 81 90 94 95 95 97 98 101 102 100 102 103 102 104 103
105 106 107 108 107 107 109 110 112 113 113 112 113 113 112 110
116 115 115 117 117 116 116 118 117 118 118 119 119 119 119 119
117 119 121 120 121 123 123 121 123 126 124 125 126 125 127 124
126 125 126 129 129 128 127 128 128 128 130 130 127 129 132 130
132 133 133 132 132 133 134 134 134 138 138 138 140 141 142 145
147 148 151 156 160 162 165 169 173 179 182 183 188 191 183 170
133 146 159 145 136 153 141 150 158 150 127 125 137 134 119 131
115 130 147 150 131 129 129 123 126 144 161 148 130 168 194 171
153 135 93 64 77 64 32 81 179 189 161 129 100 70 64 55
51 45 109 187 199 194 162 118 72 63 65 68 78 93 126 124
112 83 49 27 30 43 58 76 75 83 90 78 71 67 71 183
233 233 235 237 237 235 234 236 236 236 234 234 236 234 233 235
236 236 236 236 236 236 237 237 237 236 236 237 237 236 236 236
235 236 236 236 236 236 235 236 236 236 236 236 236 236 237 237
237 236 236 237 236 236 236 238 237 236 236 236 236 235 236 237
237 236 236 235 236 236 236 236 235 235 235 236 236 236 236 235
84 78 75 97 128 136 94 56 48 40 75 99 78 49 49 53
41 41 74 82 63 58 46 28 24 39 40 39 36 29 26 21
26 32 31 33 38 39 40 42 48 44 42 42 37 26 30 47
62 58 53 54 61 40 17 10 9 10 11 12 12 11 11 12
11 11 11 10 10 11 12 13 12 12 12 12 13 13 13 14
14 16 17 17 15 14 14 15 13 14 17 18 18 21 23 21
24 21 17 13 10 9 9 9 7 7 7 8 8 8 8 8
8 9 9 10 10 11 12 12 11 12 11 12 19 27 39 51
62 70 80 89 93 95 96 96 102 103 101 104 105 105 106 104
105 105 106 108 106 104 106 111 109 111 112 113 113 113 112 110
115 115 115 117 117 115 116 118 120 119 119 119 120 119 118 117
121 121 123 125 125 123 122 124 123 125 123 124 124 124 126 124
126 124 124 127 128 126 125 125 127 127 129 131 128 128 129 129
129 131 131 132 132 134 135 135 135 139 139 138 140 142 143 146
148 149 153 158 161 163 166 170 174 177 180 183 185 187 190 193
161 140 154 140 123 142 147 142 157 154 134 132 142 138 123 121
128 136 144 153 138 138 133 129 131 135 142 129 108 139 180 191
189 173 140 111 103 91 86 126 165 164 150 132 109 65 49 46
41 90 142 182 202 192 162 108 65 63 66 73 74 95 122 118
99 74 46 36 44 73 84 105 113 98 84 63 54 66 69 143
226 233 235 236 237 235 233 236 237 236 233 233 236 235 233 234
236 236 235 235 235 236 237 237 236 235 235 236 236 235 235 236
235 235 235 235 236 236 235 235 236 236 235 234 234 235 237 238
238 237 236 236 236 235 236 237 236 235 235 236 236 235 236 237
236 235 235 235 236 236 236 236 236 236 235 236 236 236 236 236
139 125 100 86 80 72 53 45 43 41 69 88 86 64 48 45
56 82 98 79 59 56 41 24 25 34 37 46 49 36 23 15
21 32 37 44 53 52 44 34 41 42 43 41 40 37 38 49
62 59 53 54 59 32 10 12 10 9 10 12 12 10 10 12
12 12 11 11 11 11 12 13 11 11 12 13 13 12 12 12
14 15 16 14 13 12 13 14 12 13 17 19 21 24 26 23
23 21 17 14 11 9 9 9 7 7 7 8 8 8 7 7
5 6 8 9 10 11 12 12 9 10 10 11 16 22 31 41
48 58 70 79 86 93 96 97 100 101 99 101 102 101 104 104
106 106 108 109 107 104 105 109 108 110 111 112 113 114 113 112
113 113 115 117 118 116 116 118 119 119 120 120 120 119 119 118
120 119 121 123 122 119 119 122 122 124 122 122 122 122 125 123
127 125 125 126 126 126 126 126 129 126 127 130 131 129 127 125
130 130 131 132 133 134 135 136 136 139 139 139 142 143 144 147
148 150 154 158 162 164 167 170 174 174 177 182 185 186 189 194
182 143 144 136 128 139 146 128 129 138 133 141 153 148 136 127
131 140 145 155 149 144 135 137 128 127 131 122 105 127 154 165
174 171 174 168 139 121 129 143 148 143 135 124 110 77 51 43
58 136 150 163 202 189 156 93 64 55 52 50 60 108 128 122
110 93 81 86 84 98 84 96 110 87 66 54 50 70 65 89
218 233 236 232 234 236 234 235 237 236 233 233 236 236 234 235
235 235 234 234 235 235 236 236 235 235 234 235 235 234 234 234
235 235 234 235 235 235 235 235 237 236 235 234 234 235 236 236
238 237 236 236 235 235 235 236 236 236 236 236 236 235 236 236
235 235 235 235 236 236 236 236 237 236 235 235 236 236 236 236
163 124 80 46 39 49 61 55 50 55 65 79 108 99 67 56
78 93 84 57 45 41 32 28 24 31 35 42 44 32 18 12
15 33 45 50 50 48 46 40 41 42 46 47 52 52 46 48
49 59 60 55 56 33 12 9 11 9 9 11 11 10 10 12
13 12 12 11 11 11 12 12 11 11 12 12 12 11 11 10
15 15 15 14 13 14 14 13 11 12 16 19 21 25 26 22
22 20 18 15 12 10 8 7 7 7 7 6 6 6 7 7
5 7 9 11 11 12 13 13 11 12 11 11 13 16 21 28
39 50 62 69 76 87 94 96 98 101 100 102 101 100 103 104
105 107 108 108 108 107 107 106 109 110 111 111 112 112 112 112
113 112 113 116 117 116 115 116 115 116 118 119 119 118 119 120
118 119 120 120 120 120 121 123 122 124 122 123 123 123 126 125
126 126 126 127 126 126 127 128 128 127 126 129 132 130 127 127
131 131 132 133 134 135 135 136 136 139 139 140 143 143 144 147
147 149 153 157 161 163 167 169 172 172 175 179 183 185 187 189
194 175 137 119 122 147 149 143 120 139 134 141 165 157 143 146
133 136 145 153 148 142 140 141 134 133 141 123 93 117 152 163
158 159 164 171 145 119 148 180 171 164 151 137 127 118 98 91
106 134 136 140 169 168 131 85 51 60 66 60 71 125 144 136
127 119 117 117 96 89 57 57 85 89 72 62 56 66 63 88
217 232 236 231 233 235 233 235 236 236 234 234 236 235 234 236
234 234 234 235 235 235 235 235 236 235 235 235 235 233 233 234
235 235 235 235 235 235 235 236 236 236 235 235 235 235 236 236
237 237 236 235 235 235 235 235 235 236 236 235 235 235 235 235
235 235 235 235 235 236 235 235 237 236 235 235 235 236 236 236
109 81 63 45 44 73 94 64 64 64 54 62 102 99 65 51
54 58 49 39 36 34 33 29 27 36 37 34 32 27 19 16
18 32 38 35 32 37 48 50 43 35 40 45 52 54 47 48
51 58 62 57 49 26 12 10 12 10 9 10 11 12 12 13
12 12 11 11 11 11 11 11 12 12 12 11 11 11 11 11
14 14 14 13 13 15 14 12 13 14 16 18 19 23 24 20
20 19 18 15 13 10 8 7 7 7 6 6 6 6 7 7
6 8 10 12 12 12 13 13 14 13 10 9 11 12 16 21
30 41 53 60 68 80 91 95 98 102 103 105 103 101 104 105
104 105 106 107 109 110 108 106 108 109 110 110 110 112 113 113
115 113 112 114 115 115 115 116 116 118 119 119 118 117 118 119
120 122 122 120 120 122 123 123 121 124 122 123 123 124 126 124
123 124 126 126 126 125 125 126 127 129 129 129 130 128 127 129
131 131 131 132 134 134 135 135 136 138 138 139 142 143 144 147
146 148 152 155 159 162 165 167 170 173 176 178 180 184 189 192
188 194 165 132 132 154 157 143 137 154 147 135 152 159 154 149
141 126 130 137 136 142 149 140 143 142 140 119 97 112 134 154
152 156 159 161 127 97 140 184 180 176 165 153 144 146 135 134
136 130 134 137 142 143 123 103 68 83 92 101 109 127 148 149
132 123 114 99 77 72 49 42 61 82 67 60 62 61 80 168
225 232 235 234 235 232 231 235 235 236 234 234 235 233 233 235
234 234 235 235 235 235 234 234 236 235 235 235 235 234 234 234
235 235 235 235 234 234 235 235 234 234 235 235 236 236 236 236
235 235 235 235 235 236 235 235 235 235 235 234 233 234 234 234
235 235 235 235 235 235 235 234 237 236 235 235 235 235 235 235
87 68 48 29 27 63 92 73 83 70 45 40 64 65 48 33
22 31 31 38 48 53 47 29 27 28 26 28 38 41 32 27
35 37 30 22 20 32 47 49 32 21 30 40 46 53 52 55
62 57 61 58 41 15 9 13 11 11 10 9 10 12 14 15
11 11 11 11 11 11 11 11 11 12 12 11 11 12 12 11
11 12 12 11 12 14 13 10 14 14 15 16 18 22 23 20
20 19 17 15 12 10 8 6 7 7 7 7 7 7 7 7
6 7 9 11 11 12 13 13 14 13 9 7 10 11 13 16
23 31 43 54 63 74 86 95 96 100 100 102 101 99 103 103
105 104 105 108 110 109 109 109 107 108 109 110 111 113 114 114
114 112 112 114 115 115 116 118 119 120 120 119 118 117 117 117
120 121 121 119 119 120 120 119 120 123 121 123 123 123 125 122
122 123 124 125 125 125 125 124 127 131 129 127 129 128 128 130
131 130 130 132 134 134 135 136 138 138 138 139 142 143 145 149
148 150 152 155 157 160 163 165 169 173 176 178 180 184 189 192
193 196 195 156 139 146 156 147 142 153 152 129 133 149 155 146
149 132 117 115 113 113 100 84 108 133 132 105 98 116 128 152
157 154 155 148 107 87 134 157 161 160 158 149 143 144 141 142
129 129 146 155 147 137 131 119 106 95 91 101 117 111 129 143
126 111 98 80 68 64 53 43 59 70 62 59 65 58 77 204
234 233 234 235 235 233 232 234 234 235 234 234 235 234 233 235
235 235 235 234 234 234 234 234 235 234 234 235 235 234 234 235
235 234 234 234 235 234 234 233 234 234 234 234 235 236 236 236
234 234 235 234 235 236 236 234 234 235 235 233 233 234 234 234
235 234 234 235 235 235 234 234 236 236 235 235 235 235 235 235
125 92 42 33 52 78 77 58 62 49 31 26 40 49 52 35
29 49 51 54 62 59 50 36 28 28 32 41 54 54 46 47
53 49 36 23 20 30 44 44 34 26 42 51 53 59 57 56
62 57 64 58 35 14 12 10 9 11 10 8 9 12 15 16
11 11 11 11 12 12 12 11 8 10 12 12 12 13 12 10
10 12 12 11 12 14 12 9 12 12 13 14 16 21 23 20
20 19 17 14 11 9 8 7 7 7 7 8 8 8 7 7
5 7 9 10 11 12 14 15 13 11 7 7 9 9 9 11
20 25 37 52 62 69 81 93 98 100 99 101 101 101 105 105
107 104 104 109 111 108 108 111 108 110 111 111 111 112 113 113
111 111 113 116 117 117 118 120 117 117 117 117 118 118 118 118
120 120 120 121 122 122 121 121 120 123 122 124 124 123 124 122
126 125 125 125 126 127 127 126 126 129 125 124 130 132 131 131
131 129 129 132 134 135 136 138 140 140 138 138 142 143 146 151
150 152 154 155 157 160 163 165 168 171 175 179 182 184 187 188
193 193 202 179 147 142 134 151 139 148 147 126 129 129 131 143
148 150 123 114 118 114 89 89 73 98 116 118 131 150 141 140
158 154 154 143 100 79 124 141 151 149 145 132 131 133 139 139
120 107 141 155 143 133 128 117 104 90 94 87 98 90 106 132
113 96 84 68 61 52 53 48 57 59 64 57 60 63 73 193
236 235 234 232 233 236 236 231 234 234 233 234 236 235 234 236
235 235 234 233 233 233 233 233 233 233 233 234 234 234 234 235
235 234 233 234 235 234 233 231 235 234 233 234 234 235 235 235
232 234 234 234 235 237 236 234 234 235 235 233 233 234 235 235
234 234 234 235 235 235 234 234 236 235 235 235 235 235 234 234
101 80 51 42 92 129 106 57 54 47 38 44 62 57 67 62
65 80 81 62 54 60 52 33 32 27 39 52 49 50 56 55
59 52 41 40 38 42 50 39 32 37 49 52 60 68 60 62
65 63 58 53 32 12 11 9 8 7 8 11 12 11 10 10
10 13 12 11 13 11 9 11 10 10 12 13 12 12 14 14
15 12 9 10 11 11 11 11 10 10 11 14 16 17 18 19
23 19 15 15 13 10 8 8 8 7 7 8 8 8 8 8
8 5 6 11 13 12 13 16 12 11 8 5 6 6 8 12
16 22 30 45 52 66 74 83 96 99 100 99 99 102 105 106
105 104 104 107 110 109 107 109 108 110 112 111 111 113 112 110
113 115 116 115 116 117 116 114 116 116 116 116 117 118 119 120
116 117 120 121 122 121 121 120 124 123 122 122 124 126 124 121
123 126 126 126 128 126 124 126 127 129 128 127 129 130 130 131
131 130 130 131 132 132 135 138 138 139 140 140 141 142 144 146
149 151 154 156 158 160 162 164 169 171 173 176 180 184 188 191
193 197 202 198 168 141 134 122 122 128 127 122 145 144 133 119
143 154 144 133 131 124 124 127 112 101 114 138 158 169 152 131
148 158 157 147 110 93 117 141 148 143 133 126 123 125 133 134
109 98 136 143 137 123 108 101 96 88 86 81 80 72 87 116
106 86 68 60 56 56 55 49 56 66 59 65 58 57 123 221
232 232 233 234 235 235 234 233 233 233 233 234 234 234 234 233
233 234 234 233 233 234 234 232 235 234 234 233 233 234 234 235
233 233 233 234 234 234 234 234 233 234 232 234 234 233 234 232
234 234 234 234 234 235 235 235 236 235 234 233 233 233 234 234
234 233 233 233 234 234 234 233 233 234 234 233 233 233 233 232
55 51 47 55 102 140 118 72 59 53 39 47 68 61 74 90
84 90 73 48 32 36 46 38 41 38 33 32 35 39 47 57
52 42 34 34 37 44 49 40 27 28 44 52 54 57 56 62
65 66 59 43 23 11 13 14 12 11 10 10 11 11 10 9
9 10 10 10 12 10 8 8 11 10 11 12 10 11 11 10
13 11 11 11 10 9 9 9 8 9 10 12 13 15 17 18
24 20 17 15 13 9 6 6 7 6 7 8 8 8 8 9
6 6 7 9 11 12 13 14 15 15 11 8 7 6 7 11
15 21 27 38 45 58 68 78 92 96 99 99 98 100 103 104
103 104 103 105 108 107 106 108 107 109 110 109 110 112 113 111
111 114 117 118 119 120 117 114 117 117 116 116 116 117 117 118
119 119 119 120 121 122 122 121 124 123 121 120 122 124 123 121
123 125 126 126 127 126 125 126 125 128 127 126 127 128 129 131
133 133 134 135 133 132 134 136 136 136 137 139 141 144 145 146
147 149 151 153 155 158 161 163 169 171 174 177 180 184 188 191
194 197 199 201 197 160 125 138 124 121 125 130 152 156 146 130
138 152 151 152 135 112 119 128 135 128 119 123 139 153 139 122
130 146 154 147 106 87 113 146 149 149 131 119 121 118 118 125
110 101 138 141 128 114 102 94 81 80 79 73 69 65 78 106
104 79 64 63 61 58 52 47 52 58 48 60 55 94 204 232
232 233 233 234 235 235 234 233 233 233 233 233 234 234 233 233
235 235 234 233 234 235 235 234 234 234 234 233 233 233 234 234
234 234 234 234 234 234 234 234 232 234 232 233 234 232 234 232
234 234 235 234 234 234 234 235 235 235 235 234 234 234 234 234
234 234 234 234 235 235 235 235 233 234 234 233 233 233 233 232
45 45 38 52 90 106 81 64 57 47 39 44 46 45 62 75
67 66 49 36 20 16 35 37 32 33 30 31 38 46 53 60
53 36 26 23 28 41 44 39 29 25 37 42 40 46 51 56
58 61 52 29 15 14 14 15 16 15 12 10 11 12 12 10
11 10 11 12 12 12 13 11 12 9 9 10 9 9 9 7
10 10 10 10 7 5 5 7 7 9 10 11 12 14 18 20
21 18 16 15 13 10 7 7 5 5 6 8 8 8 9 10
6 7 8 7 9 13 14 13 14 14 11 9 8 6 7 12
16 21 26 35 41 53 65 75 85 93 100 101 100 100 101 102
103 106 106 105 107 108 107 109 111 112 112 111 112 114 115 115
113 114 114 114 116 118 118 116 116 116 116 116 117 118 118 119
120 119 119 120 121 122 121 121 124 123 121 120 121 123 123 123
124 124 126 127 126 126 126 126 123 127 128 126 126 127 129 133
132 133 135 135 134 133 135 138 135 135 136 138 141 143 145 145
147 149 151 153 155 158 161 164 168 170 174 177 180 183 187 190
195 194 196 201 210 191 152 141 146 138 145 145 148 157 151 135
129 150 150 148 127 112 134 141 131 127 116 120 127 139 135 121
119 129 132 122 99 100 121 143 144 142 133 127 123 120 120 119
102 94 129 133 118 105 96 86 71 78 76 68 62 62 73 102
105 76 62 60 63 65 57 48 60 62 46 50 55 143 237 227
233 233 233 233 234 234 233 233 233 233 233 233 234 234 233 233
234 234 233 232 232 233 234 233 234 234 233 233 233 233 233 233
234 234 234 234 234 234 234 234 232 234 232 233 234 233 234 233
233 234 235 234 233 232 233 234 232 233 233 233 233 233 232 232
233 233 233 233 234 234 234 234 234 235 234 233 233 233 233 233
81 59 38 44 57 62 57 70 50 41 45 59 56 56 67 73
59 45 35 38 33 29 39 43 43 42 51 58 56 57 59 54
45 29 26 25 34 50 50 50 45 43 43 36 39 52 58 58
60 59 48 24 17 22 19 19 19 16 13 12 11 11 11 12
12 9 9 10 8 9 12 10 10 8 8 9 8 9 9 7
8 8 9 8 5 3 4 6 7 8 9 10 12 16 19 21
18 16 15 14 12 10 8 8 4 5 6 8 8 8 9 11
8 9 9 9 10 12 14 14 11 12 11 9 8 6 8 12
14 18 23 30 38 48 60 70 79 90 100 103 102 101 101 102
104 108 108 106 108 110 110 110 111 111 111 110 111 112 113 113
116 116 115 113 114 116 117 116 115 116 117 118 118 119 120 121
118 119 120 120 121 121 120 119 123 123 122 121 122 123 124 125
125 123 126 127 124 125 127 125 123 128 129 128 128 129 130 134
131 131 132 132 132 133 136 139 138 138 139 140 141 142 142 143
147 149 152 154 156 158 161 164 165 169 173 176 179 182 186 189
191 194 196 200 203 208 194 153 141 135 150 151 140 154 158 147
129 141 129 118 113 122 148 153 141 124 120 133 122 125 131 120
126 124 119 118 120 130 126 122 139 139 135 129 121 119 120 113
93 86 118 127 112 98 90 78 71 78 74 67 61 64 74 103
106 73 60 62 66 67 58 53 60 63 55 56 64 179 230 232
233 232 232 232 232 233 233 232 233 233 232 232 233 233 233 233
233 233 232 232 232 233 233 232 233 233 233 233 233 233 232 232
233 233 233 233 233 233 233 233 233 234 232 234 235 233 235 233
233 233 234 233 233 232 233 233 231 231 232 232 232 232 232 231
232 232 232 233 233 233 234 234 235 235 234 233 233 233 233 233
118 70 41 38 42 71 76 57 44 47 64 86 89 72 66 83
86 60 46 42 45 51 51 53 56 56 63 64 53 46 47 48
45 38 47 50 57 63 51 48 51 57 49 37 45 60 63 65
62 57 44 23 17 20 15 17 22 18 15 15 13 11 11 14
13 10 11 10 7 8 11 9 9 7 8 9 7 8 9 8
8 7 7 6 5 4 5 7 7 8 8 8 11 15 18 18
18 17 15 13 11 8 6 6 5 5 6 8 8 7 8 10
10 9 9 10 11 11 12 14 14 15 13 10 9 7 7 10
15 17 21 26 34 44 58 67 76 87 98 102 100 100 102 103
103 107 106 104 107 110 109 108 110 111 111 111 111 112 112 112
115 117 118 117 116 116 116 115 117 118 118 119 119 119 120 121
118 119 121 121 120 119 120 120 122 122 122 123 123 124 125 126
125 123 126 127 124 125 127 124 124 128 129 128 130 131 130 132
133 131 130 131 132 132 134 135 138 139 140 140 140 140 142 143
145 148 152 154 155 156 159 161 164 167 172 176 178 181 186 189
188 196 198 201 202 206 206 188 145 123 135 149 142 149 155 150
152 140 118 110 124 134 138 143 143 116 106 121 117 126 146 147
131 125 127 145 156 151 123 106 118 132 131 126 127 120 112 108
92 88 117 129 110 93 85 76 69 72 67 64 60 65 72 96
98 72 62 66 66 59 53 60 67 57 59 65 86 210 235 232
233 233 232 232 232 233 233 232 232 232 231 231 232 232 232 232
233 233 233 234 234 233 233 232 233 233 233 233 233 232 232 232
233 233 233 233 233 233 232 232 233 234 232 234 234 233 235 233
233 233 233 233 233 234 233 233 233 233 233 233 233 233 233 234
233 233 234 234 234 234 234 234 234 234 234 234 233 233 233 233
116 92 67 53 79 131 121 64 50 72 105 109 89 63 56 71
79 64 54 37 37 47 44 50 46 54 53 46 39 29 33 50
60 59 69 71 69 60 39 32 41 52 48 41 50 56 58 66
59 56 51 45 41 35 29 29 28 23 19 18 15 12 11 13
12 11 11 11 10 10 11 10 9 7 8 7 5 6 7 6
6 5 4 4 4 4 5 7 8 9 9 8 10 14 15 15
18 17 15 13 10 7 5 5 6 6 6 7 7 7 8 9
9 8 8 10 11 10 11 14 15 15 13 10 10 8 7 10
17 17 20 21 28 37 54 64 77 86 96 99 99 101 103 105
102 105 105 104 107 109 109 108 110 111 112 113 113 114 114 114
114 116 117 116 115 115 116 118 116 117 118 118 118 119 120 121
120 120 121 120 119 119 121 123 120 120 121 123 124 124 124 125
124 124 126 126 125 125 126 125 124 127 127 127 130 130 129 129
132 131 130 131 133 133 133 133 136 137 139 139 139 140 143 145
144 147 151 153 154 155 158 160 164 167 172 175 178 181 185 188
189 190 199 199 202 204 202 209 175 132 122 140 144 140 148 149
150 139 124 123 145 151 136 133 126 114 109 120 133 141 144 140
119 121 122 138 149 148 128 112 103 115 119 120 120 114 108 103
94 97 120 130 109 90 86 81 68 66 62 61 62 68 72 86
87 83 71 61 57 54 57 63 72 52 68 60 118 230 232 230
234 233 232 232 233 233 233 233 233 233 232 232 232 233 233 232
232 232 232 233 234 233 231 231 233 232 232 232 232 232 233 233
233 233 233 233 232 232 232 232 232 233 231 233 233 232 234 232
234 233 232 233 234 234 234 233 234 234 233 233 233 233 234 234
233 233 234 234 234 234 234 234 234 233 233 234 234 233 233 233
109 120 95 60 85 121 103 62 42 69 103 85 59 45 42 43
50 49 46 37 37 37 32 39 45 54 52 45 43 37 38 53
63 61 67 68 65 55 37 32 41 51 50 48 53 55 58 65
58 61 72 90 97 92 85 78 63 58 49 40 34 30 26 21
19 17 12 10 11 11 9 9 9 6 6 6 5 6 6 4
5 4 4 4 4 4 5 7 8 10 11 10 11 14 15 15
16 16 15 12 9 8 8 8 8 6 5 6 7 7 7 8
7 8 9 10 11 12 13 14 14 14 12 10 11 11 10 13
14 15 19 17 24 31 49 61 77 86 96 100 101 102 104 104
101 105 105 105 108 109 109 110 108 109 110 111 112 112 112 112
115 116 115 114 113 114 117 120 116 116 117 117 117 118 120 122
120 120 120 119 119 119 121 123 121 120 120 122 123 123 123 123
122 124 125 125 127 126 125 126 125 127 126 126 128 129 128 128
131 130 130 131 133 133 133 134 136 136 137 138 138 140 143 145
145 148 151 153 153 155 159 162 165 167 171 174 177 181 184 186
189 189 195 196 201 206 204 208 211 179 149 136 131 121 132 132
126 136 134 132 144 156 151 142 130 123 120 114 131 142 142 133
108 120 114 113 117 124 121 111 110 107 107 111 106 101 104 102
103 110 123 126 106 90 88 83 74 67 65 60 65 73 77 78
80 92 74 56 55 57 60 57 53 51 76 69 161 231 226 237
232 232 232 232 233 233 233 233 234 234 233 233 233 233 233 233
232 231 231 232 233 231 231 231 232 232 232 232 232 233 233 234
234 234 233 233 233 233 233 232 232 233 231 233 233 232 233 231
234 233 233 233 233 233 233 232 233 233 232 232 232 232 232 233
231 232 232 232 232 232 233 233 232 232 233 234 234 233 232 233
115 116 81 38 56 76 67 52 32 52 68 46 48 43 32 33
51 46 38 44 53 44 35 40 52 54 56 56 54 55 56 54
57 55 57 60 62 55 43 41 49 55 54 52 53 57 61 61
53 57 76 113 135 139 136 124 120 114 98 80 69 63 54 43
36 32 21 14 16 14 10 11 9 6 5 5 5 7 7 4
5 5 6 7 6 6 6 8 5 9 11 10 11 14 15 15
16 16 15 12 9 8 8 9 8 6 4 5 7 7 8 8
6 10 12 10 11 15 16 15 17 16 13 12 14 14 13 16
16 18 24 23 28 33 52 65 74 84 95 101 103 103 101 99
100 104 106 106 108 108 108 111 111 111 111 112 113 113 113 113
115 115 116 117 116 116 117 118 118 118 118 118 117 117 118 120
119 119 119 120 120 120 121 121 122 120 120 122 123 123 122 123
120 124 124 125 128 127 125 127 126 128 127 126 127 128 128 129
132 131 130 131 131 132 133 135 138 138 137 137 138 140 142 143
145 148 150 152 153 155 160 163 165 167 170 173 176 180 183 185
183 196 192 196 206 203 205 209 211 213 186 143 126 121 141 135
132 152 152 141 134 142 156 151 135 127 132 116 120 127 127 107
111 129 124 118 106 97 96 92 108 108 107 117 122 109 103 109
118 124 126 121 103 90 86 76 81 72 68 60 66 76 80 73
79 88 68 61 68 59 54 49 48 57 63 93 206 231 233 229
231 231 231 231 232 232 232 232 233 232 232 231 232 232 232 232
233 232 231 232 233 232 231 232 232 232 232 232 232 233 234 234
234 234 234 234 233 233 233 233 233 234 232 233 233 232 233 231
233 233 233 232 232 231 231 231 232 232 232 232 232 232 232 232
230 231 232 232 232 232 233 234 232 231 232 234 234 233 232 233
119 89 61 56 78 100 85 57 33 39 47 34 45 54 55 47
59 52 40 47 59 51 42 44 51 54 47 45 52 52 48 52
47 50 54 62 56 49 42 56 59 57 57 56 53 58 59 53
47 57 81 105 131 149 153 154 141 134 121 106 94 85 74 66
55 47 35 23 18 18 16 12 8 10 9 7 7 8 8 5
6 6 6 7 7 8 8 8 7 7 8 10 11 11 13 16
15 15 15 13 11 9 8 7 8 6 4 5 5 5 6 8
10 11 14 14 15 18 19 21 23 16 14 13 12 11 11 17
17 23 31 34 40 48 58 71 81 88 96 101 105 104 104 106
105 104 105 107 109 109 110 111 111 110 110 112 114 115 113 111
114 114 116 117 117 115 114 115 116 116 116 116 116 116 117 119
120 121 121 121 121 121 121 121 121 121 121 122 122 122 122 122
123 123 124 125 127 126 125 123 128 128 128 128 128 128 129 129
130 130 131 131 131 133 134 136 136 136 138 137 138 141 142 146
146 146 148 150 153 156 159 162 162 166 171 174 175 178 182 186
190 191 195 199 201 203 207 211 208 215 211 174 135 132 141 140
135 150 152 136 132 123 140 147 133 129 149 150 124 110 104 95
109 129 144 132 116 98 99 111 128 109 90 115 129 111 108 114
120 116 123 131 111 91 91 88 76 74 60 66 74 76 75 76
78 85 82 79 64 54 50 54 61 56 51 127 224 228 232 233
231 231 231 231 231 230 230 230 233 230 229 231 232 230 229 230
231 231 231 230 231 233 234 233 232 231 231 231 232 233 233 232
231 231 231 232 232 232 233 234 233 232 230 230 231 231 231 231
232 232 232 231 233 234 233 231 231 231 231 231 231 232 232 233
234 233 232 232 231 232 232 233 232 232 233 233 233 231 231 232
127 102 95 114 142 141 119 103 65 48 42 30 40 63 70 52
49 42 34 40 44 36 35 42 48 44 32 30 39 42 39 40
40 44 51 57 45 36 35 53 60 52 49 52 55 60 59 53
47 53 72 96 122 144 152 156 155 146 132 121 114 106 92 80
67 58 44 32 25 22 20 17 14 14 12 8 6 6 6 6
8 7 6 7 8 9 8 8 8 8 8 9 9 10 13 16
15 16 17 16 14 12 11 11 9 6 4 5 6 7 9 11
12 16 18 19 19 20 24 27 27 21 17 13 11 11 11 15
20 25 33 39 49 58 65 75 83 92 99 101 104 105 104 103
104 105 107 109 110 109 109 110 109 110 111 113 113 112 114 116
113 113 114 116 116 115 114 115 117 116 116 116 117 118 119 119
119 118 119 120 120 119 120 122 121 121 121 121 122 123 123 124
122 122 122 124 125 125 123 122 126 127 128 128 128 128 128 128
126 126 127 129 130 132 134 135 136 134 136 136 139 142 142 143
146 147 148 150 154 157 160 161 163 167 172 175 177 180 183 186
191 193 196 200 203 205 209 212 216 208 215 212 171 130 126 139
128 129 128 120 138 144 144 136 130 132 151 157 146 119 97 110
129 125 133 139 135 103 106 136 136 115 75 81 93 95 81 100
110 105 102 102 88 71 71 72 68 57 58 77 77 77 78 75
72 78 78 63 40 48 52 65 69 53 72 192 228 228 233 230
231 231 231 231 231 231 231 231 234 231 230 232 233 231 230 231
231 231 231 230 231 232 233 232 232 232 232 232 233 233 233 233
232 232 233 233 232 233 233 234 231 232 232 232 232 232 233 233
231 231 231 230 231 232 232 230 231 231 231 231 231 231 231 232
232 232 232 231 231 232 232 233 231 231 232 233 233 231 230 231
110 90 116 154 154 111 88 91 73 59 50 39 47 71 72 48
51 44 39 45 47 45 51 56 62 54 44 43 52 55 51 47
46 41 44 45 34 31 38 56 51 49 51 56 56 53 50 45
43 49 66 88 110 129 140 149 151 147 139 130 121 112 100 91
80 69 55 41 32 25 21 19 18 15 12 10 9 7 8 9
9 8 7 8 10 12 12 11 9 9 9 9 9 10 12 15
15 17 18 18 17 14 12 11 11 8 6 7 8 11 14 16
19 22 20 24 25 25 32 33 31 25 20 13 9 10 10 13
18 23 33 42 53 64 72 83 86 96 102 101 103 105 104 102
104 105 107 109 109 108 109 110 109 109 110 112 112 110 113 118
113 113 114 115 115 115 115 116 117 116 116 116 118 119 119 119
118 117 117 118 119 118 120 122 122 121 121 121 121 122 124 125
123 123 123 125 126 127 127 126 125 126 127 128 128 127 127 127
129 129 130 130 132 133 134 135 135 134 137 138 140 143 142 144
146 147 148 151 155 158 160 161 165 168 172 176 179 181 184 187
193 195 198 202 206 208 211 214 211 226 215 216 217 173 131 127
124 126 129 126 150 154 147 151 144 148 156 155 155 133 106 127
150 133 124 123 118 88 97 132 132 122 79 57 71 89 71 91
105 85 72 65 51 51 64 64 63 53 56 71 73 72 66 68
67 70 69 57 40 38 47 67 72 56 141 230 229 229 229 232
229 230 230 231 231 231 231 231 233 231 231 232 233 231 230 230
231 231 230 230 230 232 232 232 231 231 232 232 232 232 231 231
232 233 233 233 233 232 232 233 232 233 234 234 233 232 231 232
231 232 232 231 231 232 232 231 232 232 231 231 231 231 231 231
232 232 232 232 232 232 232 232 230 230 232 233 233 231 229 229
68 53 93 118 92 46 46 57 63 54 44 44 53 62 61 60
64 61 57 57 57 63 72 68 65 62 60 62 65 64 61 58
43 38 43 44 35 34 41 53 52 57 64 64 55 46 40 38
42 42 52 62 76 93 110 127 129 130 128 123 115 107 100 94
84 73 60 49 37 27 22 22 19 15 12 12 12 9 8 10
10 9 8 9 10 12 12 12 8 9 10 11 11 11 12 13
15 16 19 20 19 16 14 13 12 12 11 11 12 15 18 20
26 26 18 24 28 28 36 33 31 27 22 12 8 10 10 12
13 19 31 39 51 63 75 90 90 98 102 101 103 105 104 104
105 105 106 107 107 107 110 112 112 109 109 112 114 112 113 116
114 115 115 115 116 116 116 117 117 117 117 117 118 119 120 119
118 118 119 119 119 121 122 122 123 122 122 122 122 122 123 123
121 122 122 123 124 125 125 125 126 126 127 127 127 127 128 128
133 132 132 132 133 134 135 134 134 135 140 139 138 140 141 145
145 147 149 152 155 158 161 162 167 169 173 178 181 184 187 189
196 197 201 205 208 211 214 216 217 218 217 220 217 217 193 134
126 134 143 137 144 149 153 156 153 144 146 157 157 126 106 132
149 148 135 118 106 101 111 121 129 119 87 55 88 109 87 71
70 73 77 76 66 58 59 60 75 68 65 66 68 76 72 76
75 66 71 65 49 37 56 69 63 93 212 227 229 230 227 233
229 229 230 231 231 231 230 230 231 230 230 231 231 230 229 229
231 231 230 230 231 231 232 231 230 231 232 232 231 231 231 231
231 232 232 232 232 231 231 231 232 233 233 233 232 231 231 231
232 232 232 232 231 231 232 232 233 232 232 231 231 231 231 231
232 232 232 232 232 231 231 231 230 230 231 232 232 230 229 229
41 35 62 68 54 38 47 48 53 50 45 48 53 58 61 64
67 71 63 51 50 62 67 54 48 52 57 57 53 51 54 60
50 49 54 49 41 40 48 56 61 67 67 58 47 38 34 32
38 36 40 44 51 61 73 86 95 95 96 97 98 97 92 88
80 72 62 54 42 31 25 25 24 18 13 13 12 9 7 8
10 9 9 8 8 8 8 9 9 10 11 11 11 11 12 13
14 16 19 22 22 19 17 16 14 15 16 16 16 17 20 22
26 25 17 22 25 23 32 33 31 28 24 14 9 10 9 10
11 16 27 36 48 61 74 90 95 99 101 101 102 102 103 106
108 107 107 108 108 109 110 112 114 111 112 114 115 114 113 115
116 116 116 116 116 116 116 116 117 119 120 118 118 119 120 120
118 122 122 120 121 124 125 122 122 122 123 123 122 122 122 123
123 123 123 124 124 124 124 124 127 127 127 127 127 128 129 130
129 129 129 130 132 134 135 135 134 135 138 137 136 139 140 144
144 147 150 153 155 158 162 164 169 171 175 180 183 186 189 192
197 200 203 206 209 213 216 218 216 219 216 219 219 223 221 195
149 136 136 137 126 123 144 153 153 143 125 130 133 111 106 122
130 135 124 113 110 133 143 127 104 102 94 73 98 111 104 72
57 94 101 90 86 64 53 79 97 81 77 69 56 70 76 73
70 56 75 76 53 47 60 67 83 163 231 227 229 232 230 230
229 230 230 231 231 230 230 229 230 230 230 230 230 229 229 229
231 230 230 230 231 231 231 231 231 232 233 233 232 232 231 232
230 230 231 231 231 231 231 231 231 231 230 231 231 232 232 232
231 231 232 231 230 230 230 231 232 231 231 231 231 231 231 231
230 231 231 231 232 231 231 231 231 230 230 231 231 230 229 230
42 37 51 57 57 50 57 64 63 52 59 69 61 50 52 47
60 66 50 36 44 60 56 37 33 39 42 38 33 32 42 56
67 59 57 50 49 51 55 58 62 68 65 52 40 33 31 32
37 35 39 42 46 49 47 50 58 61 66 71 76 79 82 83
78 72 65 57 45 33 25 24 27 20 14 12 11 9 8 8
7 8 9 8 8 8 9 9 9 10 11 10 10 11 13 14
17 18 21 23 22 18 16 16 16 18 19 19 19 20 21 22
24 24 21 24 23 21 30 36 35 31 26 16 10 10 8 9
13 14 20 30 44 58 69 82 98 101 102 102 102 101 102 106
108 108 108 109 108 108 109 110 111 112 114 115 113 111 112 113
116 116 116 115 115 116 116 115 116 118 120 118 116 117 119 119
118 121 121 119 120 124 123 120 120 121 122 123 122 122 123 123
122 123 124 125 125 126 126 127 128 128 127 127 127 128 130 131
128 129 129 130 131 133 135 136 137 135 136 135 138 142 141 143
145 148 151 153 155 158 163 167 169 171 175 180 183 185 188 192
198 201 204 206 209 213 216 218 216 221 219 222 221 219 224 223
197 170 133 124 125 122 136 150 148 141 103 95 114 123 133 134
130 119 104 109 123 148 151 128 99 115 121 100 78 66 75 71
56 87 97 90 91 78 71 94 91 80 70 61 46 48 53 59
58 43 56 66 59 53 43 79 153 214 225 230 230 230 228 229
230 230 231 231 231 230 230 229 230 230 231 230 229 229 229 230
230 229 229 230 231 231 231 231 230 231 232 232 232 231 231 231
230 230 231 231 231 231 231 232 232 231 230 230 231 232 232 232
231 231 231 232 231 230 230 231 230 230 230 230 230 230 231 231
227 228 229 230 230 231 231 231 231 230 229 230 230 229 229 230
40 34 58 72 57 49 72 99 84 49 55 89 87 46 36 39
52 62 48 39 55 65 56 44 39 43 39 34 33 33 39 53
61 49 46 47 58 57 51 49 59 62 56 46 39 35 33 36
38 36 37 36 38 40 39 40 42 46 51 56 61 67 75 81
78 74 68 59 46 34 26 23 26 22 16 14 12 10 10 11
7 8 8 9 9 9 9 9 8 9 10 9 9 11 13 14
19 19 22 24 23 19 16 17 20 21 21 21 22 23 23 23
25 24 25 28 27 26 32 39 38 33 28 18 11 9 6 8
12 11 16 24 38 52 64 78 97 102 103 102 103 103 103 106
106 106 107 107 107 106 108 110 109 111 113 113 112 112 112 112
115 115 115 115 115 116 116 114 115 118 119 117 116 118 119 118
118 117 118 119 120 120 120 121 120 121 122 122 121 122 123 124
119 121 122 123 124 124 125 126 127 127 127 127 127 128 129 130
130 130 131 130 130 131 133 136 137 136 138 138 140 143 143 145
147 150 152 154 155 159 164 168 170 171 176 180 183 184 189 194
198 202 205 206 208 211 216 219 218 220 222 222 221 224 223 217
226 216 171 131 131 143 142 140 134 120 103 113 127 135 151 151
139 127 113 120 143 149 143 117 97 121 123 104 74 57 65 82
78 68 68 65 61 65 64 61 67 70 61 57 49 43 47 64
63 50 47 62 73 62 78 148 214 227 226 228 229 228 225 231
230 230 230 230 229 229 229 229 229 230 230 229 228 228 229 230
229 228 228 229 230 230 230 231 229 229 229 230 230 230 230 230
230 230 231 231 231 231 232 232 232 232 232 231 231 231 230 230
231 230 231 232 232 230 229 230 230 230 229 229 229 230 230 230
227 227 228 229 229 230 230 230 230 229 229 229 230 229 228 228
26 29 78 97 57 52 92 117 82 53 56 94 118 79 49 34
47 68 63 56 67 65 58 61 63 65 58 54 58 55 53 62
53 40 37 42 58 56 52 54 58 49 36 31 36 37 33 33
35 36 40 38 37 39 38 40 42 40 41 45 54 62 68 71
77 75 70 61 49 37 30 27 25 23 20 16 13 11 10 10
10 9 9 9 9 8 6 5 5 8 10 10 10 12 12 12
18 19 22 25 25 22 21 22 23 23 22 22 24 26 26 23
27 22 24 29 32 32 33 39 40 33 28 18 11 8 6 9
11 11 15 21 32 46 62 80 94 102 104 102 103 106 106 105
105 106 106 106 106 106 110 114 111 111 111 111 113 116 115 111
114 115 115 114 115 117 117 115 117 119 119 118 118 120 121 119
120 116 116 120 121 119 120 124 122 122 122 121 120 120 122 123
123 124 126 126 125 124 124 125 125 126 126 127 127 127 128 129
128 129 129 128 127 128 131 134 133 135 141 140 139 141 143 148
150 151 152 154 156 159 164 168 172 174 178 183 185 186 192 198
198 202 205 206 207 210 215 219 222 218 221 222 223 223 223 226
219 220 220 181 132 127 138 145 128 118 133 145 125 125 144 137
132 130 117 108 134 133 131 110 88 114 115 96 87 76 78 100
95 67 60 61 63 74 72 57 62 67 66 68 52 47 59 71
68 64 72 90 97 83 156 225 228 225 227 229 229 228 228 230
228 228 228 228 228 228 228 228 228 229 229 227 226 226 228 229
228 227 227 229 230 230 230 231 230 229 229 229 230 231 231 230
230 230 230 230 230 230 231 232 230 231 232 232 231 230 230 231
229 229 229 231 231 229 227 228 230 230 230 229 229 230 230 230
229 229 229 229 229 229 229 229 229 228 228 229 230 228 227 227
28 51 86 79 45 51 84 88 65 57 78 108 114 93 59 34
50 67 70 62 53 54 47 50 57 61 47 47 59 54 54 64
62 53 45 51 51 46 53 58 51 43 36 36 37 34 32 33
33 36 36 39 39 38 41 42 39 41 43 44 48 55 62 66
69 70 69 64 56 43 31 27 26 21 18 17 13 12 11 9
8 8 10 10 8 9 10 7 7 9 12 12 13 14 14 13
21 21 24 27 27 23 23 25 22 26 21 18 22 22 20 24
28 27 31 29 28 32 35 42 38 34 24 17 10 5 7 7
11 13 14 18 28 41 58 75 97 101 103 106 105 103 106 106
106 107 107 106 107 108 110 111 109 111 112 110 110 112 115 117
114 112 113 115 117 116 115 116 117 117 119 120 120 119 119 120
122 117 118 121 118 118 121 120 122 121 121 122 122 122 122 124
120 123 127 127 124 123 125 127 124 125 126 127 127 126 126 126
129 131 129 126 128 131 133 135 133 134 137 141 142 141 143 147
150 150 151 155 160 162 164 169 173 174 178 183 186 189 193 196
200 202 205 208 210 212 215 217 219 221 223 225 224 224 224 224
224 221 223 223 203 167 137 125 134 127 134 146 136 109 120 136
133 132 128 109 94 110 117 95 85 107 108 86 88 71 79 107
103 63 55 95 95 92 79 53 70 91 79 61 51 56 66 79
76 81 87 92 86 117 212 225 224 224 225 227 228 228 227 227
225 228 229 227 227 228 229 228 227 227 227 227 228 229 227 225
227 227 228 229 229 228 229 231 228 228 228 229 230 230 230 230
229 229 230 231 230 228 228 230 229 229 229 230 229 228 228 230
231 230 230 232 232 230 229 229 226 227 229 230 230 230 230 231
229 228 229 230 230 228 227 228 228 229 229 227 227 228 228 227
56 85 79 48 36 46 62 68 75 76 99 112 79 53 41 45
58 53 49 43 41 36 36 46 42 37 24 32 39 45 51 60
59 45 46 54 50 53 60 52 45 38 34 34 35 34 33 35
36 33 31 38 41 37 40 44 38 37 38 41 45 50 56 62
64 62 59 57 54 45 35 29 24 21 20 19 16 13 12 10
10 10 12 13 12 12 14 13 11 13 15 15 17 19 20 20
20 24 28 29 27 25 23 22 17 24 23 21 23 23 24 30
30 30 36 37 37 39 37 40 41 37 26 18 11 6 8 7
7 12 15 17 23 36 55 71 91 99 102 102 102 103 105 104
104 106 107 107 108 110 110 110 109 111 112 111 111 112 114 115
113 113 114 114 114 116 118 119 117 117 117 119 119 118 119 121
122 117 118 120 119 120 122 122 120 121 121 122 122 123 122 122
122 123 125 125 125 125 126 127 127 127 127 127 127 127 127 126
131 132 129 127 130 132 132 133 136 136 138 141 143 143 145 147
151 152 152 156 161 163 165 170 175 176 179 184 187 190 194 197
198 202 206 209 211 212 214 216 220 221 223 224 223 223 224 224
220 225 224 220 225 224 194 158 125 119 115 123 128 115 106 118
134 132 127 111 81 102 118 109 102 92 80 81 82 69 71 85
85 59 58 102 104 91 75 56 58 68 65 60 64 72 75 65
64 61 71 100 138 204 218 227 226 226 226 226 227 227 227 227
226 227 228 227 227 227 227 227 226 227 226 225 225 226 226 225
227 226 226 227 227 226 227 228 228 228 228 228 228 228 229 229
227 228 229 229 229 228 228 230 229 229 230 230 230 228 228 228
230 230 230 231 231 230 229 229 229 229 230 230 230 230 229 229
228 228 228 229 229 228 228 228 227 228 227 226 225 226 226 225
90 118 80 34 36 49 61 70 72 85 108 105 58 42 45 53
43 39 39 30 32 38 46 49 56 48 38 48 45 56 61 61
50 50 47 47 55 57 50 47 36 34 34 36 37 35 34 35
41 35 31 37 41 37 38 39 37 35 36 41 44 45 49 54
60 56 52 50 47 41 33 28 27 24 24 22 17 15 14 13
15 14 16 18 16 15 17 18 16 18 20 21 22 23 24 24
23 28 29 26 23 23 24 24 19 25 25 23 25 26 28 34
34 33 37 38 40 42 40 42 40 38 29 22 15 10 10 8
6 10 16 16 18 31 52 67 87 100 103 102 102 104 107 105
101 105 107 107 108 110 110 108 110 112 113 113 113 114 114 114
113 116 117 114 112 115 117 118 116 116 116 117 117 118 119 121
121 117 117 119 119 119 121 120 119 120 121 121 122 123 122 119
123 122 122 122 124 125 126 126 128 127 126 126 126 127 126 126
131 131 129 130 133 134 133 135 138 137 138 141 145 146 147 148
153 154 154 158 163 165 167 172 176 177 180 184 188 191 195 198
200 203 207 210 212 213 215 217 218 220 222 223 223 223 224 224
222 222 223 224 225 226 221 215 196 168 135 128 136 125 98 111
127 128 124 104 78 110 131 118 109 88 78 101 102 93 74 57
59 66 64 84 82 72 63 50 50 58 52 47 63 61 59 57
72 71 143 207 217 227 223 224 227 226 226 226 226 226 226 226
226 226 226 227 226 225 225 226 226 226 226 224 224 224 225 225
227 226 225 225 226 226 226 227 228 228 228 227 226 226 227 229
227 227 228 228 228 228 229 230 229 228 228 229 229 228 227 227
230 229 229 229 229 229 228 228 228 227 227 227 229 229 229 228
226 226 227 228 228 227 227 228 227 227 227 226 225 225 224 223
115 133 93 51 38 47 68 80 77 89 101 81 45 52 58 47
46 54 61 48 46 59 63 51 60 59 59 67 64 74 73 66
60 53 58 56 52 55 48 38 34 34 36 38 38 36 36 37
39 39 35 37 39 38 37 33 36 36 39 44 45 44 45 48
57 54 53 50 45 41 37 33 32 28 26 24 20 19 20 20
21 17 18 21 20 19 20 22 21 23 25 26 26 25 24 23
24 28 29 25 22 23 25 26 26 27 25 24 29 32 33 36
36 36 38 40 43 44 44 45 41 42 38 34 29 24 21 16
10 10 14 16 16 28 50 64 82 97 101 100 101 102 105 104
100 105 107 107 108 110 110 107 111 111 112 112 113 114 114 113
112 116 117 116 114 114 115 116 117 116 116 117 118 118 119 120
121 118 118 119 119 118 118 117 118 121 122 120 120 122 122 119
123 122 121 122 124 126 126 125 126 126 126 126 126 127 127 127
130 130 129 132 135 134 134 137 138 137 138 141 145 147 149 151
153 155 156 160 165 168 170 175 179 180 183 186 189 193 197 199
203 205 208 210 211 214 217 219 217 219 221 223 224 224 224 224
223 225 227 226 225 225 225 225 223 226 204 165 135 120 112 125
136 122 116 103 95 105 121 113 107 96 88 110 108 97 78 62
92 98 79 80 71 54 55 62 70 61 57 56 56 57 71 82
78 130 213 222 221 219 220 222 226 225 225 225 225 225 225 224
225 223 224 225 224 222 223 225 225 225 224 223 223 223 223 223
225 224 223 223 224 225 225 225 226 226 225 224 223 223 225 227
226 226 226 226 226 226 227 229 229 227 225 225 226 226 227 228
228 228 228 228 228 228 228 228 225 225 225 225 227 227 228 228
225 225 226 226 226 226 225 226 226 226 226 225 225 224 223 222
103 114 87 58 33 38 68 85 87 87 85 53 29 38 51 39
41 49 57 54 47 58 56 45 43 47 54 59 61 64 62 58
65 59 66 64 54 51 45 38 39 38 37 36 35 35 36 38
36 38 36 38 39 38 39 36 35 39 43 45 45 45 46 47
48 46 48 48 44 43 42 38 35 30 27 26 25 26 28 28
27 21 20 24 24 23 24 25 24 25 27 27 26 25 23 23
22 26 30 30 28 25 26 27 27 28 28 29 32 35 36 37
37 39 43 47 48 46 47 47 49 53 52 51 48 43 39 31
21 12 11 14 16 26 47 63 81 96 101 101 103 102 104 106
103 107 109 108 108 111 111 109 110 109 109 110 111 112 113 113
112 113 114 116 115 114 115 117 117 116 116 118 119 119 118 118
122 121 119 119 119 119 118 118 119 122 123 120 120 122 123 121
123 123 123 124 125 126 126 125 125 126 128 128 127 127 128 129
130 131 131 133 134 132 132 136 137 138 139 142 145 147 150 152
154 156 158 162 167 171 174 178 182 185 187 190 193 197 200 202
204 206 208 210 211 213 216 219 219 220 221 222 223 224 224 224
224 225 225 225 229 233 229 220 226 224 225 218 198 165 138 109
119 117 120 119 125 118 112 101 100 88 70 80 93 80 61 56
98 108 93 95 93 80 83 95 91 87 77 73 78 88 86 84
134 202 218 223 227 219 223 222 223 223 223 224 224 224 223 222
223 221 222 223 223 221 221 223 223 222 221 221 221 221 220 219
221 220 220 220 221 222 222 221 222 222 222 221 220 221 223 225
223 223 223 222 222 223 224 225 226 224 223 223 224 225 226 227
227 227 226 226 226 226 227 227 227 227 227 226 226 226 227 227
226 226 227 226 225 224 224 224 224 223 223 223 223 222 221 220
73 81 59 44 30 36 60 82 67 59 59 41 32 28 39 42
41 49 55 50 35 43 44 42 36 36 40 42 44 43 41 47
49 54 59 57 54 46 39 43 39 39 39 39 38 37 35 33
37 36 34 39 39 35 38 40 36 40 44 44 43 44 47 48
45 42 43 45 44 44 43 36 37 32 31 31 31 31 32 31
33 27 24 26 26 27 27 25 25 25 25 25 24 23 24 24
24 26 30 31 29 28 29 31 27 31 34 35 34 35 36 36
40 43 44 47 47 45 49 52 58 63 63 64 63 60 56 47
36 20 11 12 15 23 43 62 83 99 103 104 107 105 105 108
106 107 108 108 108 109 110 110 111 110 110 110 111 112 114 115
115 113 113 115 115 114 115 118 117 116 116 118 120 119 118 117
121 121 118 116 118 118 119 122 121 123 123 121 121 123 124 123
121 122 123 124 124 124 124 124 125 127 128 128 127 126 127 129
128 131 131 132 133 133 133 136 138 139 141 143 145 147 150 153
155 159 161 165 170 174 177 182 185 188 191 193 196 199 202 204
206 208 211 213 214 215 217 218 223 223 222 221 221 223 224 225
225 223 223 225 225 224 227 231 223 222 224 224 224 221 210 168
134 135 118 106 110 115 104 94 107 101 80 75 99 92 67 56
83 100 98 92 86 78 79 83 93 82 80 89 90 108 131 158
208 224 225 220 217 225 220 220 220 221 221 222 222 222 221 220
221 220 220 220 220 220 220 221 221 219 218 219 220 219 218 217
219 219 218 218 218 218 218 217 219 219 220 219 219 220 222 223
221 221 221 220 220 221 222 222 222 221 221 223 224 224 224 225
224 225 225 224 224 225 225 225 225 225 226 225 224 224 225 226
225 227 227 226 224 223 223 222 222 221 220 220 220 219 218 218
77 70 41 37 34 35 42 63 48 41 43 43 48 38 39 51
53 57 59 46 33 36 36 31 34 33 35 35 36 43 43 47
42 41 52 55 41 38 45 38 38 40 42 43 43 41 36 31
38 36 34 38 38 34 36 37 37 39 41 42 42 41 43 45
47 44 47 49 46 47 46 39 40 37 37 37 35 34 34 32
33 28 26 26 26 28 29 26 27 26 26 27 26 26 26 28
29 31 32 30 30 32 34 36 31 34 37 38 36 36 37 36
43 47 46 48 47 47 55 59 63 70 72 74 76 75 71 62
51 34 17 11 14 22 41 62 80 99 103 101 105 105 103 104
106 106 107 108 108 108 109 110 112 111 111 112 112 112 114 115
116 115 115 115 114 115 116 117 116 115 116 118 120 120 118 117
118 120 118 116 118 118 119 123 122 122 121 122 123 123 123 122
121 122 123 124 123 123 123 124 125 126 127 127 126 126 128 129
128 131 132 131 134 135 136 138 137 140 142 145 146 149 153 155
158 162 165 168 174 178 181 185 188 191 195 197 199 203 205 206
209 211 214 215 216 217 218 220 224 223 222 222 222 223 224 225
224 226 227 226 226 227 227 226 229 226 226 225 222 221 225 222
204 180 142 113 100 94 96 106 120 122 112 93 105 114 102 96
88 88 88 83 73 65 69 76 82 72 81 85 103 170 218 216
220 218 213 217 226 219 218 219 218 218 218 218 219 219 218 217
218 218 217 216 216 217 217 217 218 216 215 216 216 216 216 216
215 217 217 216 215 215 215 214 216 216 216 217 217 218 219 219
217 218 218 217 218 219 220 220 218 218 219 220 221 220 221 222
221 223 223 222 222 223 224 223 222 222 222 222 222 222 223 223
222 223 224 223 221 221 221 220 220 218 217 217 217 216 215 215
96 70 38 41 39 34 29 48 58 55 49 45 52 46 41 54
53 44 45 45 54 56 52 43 38 41 42 42 37 56 54 49
46 53 52 50 42 36 41 39 43 43 42 41 43 44 41 37
35 37 35 36 37 37 36 31 38 38 40 43 42 38 38 41
39 39 46 49 44 45 49 45 42 39 40 40 37 36 37 36
27 24 24 24 25 30 32 30 30 30 31 32 32 31 31 32
31 36 38 35 35 38 39 36 35 34 35 37 38 40 41 39
43 50 51 56 56 54 62 64 68 76 80 84 87 87 83 74
62 46 24 12 14 23 41 63 79 102 105 100 105 106 104 102
107 106 107 110 110 108 109 111 111 111 111 112 112 111 112 114
112 115 116 115 115 117 118 117 116 115 115 117 119 120 119 118
116 121 121 119 121 119 118 122 122 120 119 121 124 123 121 119
124 124 125 125 124 124 125 125 126 126 126 126 127 129 130 132
131 134 133 132 135 137 137 137 136 139 142 145 148 152 156 158
161 165 168 171 176 180 184 187 191 195 199 201 203 206 208 209
212 213 214 215 215 216 219 221 221 222 223 224 225 225 225 225
225 223 224 227 228 226 224 225 225 227 224 221 223 226 216 225
224 217 211 183 161 130 125 126 112 100 94 83 94 114 111 109
96 94 100 95 94 99 93 79 90 127 149 157 199 220 215 219
220 217 221 220 215 216 217 217 216 216 215 215 215 216 215 215
215 216 215 213 213 214 215 213 214 213 212 212 211 211 212 214
211 213 214 213 212 213 213 212 211 211 212 212 214 214 214 214
213 214 214 214 215 217 217 217 217 217 217 217 217 217 219 221
219 221 222 221 221 222 222 222 224 223 222 221 221 220 219 218
217 219 220 219 218 218 218 218 218 215 214 214 214 213 212 212
85 58 37 37 31 28 24 30 51 56 45 34 34 43 54 48
41 41 43 45 48 55 58 54 49 56 52 45 54 59 55 61
61 59 50 42 41 40 40 45 44 45 43 42 39 39 43 41
34 39 41 37 36 39 39 36 40 44 44 42 41 41 40 40
40 40 44 44 49 43 43 45 41 41 43 42 40 43 43 36
32 32 25 19 28 33 28 31 34 33 34 37 38 36 36 37
37 39 40 40 36 34 35 37 38 37 39 41 40 42 44 44
49 48 55 63 63 63 68 70 76 79 84 86 86 88 88 83
66 48 32 13 11 21 46 68 85 97 102 103 105 106 106 103
106 109 107 104 106 107 107 110 110 113 114 113 111 111 111 110
111 113 115 116 115 114 117 120 116 117 118 118 119 119 120 121
122 121 121 119 117 120 122 120 121 122 122 121 121 122 122 121
125 123 122 124 124 123 123 125 127 125 124 127 130 130 129 127
135 136 133 132 136 139 138 137 141 141 143 147 150 152 156 161
165 169 173 176 180 184 187 187 196 196 199 203 207 208 211 213
216 216 217 217 218 220 221 223 222 224 223 223 224 224 223 225
225 225 224 224 224 224 225 225 224 225 225 223 223 225 224 222
223 223 224 224 221 214 205 199 155 138 124 127 136 136 126 118
117 122 128 132 134 139 145 148 180 205 219 219 216 216 218 215
219 218 218 217 217 217 216 216 212 212 212 213 214 215 212 209
211 210 208 209 210 210 210 210 209 207 206 207 208 208 207 207
208 206 205 206 208 209 208 207 209 208 207 207 209 210 211 211
209 210 210 210 210 211 213 215 211 212 213 214 215 215 215 215
216 215 217 218 217 217 219 218 220 221 220 219 219 220 219 217
217 217 215 214 213 214 214 213 210 213 213 211 209 208 207 207
45 37 33 33 24 19 23 33 44 48 44 35 40 53 49 36
40 39 41 41 39 44 50 49 53 53 52 54 62 59 53 60
63 55 44 41 46 46 42 42 48 46 42 42 40 41 42 38
35 39 41 40 40 42 40 36 43 45 44 42 42 41 40 41
39 41 41 44 46 45 42 44 44 42 42 41 39 42 43 39
37 35 31 26 32 36 33 36 39 40 40 38 38 39 39 38
39 39 40 41 40 38 36 36 40 39 40 42 41 43 45 45
50 51 59 66 66 68 74 77 74 80 88 90 88 89 90 88
71 55 35 17 11 25 46 68 88 98 101 102 104 105 106 104
108 110 109 108 109 110 111 112 111 111 111 111 113 115 115 113
118 115 113 115 116 116 115 114 116 117 118 118 118 118 119 119
120 120 121 119 118 120 122 119 118 120 121 120 120 122 124 125
123 123 124 125 126 125 124 124 127 126 126 128 130 131 131 130
133 135 133 133 137 139 139 140 145 145 147 151 154 156 160 165
168 172 177 180 184 188 191 192 198 199 203 207 209 210 212 213
216 216 217 218 219 220 221 222 222 223 222 222 224 224 223 224
224 224 224 224 224 224 225 225 225 226 225 224 224 226 226 224
225 224 223 223 223 223 222 222 222 213 206 205 207 204 199 194
191 196 201 204 206 209 212 214 214 218 216 215 214 211 215 217
215 215 214 214 213 213 213 212 210 209 209 208 209 209 207 204
206 205 205 205 205 204 205 206 205 203 202 203 204 202 201 201
202 202 202 203 204 204 203 202 204 203 202 203 203 204 205 205
205 205 206 206 205 206 207 208 207 208 210 211 211 211 212 212
214 212 214 215 214 215 217 216 215 215 215 214 215 215 215 214
211 212 212 211 211 211 210 209 207 208 208 206 204 203 201 199
39 39 46 48 42 33 37 42 53 43 41 39 44 50 40 36
46 40 41 40 35 40 49 49 46 42 40 42 53 60 56 57
53 50 45 43 45 44 44 47 50 48 44 45 44 45 47 42
43 43 41 38 37 39 42 44 47 48 45 42 43 42 40 41
43 46 42 44 43 48 45 46 47 44 44 44 43 45 46 45
38 35 35 34 36 39 38 42 40 43 43 40 38 40 39 35
39 37 37 39 41 39 36 35 40 39 41 44 45 49 51 49
51 54 62 68 70 74 80 82 82 83 87 90 90 92 91 87
75 60 36 19 12 31 51 72 92 101 102 103 104 105 107 105
107 107 109 109 108 110 111 110 113 111 110 110 112 114 115 113
115 114 114 115 115 114 115 116 116 117 117 118 118 117 118 118
119 119 120 120 118 120 122 119 120 121 122 120 119 120 122 124
122 124 125 125 126 126 125 124 125 127 127 127 129 131 132 132
133 135 134 136 138 139 139 142 147 148 151 154 157 159 163 167
170 175 180 183 186 191 194 196 199 202 206 210 211 211 212 213
216 217 218 219 219 220 221 221 222 223 221 221 224 224 223 224
224 224 224 224 224 224 223 223 226 226 225 223 223 225 225 223
222 222 221 221 221 221 222 222 219 219 218 218 218 218 218 217
215 218 219 218 216 215 213 212 211 211 209 214 217 214 212 212
210 210 210 209 208 207 207 208 205 205 205 203 203 204 204 202
202 201 201 201 200 198 199 200 201 200 199 199 199 197 196 195
196 197 199 200 199 198 198 198 198 198 198 199 199 200 201 202
200 200 201 201 202 202 202 203 204 205 206 207 207 208 209 209
208 208 210 211 211 212 213 211 211 212 212 211 210 210 210 210
207 209 210 208 207 205 203 202 202 202 201 200 198 197 194 192
65 55 52 52 51 43 50 54 55 45 46 50 50 44 37 41
48 39 37 38 37 44 53 53 49 42 38 40 51 64 62 56
46 49 49 45 42 41 44 49 48 48 47 49 47 47 51 48
41 43 45 44 40 38 41 46 49 49 46 43 43 43 42 43
47 49 45 43 43 48 48 50 45 43 43 45 45 44 44 44
41 36 39 40 37 38 40 43 38 42 43 41 39 39 36 32
36 34 34 36 37 36 36 37 42 42 45 48 50 53 54 51
49 54 61 67 73 80 83 83 88 86 85 87 90 93 91 86
73 57 34 17 17 40 62 80 95 103 103 104 105 104 105 104
105 105 108 109 105 107 110 107 112 112 112 111 110 111 113 115
113 113 115 115 114 114 116 120 117 117 118 118 118 117 117 117
118 119 120 120 118 120 122 120 123 123 123 121 120 119 121 122
122 124 125 124 124 126 127 125 125 127 127 126 128 132 133 132
133 134 135 138 140 139 140 144 148 149 152 156 159 162 165 168
172 176 182 185 188 192 196 199 201 204 208 211 212 212 213 215
217 217 218 219 220 220 221 221 222 223 221 221 224 225 224 224
224 224 224 224 224 224 224 224 224 225 224 222 222 222 222 220
222 223 223 222 221 219 217 216 218 219 219 218 218 220 219 216
214 215 216 214 213 212 210 208 207 212 210 209 211 211 210 207
205 206 206 205 203 202 202 203 202 202 201 199 199 199 200 200
198 198 197 197 195 194 194 195 197 196 196 195 194 193 191 190
192 193 194 194 193 193 194 195 192 194 195 195 194 194 196 197
196 196 196 197 198 199 199 199 201 202 202 203 203 204 205 206
202 203 206 208 207 207 207 206 208 209 209 207 206 205 205 205
201 204 205 203 201 198 197 196 195 195 194 193 192 191 189 187
48 41 44 52 51 33 34 35 47 46 42 44 43 40 45 48
45 39 39 42 41 47 55 56 58 51 54 59 62 61 55 52
49 50 48 44 43 46 46 43 47 46 45 48 48 48 50 46
42 42 44 45 42 39 42 47 50 50 46 44 45 44 43 45
43 46 46 41 44 46 49 50 47 46 46 47 47 44 42 44
48 41 44 44 38 36 37 40 40 42 44 43 41 38 35 33
34 33 34 34 33 33 37 43 47 47 50 51 51 52 50 45
45 50 57 65 76 83 84 82 86 85 87 88 87 89 91 90
71 54 36 19 26 48 71 86 98 103 102 103 104 103 103 103
104 104 109 110 106 107 111 109 112 112 112 111 111 112 114 116
117 115 114 115 116 117 117 117 118 118 118 118 118 118 117 116
119 119 121 120 118 120 123 122 123 122 122 122 122 122 122 122
122 124 125 124 124 126 127 126 126 127 127 126 128 132 133 131
131 133 136 139 142 141 143 148 151 151 154 158 162 166 168 170
175 179 184 187 190 194 198 200 204 207 210 212 212 214 216 217
217 218 219 220 220 221 221 220 222 223 221 221 224 224 223 224
223 223 223 223 223 224 225 226 223 223 224 223 222 222 221 220
222 222 221 221 220 219 219 220 217 218 216 214 214 215 213 210
213 214 213 212 212 212 212 211 207 213 208 203 203 204 205 202
201 202 202 201 199 198 198 199 199 199 197 194 192 192 193 193
194 193 192 192 191 190 189 190 191 191 191 190 190 189 187 186
187 187 188 188 188 188 189 190 188 189 190 190 189 188 189 190
193 192 191 191 192 193 194 195 197 198 198 198 198 198 199 200
199 199 202 203 201 201 203 202 202 202 202 202 200 199 198 199
193 195 197 195 193 193 192 192 188 188 188 187 185 183 182 181
41 39 43 54 52 37 36 33 39 36 27 30 31 31 42 46
39 42 46 46 43 44 49 52 55 60 69 68 63 59 52 49
49 47 46 44 45 49 49 42 47 43 41 46 50 51 51 45
50 46 42 42 42 41 43 46 50 50 47 46 46 45 45 47
39 43 47 42 47 46 49 49 49 49 48 48 50 48 46 49
49 43 45 44 38 36 36 38 43 45 46 44 41 38 36 36
34 34 34 34 32 32 39 47 49 50 52 52 50 48 45 39
38 44 51 61 74 82 83 82 86 85 87 89 89 90 90 86
74 59 45 31 41 59 79 90 102 105 102 102 104 103 105 105
103 106 109 110 108 109 112 112 115 112 110 110 113 113 113 112
115 115 115 115 115 114 115 117 117 118 118 118 119 118 118 117
119 119 121 121 118 119 122 123 123 122 121 122 123 123 123 122
121 124 126 126 126 126 126 126 127 128 128 128 129 132 134 132
134 137 139 141 143 144 145 149 153 154 157 161 166 170 172 174
178 182 186 189 191 195 199 201 205 208 210 211 212 214 217 218
217 218 219 220 221 221 221 221 221 222 221 221 223 223 222 224
226 225 223 222 222 222 223 224 222 223 223 223 223 222 222 221
219 219 218 218 218 218 218 218 215 216 215 213 212 214 214 214
213 213 211 208 206 206 205 204 202 203 199 201 203 201 200 198
198 198 198 196 195 193 193 193 193 193 191 189 188 188 188 188
189 188 188 188 187 186 186 186 186 187 187 186 186 185 185 183
182 183 184 184 185 185 185 184 183 185 186 187 187 187 188 189
190 189 188 187 187 188 189 190 193 194 194 193 193 193 194 195
197 196 196 196 194 195 198 198 195 194 195 195 194 193 193 193
189 190 190 189 187 187 187 186 183 183 183 183 181 178 177 177
42 52 55 63 59 54 53 44 33 29 27 34 36 33 34 36
33 42 46 45 45 45 48 53 54 66 74 66 61 64 60 54
46 45 48 50 48 49 50 47 46 44 43 49 52 52 53 48
49 47 46 46 46 44 42 42 50 50 49 48 48 46 46 49
41 45 47 46 48 48 49 49 48 50 47 46 48 47 45 48
46 42 43 42 38 38 37 39 43 47 48 45 42 41 40 38
37 36 35 37 37 37 42 48 49 50 52 51 47 46 43 37
35 42 50 59 71 78 80 84 88 84 85 88 91 92 89 84
79 69 61 54 60 74 87 97 102 105 102 103 105 104 106 107
105 108 108 107 109 110 111 112 114 111 110 111 114 113 112 110
112 114 116 116 114 113 115 119 117 117 118 118 119 119 118 117
118 119 121 121 119 119 122 122 123 122 121 122 122 122 122 123
122 123 125 126 126 125 125 126 128 129 129 130 131 132 134 135
136 140 141 142 145 147 148 151 154 157 162 166 169 173 177 179
183 186 189 192 194 197 200 202 206 208 210 211 212 215 216 217
218 218 218 220 221 222 221 221 221 223 222 221 222 222 222 224
226 225 224 222 221 221 221 221 222 222 222 221 220 220 220 221
219 219 218 218 218 217 215 213 214 214 212 210 209 208 208 208
208 208 207 204 203 203 203 202 205 202 196 197 199 195 196 198
193 193 192 191 190 189 188 188 186 186 185 184 184 185 186 185
183 183 183 184 182 181 181 182 181 182 182 181 181 182 182 181
180 180 180 181 181 181 180 180 180 181 183 184 185 185 186 186
185 185 185 185 185 185 187 188 188 189 189 189 189 189 190 190
193 190 189 189 188 189 191 189 189 188 187 188 188 187 187 187
185 186 185 183 181 181 180 179 179 178 178 178 177 175 174 173
36 52 48 44 35 44 56 51 37 38 42 37 39 45 40 38
34 45 47 47 53 58 61 67 61 67 70 66 66 67 61 58
52 47 51 57 54 50 50 49 47 48 49 53 51 48 51 50
48 48 47 45 42 43 47 52 50 51 50 50 49 47 46 50
45 48 46 48 47 50 47 50 52 55 52 48 49 47 44 45
46 43 44 41 40 40 38 39 41 48 51 47 45 46 44 40
42 39 38 41 44 44 46 49 50 51 52 50 46 44 42 37
36 45 53 61 71 76 80 87 84 83 86 88 88 89 91 90
83 78 73 73 74 87 93 103 99 102 100 103 105 103 105 106
107 110 107 106 110 110 109 110 110 110 112 114 115 114 114 115
117 115 114 116 117 117 116 115 116 116 117 118 119 119 118 117
117 118 121 122 119 119 121 121 121 120 120 121 121 122 123 126
124 123 123 125 124 123 125 128 128 128 130 131 131 131 134 136
134 139 141 142 147 151 153 155 157 161 167 170 173 176 181 184
189 191 193 195 198 201 203 204 207 209 211 212 214 216 217 217
218 218 218 219 221 222 222 222 221 223 223 222 222 222 222 224
223 222 222 222 221 221 222 222 222 221 220 218 217 216 216 217
218 216 214 213 214 215 215 214 212 209 207 207 208 208 206 205
203 203 202 199 197 196 195 195 194 196 192 193 194 190 190 191
190 189 188 187 186 185 184 183 183 183 182 181 181 182 181 180
177 178 179 179 177 176 176 179 177 178 178 177 177 178 178 177
178 178 177 176 175 175 177 178 178 178 179 180 179 179 178 178
179 181 182 183 183 183 185 187 184 184 185 185 185 185 186 186
188 185 184 185 185 186 184 181 185 183 182 183 183 182 181 181
179 179 178 177 177 177 176 174 174 172 172 174 175 173 171 171
38 40 27 21 26 32 37 35 35 37 39 50 55 55 44 39
46 48 53 57 56 58 63 67 64 62 60 63 68 67 62 59
61 57 58 57 53 55 56 49 47 44 45 47 48 50 53 54
46 46 43 44 49 51 50 50 53 51 51 53 53 50 45 43
45 50 50 45 45 51 52 48 46 46 52 57 52 48 48 47
44 44 42 43 45 45 43 45 44 47 51 50 43 41 41 40
44 43 45 45 42 47 54 54 53 52 50 49 45 42 41 42
42 46 55 60 61 75 81 89 86 85 86 88 90 89 89 89
85 85 79 81 86 91 99 99 99 101 102 102 102 105 106 104
107 106 106 108 109 108 109 111 110 110 112 115 114 111 112 116
115 115 114 118 119 116 116 114 118 119 119 118 119 118 118 120
119 118 118 118 118 118 120 123 122 125 121 119 120 120 123 124
126 125 126 128 126 124 126 130 128 129 131 132 131 132 135 139
140 141 142 144 148 153 157 158 163 166 171 175 179 182 186 189
192 193 196 198 200 203 206 208 210 211 212 214 216 217 218 219
220 220 220 221 222 222 221 220 220 221 222 222 222 222 221 220
221 220 220 221 221 221 220 218 217 218 220 219 217 215 215 215
214 213 212 211 210 210 210 209 207 204 203 205 205 202 201 201
197 197 197 196 195 194 193 192 192 189 187 188 188 186 185 186
183 183 182 182 181 181 180 180 180 179 178 176 175 176 177 178
175 174 174 174 175 175 174 172 175 172 174 173 174 176 173 174
179 178 176 174 173 175 175 174 176 176 176 176 175 176 177 178
180 180 180 181 181 181 180 179 183 182 181 181 182 182 180 178
179 180 181 181 181 179 178 178 178 180 176 178 177 174 178 176
177 173 173 174 174 173 172 169 169 169 168 166 166 169 169 167
56 50 32 28 37 41 37 28 29 35 41 49 53 51 45 42
51 54 60 61 59 60 61 59 62 64 62 60 62 63 63 64
62 54 54 59 58 58 58 53 50 47 47 48 50 53 52 48
51 52 50 49 51 50 49 49 55 56 57 56 52 48 46 47
49 50 48 47 50 55 54 49 52 51 54 54 49 46 46 45
41 40 38 38 41 42 43 46 45 46 49 48 43 41 44 45
46 49 50 50 50 51 51 52 55 52 49 47 45 42 42 43
43 46 50 56 57 69 76 84 87 86 87 90 91 91 92 93
91 92 87 89 92 95 101 101 98 101 103 103 103 105 105 103
105 105 107 110 110 109 110 113 111 110 111 113 113 112 114 116
115 116 114 118 118 115 116 114 116 118 118 118 119 118 116 118
119 119 120 121 120 119 120 121 121 124 120 120 121 121 123 123
121 123 125 125 125 126 128 129 128 129 130 132 134 136 140 144
144 146 147 149 153 158 162 164 169 172 177 181 185 188 192 194
195 197 200 202 204 206 208 210 211 212 213 214 216 217 217 218
219 220 220 221 221 221 221 221 220 220 220 220 220 220 220 220
221 220 218 218 218 217 216 215 215 216 217 216 214 213 212 212
210 210 208 207 206 205 204 204 203 202 201 201 200 199 197 196
194 194 193 191 190 189 189 189 186 184 184 185 184 181 180 180
180 179 177 176 176 176 176 176 177 176 175 173 172 172 173 175
173 173 173 173 173 173 173 173 173 171 172 170 170 173 171 172
172 173 173 172 172 173 172 171 173 173 173 173 173 175 177 179
176 176 176 177 177 177 176 176 178 177 176 176 176 177 176 176
176 176 177 177 176 175 175 175 171 174 173 176 175 171 172 168
171 169 170 170 167 167 168 168 168 168 167 166 166 166 165 164
50 42 28 26 37 43 41 34 36 40 45 45 45 44 47 49
62 61 60 57 54 57 58 53 53 60 63 61 62 63 62 60
60 58 63 66 62 59 59 57 57 55 53 49 47 51 55 54
54 56 55 55 56 56 54 56 56 58 60 58 53 49 49 52
48 51 52 52 52 53 54 54 56 56 57 55 50 49 49 48
45 45 43 42 44 44 46 50 44 43 44 45 42 41 46 49
49 56 55 55 59 56 52 54 55 52 49 47 46 45 44 44
45 47 45 53 55 63 73 81 85 85 86 88 90 91 92 94
92 94 92 93 95 96 100 99 100 103 104 104 103 104 105 104
105 106 109 112 111 109 110 112 112 111 111 111 113 114 115 115
114 116 115 118 117 115 116 115 115 117 117 118 120 119 117 117
118 118 119 120 120 119 119 119 121 124 120 121 123 123 123 122
121 124 125 124 125 129 131 130 131 131 132 134 136 138 142 144
148 150 152 154 158 164 169 171 176 179 184 188 191 194 197 199
200 202 204 206 208 209 210 211 211 212 213 215 216 217 218 218
218 219 220 220 219 219 220 221 220 220 219 219 219 219 219 219
220 219 217 215 215 215 214 214 214 213 213 212 211 210 209 208
206 206 205 203 202 200 199 198 199 199 197 195 194 194 192 190
189 188 187 186 185 184 183 183 180 180 180 181 180 177 175 176
176 175 174 173 173 172 171 171 172 172 170 169 168 168 169 169
171 171 171 170 169 169 169 170 168 168 170 168 167 170 168 169
169 170 170 170 171 171 171 169 171 171 170 169 170 171 173 174
173 173 173 173 173 174 173 173 174 173 171 170 170 171 172 173
171 171 172 172 171 170 170 170 170 171 168 168 168 167 170 170
168 166 166 166 163 162 164 165 165 164 164 164 164 163 161 161
22 27 28 28 31 39 45 46 49 50 53 46 45 44 51 52
58 54 49 47 47 52 55 52 56 59 59 58 60 62 62 62
61 62 66 72 77 81 75 63 58 56 56 55 53 54 57 56
54 55 55 55 58 58 57 59 57 57 57 56 55 54 54 54
50 53 55 55 53 52 55 59 54 56 56 53 50 49 49 46
47 47 45 44 45 46 46 48 47 44 45 48 47 48 51 54
52 55 54 55 58 58 56 58 54 52 50 48 48 47 46 46
47 48 42 50 54 60 72 82 84 85 85 86 88 89 92 93
92 94 96 97 98 99 101 101 101 103 103 101 100 102 104 105
106 107 109 111 110 108 108 109 112 112 112 111 113 115 115 114
115 116 115 117 117 115 117 115 114 117 117 117 119 120 118 118
119 118 118 118 118 119 120 121 121 124 121 122 124 123 124 123
125 126 127 126 127 131 131 130 134 134 136 138 139 140 143 146
150 153 157 159 163 169 175 178 181 185 190 194 196 198 200 202
203 205 207 208 209 210 211 212 212 213 214 216 217 218 218 218
217 218 218 218 218 218 219 220 219 218 218 218 218 217 217 217
217 216 214 213 213 213 212 212 210 209 208 208 208 207 205 203
203 202 200 199 198 197 195 193 195 195 193 189 188 189 188 185
184 183 182 182 181 179 178 177 176 176 177 177 176 173 172 173
171 171 172 172 172 171 168 167 168 168 167 166 165 165 165 165
169 168 168 167 166 165 165 164 164 165 168 166 166 169 167 166
169 168 167 166 167 168 169 169 168 168 167 166 166 167 168 169
170 170 170 169 169 170 171 170 171 170 168 167 167 167 168 168
167 168 169 169 168 166 165 164 165 167 167 168 167 166 166 165
169 164 162 163 162 163 162 160 163 161 160 162 162 160 159 160
22 36 49 48 46 52 58 60 50 50 56 52 53 53 55 47
37 32 34 41 46 51 54 53 57 57 56 57 58 57 57 61
67 75 86 96 107 115 111 101 80 66 57 56 58 58 57 55
59 59 56 56 59 60 59 59 57 56 56 57 57 58 57 56
57 55 54 55 56 56 57 59 57 59 57 53 50 50 48 47
47 47 45 44 47 48 47 48 49 45 46 51 53 52 52 51
51 48 49 51 51 55 59 59 55 53 51 50 49 49 49 48
48 49 40 47 50 56 69 82 86 86 86 86 87 89 91 93
91 93 96 97 97 100 101 102 101 102 102 100 99 101 103 104
105 105 106 108 109 108 108 108 111 112 113 113 113 114 114 113
115 116 114 116 117 116 117 115 115 117 116 115 117 118 117 118
121 120 119 118 119 121 122 123 121 124 121 122 124 122 124 125
127 126 126 127 129 130 130 131 133 135 139 142 143 145 148 151
153 157 161 165 169 175 181 184 187 190 195 199 201 202 204 205
207 208 209 210 210 211 213 214 214 214 216 217 217 217 217 217
218 217 217 217 218 218 218 218 217 215 215 216 216 215 214 213
212 212 211 211 210 210 209 208 207 205 204 203 204 203 201 199
198 196 195 194 194 193 190 188 190 190 187 184 183 184 183 180
181 180 178 177 176 176 175 174 173 173 173 172 170 168 167 168
167 167 168 169 169 168 166 165 166 165 164 164 163 163 163 163
165 165 164 164 164 163 162 160 163 163 164 162 164 167 165 164
166 164 163 163 164 165 167 168 164 164 165 165 165 166 166 166
166 166 166 164 165 166 166 165 168 166 164 164 165 166 165 165
165 165 166 165 164 163 162 162 164 164 165 165 164 163 161 161
166 162 161 162 162 162 161 159 162 160 159 160 160 158 158 159
34 40 50 50 51 59 61 59 43 43 49 50 54 56 52 38
21 19 25 37 45 49 53 54 50 52 54 57 59 57 59 67
87 100 118 130 136 139 141 142 125 103 83 73 65 60 59 60
60 59 56 56 59 60 61 62 57 58 59 58 58 58 59 59
56 55 54 55 54 54 56 59 61 61 58 54 53 52 51 52
54 54 51 49 51 53 52 52 52 48 49 54 55 53 49 45
46 40 42 45 45 51 59 59 58 56 54 51 50 50 50 49
47 47 38 41 46 54 65 81 87 87 86 86 87 89 91 91
92 92 96 95 96 99 98 100 101 102 103 103 103 104 104 104
107 107 107 108 109 110 109 109 110 112 114 115 114 113 113 113
114 115 112 114 116 116 117 114 117 119 118 116 117 118 117 117
120 120 119 119 121 122 122 121 121 124 121 122 124 122 125 127
127 127 127 129 131 131 132 133 134 136 141 144 146 147 151 155
156 161 166 170 174 180 185 188 191 194 199 202 203 205 206 207
210 211 211 212 212 213 214 216 216 216 217 217 217 216 215 215
217 216 216 216 217 217 216 215 215 213 213 215 215 213 211 211
210 210 210 209 208 207 205 204 204 203 201 200 200 199 197 196
194 192 191 190 190 189 186 184 184 183 181 179 178 179 178 176
179 176 174 172 171 172 172 173 171 171 169 167 166 164 164 164
166 165 165 165 165 165 165 165 164 163 162 162 162 162 161 161
161 161 161 162 163 163 161 159 164 160 160 159 160 163 162 163
162 161 161 162 164 164 165 165 163 163 164 164 164 164 163 162
163 164 163 161 161 163 163 161 163 161 160 161 162 163 162 161
162 162 161 160 160 159 160 160 162 160 161 159 159 161 161 163
159 158 160 162 159 158 159 159 161 160 159 159 158 157 157 157
30 25 30 35 40 48 47 44 44 42 43 47 47 52 43 24
17 18 26 36 43 47 51 52 51 52 53 57 66 76 88 100
119 127 137 147 157 161 159 156 152 137 122 109 92 77 70 68
62 64 62 59 58 58 59 62 58 59 59 57 56 58 59 60
53 55 56 55 53 53 56 60 57 58 54 53 55 53 52 55
56 57 54 52 54 54 53 53 56 54 55 56 55 52 47 40
36 33 33 35 39 46 55 60 62 61 58 55 54 53 49 45
39 38 31 33 41 55 64 82 86 86 85 85 87 90 91 90
95 94 98 96 97 101 99 100 102 103 103 105 106 106 106 106
108 108 109 109 110 110 110 109 110 111 113 115 115 112 112 113
113 115 113 114 115 116 118 116 116 121 121 118 118 118 118 118
117 118 118 119 121 123 122 120 122 124 121 123 125 124 126 127
127 129 130 130 132 134 136 136 138 140 143 146 148 150 153 157
162 166 171 175 180 185 189 191 194 197 201 203 205 206 207 208
211 212 213 213 213 213 214 215 215 216 216 217 216 215 214 214
214 214 214 214 214 214 213 212 213 211 210 212 212 209 208 208
207 207 207 206 204 202 201 200 201 199 197 196 195 194 192 190
189 188 187 186 185 183 182 181 179 177 175 175 175 174 174 174
174 172 170 168 168 169 169 168 167 166 165 164 163 163 163 162
165 164 162 162 162 163 163 163 161 161 160 160 160 160 160 159
158 158 158 159 160 160 159 158 162 158 159 158 158 159 157 160
160 159 160 161 162 161 161 161 162 162 162 162 162 161 160 159
162 163 162 160 160 161 161 159 160 159 158 158 159 159 159 158
157 158 158 158 158 158 158 158 155 155 160 160 161 162 158 159
157 156 158 159 157 156 157 156 157 157 157 156 156 156 155 153
33 25 34 43 48 51 46 43 49 47 46 49 45 48 33 10
13 19 30 40 44 49 51 49 53 55 59 69 88 108 122 131
139 151 158 161 169 177 176 171 159 148 136 125 112 99 90 84
78 80 78 71 64 59 59 63 59 58 55 53 55 58 59 58
56 55 55 55 57 59 59 58 57 58 55 56 59 56 53 57
53 56 57 56 57 57 55 55 55 54 54 53 49 46 40 32
26 27 24 25 34 41 49 60 64 63 62 60 59 56 48 41
29 27 23 24 37 55 64 83 86 86 85 85 88 92 92 91
93 92 96 94 95 99 96 97 103 101 101 102 104 106 106 106
103 105 107 108 109 109 110 110 111 110 111 115 115 112 112 114
112 115 114 115 116 116 119 118 114 119 120 118 118 119 118 119
116 116 117 119 122 125 125 123 123 125 122 125 128 126 127 128
126 131 132 130 131 136 138 136 142 143 145 148 151 154 158 161
167 171 176 181 185 190 193 194 196 199 203 205 206 207 208 210
210 211 213 213 213 212 212 213 213 214 215 216 216 215 215 214
211 212 213 213 211 210 210 210 210 207 206 207 207 205 204 205
203 202 202 201 200 198 197 196 196 194 192 190 189 187 185 184
184 184 184 182 180 178 177 177 176 173 172 173 174 172 172 172
168 168 167 168 168 167 165 164 162 161 161 161 162 163 162 162
162 161 160 160 160 160 160 159 159 159 159 159 159 159 159 158
156 157 157 157 157 157 157 157 160 157 159 160 159 156 153 156
160 158 158 159 158 157 155 156 159 158 158 159 159 160 160 160
161 162 161 158 158 159 159 157 161 160 159 158 157 157 157 157
153 155 157 159 159 158 156 155 158 156 159 156 155 157 154 157
160 156 155 157 156 156 155 152 152 154 155 154 154 155 154 151
39 36 47 49 46 50 51 54 53 38 46 44 43 40 16 10
13 23 28 29 36 45 49 49 57 68 88 109 124 133 143 151
155 164 173 178 181 183 178 172 162 156 146 134 126 118 108 100
99 94 89 80 76 74 69 66 65 68 68 62 57 56 58 59
57 55 54 56 59 60 60 59 61 61 61 60 60 59 58 67
60 62 60 57 58 57 56 57 58 57 55 52 45 40 36 30
22 18 17 22 30 39 46 51 55 64 66 67 63 56 54 47
33 16 17 17 31 54 62 80 87 85 85 88 89 89 90 92
90 93 96 99 99 98 99 101 105 102 101 102 104 105 106 109
106 106 108 110 109 108 109 113 114 112 107 112 115 112 115 112
114 116 116 113 113 115 116 114 115 116 117 117 118 118 118 119
119 119 119 118 120 123 123 123 119 121 124 125 126 127 126 124
129 130 130 130 133 138 140 139 145 150 151 152 156 159 162 168
171 177 181 183 185 189 193 195 198 200 203 206 208 209 209 210
210 213 214 213 213 214 214 212 212 213 214 213 213 213 213 213
213 211 209 207 207 208 208 207 206 204 203 202 201 201 200 199
197 197 196 193 192 193 192 190 191 188 186 186 185 183 181 181
178 180 181 178 176 175 173 171 169 170 171 170 169 170 168 166
167 165 164 165 165 163 161 160 161 159 158 159 160 159 159 160
158 157 157 158 158 158 157 155 158 155 155 157 157 155 154 156
157 157 157 157 156 156 157 158 157 157 158 158 158 158 158 157
157 157 157 157 157 156 155 155 157 156 156 157 158 157 157 157
155 154 159 162 157 155 156 156 154 154 155 156 155 152 153 155
154 156 154 153 156 156 155 159 157 157 156 155 154 153 154 154
155 155 155 155 154 154 154 154 153 153 153 153 154 153 152 150
42 42 41 36 34 37 46 58 48 36 34 42 45 30 10 10
17 17 23 35 43 44 52 65 86 102 120 132 141 153 163 168
174 178 181 182 180 177 170 164 156 151 144 135 128 122 116 111
112 103 97 91 90 89 81 77 74 74 72 68 63 62 62 62
58 58 58 60 61 62 63 63 63 62 63 60 58 56 55 61
60 60 58 55 56 54 52 53 58 54 52 50 49 47 39 29
19 15 15 19 26 33 40 45 54 59 60 65 67 63 56 44
30 13 12 17 35 56 67 84 87 86 86 88 89 88 89 91
92 95 98 98 99 101 102 101 98 102 104 102 101 104 107 108
105 105 107 109 109 107 108 111 112 114 111 112 113 112 114 111
112 114 115 114 114 116 118 117 115 115 116 116 117 118 120 122
120 121 121 121 122 124 123 122 124 125 125 125 126 128 129 129
130 132 134 135 137 140 143 144 148 154 156 158 162 164 167 173
176 180 183 186 188 192 197 199 202 203 205 206 207 207 208 208
209 211 212 210 211 213 213 212 212 212 211 211 210 210 209 209
208 207 205 203 203 204 203 202 201 200 199 198 198 197 197 196
193 193 191 189 188 188 187 185 184 183 182 181 180 178 176 176
176 175 173 173 173 173 170 166 168 168 167 165 165 167 167 166
161 160 161 163 163 161 159 158 160 158 157 158 159 158 157 157
155 155 155 156 156 156 155 154 155 154 153 154 154 153 153 154
155 155 156 156 156 156 156 155 156 156 156 156 156 155 154 154
155 154 154 154 155 155 154 153 156 155 154 155 156 156 155 154
155 152 155 158 155 153 154 154 154 153 154 155 154 152 153 156
152 155 154 153 155 155 154 157 156 155 154 153 153 154 153 153
152 152 152 152 152 152 152 153 151 151 151 151 152 152 151 151
44 51 45 38 40 43 46 49 44 48 42 48 47 24 9 6
15 18 26 39 46 51 71 97 115 130 145 152 160 171 178 180
184 183 182 179 173 166 158 154 145 141 136 130 124 119 115 114
113 106 103 100 97 93 87 87 85 82 79 76 73 69 67 67
63 64 64 64 65 68 67 65 62 59 61 57 53 53 53 54
54 52 47 46 46 44 44 48 58 56 53 51 50 49 40 27
22 17 15 18 22 25 32 38 48 53 55 63 69 67 58 44
29 13 8 20 39 57 70 84 87 86 87 89 90 90 90 92
92 96 97 96 98 102 102 100 98 101 103 103 104 107 107 105
107 106 107 109 109 108 109 111 111 115 114 113 113 114 116 113
113 114 115 116 116 117 119 121 116 117 117 117 117 118 120 121
121 121 122 122 123 123 123 122 126 127 126 126 127 129 131 132
131 133 138 141 142 143 146 150 152 157 161 164 168 170 173 177
182 183 186 189 192 196 199 203 203 203 204 205 206 207 208 208
208 209 209 207 208 209 210 209 209 207 206 207 206 204 203 203
203 202 201 199 199 199 198 196 195 194 193 192 192 191 191 190
186 186 185 183 182 181 180 179 178 177 177 177 175 173 172 172
171 170 168 168 168 168 166 164 165 165 164 163 163 164 165 164
158 158 160 161 160 159 157 157 159 157 156 157 157 156 154 152
153 153 154 155 156 155 154 153 155 154 153 153 153 153 153 154
153 153 154 155 156 155 155 154 154 154 154 154 153 153 152 152
155 154 153 154 154 154 153 152 155 153 152 153 154 154 153 152
156 152 153 155 154 153 153 152 153 152 153 153 152 151 152 155
151 154 153 153 154 153 152 153 153 152 151 152 153 153 152 151
151 151 151 151 151 151 152 152 152 152 151 151 151 151 152 152
42 46 40 42 46 45 49 50 51 58 55 56 47 24 12 8
13 22 29 35 49 72 100 121 139 148 160 170 178 184 186 184
180 176 172 168 161 152 146 143 134 130 127 123 118 113 110 111
111 105 105 103 99 94 89 92 89 85 83 82 80 75 72 72
70 69 67 66 69 71 68 62 59 54 55 51 45 47 46 44
45 41 36 35 36 35 39 47 53 56 58 54 49 46 38 27
25 19 16 18 19 20 27 34 39 45 51 59 65 65 58 47
32 17 10 26 45 59 72 83 88 87 88 90 91 90 91 94
93 95 96 96 98 100 101 100 104 101 101 106 108 106 105 106
109 108 107 108 109 109 111 112 112 113 113 113 114 115 117 116
115 115 116 117 117 116 118 121 117 118 119 120 119 118 119 119
120 121 121 121 122 123 125 125 125 126 127 127 128 130 132 132
134 136 140 145 147 148 152 157 159 163 166 170 174 177 179 181
187 187 188 192 195 198 200 202 201 202 203 203 205 206 207 207
206 207 206 205 204 205 204 203 205 202 200 201 202 199 198 198
197 197 195 194 193 193 192 190 190 189 187 186 184 183 182 182
180 180 179 178 177 176 175 173 173 173 173 173 172 170 169 169
166 167 168 166 164 163 163 164 160 161 162 162 162 161 161 160
157 158 158 157 156 156 156 157 158 156 154 155 156 155 153 151
152 153 153 154 155 154 153 152 154 154 154 152 151 152 153 153
151 152 153 154 154 154 154 154 152 152 153 153 153 153 153 153
154 153 153 153 154 155 154 152 154 152 152 152 153 152 152 152
156 153 152 153 153 153 152 152 152 152 152 153 152 150 150 152
151 152 152 151 152 152 151 150 150 150 150 151 151 151 150 150
150 151 151 150 149 150 151 151 152 152 152 151 150 150 150 151
34 31 37 53 52 43 50 56 53 50 55 55 41 22 12 15
19 25 31 44 72 105 128 139 156 166 177 184 187 188 184 180
171 166 161 156 150 141 135 133 125 122 120 118 116 111 108 108
108 99 98 99 99 95 88 88 86 83 82 84 82 77 74 74
72 72 70 68 68 69 64 58 56 49 48 41 35 36 33 30
31 28 25 25 26 27 33 43 44 51 55 51 44 41 36 28
19 16 15 17 18 18 23 30 33 38 45 51 57 61 56 50
38 26 19 34 52 64 78 86 88 87 88 89 90 89 91 93
96 95 96 98 99 99 100 103 102 102 105 108 106 103 104 109
107 107 107 109 110 110 111 112 114 111 111 113 114 114 115 118
116 116 116 117 116 116 117 119 116 117 119 120 120 120 120 120
120 121 121 122 123 124 126 128 125 127 129 130 131 133 135 135
142 142 144 150 154 157 160 164 170 171 174 178 181 185 187 186
191 191 192 195 198 199 199 200 201 202 202 203 204 204 204 203
203 203 202 201 201 200 199 197 200 197 195 196 196 194 193 193
189 189 189 187 186 186 185 184 183 182 181 179 177 176 175 175
175 174 173 173 173 172 171 170 169 168 167 168 168 166 165 164
164 164 165 163 161 160 160 162 156 158 160 160 158 156 156 156
154 155 155 154 153 153 154 155 156 155 153 153 154 155 154 153
151 152 152 153 153 152 151 150 151 152 152 150 150 150 151 151
151 152 153 152 151 150 151 153 152 152 152 152 152 153 153 153
150 150 151 151 152 154 153 152 151 151 151 152 151 151 151 153
152 151 151 151 152 151 150 150 151 151 152 152 151 149 148 149
152 151 150 149 150 151 151 148 149 150 150 150 150 149 149 149
149 149 150 149 148 147 148 149 148 149 150 150 148 148 147 148
35 35 45 58 57 52 49 40 39 45 60 49 27 16 11 16
21 27 44 73 105 128 145 159 167 180 189 185 180 179 174 166
159 154 149 144 139 132 127 125 119 116 114 112 110 107 104 103
99 94 94 95 94 90 84 85 81 79 79 81 80 77 74 74
71 74 74 71 67 64 60 57 49 42 38 33 29 29 25 24
23 22 20 21 23 22 26 35 37 41 44 42 37 34 30 23
14 14 15 17 17 17 19 22 29 31 36 39 47 55 53 49
45 38 33 43 57 69 80 86 84 84 86 89 91 91 92 95
97 95 96 99 99 98 99 103 101 103 104 104 104 105 106 107
104 106 108 110 110 110 110 110 118 111 112 114 116 115 114 118
115 115 116 116 116 116 117 118 119 119 118 119 119 120 120 120
120 121 123 124 124 124 125 127 128 130 132 133 136 139 142 143
149 149 150 155 160 165 169 172 179 178 181 185 187 190 192 190
194 195 196 197 198 199 198 197 198 199 200 201 201 201 200 199
197 197 196 196 196 195 193 191 193 192 190 189 188 187 186 185
182 183 182 181 180 180 179 178 177 176 175 174 173 172 171 171
170 169 168 168 168 167 166 166 165 163 163 164 163 162 161 160
162 160 158 159 159 158 157 157 157 157 158 157 156 154 154 155
151 152 153 153 153 153 153 153 154 154 152 152 153 154 154 153
151 152 152 152 152 151 150 150 150 150 151 151 150 149 149 150
151 151 151 150 148 148 148 149 152 152 151 151 151 151 151 151
149 151 152 150 150 151 151 149 149 149 150 150 149 148 150 152
149 151 150 150 151 150 148 149 149 150 151 151 150 148 147 147
152 150 149 148 147 149 151 147 148 149 150 150 148 147 147 148
148 149 149 149 147 147 147 148 145 147 148 149 148 147 147 146
49 46 44 41 46 54 46 34 36 53 62 37 16 14 14 19
25 41 70 103 128 141 156 172 178 184 185 177 170 166 162 156
146 142 136 131 127 124 120 118 114 113 109 105 103 101 99 97
95 93 96 94 91 87 83 86 81 79 78 79 79 77 75 75
73 73 73 71 66 60 54 50 40 35 31 30 31 31 26 27
28 26 24 24 25 24 24 29 32 32 32 30 25 24 21 16
14 15 16 16 16 16 17 17 23 24 28 29 36 46 46 47
49 48 50 54 64 76 82 84 83 84 88 93 94 94 95 97
97 96 96 99 99 99 100 102 104 103 102 103 105 107 106 104
106 108 110 110 110 110 111 112 117 112 114 115 116 117 114 117
115 116 116 115 116 118 119 118 120 119 118 118 120 120 120 119
120 121 123 125 124 124 125 127 131 133 136 138 140 145 149 151
154 156 159 162 165 171 176 179 184 183 187 190 190 192 195 193
195 197 198 196 196 198 197 194 193 194 194 195 195 195 194 193
191 190 189 189 188 187 185 184 183 184 182 179 178 179 179 177
176 176 176 174 174 174 174 173 170 170 170 169 168 167 167 168
165 163 162 163 162 161 161 161 161 160 160 160 159 157 157 158
158 156 155 156 157 156 155 155 159 157 156 156 155 154 154 154
152 153 153 152 153 154 154 153 152 153 152 151 151 152 152 151
151 151 151 151 151 150 150 150 149 149 151 152 151 149 148 149
150 149 148 148 148 148 147 147 150 150 150 149 149 149 149 149
149 152 153 150 148 149 149 148 148 148 148 148 147 147 148 150
148 151 149 148 151 150 148 150 147 147 148 148 148 148 148 148
150 148 149 147 144 147 150 146 147 148 148 148 147 146 146 146
146 147 148 148 147 146 146 147 146 146 147 148 149 148 147 146
57 47 37 32 42 48 43 49 54 61 49 24 13 15 19 28
44 69 99 125 144 158 169 179 181 177 171 165 160 156 152 149
139 135 129 123 119 117 115 112 111 110 107 102 99 99 98 96
94 90 91 90 89 87 81 80 83 81 79 78 78 78 77 75
74 70 67 67 65 57 47 40 37 33 30 31 36 35 29 32
31 28 23 21 22 21 19 21 26 25 25 21 16 15 16 15
13 14 14 13 14 16 17 17 17 19 25 23 27 37 41 46
48 53 61 65 73 85 86 86 87 88 93 97 98 96 95 96
98 98 98 99 100 102 103 102 106 104 105 108 107 102 103 108
109 111 111 110 109 110 113 115 113 110 114 113 115 118 114 115
116 118 117 116 117 120 120 118 117 116 117 119 122 123 121 119
122 122 124 125 125 125 128 131 131 134 138 141 144 148 152 154
157 163 167 168 170 176 182 185 186 186 192 195 193 194 197 195
194 197 197 193 192 195 195 191 192 191 190 189 189 187 186 184
188 186 184 183 182 181 179 178 174 177 176 172 171 174 174 172
171 171 171 169 169 169 169 168 165 165 164 163 162 162 162 162
162 160 158 159 158 157 156 157 157 157 157 157 155 153 153 155
154 155 156 157 155 153 154 156 158 155 154 154 155 154 153 152
154 154 152 151 151 153 153 152 150 152 152 151 150 150 150 149
149 149 149 149 148 149 149 149 148 148 150 153 152 148 147 149
148 147 146 148 150 151 149 147 148 148 148 148 148 149 149 149
145 149 151 149 147 148 150 149 148 147 147 147 147 146 147 148
147 150 147 146 150 149 147 149 145 145 145 145 146 147 149 149
147 147 149 147 143 145 149 146 147 147 147 147 146 146 146 145
143 144 146 146 145 144 144 145 147 147 147 147 148 147 146 145
48 42 45 39 42 49 44 50 50 53 41 23 17 18 26 38
71 100 122 137 153 165 174 176 175 168 162 158 152 142 135 133
133 127 123 120 116 110 107 109 105 104 100 99 97 95 96 90
88 90 86 84 82 81 83 81 82 85 80 79 80 75 76 79
73 72 72 70 64 58 49 41 41 35 37 42 40 37 35 31
30 28 28 27 23 22 22 22 25 22 16 14 15 12 11 14
13 14 13 13 15 18 18 16 18 21 21 20 23 27 34 42
50 54 63 75 84 86 83 80 91 94 97 98 100 102 103 102
97 99 99 101 103 100 99 104 105 104 105 105 106 107 107 108
109 110 108 111 109 113 111 112 113 114 114 113 114 116 117 116
116 118 119 119 118 118 117 115 117 116 116 118 122 124 124 122
122 123 125 126 128 131 135 138 137 138 141 145 149 152 156 160
167 170 175 177 179 182 187 191 190 193 194 194 193 194 195 195
195 193 192 191 190 188 188 189 186 183 182 182 183 182 180 179
180 179 176 175 177 176 174 174 172 171 170 169 169 169 168 166
164 164 164 165 165 164 162 159 157 158 161 161 160 160 160 157
158 157 156 156 157 156 155 153 156 154 153 154 155 154 154 156
153 155 155 153 152 152 153 153 151 152 152 152 152 152 151 150
152 151 151 151 150 147 148 150 149 150 151 149 149 150 150 150
150 149 148 149 150 150 148 147 147 147 145 144 145 147 147 145
148 147 147 147 146 145 146 149 149 149 149 149 149 149 147 145
144 147 147 149 148 146 149 148 144 146 147 146 144 144 147 151
144 147 147 146 146 144 144 149 149 147 146 146 146 145 145 146
146 147 145 143 145 148 147 143 144 145 144 142 142 146 148 148
147 145 143 143 144 145 145 144 147 145 144 146 147 147 144 141
34 37 41 39 45 44 38 49 53 52 31 16 22 25 38 68
100 121 137 151 165 170 171 168 162 156 150 146 140 132 127 125
125 120 115 114 111 106 104 105 100 99 94 92 89 90 92 85
88 89 86 85 84 82 83 80 80 82 78 77 78 74 74 77
75 74 72 66 57 53 52 49 44 42 43 42 39 41 38 30
33 32 33 32 28 25 25 24 21 21 18 14 13 12 11 12
15 13 12 13 15 14 15 16 18 19 20 21 22 22 29 40
47 58 74 84 85 83 88 95 98 105 109 107 105 105 106 105
100 101 101 102 103 102 102 106 106 104 105 108 108 106 106 109
110 111 113 112 112 111 112 112 115 113 112 113 115 114 114 115
118 119 120 118 117 117 117 117 119 118 118 120 122 124 124 123
122 124 126 128 129 132 135 138 139 143 147 149 152 157 162 165
171 174 178 180 182 185 189 192 191 192 193 193 192 192 192 192
191 191 189 187 185 183 182 181 180 179 177 175 175 175 175 174
173 173 170 168 170 169 167 168 167 167 166 165 165 165 164 162
163 163 162 162 161 160 159 158 157 157 158 158 157 157 157 154
155 154 154 154 154 154 153 153 153 153 153 153 154 154 153 151
150 152 152 151 150 151 152 152 150 151 151 151 151 150 149 147
151 150 150 150 149 147 147 147 147 149 150 149 148 148 149 150
147 147 147 146 146 146 146 146 147 147 146 145 145 147 147 146
145 145 145 146 146 145 145 146 146 146 146 147 147 147 146 145
145 147 146 147 146 144 146 146 147 147 147 147 145 144 146 148
145 146 147 147 147 146 146 148 147 146 145 146 146 145 144 144
145 145 145 144 145 148 147 144 144 145 145 144 144 144 144 143
144 144 145 145 145 144 142 141 142 143 145 145 144 143 142 142
34 32 35 43 47 46 44 46 50 40 26 22 29 41 67 99
120 134 146 160 168 167 162 156 149 145 139 133 128 123 119 115
114 110 107 106 105 101 98 97 98 97 92 90 88 89 91 85
86 88 86 86 85 83 84 81 80 83 80 81 81 77 77 76
77 74 71 65 59 55 51 46 45 47 48 42 37 39 41 37
33 32 32 32 27 24 24 23 20 23 21 15 13 12 11 11
16 11 11 14 15 12 13 18 18 17 18 21 20 17 27 43
50 61 76 84 85 85 92 101 105 112 118 116 112 111 110 107
103 101 101 103 101 101 104 106 104 102 103 107 106 103 104 108
108 110 115 111 113 108 112 112 116 112 111 115 117 115 115 116
116 118 119 118 117 117 119 121 120 120 120 121 122 123 124 124
123 125 128 131 133 135 138 140 141 148 152 153 156 163 168 169
175 177 181 183 185 187 190 192 191 191 191 190 189 189 188 187
184 185 184 181 179 178 176 174 174 174 172 169 168 169 169 168
165 166 164 162 163 162 161 163 160 160 160 159 159 160 159 158
158 158 157 156 155 155 156 156 156 155 155 154 153 154 154 151
151 151 152 152 152 151 152 152 151 152 151 150 152 154 153 149
151 151 151 150 150 150 150 149 151 152 152 152 152 151 150 148
146 147 148 148 148 148 148 146 146 148 149 147 146 146 148 149
145 146 146 145 144 144 145 147 147 146 145 144 145 146 146 145
145 144 144 146 147 147 145 144 144 144 144 144 145 145 144 144
142 144 143 145 144 143 146 145 146 144 144 145 145 143 143 145
143 142 143 145 143 142 143 142 146 144 144 144 144 143 143 143
144 143 144 144 145 145 145 144 143 143 144 146 147 145 143 142
144 144 144 143 142 142 142 143 141 143 145 146 145 143 142 141
43 49 39 43 57 51 45 51 46 31 24 31 47 69 96 116
130 144 155 163 163 158 154 149 139 136 131 124 120 119 116 112
110 108 106 106 105 101 97 95 96 93 89 90 88 86 88 84
82 84 83 84 84 82 83 81 79 81 80 82 82 79 78 75
77 71 68 67 61 55 48 43 40 42 46 47 45 43 40 38
36 34 35 33 28 25 25 25 25 27 24 18 15 13 12 13
15 12 11 14 14 13 15 20 21 19 18 19 18 17 28 46
54 64 75 81 84 90 98 105 113 117 121 122 120 117 112 107
105 101 102 104 101 102 105 104 106 106 108 109 108 107 109 112
107 108 112 111 112 110 112 112 114 112 112 116 118 117 116 117
116 117 118 118 118 119 121 122 120 121 121 122 122 123 125 126
124 127 130 133 136 139 142 144 146 150 154 156 159 166 170 171
178 179 182 184 185 186 188 188 188 187 186 185 184 183 181 180
177 179 178 174 173 173 171 168 169 169 167 163 162 164 164 162
160 161 160 158 159 158 158 160 156 156 156 155 155 156 155 154
154 153 153 152 152 153 154 154 153 152 152 152 151 153 153 150
149 150 150 151 150 150 151 151 149 149 148 147 149 152 152 151
151 150 150 149 150 150 149 148 147 149 149 148 148 148 148 148
144 145 145 145 146 148 147 145 145 146 146 145 145 145 145 146
144 144 145 144 144 144 145 145 146 144 142 142 143 144 144 142
144 144 144 145 146 145 143 142 144 143 142 143 144 144 144 144
140 143 142 144 144 143 145 144 143 141 141 144 145 143 143 145
146 142 144 146 143 143 144 141 145 144 142 142 142 142 142 143
143 142 143 144 144 142 141 143 143 142 142 145 147 144 142 141
142 143 143 142 142 142 143 144 143 143 143 145 146 145 142 139
48 49 47 50 49 46 51 47 41 29 20 36 70 92 107 122
139 151 158 159 152 146 144 138 129 127 123 117 115 116 114 111
107 106 104 103 101 97 95 93 96 91 88 91 89 84 87 88
85 86 84 87 87 86 87 85 81 83 81 82 82 81 81 76
74 67 64 64 56 47 46 49 49 49 47 48 51 53 52 50
45 43 42 41 35 32 31 30 27 27 23 21 18 14 12 14
14 14 14 13 13 15 18 20 22 22 20 18 18 20 31 45
54 69 80 81 83 93 107 116 124 125 128 130 127 119 113 110
108 104 105 106 103 104 106 104 107 110 110 108 107 108 111 111
110 111 109 112 112 114 113 113 112 113 114 115 116 117 117 116
118 118 118 118 119 119 119 119 119 120 122 122 123 124 126 128
127 129 132 135 138 142 146 149 151 152 155 159 163 167 170 172
178 179 181 182 183 183 183 183 183 182 180 179 179 177 175 173
173 174 172 168 166 166 164 161 161 161 160 158 158 159 157 154
155 157 156 154 154 154 154 156 154 154 154 153 153 153 153 152
153 152 151 152 153 153 153 152 151 150 151 151 150 151 152 149
149 149 149 150 150 150 150 149 147 146 146 147 147 147 148 150
147 146 146 147 148 149 148 148 146 148 148 147 145 146 147 148
145 146 145 143 143 145 144 142 145 144 143 143 144 144 143 143
142 142 141 142 143 143 142 141 145 142 140 140 142 143 142 141
142 142 143 143 142 142 142 142 145 142 141 142 144 144 143 143
142 144 143 144 144 142 143 141 142 141 142 145 146 144 144 147
146 142 142 144 142 143 145 143 144 143 143 143 143 143 142 142
142 141 142 144 143 141 140 142 144 142 141 142 143 141 139 140
138 140 143 145 145 143 141 139 140 140 140 142 144 143 141 138
33 41 35 37 44 42 41 43 41 35 44 71 96 111 125 138
146 152 152 148 140 135 134 126 124 122 118 113 111 110 108 106
103 102 100 97 95 94 93 92 95 91 89 92 89 85 90 92
90 90 88 90 90 88 89 87 85 85 82 82 81 82 83 77
75 64 59 58 51 43 44 48 52 58 56 51 51 56 60 62
49 46 45 43 38 34 32 29 27 25 22 21 20 15 12 14
14 16 15 12 12 16 18 17 18 21 20 18 20 25 34 44
56 71 81 82 84 97 113 121 130 133 137 136 129 120 115 115
109 107 107 107 106 106 106 105 105 109 109 105 104 107 109 107
113 113 109 113 112 116 113 113 113 115 116 115 115 117 116 115
117 117 117 119 120 120 120 120 120 121 123 124 125 127 129 131
131 133 135 138 140 144 148 151 156 155 156 161 165 168 169 171
176 177 178 179 178 178 178 178 178 177 176 175 174 172 170 169
166 166 164 161 160 161 159 156 156 155 154 154 155 154 152 150
153 155 153 151 151 150 150 152 152 153 153 152 151 152 151 150
152 151 150 150 151 151 150 148 150 149 150 150 148 149 149 147
149 148 148 149 149 149 149 148 147 146 146 149 148 145 145 148
146 145 145 146 147 146 146 146 147 149 149 147 145 145 147 148
144 144 143 142 142 143 143 142 144 142 141 142 143 143 141 141
142 140 139 140 142 142 140 138 144 141 139 140 142 143 142 141
140 141 142 141 140 141 142 143 144 141 140 142 143 143 142 143
141 143 142 143 143 141 142 141 142 142 144 144 144 143 144 145
141 138 138 139 139 141 142 142 143 142 143 145 145 144 143 142
142 141 141 143 143 142 142 143 144 142 140 140 141 141 141 141
139 140 142 142 142 141 139 139 136 138 140 141 140 140 140 141
32 25 26 34 36 41 49 45 44 46 73 100 106 117 136 143
149 147 144 140 132 127 127 120 120 117 113 110 107 105 103 101
101 100 98 96 96 97 96 95 88 89 90 91 88 86 91 91
90 90 87 90 90 88 88 87 87 87 85 84 83 83 83 74
73 62 54 51 48 45 46 46 44 55 61 59 59 57 56 58
51 46 44 42 38 35 34 32 30 29 24 20 18 16 14 15
15 17 16 12 12 16 18 16 16 19 20 19 21 25 34 44
59 67 76 82 90 104 117 125 135 140 142 138 130 124 119 116
109 109 106 105 107 107 106 106 106 109 109 108 108 110 111 110
112 112 112 113 113 114 113 113 116 115 115 116 117 117 116 116
117 117 118 120 122 122 123 123 123 124 125 126 128 130 133 135
136 138 140 141 143 146 149 152 155 156 157 160 163 166 167 167
169 171 172 172 171 171 171 172 171 170 170 170 169 166 165 165
158 157 156 156 157 156 155 153 153 151 151 153 154 151 150 150
151 152 150 149 150 149 149 150 150 151 151 150 149 150 149 148
150 149 148 148 148 147 147 146 147 147 148 147 145 146 148 146
146 146 147 147 147 147 147 147 146 146 147 147 146 145 145 145
146 145 145 146 146 144 143 143 143 144 144 143 142 142 143 143
143 142 142 143 143 142 142 143 142 140 139 141 142 141 141 141
143 141 139 140 142 142 140 138 142 140 139 140 141 142 142 142
141 142 142 140 139 140 141 142 141 140 140 142 142 141 142 144
141 142 140 141 141 140 142 141 141 143 143 142 141 141 141 141
140 140 139 139 142 142 141 143 142 142 142 144 144 144 143 144
142 141 141 142 143 143 143 143 142 142 142 141 141 142 143 142
141 141 140 139 138 138 140 142 138 140 141 141 139 139 140 142
40 32 34 38 38 43 55 62 64 77 96 111 119 130 143 151
145 140 136 134 124 117 119 116 114 111 108 107 105 103 101 100
95 95 94 94 96 97 95 92 84 91 95 96 92 92 95 91
94 94 92 95 96 93 94 92 93 94 94 95 92 91 88 76
68 61 54 46 42 45 52 56 60 59 57 61 68 65 61 65
58 51 47 44 42 42 43 42 35 35 27 19 16 16 17 18
16 17 16 13 14 17 18 16 20 22 21 19 19 22 31 42
57 64 75 86 97 110 124 135 143 148 146 137 131 128 121 112
109 110 106 105 108 109 107 108 103 104 106 108 110 111 112 112
110 111 115 113 115 113 115 115 116 113 112 116 118 116 115 117
120 120 121 123 123 123 124 125 125 126 127 129 131 133 136 138
140 142 144 145 146 147 150 152 151 155 157 156 159 163 165 163
164 165 167 167 166 165 166 167 164 163 163 163 162 160 159 160
155 154 153 155 155 153 150 149 151 149 149 152 152 149 149 151
148 149 147 147 149 149 148 150 148 149 149 148 148 148 148 147
149 149 148 147 146 146 146 147 145 145 146 145 142 144 147 147
143 145 146 146 145 145 145 146 144 145 144 142 142 144 145 143
144 143 144 145 144 143 142 143 141 142 143 143 143 144 143 141
143 143 143 145 143 140 140 141 141 139 139 140 141 141 141 142
143 141 139 139 140 141 140 138 141 140 140 141 141 140 141 143
141 142 142 139 137 138 139 139 139 139 141 142 142 140 141 145
143 143 139 139 139 137 140 139 141 143 143 140 139 141 141 139
140 142 140 140 143 141 139 142 143 141 140 140 141 142 144 145
143 142 142 141 141 142 142 141 141 143 144 141 140 141 141 139
138 140 141 141 139 138 140 143 143 141 140 139 140 141 140 139
41 37 38 47 45 46 64 70 84 95 110 125 136 142 142 140
136 134 131 126 121 120 117 111 113 108 107 108 103 102 101 98
98 92 94 96 92 94 97 94 89 96 94 92 97 96 92 93
96 96 97 98 99 100 101 101 98 101 102 103 102 99 93 81
73 59 47 44 44 49 53 52 55 60 63 66 71 73 71 70
66 57 50 47 44 42 43 43 38 28 25 24 18 18 20 16
17 17 16 15 14 15 17 19 18 19 21 18 14 19 30 37
50 66 76 85 104 121 132 142 152 156 152 140 132 129 122 114
111 110 109 108 108 111 111 105 109 109 108 108 110 112 113 111
111 113 115 116 116 115 114 114 113 116 115 114 117 119 117 116
117 121 122 121 121 125 128 129 131 132 133 134 136 139 140 139
143 143 144 145 147 149 151 152 152 152 154 155 155 154 155 157
156 159 161 160 160 161 161 158 159 159 159 157 157 156 154 151
152 152 152 151 151 150 149 148 153 150 148 149 149 149 149 150
147 146 147 149 146 142 144 149 146 144 143 145 146 146 146 146
145 146 147 146 145 144 143 143 145 146 145 144 145 145 142 140
143 146 147 143 142 145 143 139 142 140 139 140 142 144 144 144
140 142 141 139 138 140 140 139 138 139 141 138 141 142 136 139
141 140 139 139 139 139 139 139 140 137 137 141 142 139 137 137
138 140 141 140 139 139 140 140 143 141 139 139 139 139 140 140
141 139 139 140 139 138 139 142 138 138 139 142 143 141 140 139
140 138 138 139 140 140 139 139 140 140 140 140 139 138 138 139
141 138 138 141 141 138 137 139 142 141 142 142 139 140 141 141
144 144 141 140 142 142 144 148 141 142 142 141 140 140 141 141
142 142 138 138 141 142 142 136 136 139 140 140 141 139 138 139
34 34 40 49 54 55 68 91 102 112 126 136 141 142 139 135
130 126 123 120 117 115 114 111 108 103 104 104 101 100 100 97
98 93 95 97 94 95 99 96 92 98 98 97 100 103 103 106
102 102 103 104 106 108 109 109 112 111 109 112 110 105 98 87
76 64 44 42 54 50 44 55 60 65 66 65 65 66 65 64
58 52 44 41 39 38 36 37 35 32 32 29 23 22 21 16
16 16 15 14 13 13 15 17 17 18 19 18 15 18 27 35
50 62 75 91 115 132 142 151 155 155 152 144 137 131 124 118
114 109 108 108 108 110 111 110 112 112 112 112 113 115 115 114
114 115 116 116 116 115 115 115 116 117 116 117 119 119 118 120
121 120 122 126 128 129 131 135 136 136 136 135 137 140 143 145
147 147 147 147 148 149 150 151 151 152 153 152 152 153 153 152
152 154 155 154 154 155 155 154 155 152 152 153 154 152 150 149
148 148 148 148 149 150 150 150 152 149 148 149 150 148 147 146
145 146 147 146 145 144 145 147 146 145 145 145 145 144 143 144
144 144 144 143 143 142 141 141 141 141 142 142 142 143 143 142
143 142 142 142 142 141 140 140 142 142 141 142 143 142 140 138
140 140 139 138 137 137 136 135 137 137 139 138 139 141 137 139
138 139 139 137 136 138 140 140 138 136 136 139 141 140 138 138
139 140 141 139 138 138 138 138 140 139 138 138 137 137 138 140
140 139 139 139 139 138 139 140 139 139 139 139 139 139 140 140
140 138 138 139 140 140 139 139 139 139 139 139 138 138 138 138
141 140 139 140 140 140 140 140 137 137 140 142 140 140 141 140
142 143 142 142 144 143 142 145 139 140 141 142 142 142 142 143
143 143 138 138 139 138 140 137 136 137 137 137 140 140 140 141
24 35 53 52 56 80 98 108 120 127 136 141 141 137 132 128
126 120 117 117 114 110 109 108 106 103 104 104 103 102 102 100
99 95 97 100 98 100 103 101 101 105 108 106 105 106 109 111
112 112 113 115 118 121 123 124 126 125 124 127 122 111 102 92
82 72 57 50 53 53 52 53 58 62 62 59 61 64 62 57
55 50 38 32 35 37 38 42 36 39 40 34 28 25 21 17
17 17 15 13 11 11 12 14 12 12 14 15 15 19 30 41
51 65 82 104 126 140 147 155 159 155 151 147 141 132 124 121
120 113 111 114 113 111 114 116 114 115 116 116 116 117 118 117
117 117 117 117 116 116 116 116 118 118 118 120 122 120 120 124
123 122 124 129 133 133 135 137 140 140 140 138 139 143 146 148
148 148 148 148 148 148 148 148 149 151 151 148 148 150 150 146
148 149 149 147 148 150 151 150 151 147 146 150 152 150 148 149
148 147 146 146 147 148 148 148 148 147 146 147 147 146 144 143
145 147 146 144 142 143 143 141 143 144 144 144 142 140 141 142
141 141 141 142 142 141 139 138 139 138 140 141 139 141 144 142
141 140 139 139 139 139 139 140 140 140 140 141 142 140 137 135
139 138 137 137 136 134 133 133 135 134 137 137 136 138 138 138
136 139 140 137 136 137 139 139 137 136 135 136 138 139 139 137
137 138 138 137 137 138 138 137 137 138 139 138 136 135 137 140
138 139 139 138 138 138 138 136 139 140 140 137 137 139 140 141
139 138 138 139 139 139 138 138 139 139 138 139 139 140 139 138
142 142 140 138 138 139 139 138 137 137 140 141 140 140 141 140
138 140 140 141 142 140 139 141 139 139 140 141 142 142 142 143
142 142 139 139 139 136 139 138 138 138 136 136 140 140 138 139
37 39 48 58 80 110 121 122 131 134 137 137 135 131 127 125
123 118 116 115 112 109 107 106 105 104 103 103 102 102 103 102
101 99 102 105 104 106 109 109 105 110 115 117 115 117 121 121
124 125 126 129 133 137 140 141 142 142 140 138 128 116 108 99
88 78 72 61 49 52 58 53 57 59 59 60 66 72 68 56
52 48 36 29 36 40 42 47 41 45 43 38 34 29 25 22
21 19 16 13 10 10 10 11 13 13 14 15 15 17 27 40
57 77 101 122 139 150 157 165 165 159 153 149 143 134 126 123
125 120 119 122 120 118 120 122 120 121 123 122 122 123 123 123
122 122 122 121 120 119 119 120 119 120 120 121 123 122 122 127
124 128 130 131 134 138 138 136 140 142 143 142 142 144 147 148
146 147 148 148 148 147 147 147 147 148 147 146 146 147 145 142
146 145 144 143 145 148 148 146 148 145 145 147 149 148 147 148
148 147 147 146 145 145 144 144 144 144 143 143 143 143 143 144
145 145 144 141 140 140 139 137 138 140 141 140 138 137 139 141
138 139 141 142 142 141 138 136 139 135 139 140 137 139 143 139
136 140 140 136 136 140 140 137 136 136 136 137 138 139 138 137
137 136 135 135 132 128 129 132 132 131 135 137 135 136 138 136
135 139 140 137 135 137 137 135 137 137 137 135 136 137 137 137
136 136 136 136 137 137 136 136 137 138 139 139 137 136 137 140
137 138 137 136 137 138 137 135 137 139 140 137 137 139 140 138
138 138 138 138 138 138 138 137 139 138 137 138 140 140 139 138
141 141 140 139 138 137 137 137 140 139 140 139 137 139 141 142
140 142 141 141 142 140 140 143 140 140 140 140 140 140 141 141
138 139 139 142 141 137 139 140 138 139 137 138 141 140 137 136
43 51 46 67 111 128 129 137 139 138 136 134 131 128 125 123
119 115 113 112 109 110 110 107 108 107 105 104 104 105 106 107
106 106 108 111 111 113 115 117 118 121 127 130 130 132 134 134
140 141 142 145 149 153 156 157 161 159 151 143 132 123 117 106
93 82 74 65 51 45 50 55 56 57 60 62 66 71 64 49
43 42 34 31 38 41 40 45 46 47 45 43 41 36 30 29
23 21 18 13 10 9 9 9 12 13 14 16 21 26 39 55
86 106 129 143 153 161 167 170 169 163 156 151 146 140 134 130
130 128 128 128 126 127 129 129 130 132 133 133 133 133 133 133
131 131 130 129 127 125 123 123 121 123 123 122 124 125 125 128
128 132 135 135 137 140 140 139 140 143 144 144 143 144 146 146
145 146 147 147 147 146 146 146 144 142 142 143 144 142 140 140
143 142 140 141 144 146 145 142 145 145 145 145 145 145 146 146
144 145 146 146 145 144 143 143 141 142 143 142 141 141 142 143
141 139 138 140 140 139 138 138 135 137 137 136 134 135 137 140
137 138 140 141 140 138 138 137 139 134 137 139 136 138 140 135
134 138 139 135 135 139 138 134 134 134 134 134 136 137 138 138
134 134 133 130 125 121 124 130 130 130 135 138 135 136 138 135
135 137 137 134 134 136 136 134 136 138 138 136 134 135 136 137
138 138 137 137 136 135 134 134 137 137 138 138 137 135 136 137
136 137 136 135 136 138 138 135 135 137 138 136 137 139 138 135
138 138 138 138 138 138 138 138 138 137 137 138 139 140 139 137
139 138 139 141 140 137 138 141 140 139 139 138 136 137 140 141
141 142 141 141 141 140 139 143 140 140 140 140 140 140 139 139
136 138 138 142 141 138 140 141 137 138 137 137 140 139 137 138
44 52 57 92 132 140 141 144 143 140 136 133 129 125 121 120
119 115 112 110 108 111 112 110 112 113 110 109 111 113 114 116
116 117 118 120 121 122 125 128 136 138 140 142 145 147 148 149
158 159 161 163 165 168 170 172 176 171 160 151 141 132 121 104
97 81 73 64 47 44 51 50 52 55 61 61 58 58 53 41
37 34 29 29 37 41 44 50 51 49 48 47 43 36 31 28
23 21 17 14 11 11 11 12 13 14 13 18 34 54 77 100
122 136 150 158 164 171 174 172 169 165 158 153 150 147 143 140
136 135 135 133 132 136 139 137 139 141 142 141 140 140 140 140
138 138 137 134 131 128 126 125 125 127 126 124 126 127 128 129
132 131 134 138 139 138 139 142 141 142 143 142 142 143 144 145
143 144 145 144 143 142 142 142 140 138 138 141 141 138 137 139
141 140 139 140 143 144 143 141 143 145 146 144 143 144 144 144
143 144 145 145 144 143 142 141 140 142 143 142 140 140 139 139
139 136 136 138 139 138 137 137 135 136 136 134 133 134 136 137
137 138 138 137 135 135 137 139 139 135 136 139 138 139 139 136
135 135 135 136 136 135 134 134 134 134 134 135 135 136 135 135
133 133 132 128 122 118 121 126 128 132 135 139 137 135 138 135
137 136 135 133 135 137 137 136 135 136 137 136 135 134 136 137
138 137 137 137 136 135 135 135 136 135 135 136 135 134 134 135
137 137 136 136 136 137 137 137 136 137 136 135 137 139 138 136
138 138 138 138 138 139 139 138 139 139 139 139 140 140 139 138
138 137 138 141 140 136 137 140 139 138 140 140 138 139 141 140
138 140 140 140 140 138 137 139 138 139 140 141 142 141 139 138
138 139 137 140 139 137 140 140 138 139 137 136 138 137 137 139
56 48 77 129 152 150 147 143 142 139 135 131 127 123 121 121
123 118 117 117 116 117 119 118 118 121 119 119 123 126 127 130
132 134 135 137 140 142 145 149 151 154 154 157 164 168 169 172
174 176 179 180 181 182 185 188 186 180 169 158 144 129 116 100
98 82 74 62 43 44 53 48 57 57 62 60 53 51 49 40
32 26 22 25 32 39 48 57 56 54 54 50 40 33 29 23
22 20 18 15 15 16 17 18 26 28 27 37 62 89 115 137
146 154 164 171 175 180 182 180 172 167 162 158 156 152 149 147
145 145 145 143 143 146 148 145 147 148 148 147 146 145 144 143
142 141 140 137 134 132 130 129 130 129 127 127 129 128 128 131
133 131 133 136 138 138 138 140 140 140 141 140 140 141 142 142
141 141 142 141 140 139 139 139 137 136 138 139 139 137 137 138
139 139 140 140 141 141 142 142 143 143 144 144 144 143 143 144
143 142 142 142 142 142 140 138 141 141 141 139 138 138 137 135
137 136 135 135 136 136 134 132 134 135 134 134 134 136 136 135
136 136 136 135 134 134 136 138 138 136 136 137 138 137 138 138
135 135 135 135 134 133 133 133 134 134 134 134 135 135 134 134
133 133 131 127 123 122 123 124 128 134 135 138 138 135 136 136
138 136 134 135 137 137 137 137 135 134 134 136 136 134 134 136
135 135 135 136 136 135 135 137 136 135 135 136 135 134 135 136
136 136 136 137 137 136 136 136 135 135 135 136 136 137 137 137
136 137 138 137 138 139 139 138 140 140 140 140 140 139 138 138
139 138 138 138 138 137 137 138 138 138 141 141 139 139 140 139
140 142 143 143 142 140 138 140 138 138 139 140 141 141 141 140
139 140 138 139 139 138 139 136 140 140 139 137 138 138 137 139
48 68 119 151 154 150 145 145 141 138 134 131 128 126 126 128
125 120 121 127 128 126 127 128 129 134 133 134 140 143 144 147
147 150 152 155 158 161 165 170 170 174 171 173 181 182 180 185
184 187 190 192 192 193 196 199 194 187 174 159 138 118 109 102
96 86 69 57 51 40 42 57 61 57 58 55 48 47 46 37
26 19 18 24 29 35 46 54 59 59 60 52 38 33 31 23
21 20 18 18 18 21 23 25 30 37 44 62 92 118 138 153
167 172 180 185 183 182 181 180 178 172 166 164 161 155 151 151
153 152 153 153 153 154 153 150 155 155 154 152 151 150 149 147
144 143 142 140 137 136 134 134 133 129 126 129 131 128 128 133
133 134 134 134 136 139 139 137 137 138 139 139 140 140 140 138
139 140 141 141 140 139 139 140 135 137 139 139 138 138 138 137
137 138 139 139 138 138 140 143 142 140 141 144 144 142 142 144
142 140 138 139 141 142 140 137 141 140 137 135 135 137 136 134
134 136 135 132 132 135 133 129 132 133 133 134 135 137 136 134
134 134 135 135 135 135 135 135 136 135 134 134 135 134 134 137
134 137 136 132 131 134 134 131 133 133 132 133 133 134 135 135
132 132 129 126 125 127 125 123 128 135 134 136 138 133 135 136
137 134 134 137 138 136 133 133 136 133 133 136 136 134 133 134
134 134 135 135 134 132 133 135 137 137 137 137 137 136 137 139
135 135 136 137 136 134 133 135 132 132 134 135 135 134 134 136
135 136 137 136 137 138 138 138 138 139 139 139 138 137 136 136
140 139 137 137 139 141 140 139 138 138 140 140 138 138 139 138
140 142 142 141 141 138 137 140 139 138 137 137 138 140 141 142
138 141 139 140 141 140 139 134 138 139 139 139 141 141 140 141
47 104 148 161 159 151 146 148 143 143 142 140 136 134 136 139
137 136 138 138 136 140 144 143 144 150 153 153 156 159 161 162
168 166 167 171 175 178 179 180 186 188 188 188 190 194 196 195
197 199 200 201 202 204 204 202 197 192 181 162 137 115 105 104
92 81 66 50 42 36 45 56 60 58 56 51 45 40 34 26
19 20 20 21 25 32 44 56 63 62 55 51 40 38 30 24
24 23 21 22 25 28 33 40 46 49 63 94 119 135 154 168
178 183 185 185 186 183 178 176 178 174 170 167 162 158 156 157
153 154 156 157 157 156 155 155 156 154 151 149 150 150 148 145
146 145 142 140 138 136 135 135 134 132 130 130 131 130 129 128
128 132 135 134 135 136 137 135 134 137 139 137 136 137 138 138
140 137 136 137 139 139 138 139 138 135 134 136 137 137 138 140
136 139 140 139 139 141 142 140 142 140 142 138 137 140 137 139
138 136 137 138 136 136 138 139 136 137 136 135 135 136 136 135
135 135 134 132 132 132 130 127 131 131 131 132 133 133 132 131
133 132 133 134 136 135 134 134 133 132 136 135 134 134 132 135
134 136 134 131 134 136 134 133 133 131 130 132 134 134 134 134
132 134 133 128 127 129 130 128 130 134 137 136 134 134 135 137
136 134 133 135 136 135 134 133 131 132 131 132 134 134 134 137
136 135 135 135 135 134 134 135 134 133 135 137 135 133 134 139
137 134 133 135 136 133 133 136 134 132 135 136 132 133 138 138
135 134 134 135 136 136 137 139 136 136 137 138 138 136 136 138
136 139 139 139 140 139 138 139 137 138 139 140 139 138 139 141
140 141 139 139 142 142 140 140 136 139 141 139 138 139 141 141
139 140 140 140 140 142 141 139 139 138 138 140 141 141 140 140
87 139 165 167 163 157 157 151 155 152 149 149 149 148 147 148
153 150 151 153 155 160 163 160 163 169 171 171 173 176 177 179
182 182 183 186 188 189 190 191 194 196 196 196 198 202 204 203
204 206 206 206 207 208 208 207 203 195 183 168 147 121 99 88
77 65 59 57 53 40 44 55 56 54 52 47 42 39 32 23
19 17 14 16 23 30 38 47 52 59 61 55 45 39 32 29
28 24 22 26 32 35 42 52 58 66 83 111 133 150 169 182
185 188 187 186 186 183 178 175 176 173 171 169 166 163 161 161
158 157 157 157 157 157 156 155 154 153 151 149 148 147 146 144
145 144 142 141 140 138 136 135 135 134 132 132 133 133 132 130
131 132 133 132 132 134 136 136 135 138 139 136 135 136 137 137
136 137 139 139 137 135 137 140 136 134 133 135 135 135 135 137
137 139 140 139 140 142 142 140 140 139 141 137 137 139 136 137
139 137 137 138 135 135 136 135 137 136 135 134 134 133 133 133
131 131 131 130 130 130 129 128 130 130 131 132 133 133 132 132
133 132 132 133 133 133 133 133 133 131 134 133 133 133 132 135
132 133 132 131 133 133 132 133 132 131 131 133 135 135 136 137
131 134 134 131 130 131 132 131 130 132 133 134 135 136 135 134
137 134 133 134 135 134 133 132 133 134 133 133 135 134 133 135
132 133 135 136 135 133 132 133 134 136 136 133 132 134 136 136
135 132 132 133 134 133 134 136 136 135 136 136 132 132 136 136
136 135 135 136 137 136 137 138 137 137 137 138 138 137 137 138
137 140 139 138 139 140 140 142 139 140 141 141 139 138 139 142
140 141 140 140 142 141 140 140 140 139 137 137 139 142 142 141
141 140 140 141 142 143 142 141 139 139 140 141 142 140 139 139
138 175 180 176 171 167 173 165 165 163 161 162 164 164 164 163
167 167 170 171 171 174 178 177 179 183 185 185 187 189 189 191
193 193 195 198 200 200 201 202 202 203 204 204 206 209 210 208
210 210 211 210 210 211 211 211 209 201 191 181 165 141 115 99
92 82 81 84 81 64 58 61 68 62 54 44 36 33 27 19
17 14 10 12 19 25 33 42 57 56 52 50 52 45 36 33
34 31 28 31 38 44 51 59 68 84 104 127 146 161 178 188
185 186 184 182 183 181 177 175 174 172 169 168 167 164 161 159
159 157 155 154 154 154 152 151 149 149 148 146 144 143 142 141
141 140 140 139 139 138 135 133 134 133 132 132 132 133 132 131
132 131 131 131 131 131 133 135 132 135 136 135 135 136 137 137
134 136 138 138 135 133 135 138 138 136 136 137 137 136 136 137
136 136 136 136 137 139 139 136 139 137 138 136 136 137 134 134
134 133 135 136 134 134 135 134 136 134 132 133 132 131 130 131
129 129 129 129 129 129 130 131 129 130 131 132 132 132 131 131
132 131 131 132 131 131 132 133 133 130 132 131 131 132 131 134
132 134 133 132 134 133 132 134 133 133 132 133 133 133 133 133
131 132 134 134 133 132 132 133 130 132 133 133 134 135 134 132
136 134 133 133 134 134 133 132 134 134 133 133 135 133 132 134
130 132 135 137 135 133 132 133 134 135 134 133 132 134 136 136
134 133 133 133 134 135 137 137 137 136 138 137 134 135 137 137
135 135 135 136 137 137 137 138 138 137 137 138 138 138 138 138
138 139 139 138 139 139 139 141 140 140 141 141 140 139 140 143
141 142 141 140 141 140 139 140 140 140 140 140 140 140 142 144
142 140 140 142 143 142 141 142 141 141 141 142 141 140 139 140
177 192 188 185 183 179 183 183 176 177 177 178 177 178 179 180
179 183 186 186 183 184 188 190 192 196 197 196 198 199 200 201
200 200 202 204 206 207 207 208 207 208 209 209 210 211 212 211
210 211 212 212 213 213 214 214 213 208 202 194 181 164 148 138
132 126 125 122 118 103 91 79 81 73 61 47 35 30 24 16
14 13 11 11 16 22 32 44 51 55 61 62 63 45 37 40
40 39 35 36 44 52 58 63 76 97 118 138 153 165 178 181
180 180 177 176 177 175 172 172 170 167 164 163 162 160 157 155
157 155 152 150 149 148 147 145 143 144 143 141 140 139 138 137
136 136 136 136 136 136 134 133 132 131 130 130 131 131 130 129
131 129 130 132 132 130 131 133 131 133 135 136 136 137 137 136
137 136 135 135 136 136 136 137 136 135 135 135 135 134 134 135
136 136 136 136 137 138 138 137 137 136 135 134 135 135 133 132
129 129 131 134 133 133 133 133 133 130 129 132 132 130 129 131
130 129 129 130 129 128 129 133 129 131 132 132 131 130 129 129
132 131 132 132 131 130 131 132 133 130 131 131 131 132 130 132
133 136 134 131 132 133 133 133 134 134 134 134 132 131 130 131
132 131 132 133 133 131 130 131 130 133 135 134 132 131 132 133
133 132 132 132 132 133 133 133 134 134 133 132 133 132 131 133
132 133 134 135 134 133 134 135 134 131 132 136 137 134 135 138
134 135 135 134 135 138 138 137 136 137 138 138 136 137 138 137
134 134 134 136 137 138 138 138 138 137 137 138 139 139 139 138
137 139 139 139 140 138 136 139 139 139 140 140 140 140 141 143
142 143 142 141 141 140 139 140 140 141 143 144 142 139 141 144
143 141 141 143 143 140 140 142 143 143 143 142 141 140 141 142
201 199 197 195 195 193 190 195 192 192 193 192 192 192 192 193
195 196 196 197 199 201 201 200 201 204 205 205 207 207 207 209
210 208 208 210 211 212 212 212 211 213 215 214 213 213 214 214
212 213 215 216 216 216 216 216 216 213 209 202 192 182 174 171
165 160 159 153 150 139 123 102 83 76 66 54 41 32 24 16
14 12 9 9 14 20 31 44 48 61 72 70 69 54 47 48
42 40 38 43 52 58 65 73 92 111 129 145 158 169 177 176
175 175 173 171 170 167 165 165 163 160 157 155 155 155 153 151
151 150 149 147 145 144 142 141 139 139 138 137 137 137 136 134
134 134 135 135 134 134 135 136 131 131 130 131 132 132 131 130
131 129 130 134 134 132 132 134 135 136 136 136 136 136 136 136
138 137 135 136 138 138 137 136 134 134 134 135 135 134 134 134
135 135 135 136 136 136 135 136 136 135 132 132 133 132 132 131
129 129 131 133 131 130 130 129 130 128 128 131 133 130 129 130
129 128 129 129 128 126 127 130 129 130 131 131 130 129 129 129
131 131 132 132 131 130 130 132 132 130 132 132 132 132 129 130
131 135 133 127 128 133 133 130 132 132 133 134 133 132 132 134
132 130 129 132 133 131 130 131 131 133 134 132 130 131 132 134
131 132 132 131 131 131 132 133 134 134 132 131 133 132 132 135
134 132 132 133 133 133 134 135 134 131 131 136 137 134 134 138
133 135 136 135 135 137 136 133 134 137 138 137 136 136 135 134
135 135 135 136 137 139 139 138 137 137 137 137 138 139 139 138
138 139 139 140 141 138 137 140 140 139 139 140 141 142 142 142
141 142 141 140 141 141 140 142 143 141 140 143 145 143 142 142
145 143 144 145 143 140 140 144 143 144 144 143 142 142 143 143
211 207 209 204 205 207 201 204 203 202 201 201 204 205 205 203
205 207 206 205 207 207 206 207 206 208 209 209 211 211 210 212
214 213 212 213 215 215 215 216 215 216 217 217 216 216 216 217
215 216 217 219 218 217 216 217 219 217 214 210 205 199 194 191
189 183 183 179 174 160 141 118 90 79 67 56 43 32 25 19
15 11 6 8 14 20 30 41 53 65 69 64 71 72 61 46
43 37 37 49 58 60 70 86 107 122 136 149 160 168 173 171
167 167 165 163 162 159 157 158 158 156 153 150 149 149 148 147
145 144 143 142 141 140 139 138 136 136 135 135 136 136 135 132
133 133 134 133 132 133 135 136 131 131 131 131 132 132 131 130
131 129 129 132 132 131 132 135 136 135 134 133 134 135 136 136
133 135 136 136 136 135 134 134 134 134 134 134 134 134 134 134
132 132 133 134 134 132 131 133 134 133 130 131 131 129 131 130
130 129 131 132 130 129 129 128 129 128 128 131 132 130 128 128
128 128 129 129 128 126 126 128 128 128 129 129 129 129 129 129
131 131 131 132 131 130 130 131 132 130 133 132 132 132 129 130
129 134 131 126 128 133 134 132 131 131 131 132 132 132 132 133
132 130 130 132 133 132 132 132 131 131 130 130 131 133 133 132
132 133 133 132 130 130 131 131 134 134 132 131 133 133 133 136
134 133 133 134 136 135 135 135 134 133 133 133 133 134 135 135
133 135 136 136 136 136 134 132 133 137 137 135 137 137 135 135
135 135 135 135 136 137 137 136 136 137 137 137 138 139 138 137
137 138 137 138 140 139 139 143 141 140 140 142 143 142 142 142
140 141 140 140 142 142 142 144 143 142 141 142 143 143 144 146
145 144 145 145 143 141 142 145 143 145 146 146 146 145 144 143
216 216 216 212 213 215 212 211 209 209 208 208 210 213 213 212
210 214 214 211 210 209 209 213 212 214 214 214 216 215 214 216
215 214 215 216 217 216 216 217 217 217 217 217 218 218 218 218
217 218 219 220 219 217 217 218 221 220 218 217 216 214 211 208
208 202 204 200 190 171 150 125 98 81 64 53 41 30 24 21
17 13 10 12 17 22 32 44 49 65 71 69 69 73 60 41
42 38 39 49 59 66 80 98 115 127 139 150 157 160 164 162
158 158 155 155 155 153 151 152 152 151 148 144 143 143 143 142
139 138 137 137 137 138 137 136 135 134 134 133 134 135 133 131
133 133 133 132 132 132 133 134 131 131 131 131 132 131 130 130
130 129 129 130 130 131 132 134 134 133 132 132 133 134 134 134
131 133 134 132 131 131 131 131 130 130 131 130 130 130 130 131
133 132 132 135 135 132 131 132 130 131 128 130 130 127 130 129
128 127 129 131 130 129 130 130 129 128 128 129 130 130 129 127
126 128 129 129 128 128 128 127 128 128 128 128 129 129 129 129
131 129 129 130 130 130 130 131 131 130 132 132 131 131 129 132
130 132 131 129 131 133 133 134 133 131 130 130 131 130 130 130
131 132 132 132 132 131 132 132 130 130 130 130 132 133 133 131
133 134 133 132 131 132 131 130 133 133 132 132 134 132 132 134
134 133 134 135 136 135 134 135 134 133 133 133 133 133 134 135
134 135 136 137 137 136 135 133 133 137 136 134 137 138 136 137
136 136 135 134 135 137 137 135 136 137 138 138 138 138 137 136
136 137 137 138 140 139 140 144 140 141 142 143 143 142 142 143
143 143 142 142 144 145 144 145 143 145 146 144 142 143 146 149
145 145 145 146 146 146 147 147 147 148 148 148 148 149 148 146
221 221 217 218 218 215 217 215 214 216 217 215 213 213 215 216
216 218 215 214 218 219 217 217 215 217 216 216 218 217 216 217
219 219 220 220 219 217 216 217 218 217 216 217 220 220 220 219
219 219 220 221 220 218 219 221 221 221 221 220 219 220 219 219
215 213 217 208 195 177 155 127 94 75 59 51 42 31 24 21
17 17 16 18 21 25 36 51 56 66 69 69 63 66 56 43
40 42 44 48 59 75 93 108 119 130 141 153 156 154 156 154
155 153 150 149 151 149 146 148 144 144 143 140 139 140 140 140
137 135 133 134 136 138 137 136 133 134 133 133 133 134 132 130
135 134 133 133 133 133 133 133 131 131 131 132 132 131 130 130
131 131 131 131 132 133 133 134 135 135 135 136 136 134 132 131
135 134 131 128 128 130 131 130 130 131 131 130 129 130 130 130
131 129 129 132 133 130 128 128 128 129 127 130 129 126 129 128
128 127 128 130 129 129 130 130 129 128 127 127 128 130 130 128
123 126 128 127 128 129 129 127 129 128 127 127 128 129 128 128
131 128 127 127 128 129 129 130 131 129 132 131 130 131 130 134
130 131 131 132 133 130 131 135 134 132 130 130 131 131 130 130
130 133 135 133 131 130 130 130 129 132 134 133 132 131 131 131
134 133 132 132 133 134 132 130 132 133 132 133 134 132 130 131
132 132 132 133 132 132 132 133 134 130 132 137 137 132 132 137
134 133 134 136 136 136 135 134 135 139 135 132 135 136 135 136
137 137 136 135 137 139 139 138 136 138 140 139 138 137 137 135
137 138 139 141 143 141 140 144 138 140 142 144 143 142 143 145
147 147 144 144 146 146 145 145 147 148 147 145 146 148 147 145
148 148 147 148 150 152 153 152 152 152 150 148 149 151 151 150
224 221 219 221 222 220 221 224 222 218 218 220 218 217 219 219
218 217 218 220 218 218 220 220 217 219 220 220 219 218 218 219
219 219 218 217 219 221 221 219 221 220 220 221 219 217 217 219
220 220 221 222 221 219 219 221 220 222 222 220 220 221 220 218
219 217 217 206 195 181 158 126 95 70 58 48 36 30 24 26
22 22 23 27 38 54 71 82 79 80 76 69 65 61 52 41
36 38 47 53 70 84 105 116 122 136 147 148 149 149 148 147
148 148 147 143 141 144 146 143 139 139 137 135 134 135 136 135
134 135 133 132 133 133 133 135 132 133 134 133 130 132 133 130
132 131 131 132 131 130 129 129 132 132 132 132 131 131 130 129
130 131 134 129 133 132 136 133 131 133 133 131 132 134 134 132
130 130 130 129 128 127 128 129 128 127 127 126 127 128 129 129
129 129 129 129 128 127 128 130 123 126 131 125 125 131 128 126
125 126 127 129 130 129 127 125 128 127 127 128 129 129 128 127
127 127 126 126 126 127 128 129 131 130 132 130 130 131 128 129
130 129 128 128 128 129 129 129 129 129 130 131 130 127 126 127
130 128 128 130 130 129 130 134 131 132 131 130 132 131 129 130
129 132 132 130 130 132 131 128 129 133 133 129 128 131 132 129
129 128 131 132 132 133 132 134 134 134 133 132 132 134 135 134
132 133 133 132 132 133 133 132 132 132 131 131 132 134 136 136
135 134 135 137 137 136 135 134 135 136 136 136 136 137 136 135
136 136 136 137 137 137 137 137 135 137 135 135 139 139 138 140
137 138 140 140 140 141 142 143 144 144 142 143 146 145 144 146
149 146 144 146 148 149 148 148 148 151 150 148 149 149 148 150
149 152 154 154 154 154 154 154 159 158 156 155 156 157 158 159
225 223 224 226 225 221 221 225 224 220 220 220 219 221 223 224
222 220 221 221 220 219 221 220 219 219 220 220 219 218 219 219
221 221 221 220 220 221 220 219 220 221 221 220 219 219 219 219
221 221 221 222 222 222 222 222 221 220 220 221 221 221 220 220
221 216 219 210 194 174 147 113 87 68 48 42 39 32 26 24
29 30 37 51 69 85 99 107 104 102 92 77 63 54 45 39
39 42 51 61 77 93 111 121 131 138 143 145 148 147 145 144
142 139 138 137 138 141 141 136 136 136 135 134 134 135 134 132
133 134 133 133 135 134 132 133 131 130 131 131 131 133 135 134
134 133 132 132 132 130 130 131 130 131 132 131 129 128 129 130
130 131 132 127 131 132 134 129 130 132 132 130 130 132 132 130
131 131 130 129 128 126 126 126 127 125 124 125 127 129 128 127
126 128 128 127 127 128 128 126 126 123 127 127 127 126 122 124
126 125 124 126 130 131 129 126 127 128 128 128 127 127 127 127
126 127 127 128 128 128 128 128 129 128 131 129 129 129 127 128
130 129 129 129 130 130 130 129 129 129 131 132 132 131 130 131
128 128 129 130 131 131 132 133 131 132 130 130 131 131 129 129
131 129 130 132 132 129 129 131 131 132 132 130 129 130 132 131
131 129 132 131 132 133 131 134 132 133 134 133 133 134 133 132
130 133 135 134 133 133 134 135 132 132 132 132 132 132 132 132
133 133 134 136 136 135 135 135 134 136 137 136 136 136 136 135
135 136 136 137 138 138 138 138 138 139 138 137 139 139 139 140
138 139 141 142 142 143 144 144 145 146 146 147 148 146 145 148
149 147 146 148 150 151 151 151 152 152 150 150 155 158 157 157
155 156 158 159 160 162 163 163 164 163 162 162 163 164 164 165
226 224 225 227 227 224 223 226 226 224 223 222 221 223 224 223
223 221 222 223 222 222 222 221 221 221 221 223 223 222 221 222
222 222 222 222 222 221 221 221 222 223 223 222 222 222 222 220
222 222 222 222 223 223 222 221 221 220 221 223 223 221 219 219
223 215 217 208 190 168 140 104 82 72 46 37 34 25 30 37
38 45 61 84 103 114 120 124 123 117 105 88 71 58 50 47
52 57 66 80 93 109 120 127 135 137 138 140 142 140 137 138
140 136 135 136 136 138 138 135 135 135 134 133 133 134 131 129
131 131 130 130 132 132 129 129 133 130 130 131 130 129 129 128
132 131 132 132 131 129 129 130 131 131 131 130 130 130 131 132
130 131 131 127 130 131 131 127 131 132 132 130 130 130 130 128
126 126 125 125 124 124 122 121 126 125 125 126 128 129 128 126
125 127 126 124 125 128 127 124 127 123 125 127 127 124 121 124
127 125 124 125 128 129 127 125 125 127 128 127 126 125 127 129
125 126 127 127 128 128 129 130 127 127 130 129 128 128 126 127
129 128 128 129 130 130 129 128 129 130 131 132 132 130 130 130
126 129 130 129 130 131 132 131 129 130 129 129 131 131 130 131
130 129 129 132 131 129 129 132 134 133 131 131 131 131 132 134
132 130 133 132 132 133 130 132 132 134 135 135 135 134 133 132
133 134 135 135 134 134 134 133 133 133 133 133 134 133 134 134
134 134 134 135 135 134 134 136 132 134 136 135 134 134 134 134
135 136 137 137 138 139 139 139 137 136 137 138 137 138 141 140
139 140 142 143 143 143 144 145 145 148 148 148 148 146 147 150
151 150 150 152 153 153 153 154 159 158 155 156 161 165 164 163
164 164 164 164 166 168 169 169 169 169 169 169 170 171 171 171
230 228 225 225 226 225 224 222 225 225 226 224 222 223 223 220
222 221 223 225 223 222 222 221 222 221 222 223 223 221 221 221
222 220 220 222 223 222 222 223 223 222 222 223 223 222 221 220
221 222 222 222 223 223 221 219 218 219 220 221 220 218 216 214
222 215 216 205 187 168 140 99 81 64 39 34 36 33 38 44
54 67 88 107 119 125 129 133 133 125 114 103 92 81 72 67
72 80 88 103 110 122 125 130 134 138 138 138 138 136 135 137
138 135 135 135 133 132 134 134 133 133 131 131 132 132 130 128
132 132 131 129 131 131 130 131 129 128 130 134 133 132 131 130
129 129 131 131 130 128 127 127 132 130 128 130 132 134 132 130
131 130 130 129 130 130 130 129 130 131 131 129 129 129 128 126
125 125 124 124 124 125 124 122 124 126 128 128 126 125 125 126
126 126 124 122 123 125 127 126 126 125 125 125 126 126 125 125
125 126 126 126 124 124 125 126 124 125 127 126 125 125 127 129
124 125 125 125 125 127 129 131 127 126 129 128 128 129 126 127
127 127 126 127 128 128 128 127 129 130 130 131 131 129 128 128
128 129 129 129 129 130 130 130 129 131 131 130 131 131 130 132
129 131 131 130 129 130 131 131 133 133 132 131 130 130 132 134
132 130 133 132 133 133 129 130 132 133 134 134 134 134 134 133
134 134 133 134 136 136 133 130 134 133 133 133 133 133 135 137
136 135 134 134 134 133 133 134 133 134 135 135 134 134 134 134
136 136 137 137 137 139 140 140 139 136 137 139 138 140 143 141
140 141 143 145 145 145 146 147 147 149 149 149 150 149 150 155
154 154 155 157 158 158 158 160 163 165 164 163 166 168 168 169
171 170 169 170 171 173 173 173 175 175 175 176 177 177 176 176
226 227 226 225 226 229 228 225 225 226 227 226 223 225 225 223
227 225 227 227 225 224 225 225 225 224 224 224 223 222 222 223
223 222 221 222 224 224 224 224 222 221 221 223 224 222 220 221
221 222 223 223 223 223 222 221 218 222 223 222 220 220 219 218
216 213 214 201 184 166 136 92 71 48 38 38 39 42 47 55
78 92 108 118 126 134 140 143 138 129 120 114 107 99 92 89
91 98 104 115 118 125 125 128 134 138 137 134 134 134 134 135
133 130 131 132 130 130 131 130 130 130 129 129 130 130 130 128
128 130 129 128 128 127 127 129 126 126 129 132 130 128 129 129
129 130 130 131 129 128 127 128 130 129 129 130 131 131 130 128
131 129 128 131 131 129 129 132 128 129 129 128 127 127 126 125
126 125 124 122 122 123 123 121 122 123 125 125 124 123 122 122
126 124 123 124 123 123 124 127 126 125 123 124 125 125 127 127
122 124 126 126 125 124 125 126 125 125 126 125 124 124 126 128
125 125 125 125 125 126 128 129 128 126 129 128 129 130 127 127
129 127 126 126 127 128 128 128 129 129 130 130 130 130 130 129
131 128 128 130 130 129 130 132 129 132 132 131 130 129 129 131
130 131 131 130 129 130 131 131 129 132 133 130 129 130 131 131
132 130 132 131 132 133 130 130 130 130 131 132 132 132 132 132
131 131 132 133 135 136 135 132 134 133 132 132 131 130 132 134
136 134 132 133 133 133 133 133 136 136 136 136 137 138 138 136
137 138 137 135 136 138 140 140 144 140 141 142 141 143 145 142
142 143 145 147 147 147 148 150 149 151 152 154 156 156 156 159
157 158 160 163 164 165 166 168 166 169 169 169 173 174 174 175
174 174 175 177 179 180 181 181 183 183 183 183 184 183 183 182
223 226 228 229 229 229 228 226 229 228 228 227 225 226 227 226
226 224 224 225 224 224 226 226 225 225 223 222 223 225 225 224
225 226 226 225 226 227 226 225 223 223 224 225 225 223 222 222
221 221 222 223 223 222 221 221 220 221 222 220 218 217 217 216
214 212 212 198 184 166 142 111 79 56 51 47 44 53 67 84
99 111 123 129 136 144 147 144 139 133 126 122 116 111 110 111
112 115 118 123 124 127 130 132 135 136 132 128 129 130 127 124
117 114 114 116 117 119 121 119 125 128 130 130 129 128 127 127
124 127 128 128 127 125 124 126 128 127 129 129 125 123 125 125
130 129 128 128 128 127 128 129 127 130 133 132 129 127 127 128
129 128 127 131 129 129 128 132 128 128 128 128 127 126 125 124
123 123 122 120 120 122 122 121 122 121 120 122 124 125 123 120
123 122 123 126 125 122 122 125 127 123 120 124 124 120 124 128
125 125 124 125 127 127 125 123 127 126 126 125 124 124 124 125
125 126 128 127 126 125 126 126 128 126 128 127 128 130 127 128
131 130 128 127 128 129 130 130 129 129 129 129 129 129 129 128
129 125 125 128 129 128 129 133 127 130 131 130 130 129 129 132
132 129 128 131 131 128 129 132 128 132 134 131 130 131 132 130
133 130 130 128 130 133 131 131 129 130 132 133 133 132 131 132
129 132 135 134 132 132 134 135 131 131 131 132 132 131 131 133
135 132 131 132 133 134 134 134 136 136 136 136 138 139 139 137
138 138 137 135 135 138 140 140 142 141 141 142 143 144 145 143
143 143 145 148 149 149 150 153 151 153 156 160 164 163 161 162
164 164 166 168 169 169 170 171 175 176 175 176 181 183 180 179
180 180 182 184 186 187 187 188 190 190 189 189 190 189 189 188
220 216 218 227 232 230 228 229 231 228 227 227 226 226 227 226
229 226 227 230 229 228 227 224 225 226 224 222 224 226 223 216
218 222 225 223 222 222 221 218 219 223 223 219 217 217 215 211
203 204 208 216 219 216 214 214 211 209 208 210 206 198 193 193
187 182 181 174 162 141 128 120 104 88 75 70 73 82 96 107
114 123 132 137 141 144 143 138 138 136 133 130 126 122 121 122
123 121 121 119 120 121 125 127 125 124 120 116 114 109 102 98
86 87 88 85 84 90 99 103 112 119 126 129 127 126 125 125
125 129 130 129 129 127 126 128 128 128 129 129 127 128 131 130
129 127 126 127 128 127 127 127 126 129 131 131 128 126 126 128
128 129 127 129 127 130 128 129 128 128 128 128 127 125 124 123
122 123 124 122 122 124 124 123 122 121 121 122 124 125 124 123
122 122 124 126 126 124 123 123 124 123 120 124 124 120 124 127
127 125 124 125 127 127 125 123 126 126 126 125 124 124 124 124
125 126 128 128 127 126 126 127 127 126 129 128 127 128 127 130
131 130 128 128 128 129 129 129 129 129 128 127 127 128 128 127
127 125 125 127 129 129 129 131 127 129 129 129 131 130 130 132
132 127 127 131 132 129 128 131 131 132 132 132 133 133 132 131
132 130 130 129 130 134 131 130 132 132 133 134 133 132 132 133
131 134 135 133 130 130 132 134 131 131 132 134 133 132 133 136
135 133 132 133 134 134 135 135 134 135 135 135 136 138 138 137
138 139 138 136 136 139 141 140 139 141 142 142 144 144 144 146
145 145 146 149 150 151 153 156 156 158 160 164 168 168 166 167
172 172 172 174 175 176 176 177 185 186 184 184 187 189 187 186
189 189 190 192 193 192 193 194 196 195 194 194 194 195 195 194
167 156 160 183 203 208 209 213 228 223 222 226 227 228 227 225
215 212 213 216 215 211 204 197 201 203 201 198 199 199 189 177
172 180 185 182 179 180 179 175 177 184 184 175 170 172 169 161
143 146 156 171 179 177 173 173 172 165 165 170 164 149 138 136
126 119 122 122 112 84 77 86 107 114 108 106 107 105 114 120
124 130 136 137 137 137 138 137 134 133 131 129 127 122 116 112
111 107 105 99 101 99 103 102 99 100 99 96 89 76 66 64
64 69 71 64 56 65 83 94 95 105 118 124 125 125 125 126
124 126 126 125 126 125 125 127 128 129 130 128 125 127 127 124
127 126 126 128 130 129 127 125 125 125 125 126 127 127 127 126
127 130 127 127 125 132 128 126 126 126 126 126 125 123 121 121
120 123 123 121 120 120 120 119 121 123 125 124 122 121 123 125
123 124 124 125 126 126 125 123 120 125 123 123 122 122 127 125
123 124 124 125 125 126 126 127 125 125 125 125 124 124 125 126
124 125 127 127 127 127 128 130 126 127 131 129 127 128 128 132
129 128 127 127 127 128 127 127 128 128 127 126 127 129 130 129
127 128 128 128 130 131 131 130 131 132 130 130 131 130 128 129
129 128 127 128 130 131 130 129 132 129 128 131 133 131 130 130
131 130 132 131 133 135 131 128 134 133 133 133 131 130 132 134
132 132 131 130 131 133 133 133 135 133 133 133 132 131 133 136
136 135 134 135 135 135 135 136 133 135 135 135 136 138 139 139
137 139 139 137 138 140 141 140 142 146 147 146 147 145 144 148
148 147 149 152 154 154 157 160 162 164 164 166 170 171 170 173
177 176 177 180 183 184 185 186 188 192 193 191 191 191 192 195
195 195 196 198 198 197 198 200 200 199 198 198 198 199 199 200
69 64 70 99 114 117 120 143 177 181 179 173 185 190 189 183
169 143 140 150 152 146 129 115 114 125 118 122 129 123 110 83
85 104 97 92 96 95 94 86 96 106 100 93 91 89 94 99
93 87 99 109 107 108 109 106 107 103 96 100 87 65 67 73
58 51 48 61 59 45 40 58 59 71 92 111 120 122 124 126
133 134 133 135 131 135 135 130 126 122 123 128 123 110 103 98
92 74 61 66 78 87 86 74 55 72 87 97 76 57 37 44
58 75 80 65 45 51 69 93 95 99 105 111 118 119 118 120
121 123 124 125 126 124 125 130 128 126 122 122 124 124 123 125
126 125 125 126 126 126 126 128 126 127 126 126 129 128 126 126
126 126 126 127 127 126 126 126 128 126 124 125 125 124 123 123
121 122 121 124 124 120 120 118 124 124 122 121 123 123 121 122
123 124 125 126 125 124 122 122 120 123 124 122 121 123 124 123
125 128 126 124 127 125 123 126 123 126 126 123 124 127 126 122
124 125 125 125 127 130 129 126 128 127 128 130 131 130 129 129
127 125 126 130 132 131 128 128 126 128 129 127 128 129 130 128
127 126 126 128 130 131 130 128 130 131 129 131 136 130 125 129
130 131 129 127 131 133 131 129 130 130 131 128 127 130 131 134
132 133 133 130 130 132 133 132 131 131 131 130 130 132 133 133
131 131 132 134 134 133 133 135 134 132 131 128 130 135 133 133
136 137 136 135 134 135 135 134 132 134 137 137 136 137 138 138
139 138 137 138 140 143 142 140 141 140 142 147 149 147 146 147
149 150 153 156 158 160 163 166 164 168 172 173 173 173 175 178
181 183 186 189 191 192 192 192 195 197 197 196 198 199 198 199
200 202 204 204 204 203 204 205 202 201 204 202 201 204 204 203
20 27 32 37 34 38 45 61 75 84 82 79 88 99 93 83
67 54 58 62 57 54 50 46 48 48 51 53 54 50 41 36
43 45 41 46 49 43 43 44 51 57 56 60 59 55 66 80
97 102 97 84 80 79 72 67 65 65 54 46 31 22 39 53
42 25 24 35 37 36 35 44 44 40 54 83 102 105 111 122
130 127 119 115 106 105 105 108 112 104 99 100 93 85 94 103
96 70 39 48 78 86 78 68 44 54 81 95 78 48 31 42
63 89 93 83 55 41 60 79 91 88 83 84 87 84 80 81
85 95 107 116 120 123 124 124 125 124 125 128 128 125 122 121
122 123 126 128 127 125 123 123 124 126 126 126 128 128 126 127
128 126 124 125 126 127 127 128 125 124 124 125 124 123 122 122
120 122 121 123 123 120 122 122 119 120 120 120 123 123 121 121
123 122 121 122 124 124 122 119 121 123 123 121 122 124 126 125
123 124 125 126 124 125 126 127 126 126 125 124 125 127 127 125
124 125 125 125 127 128 129 128 129 129 129 130 130 128 128 128
127 126 127 130 130 128 127 128 129 129 129 128 128 128 127 126
131 130 129 130 131 131 131 130 129 133 130 128 132 131 127 130
129 131 129 128 131 132 131 131 130 129 131 128 128 131 130 131
134 133 132 131 131 131 132 133 129 131 132 132 132 132 132 130
133 132 131 131 132 132 133 135 133 131 132 131 132 135 132 131
136 136 135 134 133 134 134 134 134 135 135 134 135 136 138 138
137 138 139 139 140 142 142 141 142 142 144 148 149 149 149 151
151 152 156 159 160 161 165 169 171 174 177 178 179 181 185 188
187 188 190 192 194 196 198 200 200 203 202 201 203 203 202 203
205 206 207 207 207 206 206 206 206 204 207 206 205 208 207 206
21 22 21 25 31 41 35 24 26 34 30 28 30 42 40 36
34 30 37 36 28 30 36 39 43 40 42 43 41 39 40 48
45 44 45 49 49 47 48 51 53 58 72 91 88 73 80 98
110 118 123 109 85 70 65 60 68 72 61 48 34 28 39 43
29 16 28 39 39 38 43 48 37 26 34 61 75 70 73 87
93 89 81 83 81 77 72 78 77 82 80 70 60 69 97 115
107 74 39 50 81 97 97 78 44 38 70 89 82 47 33 42
69 94 97 87 53 33 53 76 86 74 61 56 55 51 47 48
50 60 76 89 102 117 126 126 125 122 123 125 124 123 123 124
125 125 124 123 122 122 124 126 123 125 125 125 127 126 125 127
127 124 123 124 126 127 127 127 125 125 125 124 123 122 121 122
121 123 121 123 121 120 124 125 119 121 121 123 126 126 124 124
125 124 123 124 125 125 124 123 122 123 123 122 123 125 125 124
123 121 126 127 122 124 128 125 128 127 126 126 127 127 127 126
124 124 124 125 126 126 127 129 130 130 129 129 128 127 126 127
129 129 130 131 130 128 128 131 131 129 128 129 130 129 128 127
128 127 127 127 128 128 129 130 127 134 131 126 129 131 129 129
129 130 129 129 130 130 130 133 129 128 130 129 131 134 132 131
132 129 128 129 129 128 129 131 132 132 132 131 131 132 132 132
134 133 132 131 132 135 136 136 134 132 135 135 135 135 132 132
135 136 135 134 134 136 136 136 137 137 136 135 136 138 139 138
138 140 142 142 141 141 142 143 144 146 148 150 151 152 153 155
155 157 160 164 164 164 167 172 175 177 180 181 182 184 188 191
193 195 196 197 199 201 204 205 206 208 207 206 207 208 207 208
209 209 209 209 209 209 207 207 209 207 209 208 208 210 209 207
22 25 28 30 26 27 29 24 21 29 32 34 29 30 31 36
36 32 34 33 29 32 39 40 38 44 41 44 44 40 43 40
42 45 45 41 42 46 52 64 69 75 99 122 116 97 101 119
121 119 131 130 93 58 57 66 74 77 66 51 37 31 34 32
27 20 30 41 42 32 36 38 35 33 41 54 51 37 37 49
62 51 42 55 69 63 44 44 63 84 90 72 49 55 87 108
104 74 39 47 77 101 101 69 37 29 65 90 90 58 37 39
69 89 103 91 56 39 47 74 89 76 57 43 37 31 27 26
31 33 42 57 76 99 116 121 126 123 123 122 119 119 124 126
124 124 125 125 124 124 123 124 123 125 124 124 126 125 123 124
124 123 123 124 126 126 125 125 125 125 124 123 122 122 122 123
123 124 122 122 121 119 123 124 118 120 121 122 125 125 123 123
122 124 124 124 122 122 123 125 122 124 125 124 124 125 124 122
124 123 125 126 123 123 125 124 126 125 126 128 127 125 124 125
126 124 124 126 127 125 126 128 130 129 129 128 127 126 126 127
130 130 131 131 129 128 129 132 131 129 128 130 130 129 129 130
128 129 130 129 129 130 131 133 127 132 132 128 129 130 129 128
130 129 128 129 130 129 129 133 130 129 131 130 131 134 131 130
133 131 130 131 131 130 130 132 134 134 133 131 131 132 133 133
134 135 134 132 132 135 135 134 135 133 135 136 136 135 132 134
132 132 132 133 134 134 135 135 135 136 137 138 139 139 139 138
139 141 143 142 141 141 142 144 148 150 151 151 152 155 157 158
160 161 164 168 169 167 170 176 179 182 185 187 189 190 192 194
198 200 202 202 203 205 206 206 208 210 209 208 209 210 209 210
211 211 211 211 211 210 210 209 212 209 211 211 210 212 210 209
23 22 25 31 29 24 25 18 20 26 34 32 28 25 32 37
36 33 34 36 34 34 37 37 39 46 41 40 44 42 42 40
44 48 50 54 62 61 62 79 84 88 106 121 115 106 115 134
137 134 136 138 107 63 55 70 65 69 65 51 34 25 31 38
38 37 35 47 53 29 29 33 27 33 42 46 36 26 32 47
51 33 24 47 77 79 51 45 61 85 97 81 50 45 77 107
106 83 47 55 97 117 99 63 22 36 79 103 94 63 41 44
77 96 107 91 54 36 42 68 83 75 57 37 27 22 18 16
18 15 20 33 50 69 88 102 121 124 126 124 120 120 122 122
125 124 123 123 124 125 124 123 123 124 123 123 125 125 123 123
124 123 123 124 124 124 123 124 122 122 121 122 123 123 123 122
123 125 122 122 121 120 123 122 122 123 122 123 125 125 123 123
123 123 123 123 123 123 123 124 123 124 125 125 124 124 124 124
125 127 124 123 125 124 122 123 124 124 125 127 125 122 121 123
128 125 125 128 129 126 126 127 128 128 128 127 126 126 127 128
128 128 128 128 127 127 128 130 131 130 129 130 129 127 127 130
130 131 131 131 130 130 131 131 129 131 130 129 129 128 128 129
130 129 127 128 130 128 127 131 132 131 132 129 128 130 127 127
130 132 132 131 131 132 131 130 131 133 134 134 134 133 132 130
134 135 135 132 130 130 131 130 134 132 134 133 133 134 132 135
133 134 135 136 136 136 135 135 133 135 137 138 138 139 138 137
138 139 140 140 140 141 143 146 151 152 152 152 154 156 158 158
162 163 166 170 172 172 175 180 182 185 188 190 192 195 197 199
201 203 205 205 205 206 207 207 208 211 211 210 211 211 211 212
212 213 214 214 213 212 213 213 214 211 213 213 212 214 212 211
14 22 28 35 37 32 34 27 27 28 30 23 24 28 36 33
32 35 38 42 40 38 41 40 37 41 44 40 47 51 45 59
56 58 59 72 87 84 81 89 94 100 111 113 110 109 116 130
133 130 134 130 98 71 75 76 62 62 58 47 30 21 30 44
45 41 32 60 84 58 34 26 27 28 31 32 28 27 41 57
49 33 28 51 79 80 50 44 79 99 102 75 45 48 84 111
113 85 60 73 103 108 79 46 31 65 97 104 81 54 44 62
82 101 96 81 42 19 34 55 65 64 50 30 18 15 13 11
10 8 11 20 30 41 62 86 110 120 124 121 120 121 121 123
127 124 120 119 121 124 125 124 121 122 121 122 125 125 123 123
125 124 123 123 122 122 123 124 122 123 123 124 125 124 121 118
123 124 122 122 122 121 123 121 124 125 124 124 126 126 124 124
126 123 121 122 125 126 124 122 123 124 125 124 123 124 126 127
125 128 123 121 126 125 122 125 126 126 126 126 124 122 123 125
127 124 124 127 128 126 124 125 127 127 127 126 125 127 128 129
127 127 127 127 127 127 127 128 128 128 129 129 128 127 128 130
127 127 127 128 128 129 129 129 132 129 128 129 128 127 128 131
130 130 128 128 130 128 127 129 131 130 132 129 128 129 127 128
127 130 130 129 129 131 130 128 131 132 133 132 132 132 132 131
132 133 133 131 129 130 131 133 133 133 134 132 131 134 134 136
137 137 138 139 139 138 137 136 134 136 137 137 138 139 139 139
138 138 140 141 142 144 146 149 152 152 152 154 155 157 159 160
163 165 168 172 174 177 181 185 187 188 189 191 193 196 199 201
204 206 207 205 205 208 210 211 210 213 213 212 213 213 213 214
212 213 215 214 213 213 214 215 216 212 215 214 212 214 213 214
21 27 25 25 34 32 39 32 26 26 26 23 25 32 33 24
30 34 34 38 43 47 50 45 42 53 62 61 74 76 66 85
89 77 72 89 99 97 102 103 101 111 117 111 111 115 116 122
133 124 125 117 82 81 106 96 72 56 41 28 18 17 33 54
64 40 27 67 115 102 48 21 33 30 26 24 25 32 41 48
44 42 50 66 80 79 59 63 85 103 97 67 49 69 103 116
106 75 66 78 85 78 54 31 45 74 81 75 58 34 30 51
68 87 89 87 55 24 25 36 52 52 40 22 12 9 7 6
10 11 10 15 23 28 46 75 100 117 121 116 119 122 121 124
120 121 122 123 124 124 121 117 120 122 121 122 124 124 122 123
125 123 122 122 122 122 122 123 124 125 125 125 124 124 122 119
123 125 123 123 122 121 123 121 121 121 120 121 123 123 122 122
124 122 119 119 121 122 122 120 122 123 123 124 124 124 125 126
126 126 124 123 124 125 125 127 127 127 126 126 125 125 125 126
125 123 123 124 125 124 124 124 126 127 127 126 125 127 128 129
127 128 128 128 127 127 128 128 127 128 129 128 128 129 130 131
128 126 125 127 130 132 132 131 132 128 127 129 129 128 130 131
128 131 130 129 129 129 128 129 128 128 131 129 129 131 130 131
130 131 131 131 131 132 132 132 132 132 131 130 130 131 132 132
131 131 132 133 132 132 133 135 132 134 136 132 131 135 135 136
135 135 135 136 136 135 135 136 138 138 138 137 138 140 141 140
139 140 143 145 146 146 148 151 151 151 153 156 158 159 161 164
166 170 173 175 176 180 186 189 193 194 194 196 198 200 203 205
206 209 209 208 207 210 212 212 211 215 215 214 215 215 214 215
214 214 215 215 214 214 215 215 217 213 216 215 213 214 214 216
23 31 29 29 36 31 38 35 35 30 25 28 27 38 40 37
43 43 36 40 54 67 70 58 61 79 74 72 88 91 91 108
110 83 82 114 115 97 104 107 106 115 114 102 106 118 120 126
146 135 126 120 99 100 118 107 71 50 30 18 13 20 42 67
73 42 30 61 104 102 46 27 34 34 29 23 27 36 37 32
46 53 66 71 65 60 51 66 86 97 90 67 55 69 88 89
76 57 52 62 75 68 45 42 68 88 78 75 75 50 36 46
62 74 93 101 78 47 24 30 38 38 29 16 10 9 10 12
14 16 13 16 25 26 37 62 94 117 123 117 121 123 118 120
121 122 122 121 121 122 120 118 121 123 122 122 123 122 121 122
124 121 121 122 123 122 121 120 122 123 123 122 122 123 124 124
124 127 125 124 122 120 123 122 119 121 120 121 124 124 123 123
124 125 124 122 120 120 123 125 120 121 123 124 125 124 122 122
127 124 125 125 122 124 129 127 125 125 125 125 125 126 125 123
125 124 124 124 124 125 125 126 126 128 128 126 125 127 128 128
126 128 129 128 127 127 127 128 130 131 130 128 128 130 130 129
130 127 124 125 129 131 131 129 130 127 128 130 130 130 131 130
126 131 132 129 129 129 129 130 126 126 130 129 129 132 129 130
130 128 128 130 130 129 131 133 129 131 132 132 133 133 131 130
132 132 133 135 135 132 131 132 129 133 137 132 131 135 134 133
136 135 136 137 138 138 139 141 138 138 137 137 139 140 140 138
140 142 145 147 147 146 147 150 150 151 154 159 160 160 163 168
170 175 179 178 178 182 188 191 192 193 195 198 201 204 206 207
207 210 212 210 209 211 211 210 212 215 216 215 216 215 214 214
217 217 216 216 216 216 216 216 219 216 219 218 215 216 217 220
