P2
400 400
255
159 157 158 155 156 160 158 159 158 156 156 158 158 157 156 157 155 158 158 156 157 157 157 158 154 158 162 161 159 159 161 163 162 159 158 159 161 161 160 159 156 159 160 156 154 157 158 158 159 159 160 161 161 160 159 159 161 159 159 160 161 161 160 160 159 161 162 161 158 158 160 162 160 158 158 161 162 161 160 161 163 162 160 159 161 161 160 157 162 160 163 163 160 164 167 163 161 164 164 161 159 162 162 160 158 161 162 161 161 162 162 160 160 162 162 160 161 163 164 163 161 162 162 162 161 162 163 165 164 165 164 162 163 165 165 163 163 163 164 165 166 165 164 163 163 163 162 162 162 163 163 162 162 164 166 166 165 164 164 164 161 161 163 167 167 164 163 164 168 165 163 162 164 165 165 163 164 166 165 162 163 167 168 166 164 165 166 165 165 165 165 164 166 163 165 162 163 165 162 163 167 166 166 166 165 164 165 168 166 165 165 166 166 165 165 166 163 167 169 169 167 167 167 166 166 168 168 167 166 166 167 167 168 167 166 167 168 168 168 169 166 167 167 166 167 170 170 169 168 170 170 168 168 171 171 170 169 169 169 168 168 168 168 166 168 169 169 167 168 169 168 166 168 168 167 166 167 168 168 167 168 168 168 168 168 168 168 168 166 166 166 165 165 167 168 168 166 165 165 166 167 167 166 165 166 167 167 167 167 167 166 166 168 168 168 166 165 165 166 167 165 166 168 169 168 167 168 171 171 167 166 168 170 169 169 171 172 170 169 167 167 168 169 169 173 171 167 170 171 168 169 168 170 172 173 172 169 169 171 173 170 168 170 171 172 171 169 170 172 170 171 172 171 171 172 169 168 168 170 170 169 171 171 166 172 171 172 173 173 171 170 170 172 171 170 170 173 176 175 172 
160 159 159 156 156 159 157 158 159 158 157 158 158 158 158 158 156 156 154 154 159 161 159 158 156 158 160 160 158 157 159 161 161 159 158 158 159 158 156 156 159 157 155 154 157 160 159 156 157 157 159 161 161 160 160 160 161 158 157 159 160 159 158 158 159 160 160 159 158 158 158 159 159 158 158 158 159 159 159 160 160 161 160 160 161 163 162 161 157 161 162 160 160 162 163 164 162 165 164 161 160 162 162 160 160 161 162 162 161 162 161 161 164 164 163 162 162 163 162 161 161 163 164 165 163 162 161 161 163 165 166 165 165 166 166 165 162 162 163 163 164 163 162 161 163 163 162 163 163 163 163 163 165 164 163 162 164 165 165 163 163 162 163 165 164 161 161 162 164 164 163 163 163 163 163 162 164 165 165 164 164 166 166 164 162 163 164 164 164 165 166 165 169 166 166 163 164 167 164 166 166 166 166 165 164 163 165 167 167 166 166 167 166 165 165 166 164 166 167 167 167 168 168 168 164 167 168 168 168 168 167 166 166 166 168 169 169 168 168 168 166 167 168 168 168 169 169 168 171 169 168 168 168 169 170 172 168 168 167 166 167 169 169 167 166 168 168 167 167 169 170 169 168 168 167 166 165 166 167 166 167 167 167 166 166 166 166 167 165 166 167 166 167 167 168 168 166 166 165 164 165 166 167 167 165 166 167 167 166 166 166 166 166 166 165 165 165 166 166 166 167 168 169 169 168 166 167 169 169 168 167 168 168 167 167 169 169 168 167 167 167 168 168 168 170 171 169 170 170 169 171 169 167 169 170 170 168 168 169 170 172 170 172 171 172 172 170 171 172 170 170 171 170 170 171 169 169 170 172 172 171 173 174 171 172 172 173 174 174 173 172 173 172 173 173 173 174 175 174 172 
159 158 159 156 155 157 156 157 158 158 158 157 157 158 158 157 157 157 154 154 159 161 158 157 159 158 159 160 159 157 158 161 161 160 159 160 160 159 159 159 162 158 155 156 160 162 159 155 159 159 160 162 162 160 159 159 162 159 157 158 160 159 158 157 159 159 159 159 160 160 159 159 158 159 160 159 159 160 161 161 161 162 162 161 161 161 161 160 156 163 162 159 160 159 158 163 161 162 162 161 161 163 163 161 161 161 161 162 161 160 159 160 162 161 161 162 163 162 161 161 161 163 165 166 164 162 160 159 160 163 164 163 162 163 164 164 163 163 163 164 164 163 161 160 162 162 162 163 163 164 163 163 164 163 162 161 163 165 164 163 163 162 163 164 164 162 162 164 162 164 165 165 164 163 163 163 164 164 164 165 165 164 163 162 165 167 167 166 166 167 167 167 169 166 167 165 165 167 165 167 166 166 166 166 165 164 164 166 168 167 167 167 167 166 166 167 165 165 165 165 166 167 168 168 168 168 167 166 167 168 169 169 165 166 168 170 169 167 167 168 168 168 169 170 169 168 168 169 171 168 167 168 168 167 168 171 170 169 167 166 167 169 169 168 165 167 168 167 166 168 170 170 167 168 168 166 165 167 168 169 168 167 167 167 166 167 167 167 165 167 168 168 167 167 167 166 167 167 166 165 165 166 167 168 165 166 166 167 166 166 166 167 165 164 163 164 166 167 168 168 169 168 168 168 167 166 166 166 168 169 170 169 167 166 167 168 168 167 167 168 169 170 170 169 166 171 170 169 168 169 172 170 171 171 171 171 171 171 172 173 172 171 173 171 171 173 170 171 172 170 171 171 170 170 171 169 168 169 172 171 170 172 174 172 171 171 172 174 174 174 174 174 170 172 174 174 173 173 171 170 
156 156 158 156 155 157 156 159 156 158 158 156 156 157 156 153 155 157 157 156 157 157 156 157 159 157 158 160 159 157 158 161 158 157 157 158 157 157 158 160 161 158 157 158 160 159 158 158 160 160 160 161 161 159 159 159 162 159 157 158 160 160 158 157 159 158 158 159 160 159 159 159 153 156 158 158 158 159 159 158 161 162 162 160 159 159 158 157 158 162 161 158 159 159 158 161 161 161 161 160 161 162 162 160 161 160 160 161 161 158 158 159 159 158 158 161 163 162 161 162 161 162 163 164 163 162 162 162 163 165 166 163 161 162 165 166 163 164 164 164 164 164 162 160 161 161 161 162 163 163 163 162 160 162 164 164 163 163 163 163 163 162 162 163 164 163 164 165 162 163 164 165 164 163 163 163 164 162 163 166 165 162 161 163 164 165 165 164 164 164 165 164 166 165 166 166 166 166 164 164 166 166 166 166 165 165 165 166 165 165 165 166 166 166 166 167 166 166 165 165 165 165 166 166 169 167 165 164 166 168 169 170 167 167 168 168 168 166 167 168 169 168 168 169 168 167 167 169 169 167 167 168 168 167 167 168 170 169 167 166 167 169 169 168 167 168 168 167 166 167 168 167 167 168 168 167 166 167 168 168 170 169 168 167 167 167 167 167 167 168 169 168 167 166 165 164 166 166 167 167 166 165 166 166 165 166 167 167 167 167 167 168 166 165 164 165 166 166 166 167 168 167 166 166 167 167 166 166 167 169 171 169 167 167 167 167 168 167 167 168 170 171 171 170 166 170 169 169 168 167 170 168 172 170 169 169 169 170 171 172 172 171 172 169 170 172 170 170 171 170 171 172 170 170 171 169 167 168 170 170 168 170 173 171 170 170 170 172 173 173 173 173 170 172 174 174 173 171 170 170 
155 155 158 157 156 158 157 160 158 159 158 156 155 155 155 153 153 157 158 156 157 157 157 159 157 156 157 159 158 155 156 159 159 158 157 157 156 156 157 159 158 157 158 158 158 158 158 159 158 157 157 158 159 158 159 160 160 157 155 156 158 159 158 157 158 157 158 159 158 156 156 157 154 158 160 159 158 159 159 158 158 159 159 159 159 160 159 158 159 156 157 158 158 161 163 160 162 162 161 160 161 161 160 158 161 160 160 161 161 158 158 160 162 160 160 163 164 162 161 162 161 162 162 163 163 162 163 163 164 166 166 162 160 162 164 165 162 163 163 162 163 164 162 160 160 161 161 162 163 163 163 162 159 162 165 165 164 163 162 162 163 162 162 162 162 162 161 162 162 162 162 162 162 162 162 162 164 162 163 166 165 161 162 165 163 164 164 164 164 165 166 166 165 165 164 166 166 164 164 163 164 165 165 165 165 165 166 166 163 163 163 164 165 165 165 166 166 166 167 166 165 165 165 166 164 163 164 166 168 168 166 165 169 168 168 169 168 167 167 167 169 166 165 166 167 166 166 168 168 169 169 167 167 168 168 166 164 165 166 166 166 168 169 168 168 169 169 168 168 168 167 165 167 168 168 167 167 167 166 165 169 168 167 166 166 166 165 165 168 169 168 166 165 165 165 164 165 166 166 166 165 164 164 164 166 167 167 167 166 166 166 167 166 165 165 165 164 163 163 164 168 167 166 166 167 168 167 166 166 168 169 168 168 168 168 167 168 167 166 167 169 170 170 169 168 168 167 169 169 166 168 168 170 168 167 168 169 169 169 170 171 169 171 169 169 171 170 170 168 167 170 171 169 169 169 168 170 169 170 171 170 171 173 171 171 170 170 172 172 172 172 172 172 172 173 173 173 172 172 172 
155 154 157 156 156 156 155 158 160 159 158 156 154 155 156 156 157 158 156 156 159 160 157 156 158 157 158 159 157 155 155 158 158 157 157 158 158 158 159 161 161 160 159 159 159 158 158 157 159 158 158 158 158 158 159 160 160 157 155 156 157 158 159 159 156 157 158 159 158 157 158 160 162 162 162 161 160 161 161 161 157 158 159 159 160 160 160 159 161 155 156 158 157 161 163 158 161 160 160 160 161 161 161 161 161 161 161 162 161 160 160 161 162 161 161 162 162 162 162 162 161 162 163 163 163 162 161 160 161 163 164 162 160 161 161 160 162 162 162 161 162 164 163 160 161 161 161 162 163 163 163 163 162 162 162 162 164 165 164 161 161 161 161 162 162 162 162 162 163 162 161 162 163 163 163 162 164 163 164 166 165 162 163 167 164 166 166 165 165 166 167 166 167 166 164 166 166 163 165 165 163 164 164 163 163 165 165 165 165 165 165 166 166 165 165 165 166 166 167 168 167 166 166 167 165 164 164 165 167 167 166 166 169 168 169 170 170 168 166 165 169 167 165 166 167 167 167 168 169 170 169 166 166 169 169 168 164 166 167 167 167 167 167 167 168 168 168 169 170 169 168 166 165 166 167 167 168 169 169 168 169 168 166 166 165 165 165 164 167 168 167 165 164 165 166 166 167 167 166 165 164 164 165 165 167 167 168 167 165 164 164 165 164 164 164 166 165 164 165 167 168 168 167 166 167 168 168 167 167 167 167 167 167 167 167 167 168 168 167 168 168 169 169 169 169 168 166 170 171 167 169 169 169 168 169 171 172 170 169 169 171 169 170 169 170 171 169 171 168 168 170 171 169 169 169 168 171 170 172 173 172 172 173 171 173 171 171 172 173 172 172 172 173 171 170 171 172 172 172 173 
154 153 156 156 155 156 154 157 157 157 156 157 156 156 157 158 159 159 156 156 160 161 157 154 159 159 158 157 156 156 157 158 154 153 154 156 157 157 157 158 162 163 162 159 157 158 158 157 160 159 159 159 159 158 157 158 160 158 156 155 156 157 159 161 158 157 159 160 159 158 159 162 161 160 159 159 159 158 159 159 157 159 160 160 159 159 159 159 160 158 157 158 159 160 159 157 161 159 159 160 160 160 161 163 161 162 162 161 161 162 162 162 159 161 161 160 159 161 163 163 162 162 163 163 162 161 159 158 162 163 163 163 163 165 164 162 163 163 162 160 161 164 163 161 162 161 161 162 162 163 163 162 163 162 161 161 163 164 164 162 162 162 162 162 163 164 164 164 163 162 162 163 164 164 164 163 164 162 163 165 165 164 163 165 163 164 165 164 163 163 163 163 167 167 163 166 166 163 166 166 163 164 163 162 162 164 165 165 166 165 166 167 167 166 165 165 167 166 166 167 167 166 166 167 168 165 163 164 165 166 167 169 167 167 168 168 168 166 165 165 167 168 168 167 167 168 168 168 169 169 168 167 167 168 169 169 168 169 169 168 167 167 167 166 166 167 168 169 169 169 168 168 165 167 167 167 167 169 170 171 168 167 166 166 166 166 166 165 167 167 167 165 165 166 167 167 167 166 165 165 165 165 166 166 166 167 167 166 165 164 165 166 164 163 164 166 167 166 167 169 168 168 167 166 167 168 168 167 169 167 166 167 167 166 166 168 167 168 169 169 169 169 169 169 168 169 167 169 170 168 169 167 167 166 167 169 170 169 169 170 172 168 169 170 170 170 168 171 171 170 171 171 169 169 170 169 170 170 173 175 173 172 172 171 173 172 171 172 173 172 172 171 172 170 169 170 171 171 172 173 
155 153 156 157 157 158 156 158 152 153 155 158 158 156 156 157 156 157 156 156 160 161 158 157 158 157 155 153 154 157 158 158 156 156 157 159 160 158 157 156 155 160 162 158 154 156 159 161 156 156 157 158 159 157 157 157 159 157 155 154 154 155 157 160 162 160 160 160 159 156 156 159 160 158 158 160 161 160 159 159 155 158 160 160 159 159 159 160 156 160 158 158 162 160 156 159 163 161 160 160 158 157 158 160 160 162 162 160 160 162 163 162 159 162 162 159 158 160 163 163 163 163 162 162 161 160 159 158 161 161 160 159 161 164 164 162 162 162 161 159 160 163 163 160 162 161 161 161 162 162 162 162 160 162 163 162 161 162 163 163 165 164 163 162 162 163 163 162 161 161 162 163 164 164 163 162 164 162 162 164 166 164 163 162 162 163 164 164 164 165 165 164 165 166 163 167 167 162 165 165 164 164 163 162 162 164 165 165 163 163 164 166 166 165 164 164 168 166 165 165 166 166 165 166 165 163 163 164 165 164 165 166 165 165 166 165 164 163 165 167 164 167 168 167 166 167 167 165 167 166 166 168 169 167 166 168 168 168 168 167 167 168 167 166 165 166 167 168 167 167 168 169 168 169 169 166 164 165 167 169 167 166 165 166 166 167 166 165 167 168 168 166 165 166 166 166 164 163 163 164 165 165 164 163 165 166 167 166 166 166 167 169 168 165 164 166 166 164 163 164 166 166 166 165 166 168 169 168 171 168 167 168 167 165 165 168 164 166 168 169 168 167 167 167 168 171 169 168 168 167 168 164 170 168 167 169 170 169 171 175 173 167 169 171 171 168 166 170 172 171 171 170 168 168 169 169 169 170 174 176 173 172 173 172 173 171 170 171 172 172 171 171 172 171 170 171 171 171 172 174 
156 153 156 154 157 152 155 156 150 154 157 158 157 156 155 155 159 157 157 158 158 157 158 159 156 158 157 154 153 155 157 157 156 158 158 156 157 159 159 157 159 156 155 158 160 158 158 160 155 160 158 153 155 159 158 154 155 154 156 157 155 154 156 157 154 159 157 156 162 161 156 157 158 158 158 159 158 157 158 160 160 156 155 159 160 158 157 158 160 159 157 157 159 161 160 158 160 160 159 157 157 158 158 158 160 161 161 159 160 161 160 157 161 161 162 161 160 160 160 161 162 161 161 162 162 162 162 164 161 162 161 159 159 161 163 163 163 163 162 161 161 162 161 159 162 161 164 164 159 160 164 163 160 165 161 162 165 164 166 164 162 161 162 163 164 164 164 164 165 163 163 164 164 162 161 161 160 162 166 167 164 161 161 163 162 163 164 164 164 163 163 163 166 164 162 162 163 164 164 163 163 164 164 164 164 165 164 162 163 164 165 165 165 164 165 167 168 166 165 164 164 165 165 165 168 167 167 166 165 164 165 167 166 165 164 165 165 166 165 164 164 166 167 166 165 168 168 163 167 166 167 167 167 167 168 170 169 167 167 168 167 165 165 168 165 165 164 164 165 167 166 165 168 167 165 165 165 166 168 169 165 165 166 167 167 166 166 165 169 165 164 168 168 164 163 165 165 164 165 166 166 165 164 165 165 165 166 168 167 164 164 166 167 169 165 163 168 166 163 168 165 164 164 166 167 167 166 167 168 166 168 167 167 167 164 167 166 166 169 169 166 166 166 165 170 168 167 168 168 168 167 166 169 168 167 168 168 169 170 172 173 170 169 170 172 171 170 169 167 169 169 166 167 171 171 168 167 169 169 170 172 171 171 175 174 173 172 171 171 170 169 169 172 172 170 171 171 169 173 174 
155 154 157 155 157 153 155 154 151 154 156 156 156 157 157 157 155 158 159 158 157 157 157 156 155 157 158 157 155 155 157 158 153 155 156 156 157 159 158 155 158 156 155 156 156 155 157 159 154 157 157 155 157 158 158 158 156 155 157 158 155 154 156 156 156 160 157 156 161 160 156 157 158 158 158 158 157 157 158 160 162 158 157 159 161 159 158 159 156 157 158 159 160 160 159 157 158 159 160 159 160 161 162 161 161 160 159 159 160 160 159 159 160 161 163 163 163 161 160 159 163 163 163 164 163 162 163 164 160 161 162 162 163 164 164 163 160 160 160 160 161 162 161 160 159 158 161 162 160 161 162 159 161 164 159 162 167 166 166 162 164 163 163 163 164 163 164 165 162 163 164 164 161 159 160 162 162 162 163 164 163 162 162 163 161 161 162 163 164 164 164 164 164 163 163 163 164 165 165 164 163 163 163 162 163 165 166 165 164 165 166 166 165 165 166 168 166 167 167 167 165 164 163 163 166 166 166 166 165 164 165 166 164 164 164 166 167 167 166 165 165 164 166 168 166 166 167 167 165 165 165 167 167 167 167 169 168 168 168 167 166 166 166 166 166 166 166 165 166 167 167 166 166 166 166 166 166 167 168 168 166 165 165 165 165 165 166 166 165 163 164 167 168 167 167 169 168 166 165 165 164 164 164 166 166 164 164 165 165 163 164 166 164 167 164 163 167 165 163 167 165 164 164 165 166 165 165 166 170 166 165 164 164 166 166 169 168 167 167 167 166 168 170 170 169 168 168 169 169 169 169 169 167 168 168 169 169 170 170 170 169 170 169 168 169 171 170 169 168 169 169 168 168 170 169 167 167 170 170 169 171 172 173 174 171 171 171 172 173 173 173 173 171 173 171 173 172 170 173 173 
153 154 155 153 155 154 154 152 155 156 156 155 155 156 156 155 155 159 161 158 156 158 158 156 155 157 159 159 157 154 155 157 156 157 157 157 158 159 157 154 156 156 156 155 155 155 157 158 157 157 157 158 159 155 154 158 156 155 157 158 155 154 155 154 155 158 155 155 160 160 157 158 158 157 157 157 156 156 157 159 161 158 157 160 161 159 159 159 154 156 158 159 159 159 158 156 159 159 159 159 159 160 161 161 163 159 159 161 161 158 157 158 160 161 162 163 163 162 160 159 162 162 163 163 163 162 162 163 159 160 161 163 164 165 164 162 161 161 160 159 160 161 161 160 160 158 159 161 161 162 162 159 160 164 163 164 164 162 164 166 163 162 162 163 163 163 163 164 162 162 163 162 160 158 159 162 163 162 162 163 163 163 162 162 163 162 161 162 163 164 163 163 163 163 163 163 163 163 162 161 163 163 162 162 163 165 166 165 163 164 164 164 163 164 165 166 163 165 167 167 165 164 164 165 164 165 166 165 164 164 164 164 163 163 164 166 167 168 168 167 167 163 166 170 168 165 166 169 166 166 166 167 167 166 165 166 167 169 169 166 165 167 167 165 166 167 168 167 166 167 167 167 165 165 165 165 166 166 166 166 166 165 164 164 165 166 166 165 165 164 165 166 167 167 167 168 167 166 167 167 167 164 163 163 167 164 163 164 164 164 165 167 162 165 163 163 166 165 163 167 165 164 164 164 165 165 165 166 167 164 166 165 167 168 166 167 170 167 166 165 164 167 169 169 168 167 168 168 168 168 169 170 168 170 170 169 169 171 171 169 166 170 171 168 168 171 172 170 168 168 168 169 170 170 170 170 167 172 171 168 170 174 174 173 170 170 170 171 172 172 172 172 171 173 172 174 173 170 173 174 
154 154 154 152 153 155 155 152 156 156 156 155 155 155 154 153 155 159 160 158 156 157 158 156 157 157 158 159 158 154 154 156 158 158 157 156 157 159 158 156 155 156 157 156 156 157 157 157 158 158 157 158 158 154 152 156 157 154 155 156 154 153 154 153 154 156 155 155 158 158 157 158 156 156 157 157 156 156 157 158 157 156 157 159 160 159 158 158 157 158 159 159 159 159 158 157 159 159 158 157 157 158 159 160 161 159 160 162 162 159 158 158 161 161 161 161 161 161 160 160 159 160 161 162 163 163 163 162 162 161 160 160 162 163 163 162 164 163 161 159 159 160 161 162 162 160 159 160 161 162 162 161 160 164 164 164 162 159 162 168 161 160 161 162 162 161 162 163 164 162 160 160 161 162 161 160 162 162 163 164 164 164 162 160 164 163 161 160 161 162 163 163 162 162 162 163 162 162 161 160 162 163 163 163 164 164 164 163 161 162 163 163 163 163 164 163 164 165 166 165 163 164 165 167 164 165 166 165 163 163 164 164 165 164 164 164 165 167 168 168 168 165 167 170 168 165 166 168 168 168 167 167 167 166 166 166 168 168 168 166 165 167 167 167 166 167 168 167 166 166 166 167 167 166 165 164 164 164 164 165 165 165 166 166 167 166 166 165 165 167 167 166 165 165 165 165 165 165 166 168 167 165 163 163 167 166 165 166 166 165 166 167 164 165 163 163 166 165 164 166 165 165 165 165 165 165 166 166 166 165 167 167 168 169 166 166 169 166 165 166 165 165 167 166 168 167 167 168 168 167 167 168 170 172 171 168 168 171 171 170 167 170 171 169 169 170 171 170 170 168 168 170 171 171 172 174 168 171 170 168 171 173 173 173 170 170 170 170 170 170 170 169 172 174 172 173 172 171 175 176 
155 156 155 154 154 157 156 154 153 154 154 155 156 156 154 152 154 155 156 157 157 156 155 155 157 155 155 157 157 155 155 157 154 154 154 155 157 159 159 158 156 156 156 155 156 157 157 155 155 156 154 155 156 155 155 157 157 154 154 155 153 153 155 154 154 156 157 157 157 156 155 157 154 155 157 157 157 156 157 157 157 156 156 157 158 158 158 158 160 160 160 160 160 160 159 157 158 158 158 158 159 159 159 160 158 159 160 160 159 160 160 161 162 161 160 159 159 159 160 160 159 159 160 162 164 164 163 161 163 161 160 160 162 163 163 162 163 162 161 161 161 162 163 163 162 160 159 160 161 161 160 161 164 163 162 162 164 164 162 163 162 161 161 161 161 160 161 163 164 162 159 159 161 163 162 161 162 163 164 164 164 163 162 161 161 161 161 161 161 162 163 164 162 162 163 163 163 164 164 165 163 162 162 163 164 164 163 163 161 163 164 164 165 166 165 163 167 167 166 164 162 163 164 164 165 166 166 164 162 163 164 164 165 165 164 164 164 165 166 167 167 165 166 167 166 166 166 165 167 167 167 167 167 168 168 169 168 167 166 166 166 165 167 169 166 167 168 168 166 165 166 167 167 166 165 164 164 164 164 164 165 166 167 167 167 166 166 166 164 166 167 165 165 165 166 165 166 165 163 163 164 164 166 167 166 167 168 168 167 166 165 166 167 166 163 163 165 165 164 165 164 165 166 166 166 166 166 166 168 166 168 166 165 167 166 168 168 165 166 168 166 166 168 167 168 167 167 168 169 169 168 168 168 170 170 167 168 171 172 170 169 169 169 169 169 168 168 168 172 170 169 170 170 169 171 173 169 170 169 169 172 172 171 173 169 169 170 171 171 171 172 172 171 173 172 172 172 172 176 176 
153 155 154 156 154 156 154 153 153 154 154 155 155 155 153 150 153 153 155 159 159 156 154 154 155 154 154 155 156 156 157 157 153 154 156 157 158 159 158 157 158 156 154 153 153 154 155 155 153 155 153 152 154 156 155 157 157 154 154 155 154 154 155 155 152 154 156 158 157 156 157 158 153 155 157 157 156 156 156 156 159 158 157 155 155 156 158 158 159 160 160 160 161 161 159 156 156 157 158 160 160 159 157 157 160 160 160 157 157 158 160 161 161 161 161 160 159 158 159 159 158 159 160 161 162 163 161 159 162 161 161 163 164 164 163 163 162 161 162 163 162 161 160 160 160 161 160 161 163 160 158 160 161 163 164 163 164 165 161 161 166 164 162 161 160 160 162 165 161 162 161 160 160 161 162 162 163 163 163 162 161 162 162 163 160 161 163 163 162 161 161 162 163 163 163 163 163 163 164 165 163 162 161 161 162 163 164 165 162 163 164 165 166 167 165 163 165 166 165 164 164 165 164 162 165 166 166 163 162 163 164 164 164 164 165 165 165 165 164 164 164 165 165 164 164 166 167 163 167 167 166 165 166 167 168 168 168 166 165 166 166 164 166 169 166 167 168 168 167 166 166 167 165 165 165 166 167 167 166 165 167 166 165 164 165 166 166 167 165 166 167 166 166 166 165 165 164 163 163 164 165 164 165 166 164 166 168 168 167 165 164 164 168 165 164 164 164 164 164 164 164 165 166 165 166 166 166 166 166 166 169 167 165 166 165 166 169 166 166 168 166 166 167 167 167 165 166 168 169 169 168 167 164 167 168 168 168 170 170 169 171 169 168 170 171 169 168 168 170 169 169 169 169 169 170 172 169 170 169 170 172 171 170 173 169 169 169 170 170 171 172 172 169 172 171 173 174 173 175 173 
153 154 152 156 152 153 150 152 155 155 155 153 153 153 152 151 153 155 157 158 157 156 156 155 155 155 155 154 155 156 157 156 155 156 157 158 158 157 156 156 158 155 153 153 153 153 155 157 153 155 154 153 154 154 153 155 157 154 154 156 155 155 155 154 153 152 153 156 156 156 157 157 155 156 157 156 155 156 156 156 158 159 158 156 155 157 159 159 156 157 158 158 158 159 159 158 156 156 157 159 159 157 156 156 162 159 158 158 159 158 158 160 160 160 161 160 158 157 157 158 156 158 160 160 160 161 160 159 161 161 162 164 164 163 162 163 163 162 162 162 161 159 158 158 160 161 160 161 164 161 159 161 159 164 168 163 161 163 160 163 165 164 163 162 161 161 163 165 162 162 162 160 160 161 161 161 161 162 162 160 160 162 163 163 163 163 163 163 162 161 160 160 163 163 163 162 161 160 161 162 164 162 161 161 162 162 164 165 161 162 163 162 163 165 164 162 162 164 165 164 165 166 165 162 163 165 165 163 162 164 164 164 163 163 164 165 165 165 164 164 164 165 166 165 163 166 167 164 167 167 166 165 165 166 166 165 166 166 166 167 166 165 165 165 167 166 167 168 168 166 166 167 164 164 164 166 167 167 166 165 167 165 163 163 165 166 166 165 166 166 166 167 167 166 164 164 163 164 166 168 167 165 163 162 164 165 166 166 166 165 165 165 166 164 165 165 163 163 164 165 164 165 165 164 164 166 167 167 164 165 170 168 167 168 164 164 170 166 165 167 166 165 165 164 165 165 166 168 169 168 167 166 165 166 167 168 169 169 168 168 170 170 170 170 171 171 170 168 167 168 169 170 170 170 170 171 168 171 171 171 172 171 170 172 168 168 168 168 168 168 169 170 170 172 170 172 173 173 174 171 
155 154 152 155 151 151 149 153 155 155 154 152 151 153 155 155 154 157 158 154 152 155 156 156 156 158 157 155 154 155 155 154 154 155 156 156 155 154 155 156 156 154 154 156 156 154 156 160 151 154 154 155 155 153 153 156 156 153 154 156 156 155 154 152 157 153 152 154 154 153 154 152 156 157 157 155 154 155 156 156 154 157 158 158 158 159 159 159 154 155 156 155 155 157 159 160 156 155 155 157 158 158 159 161 160 155 155 161 163 161 160 161 159 160 160 158 155 154 156 157 155 158 161 161 160 161 162 162 162 162 162 163 162 161 160 161 163 161 160 160 159 158 159 161 161 161 158 159 163 161 159 163 163 165 166 158 160 166 162 162 160 161 162 164 163 162 163 164 165 163 160 159 161 163 161 158 159 160 161 160 161 162 162 161 164 163 161 160 161 162 162 162 161 162 163 162 161 160 161 162 164 162 162 163 163 162 162 162 161 162 161 160 161 164 164 161 163 165 166 164 164 166 164 162 161 164 165 163 163 164 164 163 163 163 164 164 164 165 165 166 166 167 168 167 164 165 166 165 164 165 165 165 166 167 166 164 164 167 168 167 166 166 165 162 166 166 166 168 168 166 166 167 165 164 163 164 165 166 165 165 167 164 162 163 167 168 166 163 164 163 164 167 168 166 165 164 167 166 166 167 166 164 162 162 165 165 165 165 165 167 167 167 163 163 166 167 164 163 165 167 164 165 165 163 163 165 168 168 167 167 168 166 166 168 166 166 168 163 164 168 168 168 167 164 167 167 169 170 170 168 166 166 169 168 168 168 168 167 167 168 167 169 170 168 169 172 171 168 168 170 171 171 171 170 169 168 167 172 173 170 171 172 171 171 167 167 167 167 167 168 170 171 172 173 169 170 172 172 174 171 
149 150 152 152 152 152 152 152 151 151 153 156 157 156 156 157 156 155 155 156 156 154 153 154 154 155 154 152 153 155 155 156 159 157 157 159 159 156 154 154 158 155 156 158 156 152 153 158 157 152 150 154 155 153 153 155 155 156 155 154 153 154 153 152 151 152 153 153 154 155 155 155 154 154 152 153 154 154 157 155 158 157 155 156 156 156 156 158 156 156 154 152 155 159 160 157 158 158 158 159 160 157 156 160 158 157 159 162 161 159 157 155 156 159 160 159 157 158 159 159 160 160 161 161 158 159 160 158 162 162 161 162 162 161 160 159 160 161 161 161 160 160 161 163 160 162 161 160 162 162 159 159 160 160 161 162 162 162 162 161 157 160 162 162 161 161 161 162 162 160 160 163 163 160 158 160 159 158 159 162 164 164 163 163 164 163 162 162 162 161 160 161 157 161 162 161 161 162 162 161 161 163 162 161 162 161 159 160 165 163 159 158 160 164 164 162 163 165 161 160 164 163 160 162 163 162 162 163 165 165 162 159 163 165 165 164 164 162 161 163 163 164 165 165 165 166 166 166 165 165 166 166 164 166 166 164 166 167 167 166 165 166 166 165 168 167 167 167 168 168 167 165 164 164 164 165 164 162 164 167 167 167 166 165 165 166 165 164 160 163 163 164 164 164 168 167 163 163 163 165 166 167 164 162 163 164 165 165 165 166 166 164 162 160 161 163 165 164 165 167 168 164 162 164 165 165 166 167 167 165 165 167 167 168 168 165 164 166 167 166 166 167 167 165 165 165 165 165 166 168 167 166 168 166 165 166 167 170 170 166 168 171 169 167 171 171 168 169 167 167 168 169 169 170 169 169 172 170 168 167 169 172 172 170 171 170 170 171 171 171 171 172 173 170 169 172 173 171 171 173 
150 151 152 153 154 154 154 153 151 151 152 154 155 154 154 155 156 155 154 155 155 154 154 155 155 156 155 153 154 155 154 155 158 156 155 156 156 154 154 155 156 153 153 155 154 152 152 155 156 156 155 153 154 155 155 153 153 155 155 154 153 153 153 153 153 154 154 154 153 153 155 156 154 156 154 156 157 156 157 155 159 157 155 155 155 155 154 154 157 157 156 154 155 158 158 157 158 159 158 158 158 156 156 160 160 158 158 159 159 160 160 159 160 161 160 158 157 158 159 159 156 157 159 160 158 158 159 157 161 161 161 160 160 160 161 161 161 161 160 160 160 161 162 162 160 162 161 160 162 162 160 160 160 161 162 162 161 160 160 160 162 161 160 160 161 162 161 159 162 161 161 161 161 160 160 160 159 159 160 161 160 159 160 162 160 161 162 161 162 163 162 161 161 161 161 159 158 159 160 161 158 160 160 161 163 162 160 160 160 161 161 161 163 164 164 162 162 164 162 161 164 163 160 162 161 163 164 164 162 161 161 162 164 163 162 164 165 162 160 163 166 166 165 164 164 165 166 165 167 166 166 165 164 165 166 164 164 166 168 166 165 165 165 165 164 165 167 166 165 164 165 166 165 166 166 165 164 164 163 162 167 167 165 164 165 166 166 165 163 166 164 165 165 165 168 166 164 165 166 166 165 164 164 164 163 163 163 163 164 165 165 164 164 162 162 164 165 164 163 163 169 167 165 165 165 164 163 163 166 164 164 165 165 166 167 165 165 166 167 166 166 166 167 166 167 165 164 165 166 166 167 169 167 165 165 166 167 170 171 168 166 169 168 167 170 171 169 169 168 169 169 169 170 170 169 169 171 170 169 168 169 170 171 170 170 170 172 173 172 171 171 171 173 171 170 170 171 171 171 171 
151 151 151 152 153 154 153 152 152 152 153 154 154 154 154 154 154 153 153 153 153 153 154 155 155 155 154 153 153 154 154 154 155 154 155 156 155 154 153 155 155 153 152 153 154 154 154 154 154 156 156 154 154 155 154 152 152 154 155 155 153 153 153 153 155 155 155 154 152 152 154 156 152 154 153 155 155 153 154 152 156 154 153 154 156 157 156 155 157 157 156 156 156 156 157 157 159 159 158 157 158 156 156 160 160 160 159 156 157 159 161 160 159 159 158 157 158 159 159 159 155 156 158 159 157 158 159 157 159 160 161 161 161 161 162 163 164 162 160 159 160 160 159 158 160 161 159 158 160 161 159 160 158 160 161 161 160 160 161 162 162 161 159 159 161 163 163 161 161 162 162 159 158 160 161 161 161 160 159 159 158 158 159 160 160 162 162 160 159 161 161 160 161 161 162 162 161 159 159 160 159 160 160 160 163 162 159 159 158 161 163 164 163 163 163 162 161 163 163 162 163 162 161 163 163 162 161 161 162 163 162 161 164 161 160 163 165 161 159 163 165 165 164 163 164 165 165 164 167 165 166 165 163 164 166 164 164 166 168 168 166 166 166 166 165 166 167 166 165 164 165 166 165 167 167 165 166 168 167 164 168 167 164 163 165 167 166 165 163 164 162 163 164 165 168 166 166 166 166 165 164 163 163 163 163 164 164 163 164 165 165 164 167 164 163 165 166 165 163 163 166 166 165 165 165 166 164 162 164 163 165 166 164 165 166 165 168 167 167 167 166 165 165 166 167 164 163 166 167 165 166 169 166 164 165 166 166 169 171 169 165 168 168 167 170 170 168 168 169 170 171 171 170 169 170 170 172 172 171 169 169 169 169 169 169 170 171 172 171 170 170 172 172 173 172 170 171 172 171 168 
151 151 151 152 152 151 151 150 152 152 153 154 154 154 153 153 152 152 152 151 151 151 152 153 154 152 152 151 151 153 155 155 152 153 155 156 156 154 153 154 154 154 153 153 154 156 155 153 152 151 153 155 155 152 152 154 152 154 156 155 153 152 153 153 155 155 154 153 152 151 152 154 154 155 153 155 155 154 156 155 152 152 152 154 156 157 157 156 155 154 155 156 156 156 157 158 159 159 157 156 158 157 155 157 157 161 161 157 156 158 158 158 156 156 157 158 159 159 158 157 159 158 159 159 158 159 160 158 158 159 160 160 161 161 161 162 165 162 160 159 160 160 158 157 160 161 158 157 159 160 159 159 157 159 160 160 160 160 161 162 160 161 160 160 160 162 163 163 161 161 160 159 158 159 161 162 163 160 158 158 160 161 160 159 162 161 160 159 158 158 159 160 162 161 160 161 160 159 159 161 162 161 159 159 162 162 160 160 160 162 164 163 162 161 162 163 161 162 162 162 162 162 162 163 164 162 160 160 162 164 162 161 161 161 161 163 164 161 160 164 163 163 163 163 164 165 164 162 165 164 165 165 163 164 165 164 163 165 166 167 166 165 165 166 169 167 166 166 167 167 166 165 165 165 165 164 165 168 169 168 168 167 165 164 164 165 165 164 164 164 160 160 161 163 167 166 167 164 162 163 165 165 163 161 163 164 164 164 164 165 164 162 165 164 164 165 166 165 164 164 162 164 164 164 165 167 167 164 164 164 167 168 166 165 166 165 167 165 164 165 166 164 165 166 166 165 165 167 167 166 166 167 166 165 166 167 166 168 170 169 166 168 168 169 169 168 167 167 169 170 170 169 168 167 168 169 171 171 171 170 170 170 169 169 170 169 169 169 169 169 170 172 172 172 172 172 173 172 170 168 
150 152 153 152 152 151 151 152 150 152 153 154 155 154 153 152 151 151 152 151 151 151 151 152 152 150 151 152 151 152 155 154 152 153 154 155 155 153 153 153 153 154 154 153 153 154 154 152 151 151 152 155 154 152 152 154 153 155 156 155 153 152 152 154 154 153 153 154 153 152 152 153 154 155 153 155 155 154 156 155 152 153 153 154 154 154 154 154 154 153 153 155 156 156 156 157 158 158 155 156 159 158 155 155 154 161 161 158 157 157 157 157 156 157 158 158 157 156 156 156 159 159 160 160 160 161 161 158 158 157 157 157 158 159 160 160 160 160 159 159 159 160 160 159 162 162 160 158 160 161 160 160 160 160 160 160 160 160 160 160 159 160 161 160 160 161 161 161 160 158 158 159 159 158 160 163 161 160 159 159 161 162 161 160 161 159 160 161 160 157 158 161 163 160 157 157 156 156 159 162 161 160 157 158 162 162 161 162 162 162 163 162 161 161 162 163 162 161 161 161 161 162 163 163 161 162 163 163 161 161 162 163 158 163 164 163 163 162 163 165 163 164 163 163 163 164 163 161 164 163 165 166 164 164 165 164 163 163 163 164 164 164 164 164 167 166 164 164 165 166 165 163 165 164 163 164 164 164 165 167 164 165 166 165 164 165 164 164 166 167 164 163 162 162 165 164 164 162 161 164 166 165 163 162 163 163 163 162 162 162 162 161 161 161 163 164 164 163 163 164 164 165 164 163 164 166 166 164 164 165 167 168 165 165 166 166 165 162 161 164 166 166 167 168 166 167 168 167 167 168 168 166 166 165 167 168 167 167 168 167 167 167 169 170 169 168 168 167 167 168 168 167 166 165 166 167 168 168 168 169 171 171 171 170 172 170 169 169 169 169 169 170 173 170 170 172 173 170 169 170 
148 150 152 152 151 151 153 154 151 153 154 155 155 155 154 152 151 152 152 152 151 151 152 152 152 149 152 155 152 152 154 151 153 153 153 153 152 152 153 153 152 153 154 153 153 153 153 153 151 154 155 153 152 154 154 152 154 155 155 155 153 152 152 153 153 152 153 154 154 152 151 152 151 153 152 154 154 153 154 153 153 155 155 155 154 154 154 154 154 154 153 154 155 156 156 155 157 157 155 156 159 158 155 154 154 160 159 156 158 158 157 159 157 157 158 157 156 155 157 159 157 157 159 160 161 162 161 157 161 159 157 156 157 159 160 161 159 159 159 159 159 159 159 159 161 162 160 158 160 161 159 159 160 160 159 159 160 160 160 160 159 158 157 158 161 162 161 158 160 157 157 160 160 158 159 162 156 159 161 160 159 159 161 162 160 160 162 163 161 158 157 159 161 160 159 159 159 158 158 159 160 159 158 159 162 161 159 160 161 161 162 162 162 161 161 162 161 159 160 161 160 162 164 162 161 162 162 163 162 162 162 162 156 162 164 161 161 162 162 164 163 163 162 161 162 164 165 165 163 163 166 167 166 165 166 165 164 163 162 163 164 164 164 164 162 164 165 165 163 163 164 166 165 163 164 166 165 163 163 166 162 164 165 165 165 165 165 165 164 167 165 165 164 163 164 162 160 161 164 167 165 163 163 165 165 164 163 161 161 162 163 162 161 162 163 163 163 162 163 163 164 164 163 163 163 165 165 165 165 164 166 166 163 163 166 166 166 164 163 164 166 166 166 167 167 169 169 166 165 169 170 168 167 165 167 168 167 167 167 166 167 166 169 170 168 168 169 169 168 168 169 168 167 167 167 168 168 167 168 169 170 170 169 168 174 172 170 171 171 170 168 167 173 169 167 169 170 169 169 172 
146 148 149 150 150 151 152 154 152 153 154 154 154 155 154 153 151 152 152 151 151 152 153 154 154 149 153 155 151 151 154 150 155 154 153 152 152 152 153 153 152 153 153 154 154 153 154 154 151 154 154 151 151 155 155 153 154 154 153 153 153 151 152 153 152 152 152 154 153 151 151 153 154 156 154 156 155 154 156 155 153 154 155 154 154 155 155 155 154 155 155 153 154 156 156 155 156 157 155 155 158 157 155 155 156 159 156 154 159 158 155 159 156 156 157 157 156 156 158 162 158 157 158 159 159 161 161 157 161 160 159 158 158 159 160 161 160 160 160 160 159 158 157 156 160 161 160 158 160 160 158 158 158 159 159 159 159 159 160 160 158 158 157 158 160 162 161 159 160 158 158 159 160 160 160 161 157 159 160 159 158 159 160 160 159 163 164 161 158 158 158 157 158 160 162 162 162 161 159 157 161 160 159 160 161 159 157 159 161 161 162 162 161 160 160 162 159 157 160 162 160 161 163 161 163 161 160 161 163 164 162 161 158 161 161 160 161 161 160 161 162 163 163 161 161 163 166 167 164 163 165 167 165 164 165 165 164 163 164 165 165 164 164 165 162 163 165 165 164 164 165 166 165 164 164 165 166 166 166 166 164 165 165 165 165 166 166 165 163 165 163 164 164 164 165 163 159 161 165 167 165 162 163 166 165 165 164 163 163 164 164 163 163 163 164 164 163 163 164 164 164 163 162 163 164 164 165 166 164 164 165 166 163 163 165 165 167 167 166 165 164 164 165 164 166 167 167 166 166 168 169 169 167 164 165 166 166 166 167 166 167 166 169 171 167 167 169 169 169 169 169 169 169 169 169 170 168 168 169 171 170 169 167 167 173 171 171 171 171 170 169 169 171 168 167 168 169 169 170 171 
147 148 149 150 151 151 152 153 151 152 152 151 151 152 152 151 151 152 152 150 150 152 154 155 155 149 151 153 149 150 155 152 155 155 154 153 154 154 153 151 152 151 152 154 154 153 153 154 151 150 150 151 152 153 154 155 154 153 152 152 152 151 152 153 151 151 152 153 152 149 150 153 154 155 152 153 152 151 155 155 153 153 153 152 152 154 153 152 152 155 156 153 153 156 157 156 155 157 156 155 156 156 155 156 158 159 153 153 159 158 153 156 157 157 158 159 157 156 157 159 162 159 158 157 157 160 161 158 157 158 159 160 159 159 158 159 159 159 159 160 160 159 157 156 159 161 160 159 162 161 159 158 159 160 160 159 158 157 158 159 159 161 162 160 158 158 159 160 161 160 159 158 159 161 161 159 161 160 157 157 159 161 159 156 157 163 163 156 154 159 162 159 159 160 159 158 158 161 162 161 162 160 158 159 160 159 159 163 163 163 162 162 159 158 159 161 156 156 161 163 160 161 163 161 160 161 162 161 160 160 162 163 163 161 159 161 164 162 159 160 164 165 165 163 161 161 162 162 164 162 164 165 163 162 164 165 162 162 163 165 164 163 162 163 164 163 163 164 166 166 165 163 166 166 164 162 163 167 167 165 167 167 166 165 165 166 166 164 167 167 163 163 164 164 166 163 161 161 162 165 165 162 162 164 162 163 164 165 165 165 163 161 163 163 163 163 163 164 164 163 165 163 163 164 165 163 163 165 163 163 167 168 166 165 165 163 163 166 167 164 163 164 165 165 164 164 165 166 167 166 167 168 167 163 163 165 165 166 168 168 168 166 169 171 166 166 169 168 168 168 167 167 168 169 169 169 166 167 169 172 172 170 170 171 171 170 169 170 170 170 172 173 168 169 169 169 170 171 170 168 
149 150 151 150 149 151 152 153 153 152 151 150 150 150 151 152 152 152 152 152 151 150 151 153 153 152 151 150 150 151 153 155 154 152 152 155 156 154 151 150 152 152 151 151 152 153 153 152 151 151 151 152 153 153 154 156 154 153 153 152 152 152 151 151 153 153 153 154 153 152 153 156 156 153 152 154 154 152 152 154 152 152 153 154 154 154 154 155 154 154 154 154 154 154 155 156 155 156 155 154 154 155 156 156 153 155 153 155 156 156 159 158 155 158 159 157 155 157 159 159 160 158 157 157 156 157 157 155 158 155 157 158 159 159 158 161 158 160 160 158 157 159 158 156 161 159 158 159 159 159 159 161 161 159 157 159 161 161 159 157 159 159 161 162 160 160 161 159 160 160 160 161 161 160 161 162 163 161 160 160 162 162 161 160 158 160 161 159 158 159 162 164 164 156 157 161 159 160 163 160 159 160 161 162 161 159 158 158 157 158 160 161 160 157 156 157 159 157 156 160 160 159 162 160 158 158 160 161 161 160 161 163 161 160 160 162 163 162 161 161 163 164 162 161 163 164 162 162 163 161 163 165 163 163 165 166 162 162 163 164 164 163 164 166 161 164 166 165 165 166 166 165 164 163 165 166 165 166 166 163 165 167 164 162 166 165 163 165 167 164 162 164 165 164 162 161 162 161 161 161 161 162 163 165 163 161 161 163 163 162 163 165 165 162 162 165 167 165 164 164 163 163 162 160 161 164 164 163 164 165 165 164 165 166 165 164 167 167 165 163 164 168 169 166 169 167 165 163 163 164 165 166 167 167 167 167 167 166 166 166 165 165 165 167 168 169 167 165 166 166 168 169 170 170 169 169 169 170 170 168 167 167 168 169 170 170 168 169 173 173 171 172 171 169 168 169 172 173 170 167 
148 149 150 149 149 150 151 151 151 151 151 151 151 151 150 149 149 150 150 150 150 151 152 153 152 152 153 153 153 152 151 152 157 155 154 155 155 153 152 152 153 153 152 151 150 152 153 153 153 152 152 152 152 151 152 154 154 154 154 154 154 154 153 153 155 154 154 154 153 152 153 156 155 154 154 155 155 153 153 154 153 154 155 155 154 153 153 152 155 154 153 153 153 153 154 155 154 155 156 155 154 154 154 153 154 154 152 155 158 157 156 151 154 157 159 158 158 159 158 157 158 157 158 158 156 157 158 158 159 157 158 156 157 160 158 159 162 161 160 160 159 158 158 158 158 157 158 159 159 158 159 161 158 157 156 157 159 160 159 157 158 157 159 160 159 159 160 159 159 158 158 159 159 159 159 160 161 161 161 160 161 161 161 161 161 159 159 160 159 159 160 162 158 156 159 161 160 161 161 156 158 159 160 161 160 160 159 158 159 159 159 160 159 158 158 159 156 156 157 161 160 158 163 163 161 161 162 162 160 158 158 159 161 160 160 161 161 161 161 163 163 164 163 163 165 164 162 162 164 162 163 164 162 162 164 164 163 162 163 164 163 162 162 163 166 166 166 164 164 165 165 165 165 163 164 165 164 165 167 167 162 164 162 161 164 165 163 165 164 162 162 164 167 167 166 165 165 165 164 164 164 164 164 164 162 163 163 162 161 161 160 159 162 162 163 164 164 163 162 162 163 162 162 163 164 164 164 164 165 166 166 165 165 166 165 165 163 164 164 163 164 166 167 166 168 167 166 165 163 163 164 164 167 166 166 167 166 165 165 166 165 165 165 166 168 168 167 166 169 166 164 166 169 171 169 167 168 169 171 170 169 169 169 169 170 172 171 171 172 171 168 168 167 167 167 167 166 167 169 170 
148 149 149 149 149 150 151 151 152 151 150 151 152 152 150 149 149 150 151 150 150 153 153 153 152 152 154 155 155 153 151 152 154 153 153 153 153 153 153 154 152 153 154 152 150 151 153 154 153 153 153 153 152 150 151 153 151 151 152 152 152 152 152 151 155 154 154 153 152 152 153 155 154 153 154 156 155 153 152 153 151 153 154 155 155 155 155 154 155 154 154 154 153 152 153 154 151 153 155 155 155 155 155 154 154 155 153 156 158 157 157 153 153 156 157 157 158 158 157 155 157 157 159 159 156 156 159 158 159 158 159 156 158 162 160 159 160 158 157 158 158 155 155 156 156 157 159 159 158 157 158 160 159 160 159 158 159 161 161 159 157 156 158 160 158 159 161 160 158 157 156 158 159 158 157 157 158 159 159 159 158 158 159 161 160 157 157 160 162 160 160 162 159 160 159 157 157 159 159 156 159 160 160 159 160 161 161 159 159 158 158 159 159 159 159 160 157 157 157 161 159 157 161 160 160 160 161 161 160 158 158 159 161 161 161 161 160 160 162 164 162 162 162 163 166 165 163 164 163 161 163 164 163 163 163 161 162 162 163 163 163 161 161 161 165 164 162 163 163 164 165 166 165 163 164 164 162 163 166 167 162 164 162 161 164 165 164 165 163 162 162 164 166 166 164 163 165 166 165 164 164 165 164 161 161 163 164 163 162 163 161 158 161 163 165 164 163 162 162 162 162 161 161 165 165 163 163 164 165 165 164 163 163 164 164 163 162 163 164 165 165 166 166 166 165 166 166 166 164 163 164 165 166 166 166 167 166 165 165 166 166 166 166 167 168 168 168 168 167 167 167 167 167 167 168 169 167 168 170 170 170 169 169 169 169 172 173 172 171 169 167 168 169 170 171 170 168 168 171 174 
150 150 149 148 149 150 151 151 152 150 149 149 149 150 150 150 150 152 152 150 150 153 153 151 153 152 153 154 154 152 153 154 151 151 151 152 153 153 152 152 150 153 155 154 152 152 152 152 152 153 153 153 152 151 152 154 152 152 153 153 153 153 152 152 153 153 153 152 152 152 152 153 152 152 153 154 154 153 152 152 150 151 153 155 155 155 156 157 154 154 155 156 155 153 153 154 154 153 153 153 154 155 156 156 153 156 155 157 156 155 158 158 155 157 157 156 156 157 157 157 157 157 159 159 156 156 157 157 156 156 159 159 160 163 160 159 158 157 158 159 159 158 157 158 158 159 159 159 159 158 158 159 158 160 159 157 157 159 159 158 159 157 159 160 159 159 161 161 159 157 157 158 159 158 157 156 158 158 159 158 157 157 159 160 159 158 158 160 162 161 160 161 159 161 159 156 156 157 158 159 161 162 161 159 160 162 162 160 158 158 158 159 160 160 159 159 161 159 157 160 160 159 161 158 158 158 159 160 160 159 159 160 160 160 161 162 162 162 162 162 162 163 162 160 163 165 164 164 161 160 162 165 165 164 163 160 161 161 162 163 163 163 162 162 164 162 162 164 166 164 164 165 164 163 165 166 163 162 164 164 163 164 164 164 164 165 164 163 164 163 162 162 163 162 161 160 163 165 164 162 162 165 164 161 161 163 164 164 163 164 162 160 161 164 166 163 162 162 163 163 162 161 162 164 164 163 162 163 164 164 163 162 162 163 163 163 164 164 165 166 166 165 164 165 163 164 166 165 164 163 164 166 165 165 166 167 166 165 165 167 165 166 168 168 168 167 167 168 165 167 169 169 168 167 168 169 167 166 167 168 168 168 168 169 166 169 170 169 170 169 169 170 170 170 170 169 169 169 170 170 
151 150 149 148 148 149 150 151 149 149 149 148 148 147 148 149 150 152 151 149 149 152 152 149 152 151 151 153 152 151 151 153 154 153 152 152 153 153 151 149 151 153 154 153 153 153 152 150 152 152 153 153 152 151 152 154 152 152 153 153 153 153 152 151 151 151 152 152 153 153 152 152 151 153 153 153 152 152 152 152 152 152 153 153 152 152 153 154 153 154 154 155 154 153 153 155 157 155 152 152 153 154 155 155 155 157 155 156 154 153 157 158 157 158 158 156 155 156 158 159 157 156 157 158 157 157 158 156 155 154 158 159 159 159 157 159 157 158 158 157 158 159 160 159 159 159 159 159 158 159 159 159 157 159 160 158 158 159 159 158 160 158 159 161 159 159 161 161 160 158 157 158 158 157 156 155 160 159 159 159 159 159 159 160 160 161 161 160 159 160 159 158 157 158 158 160 161 159 157 160 161 161 160 159 160 162 163 161 159 159 159 159 160 160 160 159 161 160 159 161 160 159 163 160 159 159 160 161 160 159 159 159 160 160 161 161 162 163 162 162 161 165 163 159 161 165 163 161 162 161 162 164 164 164 164 161 161 162 163 163 164 164 164 164 166 164 164 167 167 165 164 164 164 163 166 167 165 163 164 164 163 164 165 165 164 164 164 162 164 164 162 162 162 163 162 162 164 165 164 162 162 165 164 162 163 162 162 163 163 161 159 160 161 163 163 161 160 162 163 162 162 163 163 162 162 163 163 162 165 165 164 164 164 164 165 165 165 164 163 164 164 163 163 163 163 164 165 164 163 162 164 167 163 164 165 166 166 165 165 166 163 165 167 168 166 165 165 166 168 166 165 166 170 171 169 166 167 166 166 167 168 168 168 169 165 167 167 166 169 171 170 170 169 169 168 168 168 168 169 169 
149 149 149 148 147 147 148 150 148 149 151 151 149 148 148 148 149 150 150 149 149 151 151 150 151 150 150 152 152 149 148 150 155 153 151 150 151 153 152 150 153 152 152 151 152 153 152 151 152 152 152 152 152 150 150 151 151 151 152 152 152 152 151 151 151 151 152 152 153 154 153 151 152 153 154 152 151 152 153 152 151 152 152 151 150 150 151 152 153 153 153 152 152 151 153 156 155 153 152 153 154 154 154 154 155 155 152 155 158 158 159 156 155 156 157 156 155 154 156 157 157 155 155 157 157 159 159 157 158 155 158 158 157 156 155 160 158 159 158 155 155 158 159 158 158 158 158 157 158 159 160 159 157 159 160 161 160 160 160 160 160 158 159 160 158 158 159 160 160 158 157 157 157 156 155 155 159 159 158 158 159 159 159 158 159 162 162 159 157 159 160 158 161 159 159 160 159 157 158 160 159 158 158 158 159 160 161 162 160 160 159 158 158 159 161 161 159 161 161 161 157 155 161 161 159 159 160 161 161 160 159 159 161 160 159 159 160 162 163 162 157 162 162 159 162 165 163 160 164 163 162 162 161 163 165 163 163 163 163 163 164 165 165 164 165 164 164 165 165 165 165 165 163 161 163 165 163 162 164 165 163 163 166 166 164 165 166 163 164 164 163 162 162 162 162 162 164 165 164 162 161 163 163 162 163 161 161 163 163 160 160 162 162 162 162 160 160 161 162 162 162 164 164 162 161 164 164 163 165 164 164 165 165 164 165 166 164 163 163 163 164 164 164 164 164 165 166 164 162 161 163 165 163 164 165 166 165 164 164 165 163 165 166 167 166 165 165 165 168 166 164 165 167 169 169 167 167 166 167 169 170 169 168 168 166 168 167 167 170 171 168 167 169 170 170 169 167 168 171 174 
146 147 148 149 148 146 147 149 149 150 151 151 150 149 149 149 149 149 150 149 149 149 150 151 151 149 150 152 152 148 147 149 151 151 150 149 150 152 152 151 152 152 151 150 151 153 152 151 152 151 151 152 152 151 150 150 153 153 153 154 154 154 154 154 152 152 151 151 152 153 153 151 151 154 154 152 151 153 153 152 150 151 152 151 150 150 151 153 152 152 152 153 152 151 153 155 151 151 153 154 155 155 155 156 153 153 152 156 160 160 160 156 153 154 155 155 154 153 154 155 157 154 154 156 157 159 159 157 159 157 159 158 157 158 156 159 160 160 159 158 158 159 159 159 157 158 158 158 158 159 159 158 156 156 157 160 159 157 155 156 159 156 157 159 157 156 157 158 160 159 158 158 157 157 157 158 157 157 157 158 158 158 158 157 158 160 160 158 157 158 160 160 164 159 159 158 155 156 159 158 159 157 156 157 157 156 158 160 159 160 159 157 156 158 160 161 160 161 160 159 155 154 159 159 158 158 159 161 161 160 159 159 159 160 159 158 158 161 162 162 158 160 160 160 163 164 162 162 163 162 162 161 160 162 165 164 163 163 163 162 163 165 165 164 161 162 162 162 163 164 165 166 163 160 161 163 162 162 164 164 164 163 165 166 163 165 167 165 163 164 164 162 161 161 161 160 162 162 163 162 162 161 161 162 161 161 162 163 163 162 162 163 162 162 162 163 162 161 162 163 163 163 163 163 162 163 163 164 164 163 163 164 164 163 163 164 162 164 164 163 164 165 166 165 165 166 166 164 162 161 162 163 164 165 166 167 165 163 163 164 165 165 164 165 166 167 167 166 166 167 167 166 165 166 167 169 168 166 166 169 170 168 167 167 166 170 169 168 169 170 169 168 170 170 169 168 167 168 170 172 
144 146 149 150 148 146 147 149 149 149 148 148 148 148 148 148 148 148 148 148 147 146 147 149 151 149 150 152 152 149 149 152 150 151 152 151 151 152 151 149 150 151 151 151 152 153 152 150 152 151 150 151 152 152 151 150 151 151 151 152 152 153 153 153 152 152 150 149 150 152 152 151 151 154 155 153 152 153 153 152 150 152 153 153 152 151 152 153 150 151 154 155 154 152 152 153 152 153 155 156 155 153 155 157 152 154 153 156 156 155 157 155 155 155 155 155 154 154 155 155 157 154 154 155 155 157 158 156 156 156 159 157 157 160 157 156 156 155 156 159 159 157 155 156 156 159 160 159 158 158 158 157 159 157 158 162 161 156 154 155 158 155 156 159 157 155 157 157 161 160 159 159 159 158 159 161 156 156 157 158 158 158 158 157 161 159 158 158 157 156 157 159 158 156 159 159 156 160 162 156 160 157 156 158 156 153 154 158 156 158 158 156 156 157 159 159 161 160 156 157 157 159 163 160 159 158 159 160 160 158 156 156 156 158 159 158 158 160 161 161 163 161 159 161 163 160 159 163 159 160 162 162 161 163 165 163 162 162 162 161 163 165 166 165 161 163 164 162 162 164 164 163 165 162 163 165 164 163 164 164 165 162 164 163 160 162 166 164 161 163 164 163 163 163 162 161 160 161 163 164 163 162 162 164 161 163 164 162 161 162 161 159 162 162 163 164 163 160 160 162 162 161 162 164 163 162 162 164 164 163 163 164 163 162 162 162 160 164 166 164 163 165 165 164 164 165 165 164 163 162 162 163 166 167 168 168 166 163 163 164 166 163 161 162 165 168 167 166 168 167 166 167 168 168 167 166 170 166 165 166 167 166 166 167 166 170 170 167 167 169 171 173 175 172 169 170 172 172 170 167 
148 150 150 149 147 147 148 148 147 148 149 150 149 149 149 149 149 149 148 147 149 152 153 152 150 151 151 151 150 151 151 150 149 153 154 151 149 150 151 151 152 151 150 150 150 149 149 151 151 151 151 151 151 151 152 152 151 151 151 152 153 153 152 150 148 149 150 151 151 152 152 152 151 153 152 151 152 152 151 153 152 152 152 152 152 152 152 153 151 153 153 151 151 153 152 151 155 153 151 153 155 155 154 153 153 153 153 154 155 155 154 154 156 156 155 155 155 156 156 154 156 156 157 157 157 157 157 158 158 157 156 155 156 158 157 155 156 156 155 155 156 156 157 158 159 158 157 157 157 156 155 155 161 159 156 157 159 157 155 157 157 157 157 156 155 156 155 154 158 159 157 155 158 158 157 156 159 160 159 156 157 160 159 155 154 157 159 158 157 157 158 158 157 157 156 156 158 161 160 157 159 159 159 159 158 157 156 156 160 162 162 158 157 159 159 157 156 159 159 156 156 160 161 160 154 159 158 156 160 160 158 159 159 160 161 160 161 163 164 164 163 163 163 162 160 158 158 160 161 163 164 163 162 163 164 165 165 165 163 163 165 163 161 162 162 163 164 165 164 163 162 162 160 161 162 164 165 164 164 164 165 164 161 160 162 164 163 161 162 161 162 165 166 165 162 161 160 162 162 161 162 164 163 160 161 161 161 161 161 161 161 161 163 162 162 162 163 163 163 163 161 160 159 160 163 162 162 166 161 162 164 165 164 162 162 162 165 164 163 163 164 164 165 165 163 165 167 165 164 165 165 165 163 164 164 165 166 166 165 165 166 166 168 168 166 166 167 166 169 165 166 170 169 164 166 172 168 168 168 167 166 167 170 172 170 170 170 170 170 169 168 168 170 169 169 169 170 171 171 171 
146 147 148 147 146 147 147 147 149 150 150 150 149 148 148 148 150 149 148 148 149 150 151 150 148 150 151 151 151 150 149 147 149 151 152 151 149 149 150 150 151 150 150 151 150 149 150 151 152 152 151 151 151 151 151 151 151 151 151 151 152 152 151 151 149 149 150 150 151 151 152 152 151 153 152 152 153 152 151 153 151 152 152 151 150 150 150 150 150 152 152 149 149 151 153 153 153 152 151 153 154 154 153 152 158 157 155 154 155 156 157 157 156 156 156 155 155 156 155 154 157 156 156 156 156 156 156 155 155 156 156 156 157 158 157 155 157 157 157 157 157 158 158 159 157 156 156 156 157 156 155 156 158 157 156 156 158 155 154 156 158 158 158 157 156 156 156 155 157 158 157 156 158 157 155 156 159 160 159 158 159 160 159 156 158 158 159 158 157 157 158 160 159 159 158 157 157 158 157 155 158 159 159 159 159 159 159 160 158 161 161 158 158 160 160 158 158 159 157 155 155 157 158 158 158 160 158 157 159 160 159 160 160 159 159 159 160 161 161 161 163 162 162 162 161 160 161 163 162 162 162 163 163 162 163 163 164 163 161 161 164 163 162 163 163 164 164 164 164 163 163 163 162 162 162 162 161 160 161 163 165 163 162 162 164 164 163 162 163 163 163 164 164 163 163 163 164 163 162 163 163 163 163 163 161 161 161 161 161 161 161 161 163 162 162 162 162 162 162 162 163 161 159 160 162 160 159 163 164 164 164 164 163 162 161 161 164 163 163 163 164 164 164 164 167 167 165 164 165 166 164 162 163 165 166 167 166 165 164 164 165 164 167 168 167 167 168 166 168 167 168 169 168 166 166 166 168 168 167 166 167 168 170 172 169 169 169 169 169 169 168 168 169 169 168 169 170 171 172 173 
145 147 147 147 147 148 148 147 149 149 148 148 148 147 146 146 149 149 148 148 148 150 150 149 149 150 150 150 149 149 147 146 151 151 151 152 151 150 150 151 149 149 150 151 151 150 150 151 153 152 151 150 150 150 150 150 151 151 151 151 150 150 150 151 150 150 150 150 150 151 151 151 149 151 151 151 151 149 148 152 151 151 152 152 151 151 151 151 151 153 153 150 149 150 152 152 152 151 151 153 153 152 152 152 159 157 155 154 154 155 156 157 155 155 155 154 155 156 157 156 157 156 155 155 156 156 155 154 155 156 157 158 158 158 156 155 155 156 157 157 157 157 158 159 158 156 155 156 156 156 155 156 158 158 157 158 159 156 155 157 157 158 157 156 156 157 156 155 155 156 156 158 159 157 156 159 156 156 157 158 159 158 158 158 159 159 159 159 158 156 157 159 157 157 157 156 156 157 157 157 156 157 158 158 158 158 159 160 156 159 159 158 158 160 161 159 160 158 156 156 157 159 160 160 159 159 158 158 160 159 158 160 161 158 157 159 160 159 158 158 163 162 161 160 160 159 160 161 162 161 161 163 163 162 161 161 161 161 160 161 163 163 161 163 165 164 164 163 163 163 163 164 161 161 162 162 160 159 161 164 164 162 162 164 165 164 163 163 162 162 162 162 162 160 161 162 164 161 160 162 162 161 161 164 162 162 162 162 162 161 161 161 161 161 161 161 161 162 162 162 163 162 160 161 163 162 161 164 165 164 163 162 162 163 163 163 163 163 163 163 164 164 163 162 163 163 162 162 164 166 166 165 164 165 167 166 164 163 163 164 165 164 166 168 167 167 168 166 167 168 167 166 166 168 167 163 169 168 166 166 167 168 169 170 168 168 169 169 169 169 169 169 171 170 169 169 169 170 170 171 
146 147 147 147 148 149 148 146 147 147 147 147 147 147 147 147 147 148 148 148 149 150 150 149 152 151 150 148 147 148 149 148 152 150 149 152 152 150 150 151 148 148 149 151 151 151 150 149 152 152 151 150 149 149 149 150 151 150 150 150 150 150 150 151 151 151 151 150 151 151 151 152 149 149 149 150 150 148 148 153 151 152 152 152 152 152 153 153 151 153 154 153 151 151 151 151 152 151 152 152 152 151 152 153 155 155 154 154 154 154 154 154 155 155 155 154 155 156 157 156 156 155 155 155 155 156 156 156 156 158 159 159 158 157 156 155 155 155 156 157 157 157 157 157 159 157 156 157 157 156 155 155 158 160 159 159 159 156 155 158 157 157 157 157 156 157 157 156 157 156 156 158 160 157 156 160 157 156 157 158 157 156 156 158 158 157 158 160 159 155 155 157 155 155 155 156 157 158 159 159 156 157 159 159 157 157 157 157 155 157 158 157 158 159 159 158 161 158 157 158 160 161 161 162 158 157 157 159 160 158 156 157 161 158 157 160 160 157 156 158 162 161 160 159 159 159 159 159 162 160 160 163 163 161 160 161 159 161 161 162 164 163 161 161 164 164 163 163 162 162 163 163 161 161 162 163 162 162 163 165 164 161 161 164 164 162 162 163 161 161 161 162 162 160 160 160 161 159 159 160 160 159 160 162 162 162 162 162 162 161 160 160 161 161 161 161 161 162 162 163 163 162 160 161 164 163 162 164 165 164 162 161 162 164 164 163 163 162 162 163 164 164 163 163 164 166 167 166 163 162 163 164 165 165 165 164 162 161 163 165 166 164 166 167 167 167 167 164 166 167 165 163 164 168 168 165 168 168 167 166 166 166 167 167 169 170 170 169 169 170 170 170 171 170 170 170 169 169 169 169 
146 147 147 147 147 148 147 145 148 148 147 148 148 148 148 148 147 148 148 148 149 151 151 150 153 151 149 146 147 149 150 150 151 147 147 150 151 149 149 150 149 149 149 150 151 151 149 147 152 151 150 150 150 150 150 150 150 149 149 150 151 151 150 150 151 151 151 150 150 150 151 151 150 150 150 150 151 149 150 155 153 152 152 150 150 150 151 151 151 152 153 153 152 153 153 152 152 151 151 151 151 150 152 154 153 154 155 155 155 154 154 153 157 157 156 155 154 154 154 153 155 156 156 156 156 156 157 157 157 157 158 158 157 156 156 156 156 156 156 157 158 158 157 156 159 157 156 157 157 157 156 156 157 159 159 158 158 155 154 156 158 159 158 157 157 158 157 156 160 158 156 157 160 157 155 158 161 159 158 159 157 154 155 157 157 157 158 159 158 156 155 157 158 157 156 156 158 158 158 157 157 158 160 160 159 158 157 156 156 157 157 157 158 158 158 157 162 159 157 158 160 160 159 159 158 156 157 159 158 156 156 156 160 158 159 161 160 157 157 160 159 159 160 160 160 161 160 159 161 160 161 163 163 161 161 163 160 162 161 161 163 163 161 162 164 164 163 163 163 163 162 162 163 162 163 163 163 162 162 163 164 161 161 163 163 161 161 163 162 161 161 162 163 162 161 161 160 162 162 160 160 161 161 160 161 162 162 162 161 160 160 160 162 162 162 161 161 161 161 161 163 162 160 160 163 162 161 162 165 164 163 162 163 164 163 161 163 162 161 162 163 164 165 164 164 166 168 168 165 163 163 165 165 165 164 163 163 163 165 167 165 164 165 167 166 167 166 164 165 165 165 164 165 167 168 168 167 168 168 167 166 166 166 167 169 170 170 169 169 170 170 170 167 168 169 170 170 170 170 170 
147 148 148 148 147 147 147 146 148 148 148 148 148 147 147 147 149 150 150 149 149 150 150 149 151 150 148 147 148 149 150 149 150 147 147 150 151 149 149 150 149 149 149 149 150 150 149 147 151 151 151 151 151 151 151 151 150 148 148 150 152 151 150 150 150 150 150 150 150 150 150 150 150 151 150 149 150 151 151 154 152 152 151 150 150 150 151 152 153 152 152 151 151 151 152 152 151 151 151 151 150 149 151 153 153 154 154 154 154 154 155 155 156 156 156 155 154 153 153 152 155 156 157 157 156 155 156 157 156 156 155 156 156 156 157 158 156 156 156 157 158 158 157 156 157 155 155 157 158 158 157 157 157 159 158 157 156 155 154 156 158 159 158 157 156 156 156 155 158 156 154 155 158 157 156 158 159 157 157 157 157 155 156 158 158 158 158 157 156 156 157 158 159 157 156 157 159 159 157 156 156 157 158 160 160 159 158 157 158 157 157 158 158 157 157 157 160 159 158 158 160 160 159 158 159 157 158 158 156 155 157 157 158 158 159 160 160 158 159 162 158 159 160 160 160 159 158 157 161 161 161 161 161 161 162 163 162 163 162 160 162 163 162 164 164 164 164 164 164 163 162 162 163 161 160 160 161 161 162 164 165 162 161 162 163 162 162 162 163 161 159 160 161 162 161 161 161 164 164 161 159 160 161 159 161 162 162 162 161 160 160 160 159 160 161 161 160 161 162 162 161 162 160 160 163 163 162 163 163 163 163 162 163 164 163 161 163 162 161 161 163 164 165 165 162 161 162 165 166 166 165 165 164 165 166 166 165 165 166 167 164 163 165 166 166 166 167 165 165 165 166 167 167 165 165 166 165 167 168 168 167 167 168 169 167 169 169 168 167 168 169 168 167 168 169 170 170 170 169 169 
147 149 149 148 147 147 147 147 146 148 149 148 147 146 146 146 150 151 150 149 149 149 149 148 149 149 148 148 149 150 149 148 150 148 148 149 150 149 149 149 149 150 149 148 148 149 149 148 149 150 150 150 151 151 151 151 151 149 149 150 151 150 150 151 149 149 150 150 150 149 149 149 149 151 150 148 150 152 151 150 150 151 151 151 151 151 152 153 153 153 152 151 150 149 150 150 150 150 151 151 151 150 150 152 153 153 153 153 153 153 154 155 153 154 155 154 154 154 154 153 153 155 156 156 156 156 156 156 156 154 154 155 157 157 157 158 155 156 157 157 155 155 155 156 156 155 155 157 159 159 158 157 158 159 157 156 156 156 156 158 157 157 157 156 156 157 157 156 155 156 155 155 158 158 157 158 155 155 156 157 157 157 158 158 157 159 159 156 156 157 158 157 157 156 156 158 159 159 158 158 155 154 155 157 159 159 158 157 159 157 156 157 158 157 157 158 158 158 158 157 158 161 161 159 157 157 159 158 154 155 159 157 157 157 158 158 158 158 160 161 159 160 161 160 158 158 157 156 162 162 161 159 160 162 163 162 160 162 162 161 163 164 163 164 164 164 164 164 164 163 162 161 161 160 160 161 160 161 162 165 164 162 161 162 164 164 163 161 162 160 160 160 160 160 159 160 162 163 163 161 159 158 160 161 160 161 161 161 160 159 160 161 159 160 161 161 160 161 162 163 160 161 160 160 164 165 164 164 161 162 162 162 162 164 164 161 162 161 160 161 163 164 164 163 166 164 163 164 163 162 160 160 163 165 166 166 164 164 165 167 164 163 165 166 164 165 167 166 166 167 167 168 167 166 165 165 165 166 167 168 168 168 169 169 165 168 169 167 167 168 169 168 170 170 170 170 169 169 169 169 
146 148 148 147 146 146 147 147 146 148 149 149 147 146 147 148 150 150 150 149 148 149 149 149 150 150 149 148 149 150 149 148 149 148 148 148 148 148 147 147 148 150 150 148 147 148 149 150 148 149 149 150 150 150 150 150 152 150 149 150 150 148 149 152 149 149 150 150 150 150 149 149 149 153 152 149 152 153 151 148 151 151 152 152 152 151 150 150 149 151 153 153 151 150 150 151 150 150 151 153 152 151 151 151 152 153 153 153 153 153 153 154 153 154 155 155 154 153 153 152 151 152 154 155 156 156 156 156 157 155 154 156 158 157 156 156 154 157 158 157 155 153 155 157 157 156 156 158 160 160 158 157 157 158 156 154 155 156 156 158 156 157 158 158 159 160 161 160 156 159 158 156 157 157 155 155 156 157 158 158 159 159 158 156 156 159 160 157 156 158 157 154 156 156 157 159 159 158 157 157 155 154 153 155 158 159 159 157 158 156 155 157 157 157 157 158 158 159 158 155 156 159 159 157 155 156 161 160 154 156 158 156 156 156 156 156 157 159 159 159 159 161 162 160 159 159 159 159 163 163 161 157 158 163 163 160 157 161 162 163 165 165 164 163 164 164 163 163 163 163 162 161 162 162 163 163 162 160 161 162 162 162 161 162 164 165 163 160 161 161 162 162 162 160 159 159 162 161 160 161 159 158 160 164 160 161 161 160 159 159 160 161 163 163 163 162 160 159 160 160 161 162 160 160 163 163 161 161 162 164 164 162 161 163 162 160 161 160 160 161 163 164 163 162 165 165 166 165 162 160 161 165 163 164 165 163 161 161 163 166 165 164 165 166 164 164 166 166 167 168 167 166 166 167 167 166 165 166 166 168 168 168 168 167 165 168 170 168 168 170 170 169 170 170 170 170 169 170 171 172 
150 147 147 150 150 146 146 150 146 144 146 149 147 145 146 147 148 147 149 150 149 146 147 150 149 148 147 146 147 149 147 144 148 147 147 149 150 149 147 147 150 149 147 145 147 149 150 148 148 149 151 151 151 150 150 149 150 149 148 149 150 150 148 147 151 150 150 150 149 147 148 150 149 149 150 151 151 150 150 151 148 151 153 152 151 151 151 151 151 153 153 151 150 151 150 148 152 151 150 150 150 150 152 153 152 153 152 152 154 153 151 153 153 155 156 155 154 154 154 154 155 156 155 152 152 155 157 156 154 154 154 154 155 156 156 155 157 156 156 157 157 157 157 157 156 155 156 157 158 157 157 157 157 156 156 158 159 160 158 156 154 157 157 155 154 156 158 159 159 156 155 157 158 156 155 155 157 156 156 158 158 158 158 159 157 157 157 155 156 157 157 156 157 156 154 153 155 158 158 157 158 157 156 157 156 156 157 159 156 156 156 157 157 158 157 156 159 157 156 158 160 160 159 157 156 154 159 162 157 158 160 155 157 158 155 160 160 153 158 163 160 158 162 161 161 163 157 158 157 162 163 159 158 161 162 161 161 160 161 163 163 162 162 164 162 163 163 161 161 164 165 164 161 164 163 159 158 160 162 162 162 162 161 161 162 164 164 163 163 160 160 163 163 161 161 164 161 158 161 163 159 158 160 158 162 160 158 158 161 160 159 161 160 162 162 160 161 164 163 160 164 165 162 160 162 162 161 161 160 157 163 162 160 163 160 160 161 162 163 163 164 165 164 162 163 163 163 163 162 160 160 162 162 163 165 161 161 165 163 162 164 163 163 164 163 162 162 163 167 165 163 164 167 168 167 164 168 168 166 164 166 168 167 168 167 170 169 168 168 169 169 171 168 170 171 171 169 168 168 169 
146 146 146 146 146 146 146 146 147 144 145 146 146 146 148 148 148 147 148 148 148 146 148 152 149 149 148 146 146 147 147 145 148 148 148 150 150 149 149 150 148 149 149 149 149 150 149 148 147 148 149 149 149 149 149 149 151 149 147 147 148 149 148 146 149 149 150 151 150 148 148 149 150 149 150 151 151 150 150 150 149 151 151 150 150 151 152 153 151 153 153 151 150 151 150 148 151 151 151 150 149 149 151 153 152 153 152 153 154 153 152 154 153 155 156 155 154 154 154 154 155 155 154 152 152 155 155 153 154 154 155 155 156 157 157 155 155 156 156 156 156 155 154 154 158 157 157 159 159 158 157 157 156 156 157 158 158 157 157 156 155 158 159 157 156 157 157 156 157 155 154 156 157 155 154 155 156 156 156 155 156 158 158 156 157 157 156 155 156 157 157 156 158 157 154 154 155 158 158 156 157 156 156 157 156 156 157 159 157 156 156 157 159 160 159 157 158 157 155 155 157 158 158 156 161 156 157 158 155 159 163 161 159 162 158 160 161 158 161 161 159 159 161 160 160 160 157 157 157 161 162 160 159 160 160 159 160 160 160 161 161 162 162 162 162 163 163 161 160 161 163 163 163 164 163 161 160 161 161 160 163 163 162 161 161 163 162 161 162 160 159 161 162 161 161 162 161 158 160 162 160 160 162 160 158 160 160 161 161 160 159 163 158 160 161 160 160 162 161 158 163 162 160 161 163 161 159 160 161 159 164 163 160 162 160 160 163 164 164 164 164 165 164 163 164 163 163 163 162 161 161 162 165 165 166 161 161 165 163 162 163 162 162 164 164 163 164 165 165 164 164 164 166 167 167 167 168 168 166 165 168 170 168 168 166 169 169 168 169 169 169 169 168 169 170 170 169 168 168 168 
145 147 147 144 144 147 148 145 148 146 146 147 146 149 150 148 148 147 147 147 147 145 147 150 148 149 149 147 146 147 148 148 148 148 149 149 148 148 148 150 146 148 149 149 148 148 147 146 147 147 147 148 148 148 149 150 151 149 148 147 149 149 148 147 148 149 150 152 151 150 149 150 150 149 149 150 150 150 150 151 150 151 151 150 150 151 152 152 151 152 152 151 150 151 150 148 150 151 152 151 150 150 152 154 152 153 153 153 154 152 152 154 152 154 154 154 153 153 154 154 154 154 154 153 154 156 155 153 154 155 155 156 157 158 157 155 153 154 155 155 156 155 155 155 156 156 156 157 157 156 155 154 155 156 158 158 157 156 156 157 155 157 157 156 156 156 155 153 156 154 153 155 156 155 155 156 156 157 156 154 156 159 159 156 156 156 155 154 155 156 156 155 158 157 155 154 156 158 158 156 155 155 156 156 156 155 156 158 158 157 156 158 160 161 159 157 159 157 155 155 157 159 159 159 160 156 157 158 156 158 160 156 159 164 160 158 160 161 162 158 159 161 160 161 161 159 160 159 159 160 160 159 159 159 159 159 160 160 159 159 159 161 161 160 162 162 163 162 161 160 162 164 162 161 161 162 163 163 162 161 162 162 161 161 161 162 162 161 162 160 159 159 160 161 161 159 162 159 160 162 161 162 163 162 157 159 159 159 159 157 157 160 161 161 161 161 160 159 158 158 162 160 159 162 164 161 160 163 162 161 165 164 161 161 160 161 160 162 163 163 163 164 165 164 164 163 163 163 163 162 162 162 164 163 164 160 161 166 164 163 164 164 164 164 164 163 163 163 166 166 166 166 165 165 166 166 166 167 165 165 169 170 169 168 165 167 168 169 169 169 168 167 170 170 171 170 169 169 168 169 
146 148 147 145 145 148 149 146 147 147 149 148 147 149 149 146 145 145 146 147 147 146 147 149 147 148 148 147 146 147 148 150 148 149 149 148 147 147 147 147 148 148 148 147 146 146 147 147 148 147 147 148 148 149 150 151 151 150 149 149 149 149 148 147 149 149 149 150 151 151 151 151 150 149 149 150 151 151 151 152 150 151 151 151 151 152 151 149 150 151 152 151 150 151 150 149 150 151 152 151 151 152 154 155 151 153 153 153 154 152 152 154 152 153 153 153 153 154 155 155 153 154 154 155 156 157 157 155 154 155 155 155 157 158 157 156 154 154 155 156 156 156 156 156 157 157 158 159 159 157 156 156 154 156 157 157 157 156 157 158 156 156 155 154 155 156 155 154 157 155 155 155 156 156 157 158 157 157 156 154 156 158 158 157 156 156 156 155 154 155 156 157 158 157 156 155 156 157 157 157 155 156 156 157 157 157 157 158 159 158 158 158 159 158 157 156 158 157 156 156 158 160 161 161 157 156 158 159 157 157 156 153 158 162 159 155 158 160 159 156 158 162 159 162 161 158 162 161 161 159 158 158 158 158 159 161 162 160 158 159 160 160 160 161 162 161 161 162 161 160 161 164 160 159 159 162 164 163 162 162 160 160 161 161 162 164 164 162 161 161 160 159 159 161 161 159 162 160 161 161 160 160 160 161 161 160 157 157 160 160 159 160 162 161 160 161 159 158 158 161 161 160 159 161 164 163 162 165 163 162 164 163 159 159 161 161 159 161 162 162 163 163 164 165 162 161 161 163 163 162 161 160 162 161 162 160 162 166 164 163 165 164 164 164 164 163 163 163 165 166 167 167 166 165 165 165 165 166 164 164 167 169 168 168 166 166 168 169 168 169 169 167 171 171 171 170 170 169 169 169 
147 147 146 146 146 147 147 147 145 147 149 148 145 147 148 145 144 144 145 147 147 147 149 150 147 147 146 146 146 146 147 148 149 151 151 149 149 149 148 146 151 150 148 148 148 148 149 149 147 146 147 148 149 149 149 150 148 148 149 149 148 147 147 146 151 150 148 147 148 150 151 151 152 150 149 150 150 150 151 152 150 150 150 150 151 152 151 149 149 150 151 151 150 151 151 150 150 151 150 150 150 152 152 152 151 153 153 153 154 152 152 154 154 154 154 154 154 154 155 156 151 153 155 156 156 156 156 156 155 155 154 154 155 157 157 156 157 157 157 156 155 155 155 156 156 156 157 158 158 156 156 156 155 156 156 157 157 157 157 156 158 158 157 156 157 157 157 155 157 156 156 156 156 156 157 159 156 155 154 155 155 154 155 158 157 158 158 157 155 155 156 158 157 157 156 157 157 156 156 157 156 156 157 157 158 159 159 158 159 159 159 158 157 156 156 156 156 156 156 157 158 159 159 159 157 158 159 158 155 156 159 160 157 159 158 156 158 159 157 157 158 161 158 160 160 157 161 160 161 160 159 159 157 157 158 161 163 159 158 161 161 159 160 162 162 160 160 161 161 160 160 162 162 161 160 162 162 161 161 161 160 161 161 162 162 164 163 162 161 162 162 160 159 161 161 160 160 161 161 160 159 157 157 160 160 159 156 156 159 159 158 160 159 158 159 160 160 158 159 162 160 162 160 158 161 163 163 163 163 161 160 160 158 158 161 160 163 163 164 163 163 162 163 164 161 159 159 160 161 161 160 160 162 161 163 162 163 165 162 162 162 163 163 164 164 165 165 164 163 164 165 167 167 167 166 166 164 166 165 164 165 167 167 169 167 166 169 169 167 169 170 167 170 169 169 168 168 168 168 168 
148 146 146 147 148 147 147 147 146 146 148 147 145 146 149 149 148 147 147 146 146 147 149 150 149 148 147 147 146 146 146 147 148 150 150 148 148 150 149 147 151 149 149 149 150 149 149 149 146 145 146 148 148 148 148 149 148 148 149 149 149 148 147 146 152 150 148 146 147 148 149 148 153 151 149 150 150 149 149 149 150 150 149 148 149 152 152 152 149 150 151 151 150 150 151 151 152 152 151 150 151 152 151 149 152 153 152 152 154 153 151 153 155 154 154 153 153 152 152 153 151 153 155 155 154 154 154 154 156 155 154 153 154 156 156 155 156 156 156 155 154 154 155 156 153 153 154 155 155 154 154 155 157 156 155 156 157 157 156 154 158 158 158 158 158 158 156 155 157 157 156 156 155 155 156 158 157 154 155 157 156 154 155 158 156 157 158 157 155 154 155 158 156 155 156 157 157 156 156 156 155 155 156 156 156 157 157 156 157 158 158 158 157 156 157 158 157 157 157 158 158 157 157 156 158 159 159 158 156 156 158 160 158 158 159 158 159 160 157 160 160 161 159 160 159 158 159 159 159 160 161 161 159 157 156 158 162 160 159 162 162 160 160 162 164 163 162 162 162 161 160 160 161 161 162 161 161 161 162 162 162 163 163 163 162 162 161 160 160 162 162 161 160 161 161 160 160 162 162 161 160 157 157 161 158 160 160 159 159 156 155 158 159 159 160 162 162 159 158 159 162 164 162 158 160 163 162 161 163 162 160 160 159 159 164 162 163 162 162 162 162 162 163 164 163 161 160 160 161 161 162 163 160 158 162 162 163 164 162 162 162 163 164 164 164 165 165 164 164 164 165 166 167 167 166 165 164 167 167 165 166 166 167 169 168 166 169 170 166 168 171 168 170 169 168 167 168 168 168 168 
148 147 146 148 149 148 147 146 147 146 147 148 146 146 148 149 149 148 147 146 145 146 147 148 149 148 147 148 147 146 146 147 147 150 149 146 145 148 149 147 149 148 149 150 150 148 148 149 147 145 145 147 148 147 147 149 150 148 147 148 149 150 149 147 151 150 149 148 149 150 149 148 151 149 148 149 149 149 148 148 150 150 149 148 149 151 152 152 149 150 151 151 150 150 150 150 151 153 152 151 151 152 151 149 152 152 151 152 154 153 151 152 154 153 152 152 152 151 151 152 152 153 154 154 154 153 153 154 156 155 154 153 155 156 156 154 154 155 155 155 154 154 156 157 155 155 156 157 157 156 156 157 156 155 154 155 157 158 157 156 157 157 157 157 157 156 155 155 156 156 156 155 154 154 155 156 157 156 156 157 157 155 156 158 155 155 156 156 155 154 154 155 155 154 155 157 159 158 155 154 152 155 156 155 154 154 155 156 156 156 157 157 156 157 158 158 157 157 158 158 158 158 157 157 156 158 158 158 158 157 155 155 158 158 160 157 158 160 156 159 160 159 160 159 159 160 159 160 157 159 160 160 159 158 157 156 158 160 162 161 160 161 161 160 163 163 163 162 162 162 162 161 159 161 162 160 160 162 162 161 161 163 163 163 162 161 160 159 159 160 161 161 160 160 160 160 160 163 162 161 161 158 157 161 161 163 163 162 161 158 157 160 161 161 161 162 161 160 159 158 162 164 161 159 161 162 160 160 160 161 159 162 160 159 164 162 161 160 160 161 162 162 163 165 162 162 161 162 162 162 163 165 158 157 161 162 163 163 161 164 162 163 164 164 164 164 164 163 166 165 165 165 165 165 165 164 164 167 167 166 168 168 167 168 167 166 170 171 166 167 171 169 171 170 168 168 169 170 170 170 
147 146 146 147 148 147 146 144 146 144 145 148 146 144 145 145 145 145 146 146 146 147 148 149 146 145 145 146 146 145 145 147 148 151 150 145 143 146 148 148 149 149 149 150 149 148 149 151 149 147 146 148 149 148 148 150 150 147 145 145 148 150 149 147 149 149 149 150 152 153 152 149 149 147 146 148 149 149 148 149 150 151 151 150 149 150 150 149 150 151 151 151 150 149 149 150 148 151 152 150 150 151 151 150 152 152 150 151 154 153 151 152 154 152 152 152 153 152 152 154 153 153 153 154 155 155 155 155 156 156 155 154 155 156 155 153 155 156 157 157 155 155 155 156 155 155 155 156 155 155 156 157 155 154 154 156 158 159 159 158 156 156 155 155 155 156 157 158 156 157 157 155 153 153 154 155 156 156 155 155 155 156 156 155 157 156 156 157 157 156 155 155 155 153 153 157 160 159 155 153 153 157 159 156 154 154 156 158 156 156 156 156 156 157 157 157 156 156 157 157 158 158 158 159 157 157 154 155 159 159 157 156 156 157 159 155 156 160 155 156 158 155 158 157 158 162 158 160 156 157 158 157 158 159 159 157 154 161 163 159 158 162 162 158 159 161 161 160 160 162 162 161 159 162 162 160 159 161 160 157 159 161 162 162 162 162 161 160 159 158 159 160 161 160 159 158 160 162 160 159 160 157 154 157 159 158 155 155 158 158 157 159 159 159 158 157 159 160 161 160 160 160 159 160 162 160 158 159 155 157 157 161 159 157 163 161 163 161 160 161 163 163 163 164 159 159 161 163 162 161 161 162 162 160 163 163 163 162 160 164 159 161 163 163 164 165 165 164 166 165 164 164 164 164 166 167 163 166 167 167 169 169 167 167 166 165 171 171 165 167 171 168 172 170 169 169 170 171 171 171 
147 147 147 148 145 142 144 147 147 145 144 146 148 148 147 147 148 146 144 145 146 147 149 151 150 149 147 144 145 148 147 145 148 147 149 148 145 146 149 147 147 148 149 150 149 147 147 148 150 146 147 148 149 149 146 148 148 146 146 148 149 149 149 149 150 147 147 149 150 148 148 149 150 147 144 145 148 150 150 148 148 148 149 149 150 150 150 150 151 152 153 153 151 149 149 149 148 150 150 151 152 151 151 154 150 150 151 152 153 153 154 154 153 152 153 153 152 152 153 153 158 153 151 153 154 154 153 154 154 154 152 151 154 158 157 154 156 156 155 155 154 154 153 153 155 158 156 153 154 155 154 154 154 154 154 154 155 156 156 155 154 155 156 156 155 155 156 157 153 155 156 156 156 156 155 154 151 155 155 153 151 154 159 154 157 156 155 156 157 157 157 157 155 158 159 157 157 159 158 154 157 156 155 156 157 157 156 155 157 157 157 158 157 155 156 158 156 156 156 155 157 158 157 154 152 154 157 159 159 158 158 159 160 157 156 157 158 159 158 158 158 159 159 158 158 158 158 158 158 157 159 160 160 162 163 160 159 160 161 160 160 161 161 161 159 159 162 161 160 161 160 162 162 162 159 160 159 159 164 162 160 159 161 163 161 163 163 159 159 161 161 159 158 158 160 160 161 159 157 157 158 159 159 158 160 159 158 157 158 159 160 160 159 161 159 155 157 162 163 160 161 160 160 162 163 161 159 157 156 160 162 160 159 160 161 160 164 162 163 161 160 162 160 161 161 157 157 160 160 160 160 159 163 164 163 163 164 165 164 162 165 164 164 165 164 163 163 163 162 167 166 164 168 165 162 166 164 167 168 168 167 168 169 169 167 167 167 167 167 169 170 169 170 171 170 170 173 173 172 173 
144 145 146 147 146 145 146 147 145 144 144 146 147 147 146 147 147 146 146 147 148 147 146 146 147 147 147 147 148 149 148 147 147 146 148 149 146 148 150 148 147 147 148 148 148 146 146 147 150 146 148 148 148 148 146 149 148 147 146 145 146 149 150 149 147 145 145 147 148 146 145 146 148 147 147 148 150 151 151 149 150 150 151 151 150 148 147 147 150 151 151 150 148 148 149 150 148 150 150 150 152 152 151 153 151 151 152 153 154 154 155 155 153 152 151 151 151 153 155 154 150 151 153 154 151 148 149 152 155 155 154 153 153 155 158 159 154 155 156 155 155 155 155 155 152 154 155 154 153 155 155 154 153 156 157 156 154 154 155 157 153 154 156 157 156 155 154 154 156 156 156 155 154 154 154 153 155 158 155 154 159 157 154 156 155 155 156 157 156 154 154 156 155 155 155 154 155 155 156 156 156 155 155 156 157 157 157 156 158 156 155 156 157 157 157 158 157 158 158 157 157 158 157 156 155 154 156 158 158 158 157 157 159 158 158 158 157 157 158 159 159 159 159 159 159 158 158 158 159 159 160 160 159 160 160 158 158 160 160 159 159 161 162 163 162 161 162 160 160 161 160 162 160 160 159 160 158 158 162 160 161 159 161 161 158 160 162 159 158 159 160 160 160 160 159 158 159 158 158 158 158 158 157 156 160 159 158 157 158 159 160 160 159 160 160 158 158 159 160 159 161 160 160 161 162 161 160 161 158 159 160 160 161 161 161 160 162 160 162 160 160 162 160 161 165 161 161 162 161 161 162 161 160 160 159 159 161 163 163 162 162 162 163 164 162 161 162 163 163 166 166 166 169 167 164 166 167 167 168 170 168 166 167 169 168 169 168 168 170 171 170 168 168 170 170 169 170 170 170 172 
144 145 146 146 146 146 145 144 143 143 145 146 147 147 147 147 144 145 146 148 148 147 146 146 145 145 146 148 148 148 147 148 147 147 149 149 147 148 149 147 148 147 147 147 147 146 146 146 149 147 149 148 148 148 146 150 144 147 148 147 148 150 149 145 148 146 146 149 150 149 148 148 147 148 149 149 150 150 150 150 147 149 151 151 150 149 148 148 148 148 149 148 147 147 149 150 149 151 150 150 152 152 151 152 150 150 151 151 152 152 153 153 150 151 151 151 151 153 152 150 153 153 152 151 150 150 151 153 155 155 154 154 153 153 153 154 155 156 157 156 155 155 155 156 153 153 156 156 152 153 155 152 154 156 157 155 154 154 155 156 154 154 156 156 156 155 154 153 154 155 154 153 153 155 156 156 152 158 160 156 155 154 154 159 156 155 156 157 155 153 155 159 157 155 154 155 155 154 155 158 155 155 155 156 157 157 157 157 161 158 155 155 156 156 156 156 158 159 158 157 156 157 157 157 157 155 155 156 158 158 157 156 157 157 157 157 156 155 156 158 158 158 158 158 158 158 158 158 160 160 162 162 159 159 160 158 157 159 159 158 158 159 161 162 162 160 161 159 159 161 159 161 159 160 159 161 159 158 160 157 160 159 161 160 157 158 160 159 157 158 159 159 160 160 159 157 159 159 159 159 159 159 157 156 159 158 157 157 158 159 159 160 161 161 161 160 158 157 158 160 160 160 160 160 160 160 161 162 160 159 158 160 162 161 161 160 160 159 161 160 160 161 159 161 162 161 162 161 160 161 163 161 163 163 162 161 162 164 164 164 162 163 165 165 162 161 162 165 164 165 165 166 167 167 166 166 166 165 167 170 170 166 167 170 169 168 168 168 170 171 170 168 168 171 171 170 170 169 169 172 
145 147 147 145 144 145 144 143 143 143 144 146 147 147 146 146 144 145 146 147 146 146 146 147 147 145 144 146 146 145 145 147 147 148 149 149 148 149 148 146 149 147 146 147 147 147 146 146 148 147 149 148 147 147 146 150 144 147 149 149 150 151 149 145 145 144 145 148 149 149 149 149 148 148 148 148 147 147 148 148 146 148 150 150 150 150 150 150 146 147 149 149 149 148 149 149 151 152 150 149 151 151 150 150 149 149 150 150 150 150 150 150 152 153 152 151 152 153 151 150 151 152 152 150 150 152 152 151 153 153 153 153 155 157 156 155 153 154 155 155 155 154 155 155 155 152 156 157 152 154 157 153 155 154 153 153 155 157 155 153 157 156 155 154 154 154 154 154 153 153 153 152 153 155 157 157 154 154 160 158 154 158 157 152 155 154 155 157 156 155 156 159 158 157 156 156 156 155 156 157 154 155 156 156 156 156 157 158 160 158 156 155 156 156 155 154 158 158 157 156 155 156 157 157 159 156 155 156 157 157 157 156 157 155 154 155 156 156 155 155 157 157 156 157 157 157 157 157 159 159 161 161 159 160 160 158 156 158 159 159 158 158 158 158 160 158 160 160 160 162 159 160 158 159 160 163 160 158 159 155 158 159 160 160 159 160 160 159 157 158 158 158 158 159 159 158 161 159 158 158 159 159 158 157 158 158 158 158 159 159 159 160 161 161 160 159 157 156 158 160 160 160 160 159 159 159 160 161 160 158 157 160 161 161 160 160 161 160 163 161 160 161 158 159 160 160 161 159 158 162 164 161 163 163 162 161 161 161 161 160 164 165 166 166 163 161 163 165 165 163 163 164 164 165 166 164 163 164 166 169 169 167 167 169 168 168 167 167 169 171 171 170 168 172 173 172 171 170 169 172 
144 147 147 145 143 144 145 144 144 143 143 145 147 148 146 144 146 147 147 146 145 145 145 146 148 145 144 146 147 146 145 146 146 148 147 147 148 148 147 146 148 146 145 146 147 147 146 146 148 147 149 148 147 147 146 150 149 148 147 147 147 148 148 149 146 145 145 147 149 149 149 149 148 147 146 146 146 146 146 146 149 149 149 149 149 150 149 147 146 147 149 149 149 149 149 149 150 152 150 148 150 151 150 149 150 150 150 150 150 150 150 150 153 153 150 147 150 150 150 151 150 150 144 134 130 135 143 147 151 153 154 152 152 155 155 152 152 152 152 153 154 155 155 155 154 150 153 155 153 156 160 155 155 154 153 153 155 157 156 154 158 156 154 153 153 154 155 155 155 155 155 153 153 154 154 153 156 153 154 153 151 155 157 157 154 153 154 157 157 156 154 155 155 157 156 154 153 156 157 156 155 156 157 157 156 156 156 157 155 155 155 156 156 156 156 156 158 157 156 155 156 156 157 157 158 157 156 157 157 156 157 158 157 157 157 157 157 156 156 157 157 157 156 157 157 158 157 157 157 157 158 159 158 159 159 156 156 158 159 158 158 158 158 157 159 158 161 160 160 161 159 160 158 159 160 163 160 157 159 155 158 159 159 159 161 162 161 160 158 159 160 159 158 159 159 160 160 158 156 157 159 159 158 156 158 159 160 160 161 160 160 159 159 160 159 156 155 158 159 158 159 159 159 159 159 160 160 159 159 157 157 159 160 159 159 160 161 160 163 162 161 161 158 160 162 162 162 160 159 163 164 160 161 161 161 161 161 161 160 159 163 163 163 163 162 161 161 163 164 162 163 164 163 164 164 162 163 166 168 167 167 167 167 166 168 169 170 170 170 171 172 171 168 171 171 172 173 171 169 170 
146 147 147 145 143 143 144 144 146 145 144 145 148 149 147 144 145 146 147 146 146 146 146 146 147 145 145 147 148 148 147 145 149 150 147 145 147 147 144 144 147 145 145 146 147 147 146 146 147 146 149 148 147 147 146 148 149 147 147 147 147 146 146 148 148 148 147 148 149 149 148 148 146 146 145 146 147 148 147 146 149 149 148 147 148 150 149 146 148 148 148 148 147 148 148 149 148 150 149 147 149 151 150 150 150 150 150 149 149 149 150 150 150 152 150 150 152 148 144 147 150 143 128 113 112 122 128 128 134 142 150 153 153 153 153 152 156 155 154 155 156 156 155 154 155 151 152 154 153 155 157 154 152 155 156 155 154 155 156 157 156 155 154 153 153 153 153 154 156 156 156 154 153 154 153 152 156 155 152 156 156 152 157 162 157 157 155 154 153 155 156 156 153 156 155 152 151 156 158 157 156 157 157 157 156 156 156 156 154 156 157 157 156 156 156 156 158 157 155 156 156 156 157 158 157 157 157 157 156 156 156 158 156 158 160 159 156 154 156 159 158 158 157 158 159 159 159 158 158 157 158 158 158 159 159 156 158 158 157 156 157 159 160 160 160 158 160 157 157 158 157 159 160 161 161 163 161 158 160 157 158 159 158 157 160 161 161 161 158 160 161 160 159 159 159 159 158 157 157 159 161 160 158 155 157 158 159 159 159 158 158 158 156 158 157 155 156 159 158 155 158 159 159 159 160 161 161 160 157 157 158 159 159 158 159 160 160 159 162 161 161 161 159 161 160 160 161 160 159 162 163 159 160 160 161 163 164 164 164 164 162 161 161 161 161 161 161 162 162 163 164 165 166 165 163 162 162 166 168 166 166 169 169 166 166 169 171 171 170 170 170 169 168 170 170 171 173 172 170 170 
147 146 146 146 145 143 143 144 146 146 145 145 148 150 148 146 144 145 145 145 146 147 147 146 145 145 145 145 147 148 148 146 149 150 146 144 147 147 144 144 146 145 145 147 147 146 146 145 146 145 148 147 147 148 146 147 146 147 148 148 147 146 145 143 147 146 145 145 145 146 145 144 146 146 146 146 147 148 147 146 146 148 148 147 148 150 149 147 148 148 148 148 147 148 148 149 147 150 149 147 148 150 149 150 148 148 148 148 148 149 150 150 149 151 149 149 148 137 129 133 134 126 112 105 114 126 123 111 112 118 129 142 149 151 154 158 155 154 154 154 155 155 154 154 155 153 153 153 153 153 153 152 152 155 157 155 154 154 156 157 154 155 155 154 153 153 153 154 154 155 155 154 154 155 155 155 155 154 154 154 136 133 152 148 150 154 156 153 152 155 157 158 154 156 156 154 154 156 158 158 156 157 157 157 156 156 156 156 156 158 158 157 156 156 156 156 158 157 157 157 156 156 157 158 156 156 157 157 156 155 155 157 155 157 158 158 156 154 155 157 158 158 157 158 159 159 159 158 157 157 159 159 158 159 160 157 159 157 156 155 157 159 160 159 160 158 158 156 156 158 156 157 161 161 160 162 160 158 161 159 158 161 159 157 160 160 159 161 160 161 160 158 157 158 158 158 156 157 159 160 161 160 158 157 157 157 157 156 156 156 156 157 158 158 157 157 158 158 157 156 158 159 160 159 159 160 160 160 156 158 159 159 159 159 159 159 159 158 161 160 159 160 158 160 158 158 160 160 159 160 161 159 159 159 160 162 163 163 163 164 163 162 161 162 162 162 162 163 162 165 165 165 167 165 163 165 162 164 166 166 167 168 169 168 165 167 168 168 169 170 170 169 171 172 170 170 173 172 171 172 
145 143 144 146 147 146 145 146 144 144 144 144 146 148 147 146 146 146 144 143 144 146 146 145 144 145 144 142 143 146 147 146 146 148 144 142 147 149 147 149 147 146 147 148 148 146 146 146 145 145 148 147 147 148 145 146 148 150 149 145 144 146 146 143 149 148 146 146 146 147 147 146 148 147 146 145 145 146 147 148 145 148 149 148 148 149 148 146 147 148 149 149 149 149 148 148 148 151 150 147 147 148 148 148 148 148 148 148 149 150 151 151 144 143 136 132 128 114 107 113 120 112 100 96 110 130 133 124 107 101 104 116 127 132 138 146 147 148 149 151 152 153 154 155 152 153 153 153 154 153 152 153 154 154 154 154 154 155 155 154 154 155 155 154 153 152 154 155 154 155 154 153 153 155 156 156 152 152 157 132 67 74 140 145 133 146 156 157 156 156 156 153 155 156 156 157 156 155 155 157 157 156 156 157 157 157 156 156 156 158 158 157 156 157 158 158 158 157 158 158 156 155 156 158 156 156 156 157 156 154 154 155 158 156 154 156 157 157 155 154 157 156 156 156 158 158 158 157 155 156 158 159 157 158 160 158 158 157 155 155 157 159 158 156 160 158 159 158 160 161 158 158 160 160 158 159 157 156 160 158 157 162 161 159 161 160 157 159 162 161 158 155 154 156 157 157 155 157 159 159 158 157 158 159 159 158 157 156 155 155 157 158 162 159 157 159 159 157 157 159 158 160 160 158 157 157 159 159 156 158 159 159 159 160 160 158 159 158 161 159 158 158 156 158 162 162 164 164 161 160 161 159 163 162 162 163 163 162 162 163 164 163 162 163 162 161 162 163 163 167 164 162 166 165 164 169 164 164 165 166 167 166 166 167 167 167 166 166 168 171 173 173 171 172 170 169 171 171 171 173 
146 146 146 146 146 146 145 144 142 144 145 145 146 147 147 146 148 147 145 143 143 144 144 143 147 146 146 147 145 142 143 147 147 148 146 142 143 148 148 145 146 148 148 146 146 147 146 145 145 145 145 145 144 145 146 146 146 145 143 145 147 145 143 146 147 147 147 147 147 147 147 147 145 145 146 148 149 148 147 147 146 149 150 148 146 147 148 147 149 149 148 147 147 148 149 148 149 148 148 147 146 147 149 148 146 147 149 149 149 151 149 141 132 126 118 114 108 91 88 104 118 103 87 83 81 93 118 129 128 111 94 76 81 105 124 139 130 123 142 146 153 152 152 150 156 154 153 152 152 152 152 157 154 157 157 154 152 153 154 153 156 154 153 152 152 153 154 155 155 156 155 154 153 152 152 153 152 150 160 116 46 44 90 108 91 119 154 163 153 158 155 156 156 157 157 155 156 156 153 155 153 154 156 154 158 155 157 152 157 156 158 156 155 160 160 153 155 156 158 160 159 157 156 157 156 156 157 158 158 157 158 160 159 159 157 156 157 158 158 156 156 157 158 158 157 156 157 157 156 155 155 157 157 156 156 158 157 159 157 157 156 158 157 161 155 137 119 119 135 138 160 164 162 156 159 159 154 156 157 160 163 159 160 158 157 157 154 159 158 157 159 159 157 158 160 161 157 158 157 155 156 158 158 156 158 157 156 156 157 158 158 158 158 155 155 159 159 156 155 157 163 161 159 158 156 155 156 158 159 160 160 160 160 160 159 158 158 161 159 158 161 160 157 159 159 161 162 161 159 158 157 156 162 159 162 163 159 159 163 162 163 163 162 161 162 161 160 163 163 165 165 162 161 164 165 164 165 165 166 168 169 167 165 165 168 167 168 169 169 168 169 170 169 170 170 170 171 170 169 170 
144 145 145 145 145 145 146 146 142 144 144 144 144 145 145 144 143 144 145 145 146 147 146 145 147 145 146 147 146 144 143 144 146 145 145 146 146 147 146 146 146 147 147 146 146 146 146 145 145 145 145 145 145 146 147 147 144 145 143 144 146 145 144 146 149 148 147 147 146 145 145 146 145 144 143 143 144 144 146 148 144 148 149 148 147 148 147 145 146 146 146 145 145 147 148 148 148 148 149 149 148 148 149 147 152 148 145 142 139 142 138 127 118 119 117 110 102 103 113 124 120 114 105 96 79 77 103 125 131 135 115 93 84 99 131 143 109 86 122 136 149 157 153 157 152 154 155 152 151 155 154 153 153 154 154 153 154 155 154 152 153 153 153 153 153 153 153 153 156 156 155 155 155 156 156 156 153 154 153 146 55 34 87 149 152 136 106 123 121 146 157 154 151 151 152 156 150 157 157 156 154 156 155 155 151 151 153 156 157 152 154 158 156 153 156 159 157 156 156 156 156 155 155 157 156 155 155 155 155 154 155 157 157 158 157 156 156 157 157 156 156 156 156 155 155 155 157 158 155 159 160 159 157 158 158 157 153 159 158 159 157 159 162 133 92 49 69 84 57 75 126 128 143 153 154 163 157 157 159 159 159 156 158 156 156 158 156 160 159 158 158 158 157 158 160 159 155 157 158 156 156 158 158 157 157 156 156 156 157 157 158 158 158 156 156 158 158 156 157 158 162 159 157 157 159 160 159 158 158 159 158 158 158 159 159 158 158 159 159 159 160 159 158 158 158 159 160 159 158 158 158 158 160 157 159 162 162 163 164 162 162 163 162 162 163 162 162 165 163 163 163 161 161 163 165 166 164 164 165 167 168 167 167 168 168 167 167 168 168 168 169 171 171 173 172 172 173 172 170 171 
143 143 144 144 145 146 147 148 144 145 145 145 145 145 145 144 144 145 146 146 146 147 146 145 147 146 145 145 146 146 144 143 146 144 145 148 148 146 145 148 147 146 146 146 146 145 145 146 144 144 144 144 144 144 145 146 144 146 144 143 145 146 145 146 149 147 146 147 146 144 144 147 145 145 145 146 146 146 145 146 145 148 149 149 149 149 148 146 145 146 146 144 144 146 148 149 151 150 150 150 149 150 150 147 139 136 134 125 111 110 114 110 110 124 135 129 121 130 138 132 134 127 113 106 109 117 125 125 131 146 141 128 106 97 121 135 110 88 103 122 141 149 153 150 150 152 154 154 154 157 155 148 151 152 152 152 153 154 156 157 152 153 154 154 153 153 153 153 156 154 153 153 155 156 156 155 153 152 160 129 34 25 93 169 166 109 97 101 95 130 132 155 158 159 156 157 153 158 156 154 152 154 153 151 158 154 153 156 158 157 157 157 156 156 157 159 157 156 155 155 155 155 156 157 157 156 156 156 157 156 156 156 156 157 158 157 156 157 157 157 156 156 156 155 155 155 156 157 158 157 157 158 158 156 157 160 159 159 151 157 161 157 120 51 54 61 67 76 49 78 74 141 180 128 165 157 160 160 159 159 158 157 159 157 157 159 158 159 161 159 159 159 158 159 160 158 155 157 158 157 157 158 158 156 155 156 156 157 157 157 157 158 159 159 158 157 155 155 156 157 160 161 161 160 157 155 154 156 158 159 158 158 158 159 159 158 158 158 159 160 159 158 158 157 157 159 159 158 158 159 161 161 159 157 159 162 162 163 164 163 161 163 162 162 162 161 161 163 163 162 162 162 162 162 164 166 166 166 166 167 166 166 167 169 168 167 167 167 167 168 170 171 169 171 171 171 173 172 171 172 
142 142 143 145 147 148 148 148 144 144 145 145 146 146 146 146 148 147 146 145 145 147 146 145 147 147 145 144 145 147 146 143 147 144 144 146 147 146 146 148 147 145 145 146 145 144 144 146 145 144 144 144 144 144 144 145 145 148 146 144 145 147 147 147 147 145 145 147 147 145 145 148 146 146 147 148 148 146 144 144 147 148 148 147 148 149 149 148 147 148 147 145 144 145 147 148 150 148 148 148 147 148 146 141 136 123 112 100 87 90 100 102 119 135 148 145 143 156 160 148 140 132 115 107 122 145 161 165 160 153 145 137 125 114 110 111 104 110 120 126 132 135 149 151 155 152 150 152 151 151 154 152 152 153 155 155 152 151 152 154 153 154 155 153 152 152 154 154 155 153 152 151 153 154 153 153 158 148 156 104 29 31 63 93 135 124 99 111 131 152 139 133 136 150 155 156 161 156 155 156 157 153 155 155 147 153 156 155 155 157 154 153 157 158 156 156 155 155 156 157 157 157 156 157 156 156 158 160 160 158 157 157 156 156 156 156 156 157 157 156 157 157 158 158 157 156 155 155 157 161 159 155 155 159 160 156 155 151 163 154 142 87 66 84 113 105 52 101 78 97 74 87 106 68 99 140 155 155 160 157 158 159 159 157 157 159 159 158 160 159 159 159 158 158 159 157 156 157 157 156 156 157 157 156 155 156 157 157 156 156 156 157 158 160 160 156 154 155 155 155 155 157 160 160 158 156 157 159 157 158 158 158 158 159 159 158 159 157 159 160 157 157 159 157 158 158 158 158 159 161 161 161 159 160 162 162 160 160 162 164 161 163 163 162 162 160 159 161 163 162 163 165 164 162 162 165 166 166 166 167 167 166 168 169 168 167 167 167 167 168 169 170 166 168 168 169 171 172 171 172 
142 142 143 145 148 149 147 146 143 143 144 144 144 144 144 144 147 145 143 142 145 148 148 146 145 146 146 144 145 147 146 143 146 145 143 144 146 147 146 144 146 145 145 146 145 143 144 146 146 144 144 145 145 145 145 146 146 148 147 144 145 147 146 147 146 144 145 148 149 146 146 148 147 146 145 144 144 144 144 146 147 147 147 146 147 148 148 148 147 148 148 146 144 145 146 147 146 145 146 145 142 138 129 118 106 98 95 94 89 95 108 115 125 140 149 149 152 158 158 153 142 114 86 81 105 139 166 184 180 160 136 118 115 118 116 114 103 104 124 125 127 138 139 136 142 148 151 155 153 149 152 151 149 152 155 156 155 153 152 152 152 154 154 153 152 152 153 154 155 154 153 153 153 153 153 153 153 156 157 111 35 46 59 113 109 86 96 112 106 126 111 110 126 136 142 153 158 157 156 153 156 155 157 139 80 97 131 155 154 152 147 150 157 156 154 160 155 155 156 158 158 157 156 156 154 155 157 158 158 156 155 156 155 154 154 155 156 156 155 155 157 158 158 158 157 156 156 155 157 156 156 157 158 158 156 155 161 155 151 106 51 68 122 189 149 61 120 111 50 138 80 39 46 44 32 97 138 159 157 153 155 157 157 155 155 157 158 156 158 157 159 159 156 156 158 157 159 158 156 155 156 157 157 156 155 156 157 157 156 155 155 155 156 158 159 156 155 157 158 157 159 157 157 159 161 160 158 157 155 156 157 158 158 159 158 156 159 157 159 159 156 157 159 157 158 158 158 158 160 161 160 158 160 162 162 161 161 160 160 161 162 164 163 162 162 161 160 162 163 161 163 166 165 162 162 165 163 162 163 165 167 168 168 169 166 167 167 167 167 167 167 167 168 170 170 170 173 173 173 175 
143 142 143 145 147 147 146 144 144 144 144 144 143 142 142 142 144 143 142 142 145 147 146 144 142 144 145 145 145 146 144 142 143 144 144 142 145 148 145 140 146 145 145 145 145 144 144 145 144 142 142 144 145 144 145 146 145 147 146 144 145 145 145 146 147 146 147 148 148 147 146 147 146 146 146 146 146 146 146 147 146 147 148 148 149 148 148 147 148 149 148 147 146 146 147 147 146 145 144 139 130 119 103 88 75 81 91 97 101 110 125 136 133 144 154 155 150 140 131 126 122 111 97 82 84 107 135 156 157 146 127 120 117 119 136 147 132 97 92 113 128 142 142 119 125 140 143 146 149 149 153 150 151 153 153 153 154 156 155 153 150 153 154 153 153 153 153 151 154 154 155 154 153 153 154 155 153 152 156 91 44 71 53 132 126 76 80 93 120 146 147 120 93 107 125 151 144 149 156 155 153 156 147 102 63 61 91 128 148 123 86 84 123 154 158 156 157 157 158 158 158 156 156 158 156 156 157 157 156 154 155 157 157 155 154 155 157 157 156 155 157 157 157 156 156 157 157 157 158 157 156 156 155 156 159 163 146 108 58 39 72 156 150 118 73 105 209 82 22 83 87 44 24 20 45 107 110 157 149 158 157 159 156 155 155 154 156 154 157 157 159 160 157 157 158 157 160 158 156 155 156 157 157 156 157 157 157 157 156 155 155 155 156 158 158 157 156 157 158 157 161 160 159 159 158 156 155 155 155 157 158 158 159 159 157 155 159 158 159 158 156 157 158 158 160 160 159 159 161 162 161 158 160 160 159 160 164 164 160 157 161 162 161 160 162 162 161 162 163 161 162 164 164 163 164 168 163 162 162 165 166 167 167 167 167 168 169 169 169 169 168 167 170 172 172 172 174 174 173 175 
143 143 143 144 145 145 145 145 146 145 144 145 144 143 142 143 144 144 144 144 144 145 144 143 143 144 144 145 145 145 144 144 143 144 144 143 145 148 146 141 145 146 146 145 145 145 145 145 143 141 141 143 144 143 143 145 144 145 144 144 145 143 143 145 146 147 147 145 145 146 146 145 146 146 148 150 150 148 147 146 146 147 148 149 148 147 147 147 148 149 148 147 147 147 148 147 146 142 133 119 105 95 85 74 88 94 93 93 105 121 132 137 133 138 148 151 141 129 119 109 109 113 118 108 106 121 126 123 129 116 112 118 123 126 140 158 150 113 84 110 125 122 134 128 131 134 116 114 129 139 146 144 143 150 154 152 150 151 152 150 151 153 154 153 153 154 154 152 152 153 154 154 153 152 153 153 155 148 154 67 45 68 57 128 108 46 61 89 87 99 149 148 103 114 119 124 118 114 136 155 153 144 120 85 105 90 79 95 98 101 81 71 101 136 149 154 155 156 157 157 156 155 157 159 157 157 156 156 156 155 156 158 158 156 155 156 157 156 156 157 156 156 156 156 156 157 157 157 155 155 153 155 162 161 139 113 64 44 58 90 167 140 65 57 90 75 90 58 28 79 77 38 47 22 49 131 108 161 156 156 160 160 156 157 156 152 155 154 158 157 159 160 158 157 158 157 158 157 157 156 155 155 156 157 157 157 157 157 157 156 155 155 158 158 157 156 156 156 156 157 154 156 157 157 155 154 157 161 157 158 158 159 159 159 158 156 157 159 159 158 158 157 156 158 160 160 160 160 160 161 161 160 159 161 158 158 163 163 160 159 160 161 159 159 162 163 161 161 162 162 162 163 163 163 165 167 165 164 164 165 166 165 165 166 168 169 170 170 170 171 170 168 170 172 171 171 173 173 172 174 
144 144 145 144 144 144 146 147 145 144 144 144 144 143 143 144 143 145 145 145 144 144 145 145 147 145 143 143 144 145 146 147 145 145 144 143 145 147 147 145 144 146 147 145 144 146 145 144 145 142 141 143 143 142 142 143 143 143 143 144 145 143 142 146 145 146 145 142 142 145 146 144 148 147 146 146 145 144 145 146 145 146 146 145 144 144 145 147 147 148 147 146 146 146 146 144 143 133 117 97 82 79 81 79 85 101 103 97 105 119 126 129 110 112 131 145 141 137 130 113 97 95 108 124 145 165 158 138 113 98 102 94 96 112 119 143 148 125 102 110 116 96 93 122 140 127 94 94 118 127 126 120 111 132 150 154 152 152 154 154 154 155 154 152 153 155 156 154 153 153 154 154 153 152 152 152 154 154 149 84 49 36 61 115 79 60 94 146 103 97 103 113 135 134 121 115 150 129 131 137 142 122 90 79 95 100 82 96 92 109 101 86 95 110 123 139 150 152 154 155 154 153 155 158 154 153 153 155 156 155 156 156 156 155 155 155 155 154 155 156 156 156 157 158 158 157 156 155 156 158 161 149 109 76 88 122 92 73 127 137 90 53 69 189 86 58 40 40 57 73 58 54 62 37 51 113 137 161 155 153 158 158 154 157 156 153 156 156 157 156 157 158 156 156 156 154 154 156 157 156 154 153 154 156 158 157 156 156 157 157 156 155 157 155 154 154 155 156 157 158 158 156 156 155 155 155 157 159 157 157 158 157 157 158 157 156 156 160 160 159 160 158 155 158 158 159 159 158 157 158 160 161 158 162 160 157 158 159 159 163 162 163 160 159 162 164 162 161 161 162 163 163 163 163 163 164 166 166 166 166 166 166 167 169 167 168 169 169 169 170 170 168 169 170 170 170 172 172 172 174 
141 145 147 146 145 146 147 147 142 143 144 144 143 143 143 143 147 146 144 143 144 144 144 144 146 146 146 145 144 144 145 146 147 145 144 146 147 147 144 142 143 144 142 141 144 145 144 143 140 142 143 144 145 145 145 145 144 144 144 145 144 143 144 146 145 145 145 145 145 144 145 147 146 146 146 146 146 145 144 143 143 145 149 147 146 148 146 146 149 149 142 139 145 143 134 132 122 114 98 85 89 87 92 91 101 109 109 107 117 135 141 127 102 100 107 115 124 138 139 120 107 96 98 127 159 180 180 157 132 128 130 110 86 83 112 130 130 124 121 117 94 65 75 111 122 114 95 104 112 119 120 109 103 109 139 154 145 132 142 150 146 148 152 153 160 151 153 156 155 154 151 148 159 152 150 156 152 152 138 82 88 66 45 34 51 61 74 103 100 69 75 118 145 132 129 125 162 138 122 132 122 110 97 99 110 95 82 87 114 151 115 80 90 95 123 112 113 120 134 139 152 157 149 158 152 156 155 158 156 153 156 153 154 155 154 154 152 159 155 154 153 160 156 154 154 156 153 165 158 146 105 67 79 99 125 165 160 126 113 89 29 57 127 110 61 126 51 128 103 64 80 42 49 36 61 116 159 155 158 156 158 157 154 159 157 154 159 154 160 154 156 151 155 159 156 155 154 154 153 154 155 155 155 154 155 155 155 155 154 154 153 153 153 155 155 154 156 156 155 154 157 157 156 156 157 157 157 157 155 156 156 156 156 156 157 159 155 156 158 158 158 158 157 157 159 160 160 159 159 160 160 160 158 159 160 160 159 160 161 161 163 160 161 161 158 162 164 158 160 164 166 165 166 168 167 164 166 165 165 165 164 164 166 169 165 166 167 169 170 167 168 173 172 172 171 168 169 171 171 169 
144 144 145 146 145 145 146 147 142 143 144 145 145 145 144 144 145 145 145 145 146 146 146 145 144 144 143 143 143 143 143 143 145 143 141 143 145 145 145 144 143 144 142 142 144 143 142 143 144 144 144 144 144 144 144 144 143 143 143 144 143 142 142 143 148 146 145 144 144 143 145 147 145 146 146 146 145 144 144 144 146 145 147 145 144 146 144 145 142 144 149 147 138 136 130 117 108 99 95 92 97 97 94 97 102 112 116 117 126 138 137 120 120 105 86 81 92 116 131 137 137 131 125 136 158 180 185 170 145 132 128 124 112 91 105 136 128 119 121 121 101 81 88 107 117 117 111 107 98 110 126 134 131 112 126 141 129 110 121 131 111 98 128 143 145 149 155 155 156 151 159 153 149 152 152 154 156 149 129 62 76 88 114 57 46 58 101 119 88 89 57 84 160 129 115 116 128 150 127 119 129 114 110 106 107 99 109 114 121 127 97 87 87 87 100 100 101 96 103 117 116 127 142 148 154 153 148 109 120 151 150 157 155 158 154 156 162 153 158 158 153 154 151 156 161 163 154 127 102 80 64 104 153 165 116 116 173 166 61 50 23 62 60 16 40 72 57 63 67 80 56 38 52 22 104 142 153 157 159 159 155 156 154 154 157 151 155 156 154 159 156 152 153 155 157 155 157 156 155 155 156 156 154 153 154 155 155 155 154 154 154 154 151 153 153 152 154 155 154 154 153 153 154 155 156 156 156 156 156 157 157 158 157 156 156 156 156 157 159 159 159 158 158 158 158 159 159 158 158 160 162 162 160 160 159 158 158 159 160 159 162 162 162 163 164 163 162 162 164 164 163 162 163 165 167 168 167 164 162 163 165 166 167 168 168 169 169 170 171 168 167 170 170 170 170 169 170 171 172 172 
146 143 142 145 145 144 145 147 145 145 145 145 146 145 143 142 144 144 145 145 146 146 145 144 145 143 142 141 142 143 144 144 145 143 142 143 144 144 144 144 142 142 142 143 144 142 141 144 147 147 146 145 144 144 144 145 144 143 143 144 144 143 141 141 147 145 144 144 144 144 144 145 145 146 147 146 145 144 145 147 147 144 146 145 145 147 145 147 145 146 144 139 135 125 111 100 96 103 97 108 95 86 105 97 109 120 122 119 116 119 124 122 125 125 108 95 83 86 102 132 148 157 153 150 158 167 166 155 152 140 124 122 127 108 108 135 147 125 124 130 119 112 121 129 134 129 109 86 83 106 129 153 139 121 130 145 141 133 138 136 125 104 100 101 85 96 140 144 126 123 143 148 152 152 156 149 145 160 105 28 41 121 91 102 91 84 112 58 51 144 159 116 117 117 75 70 70 108 112 101 94 97 132 115 131 130 117 124 124 121 104 119 110 102 110 132 127 105 105 84 75 70 99 108 107 116 98 67 73 106 153 152 151 157 152 152 157 156 153 154 160 158 160 156 139 114 60 56 89 130 141 82 117 165 110 130 97 68 88 95 32 17 46 98 49 50 44 49 89 56 18 45 42 64 139 152 154 157 159 158 155 156 157 157 155 157 159 154 152 155 155 155 156 152 151 152 157 156 155 155 155 155 154 152 154 155 155 155 154 154 155 157 153 155 155 153 154 154 154 156 153 154 155 156 156 155 155 156 156 156 156 157 157 156 155 154 156 156 157 158 158 157 157 157 158 159 159 158 158 159 161 163 161 160 159 158 159 160 160 158 160 163 161 162 166 162 160 165 163 162 162 164 165 165 166 167 167 164 162 163 165 166 167 167 170 170 170 171 172 169 167 168 170 170 171 172 172 171 173 175 
147 144 142 144 146 146 146 147 145 145 145 145 145 144 142 141 145 145 146 146 145 144 143 142 146 144 142 141 142 143 145 146 146 145 145 146 146 144 143 143 141 141 141 144 146 143 142 146 143 143 143 143 142 142 143 143 144 144 144 145 145 144 142 141 145 144 144 145 145 145 144 143 144 145 146 146 145 145 145 146 146 144 145 146 146 147 145 148 144 145 140 132 120 103 97 104 110 107 99 95 88 101 113 120 131 143 146 138 123 108 106 106 111 119 116 116 100 92 97 126 151 171 173 161 158 155 150 149 159 163 146 127 122 109 111 134 117 102 116 147 155 145 137 132 130 138 115 87 91 109 129 156 156 125 125 151 154 135 129 135 135 144 139 126 120 118 113 116 73 78 102 139 142 136 136 139 147 144 78 45 73 91 79 64 65 78 97 88 45 91 161 160 91 85 102 123 94 73 79 97 103 92 78 123 116 121 127 137 126 113 118 134 98 77 100 122 99 101 101 97 112 118 83 83 111 87 86 112 119 106 135 149 148 141 130 139 153 153 153 153 147 136 121 116 87 72 100 94 65 79 118 103 123 164 116 72 44 100 138 69 53 41 94 114 65 120 71 81 62 23 16 54 40 132 158 154 156 154 153 158 157 157 153 156 151 158 156 158 162 155 159 154 158 155 154 154 155 154 154 155 156 156 154 153 155 155 156 155 154 154 156 157 156 158 157 155 155 155 154 156 154 156 157 157 156 155 156 157 157 156 155 155 156 157 157 156 158 158 159 160 160 160 159 160 158 159 159 158 157 158 159 160 158 159 160 161 161 161 160 158 159 162 161 160 162 161 161 166 161 162 163 165 166 166 166 166 165 165 166 166 164 164 165 168 168 169 169 169 171 169 168 170 171 170 171 173 172 171 171 173 
145 145 144 144 147 149 149 146 143 144 144 145 144 144 144 144 148 148 147 146 145 144 143 143 143 143 142 142 142 142 144 146 146 145 145 146 145 144 144 144 141 141 140 143 146 144 143 146 142 143 144 144 144 144 144 144 143 143 144 144 145 144 143 141 145 145 145 145 146 145 144 142 143 143 144 144 144 144 143 143 146 144 145 145 145 146 143 145 147 137 133 121 92 77 82 87 93 95 88 80 85 98 95 114 141 155 157 152 142 126 109 95 92 93 96 112 109 112 117 135 162 175 173 158 149 146 149 161 169 174 163 145 131 116 110 119 113 107 120 152 171 164 150 144 145 148 121 99 103 115 131 135 132 108 107 139 151 128 108 112 141 137 136 152 167 177 147 110 103 126 128 120 80 108 103 88 112 114 93 99 118 69 53 44 75 71 86 89 81 81 81 94 64 59 64 84 122 128 128 122 126 123 77 86 90 93 87 85 91 104 131 113 94 91 105 127 103 111 121 122 106 135 102 69 119 101 85 97 113 111 110 107 119 123 109 116 145 136 134 120 94 72 82 97 108 134 116 86 49 85 140 176 141 127 68 52 79 100 41 103 134 24 71 56 35 88 77 45 53 70 9 46 57 138 152 155 156 157 153 157 154 156 152 154 157 156 150 147 132 127 119 118 150 155 157 150 155 155 155 156 157 157 156 156 155 156 155 154 153 153 154 156 156 157 156 154 154 153 153 155 153 155 156 156 155 155 157 159 158 156 155 156 158 159 159 158 157 157 157 158 159 158 159 160 159 159 159 159 158 158 158 158 157 159 161 161 161 161 160 159 160 161 163 161 158 162 165 163 162 163 162 161 162 166 167 166 164 165 167 167 166 165 166 168 167 168 168 168 169 168 169 172 171 169 169 171 172 170 170 171 
143 145 145 143 144 147 147 144 144 145 146 145 144 143 144 145 147 146 146 145 144 144 144 145 141 142 144 144 143 143 143 144 144 142 142 143 143 144 145 146 143 142 141 143 145 143 141 143 144 145 146 147 146 146 146 146 144 144 144 144 144 145 144 143 147 147 146 145 144 145 144 144 144 144 144 144 145 144 143 142 146 144 145 143 144 146 142 141 140 132 124 107 82 70 71 70 89 83 80 81 77 79 91 107 125 141 141 137 139 136 123 108 98 95 95 103 101 115 135 152 168 166 161 149 143 143 149 162 174 170 153 136 129 134 129 123 126 131 136 149 165 163 151 147 154 157 147 131 118 120 136 121 118 118 108 107 116 125 114 103 123 123 95 122 155 163 145 123 105 109 134 124 94 108 107 96 145 162 139 139 132 147 110 71 110 95 96 141 135 84 59 92 149 110 69 89 119 105 107 111 104 95 87 86 140 168 80 113 139 114 122 88 99 115 102 117 101 103 108 129 124 129 124 114 117 102 109 107 103 101 85 94 95 108 123 120 94 90 87 105 126 78 85 105 158 147 71 88 100 163 177 131 73 107 72 40 58 53 54 89 101 38 57 45 44 70 52 14 63 50 29 32 83 130 156 160 157 151 159 154 157 152 154 145 146 151 151 106 87 95 94 93 94 89 135 156 154 155 156 157 156 155 155 155 155 155 154 153 152 152 153 154 154 155 153 153 154 153 153 155 155 156 157 156 155 155 156 158 157 156 156 157 158 158 157 156 156 155 155 156 157 156 157 158 159 158 158 159 160 159 158 158 157 159 160 159 158 159 160 160 159 160 164 162 157 161 165 159 160 163 163 161 162 166 166 163 164 163 164 167 168 168 168 168 167 169 168 167 168 168 169 173 171 170 170 171 173 172 172 172 
145 145 145 144 143 143 144 144 148 147 146 145 144 143 143 143 144 145 145 144 144 144 145 146 143 143 144 144 144 144 144 144 144 142 141 142 143 143 144 145 144 145 144 143 143 142 141 142 142 143 143 143 143 143 143 143 144 145 145 144 143 144 145 145 146 147 146 144 143 144 145 145 146 146 145 144 144 143 144 144 145 144 145 142 143 144 136 129 117 121 118 105 89 79 80 86 80 69 91 99 99 97 90 99 111 123 121 116 116 114 114 113 122 117 107 96 93 114 143 162 163 140 124 118 122 137 150 161 165 163 138 109 100 122 135 134 133 142 143 142 147 151 152 157 168 164 153 136 132 140 150 134 128 138 137 129 122 138 144 140 113 99 105 128 121 140 148 151 121 78 97 132 136 88 104 144 145 143 146 134 137 145 151 161 183 132 113 99 113 96 90 105 113 102 85 87 101 126 116 118 131 158 176 103 141 191 156 155 193 141 161 154 129 128 118 126 102 123 125 136 109 118 124 116 125 120 119 135 123 93 102 104 96 103 91 70 42 43 65 150 149 121 115 151 165 84 109 139 147 152 127 91 78 96 113 116 58 22 92 101 77 30 43 20 34 50 86 20 19 41 34 74 130 119 116 108 128 130 140 125 130 121 112 103 101 123 148 113 91 111 101 99 116 107 117 154 151 153 155 155 154 152 153 153 154 153 153 152 153 154 154 154 155 154 152 153 155 154 153 154 157 157 158 157 155 155 155 156 156 156 157 157 158 157 156 155 160 158 157 159 159 158 158 160 159 157 156 158 159 158 157 157 156 157 158 158 158 160 160 160 160 162 163 161 159 161 161 159 161 162 163 163 165 166 165 162 165 164 164 166 167 167 168 168 168 169 168 167 169 169 169 171 171 172 172 172 172 174 174 173 
149 148 147 147 144 142 143 147 148 147 145 144 144 144 144 144 144 145 145 146 146 146 146 147 144 143 142 141 142 143 144 144 146 144 143 143 144 143 142 141 144 147 146 143 143 142 141 143 144 144 144 144 144 144 145 145 143 144 144 142 141 142 144 144 142 144 145 144 144 145 145 145 146 146 145 143 141 141 142 144 145 145 145 142 142 140 125 112 112 102 104 105 91 86 89 85 72 101 115 126 138 112 100 111 111 109 98 92 89 84 95 114 124 132 127 104 92 105 135 156 146 101 69 60 76 115 148 165 178 178 156 130 118 131 133 130 126 136 141 137 132 131 138 148 158 167 161 136 137 137 136 136 136 146 154 143 117 130 154 164 164 129 130 161 122 135 160 131 131 130 106 123 133 98 121 156 131 106 90 116 146 141 145 166 190 162 145 109 97 118 121 165 141 121 130 153 125 154 149 92 87 140 166 134 157 156 141 127 143 137 135 124 111 131 125 120 99 91 100 107 113 105 113 112 113 102 84 94 116 98 93 82 127 98 89 97 104 119 172 150 67 77 102 143 99 90 150 183 129 120 133 109 96 72 88 150 83 12 55 67 34 7 34 28 9 36 60 11 50 79 59 143 111 85 110 109 126 120 107 104 99 126 128 150 138 114 103 99 107 71 75 86 108 163 166 149 149 152 155 155 152 151 152 153 154 153 152 153 154 155 155 155 156 154 152 153 155 154 152 153 154 155 156 156 156 155 155 155 158 158 158 158 158 159 159 159 160 157 156 157 158 156 156 158 160 157 155 156 157 157 156 155 154 156 157 158 160 162 162 160 164 166 162 159 162 161 159 163 167 164 162 162 163 164 166 167 165 166 167 167 164 163 166 169 167 168 167 166 169 170 169 170 170 172 173 171 170 172 173 172 
144 146 147 146 145 145 146 145 145 147 145 143 144 145 144 146 147 144 143 145 145 145 145 147 142 143 143 143 143 143 144 143 143 143 143 143 142 142 142 142 143 144 145 141 140 143 142 143 142 145 145 143 143 145 144 141 144 143 142 144 144 144 143 143 142 144 145 145 143 143 144 146 142 144 148 142 141 141 144 140 141 139 147 146 132 126 102 90 89 98 115 105 83 87 81 86 89 95 117 146 150 135 125 119 124 113 101 98 94 79 77 89 114 127 121 110 107 114 141 164 143 106 67 55 66 79 107 151 178 183 172 158 151 150 143 120 106 129 156 158 138 128 136 146 137 140 130 131 140 134 126 151 158 154 151 140 110 104 126 155 166 145 142 160 134 126 112 98 118 154 146 123 116 126 132 110 99 101 80 116 181 180 157 166 154 129 128 137 152 146 137 159 169 165 143 155 152 164 139 99 79 98 111 110 120 122 119 95 104 112 121 97 120 106 128 117 77 77 103 122 131 122 87 98 99 76 92 124 131 99 79 119 150 73 52 73 123 151 125 72 83 141 155 162 133 78 87 109 118 112 109 97 91 55 59 68 57 8 7 22 13 36 82 75 18 13 9 14 68 42 107 145 88 102 150 152 132 94 116 104 83 73 88 113 150 185 100 81 114 73 57 74 79 117 201 166 131 157 154 154 150 156 153 154 155 154 153 154 155 155 155 154 153 155 154 154 155 155 154 156 157 157 157 157 155 154 154 154 156 158 158 156 156 157 156 155 158 160 158 155 155 159 160 159 156 156 156 157 158 158 157 156 160 159 156 158 161 162 162 157 158 160 162 163 164 164 163 160 164 164 163 163 161 161 162 164 163 165 166 165 165 166 167 168 165 167 169 170 170 170 171 172 173 172 172 174 173 170 169 170 
143 145 146 146 146 147 147 146 143 146 147 146 143 139 141 147 145 145 145 146 146 145 144 145 142 144 145 144 143 142 143 143 145 145 144 143 143 142 142 142 144 144 147 144 143 144 142 144 143 143 143 141 142 144 144 143 144 142 142 144 144 144 143 142 143 144 144 143 143 143 143 144 144 144 143 144 145 148 146 144 143 144 137 132 123 99 66 69 84 103 100 86 72 77 82 78 81 94 127 150 155 145 131 127 131 113 106 101 97 90 80 80 84 103 111 114 119 131 156 173 166 130 101 91 89 90 105 133 167 179 175 165 157 153 140 112 94 110 141 167 161 138 134 144 138 108 85 104 130 131 123 142 166 164 151 131 106 103 124 153 155 139 137 152 147 149 132 128 137 127 112 96 93 89 104 131 153 146 118 148 165 170 175 184 151 117 112 108 146 141 105 124 130 97 83 98 86 95 127 96 69 73 120 145 111 103 149 147 106 85 132 106 83 103 92 109 101 117 139 142 138 117 92 114 137 136 131 110 116 150 145 97 46 35 24 29 63 99 85 103 169 171 138 123 125 72 57 88 138 103 37 59 103 41 38 61 43 30 56 37 26 60 76 56 32 67 39 17 41 59 142 108 113 162 177 121 107 118 154 162 134 87 112 105 85 175 183 118 60 65 88 106 80 78 143 145 143 154 152 157 157 152 152 152 155 154 154 154 154 155 154 154 152 154 153 153 154 154 153 155 155 155 155 156 156 156 157 157 154 155 155 155 155 157 157 156 153 157 159 158 158 160 158 154 156 157 157 157 157 158 159 159 159 160 157 158 159 160 162 159 160 161 162 162 163 164 163 162 165 162 161 163 165 165 162 161 164 165 166 165 165 166 167 167 168 169 170 169 169 169 170 172 172 171 171 172 172 170 171 173 
142 143 144 145 145 146 146 145 146 146 146 147 146 141 141 146 145 146 147 146 144 144 144 144 142 145 146 145 143 143 143 144 145 144 144 144 144 144 144 144 143 142 146 146 145 145 142 145 142 141 141 141 142 143 144 144 145 144 143 145 145 145 144 144 145 144 144 143 143 144 144 145 147 146 140 143 142 145 140 141 143 142 131 117 93 65 49 59 81 99 97 89 77 80 85 71 76 98 135 147 149 145 130 133 119 96 93 91 95 103 91 82 82 95 110 130 149 164 179 185 174 145 133 134 130 129 136 147 172 168 155 149 145 143 144 133 114 95 113 151 147 134 152 167 146 131 113 110 113 115 113 126 152 155 150 147 136 123 124 146 145 119 114 136 162 171 158 171 205 178 131 120 154 115 67 131 153 130 148 184 156 127 116 139 153 160 149 123 134 147 117 119 185 156 109 104 151 101 63 83 146 158 166 142 90 71 69 102 92 55 57 87 102 120 131 103 94 88 142 116 89 89 94 156 154 146 147 131 104 119 108 103 84 98 86 113 131 127 141 147 166 166 129 124 155 113 91 114 93 13 27 56 30 29 69 78 39 35 62 78 57 32 25 15 46 117 68 11 41 135 152 133 144 151 128 112 119 145 167 166 107 106 122 113 134 81 88 72 39 77 107 74 128 107 91 116 156 148 154 149 150 160 152 154 153 153 154 154 154 154 155 156 152 154 154 154 155 154 153 154 155 155 155 155 155 156 156 156 156 156 156 156 156 157 157 156 156 157 156 154 155 158 159 158 158 158 158 157 156 156 158 159 157 160 158 157 157 159 163 162 161 162 162 161 162 163 163 162 162 162 164 165 164 163 162 163 166 166 166 166 166 168 168 167 169 169 169 168 168 168 170 171 170 170 172 173 172 171 173 176 
146 147 147 147 148 148 147 145 148 147 145 145 147 145 144 146 146 147 146 144 143 144 145 144 142 144 146 145 145 145 145 145 143 143 144 144 144 143 145 146 141 139 143 144 144 144 142 145 142 141 141 143 144 142 142 143 146 144 143 144 145 144 145 145 144 144 143 143 143 144 145 146 145 147 142 141 141 144 142 144 134 128 111 87 58 43 46 52 64 77 91 97 96 92 85 82 87 109 136 142 142 136 123 123 110 93 84 82 90 101 99 95 100 108 127 153 173 184 190 189 176 157 152 155 152 147 145 150 166 153 131 122 122 131 150 155 134 100 89 106 109 123 150 150 147 133 120 122 124 122 123 144 167 165 157 157 152 138 126 133 140 118 106 113 139 158 156 156 172 169 150 145 166 142 93 148 177 137 159 154 135 136 128 115 127 125 141 122 109 143 163 77 110 167 154 135 150 142 93 60 118 178 124 110 135 132 130 138 135 145 93 81 59 63 160 157 154 137 126 160 161 160 101 120 107 120 143 69 82 88 63 119 137 121 134 148 159 162 167 173 174 163 144 139 146 160 132 135 77 25 19 22 5 42 70 41 13 21 51 80 42 19 36 31 60 91 54 43 118 154 137 120 104 121 137 165 157 124 121 93 84 77 58 79 102 54 21 33 49 70 89 72 122 108 146 119 120 153 151 153 152 155 157 150 153 153 154 154 154 154 154 154 152 155 155 154 155 154 153 154 156 156 156 155 154 154 155 155 158 158 157 157 157 157 157 156 153 155 155 155 157 159 159 158 157 157 156 155 155 155 156 157 157 161 159 157 156 158 162 161 160 161 162 161 162 162 162 160 160 162 164 164 163 162 163 166 166 166 165 165 166 168 168 167 169 168 168 168 169 170 171 172 166 167 170 172 172 171 171 173 
145 146 146 145 146 146 145 143 144 148 147 144 144 145 146 148 146 147 146 143 143 145 146 144 143 144 144 144 145 145 145 144 144 144 145 144 142 141 143 146 142 139 142 143 143 143 141 144 144 142 142 144 144 142 142 143 145 143 142 142 142 143 144 145 144 144 144 143 142 142 144 145 144 145 144 138 141 142 141 136 123 109 84 63 56 52 50 46 47 61 79 95 104 97 94 103 107 126 140 141 136 123 112 108 114 113 101 97 95 91 96 100 98 122 157 179 186 185 181 177 164 156 158 163 159 141 134 149 155 152 127 103 100 127 162 171 147 121 94 94 98 95 104 115 125 115 106 121 142 143 131 142 166 177 173 162 148 143 133 127 132 126 111 98 109 142 156 127 114 124 141 132 128 130 125 152 155 141 165 146 119 123 162 170 165 141 121 130 113 96 112 136 116 118 112 139 122 89 138 121 98 134 110 108 75 75 162 145 149 194 169 156 143 49 95 148 180 176 146 139 83 116 148 153 127 85 96 104 111 87 125 148 155 160 136 149 143 124 129 116 117 128 133 134 181 176 156 121 101 123 59 26 30 14 27 16 10 26 79 59 18 53 71 32 58 88 27 74 140 153 124 109 143 164 167 156 159 101 105 112 94 68 98 159 49 35 42 36 43 69 52 71 83 90 133 84 74 131 148 154 160 149 150 154 155 154 153 153 154 153 152 151 151 154 154 152 153 154 153 153 153 155 156 154 154 155 157 157 156 155 155 156 157 157 156 156 154 155 155 156 157 158 158 157 155 155 155 156 156 157 157 157 158 161 159 158 157 157 160 159 160 161 161 161 161 161 161 160 161 160 160 162 165 165 165 164 164 164 163 163 165 167 167 166 168 169 169 170 171 171 172 172 169 169 171 173 173 172 172 172 
142 143 143 143 143 144 144 143 145 148 146 143 146 149 148 147 146 146 145 145 146 146 145 143 143 143 143 142 143 144 143 142 144 143 144 144 142 141 143 146 145 142 144 143 142 143 141 143 146 144 142 142 142 142 142 144 144 143 142 142 143 143 143 145 146 146 146 144 143 142 143 144 143 142 145 139 141 141 137 122 107 83 71 69 74 76 70 53 53 59 76 93 89 88 106 100 106 124 130 122 104 91 94 97 95 114 117 122 115 97 97 100 98 126 158 170 170 166 160 160 150 152 156 158 142 104 89 114 138 153 146 127 118 136 161 163 151 131 115 115 111 93 82 90 99 122 126 125 140 153 141 138 147 153 153 156 157 161 151 140 127 119 116 130 146 165 171 137 99 108 138 138 135 115 113 131 126 129 148 152 142 113 114 152 164 188 177 153 192 161 126 177 170 142 146 124 119 120 144 131 111 97 114 169 151 121 123 150 138 158 138 121 131 115 93 51 122 156 122 99 89 61 107 144 78 101 78 138 150 123 183 184 177 193 173 165 139 123 142 89 78 106 159 197 196 190 149 83 116 144 74 55 83 30 14 17 15 39 70 21 27 61 56 34 35 39 5 70 165 141 126 154 178 165 151 151 159 123 106 138 110 54 111 113 42 53 56 36 37 29 16 51 150 119 98 131 124 106 142 154 150 152 158 151 153 152 152 153 154 154 153 152 151 154 154 152 153 154 154 154 153 155 156 154 154 156 157 157 156 155 155 155 156 155 155 154 158 156 155 155 156 156 156 156 157 157 157 157 158 158 156 155 156 158 157 159 159 157 161 161 161 162 161 160 160 161 162 162 159 160 162 165 165 165 164 165 164 165 164 164 165 167 168 167 168 168 168 169 170 171 170 169 173 173 173 173 173 173 173 174 
145 146 146 146 146 148 148 148 148 147 144 144 149 151 148 145 146 146 146 146 146 145 145 145 143 143 143 142 142 143 143 142 144 142 142 143 143 143 144 146 144 144 145 143 142 144 141 142 144 143 141 141 141 142 143 143 143 143 143 144 144 144 144 144 146 146 145 144 144 143 143 143 141 139 144 143 138 136 128 111 81 59 65 72 80 86 81 65 60 61 77 81 75 83 104 94 117 123 120 95 68 60 65 71 78 98 118 136 138 126 117 109 94 109 135 153 157 143 126 127 142 153 161 156 134 97 80 99 136 158 162 149 137 140 146 134 111 106 118 129 135 134 109 86 104 137 157 157 153 148 123 107 123 140 152 161 155 147 150 170 159 138 123 143 167 178 176 163 142 124 140 154 158 140 118 105 118 129 129 123 128 96 43 50 119 158 162 132 134 151 128 98 138 115 94 114 87 112 163 172 179 153 120 133 136 138 104 108 140 121 109 109 89 153 138 138 174 183 169 142 140 140 131 155 156 192 168 159 174 130 117 153 140 98 95 131 134 121 146 116 107 172 192 184 171 183 174 75 63 56 29 78 85 53 52 37 33 7 11 10 38 70 64 19 16 35 62 89 181 189 193 157 125 148 147 173 184 150 74 111 124 93 80 57 51 51 42 34 54 24 18 64 107 112 113 163 163 135 120 143 158 151 151 153 152 152 152 154 155 155 154 154 152 155 154 152 154 155 155 156 154 155 155 153 154 156 155 153 157 155 155 155 156 155 154 153 154 154 156 159 159 156 153 151 157 157 157 157 157 156 156 155 157 157 156 160 159 156 160 162 161 161 161 160 160 161 162 162 159 162 166 167 164 162 164 167 165 166 166 165 165 167 168 168 168 167 167 168 169 170 168 167 170 170 171 170 170 170 170 171 
145 146 146 146 145 147 148 148 144 146 146 147 147 145 143 145 148 146 146 146 145 144 145 147 142 143 143 142 142 143 145 145 147 144 142 143 144 143 143 144 142 142 144 142 142 144 142 141 141 141 141 140 141 142 142 142 141 142 143 145 145 143 142 142 143 142 142 142 143 143 143 142 145 141 143 143 123 116 105 89 65 56 58 58 79 85 73 71 57 67 75 61 78 94 97 115 111 106 104 84 73 84 86 87 89 95 115 137 150 154 142 125 110 102 111 131 139 123 112 129 138 155 164 153 133 110 94 100 127 160 172 161 148 142 123 85 62 71 108 140 159 155 131 129 126 143 154 148 135 132 115 101 108 138 160 176 174 151 134 148 167 166 146 137 156 172 157 144 148 150 144 135 133 152 136 129 138 121 94 86 69 33 25 34 72 136 133 125 127 108 116 98 100 130 137 172 162 132 133 123 113 117 120 95 77 101 133 114 113 110 171 202 154 129 116 120 115 161 181 162 161 180 174 182 181 171 147 131 138 121 66 89 128 99 75 87 82 91 131 183 140 142 125 147 167 160 170 125 86 31 19 100 79 81 66 44 79 41 10 11 24 38 32 33 49 47 94 94 139 170 180 159 119 102 111 154 158 139 76 59 99 119 64 45 29 35 25 38 54 21 34 50 28 67 135 157 128 110 106 149 144 150 149 152 154 155 155 155 154 153 153 152 151 154 153 151 153 155 155 156 153 153 152 152 154 156 155 151 155 153 153 154 155 155 154 155 157 154 153 154 155 155 155 156 152 153 155 156 156 156 157 158 161 160 158 161 158 152 155 159 158 160 161 161 160 161 161 161 164 163 163 164 165 165 165 166 164 166 166 164 164 165 167 167 169 168 168 169 170 171 170 169 169 171 173 173 172 171 171 172 
146 148 147 146 147 148 147 147 148 145 144 146 146 144 143 142 144 146 145 144 145 145 144 146 145 146 144 143 145 146 144 143 145 143 142 143 143 143 143 144 143 142 143 145 146 144 143 143 140 142 143 143 142 141 140 139 138 143 142 145 145 143 145 142 141 142 144 144 141 139 140 142 141 145 139 127 113 94 75 67 67 50 56 63 67 67 68 67 74 80 80 70 99 105 110 113 93 96 99 101 107 117 127 132 122 113 122 139 154 167 167 152 128 101 88 111 136 141 139 137 133 152 150 142 126 121 118 110 127 156 174 159 146 128 106 84 77 77 110 137 147 155 153 152 151 158 140 101 81 95 115 124 120 129 160 174 171 151 120 118 141 156 151 148 148 168 164 127 119 136 139 129 132 151 161 156 157 145 131 124 98 73 71 65 86 133 125 108 123 147 138 167 149 125 158 146 152 157 113 87 90 108 158 166 153 78 111 168 190 120 156 198 186 179 174 183 164 164 170 153 124 133 144 111 107 133 124 142 142 121 84 62 62 32 41 82 70 74 150 189 142 57 60 109 150 125 135 98 108 98 20 67 95 100 32 25 78 65 88 47 4 13 18 48 34 60 86 143 104 147 168 163 171 144 108 102 117 149 158 109 92 70 57 29 8 8 6 24 24 0 11 17 9 50 99 143 111 119 88 117 136 142 145 152 151 151 152 152 151 151 153 155 155 153 152 152 153 153 154 155 153 153 153 155 155 155 155 155 154 155 155 155 155 156 156 156 154 154 154 154 155 156 157 157 155 155 154 153 155 158 158 157 159 161 161 160 158 157 158 159 158 159 161 161 160 159 161 164 162 163 164 164 164 164 164 164 164 164 164 165 166 166 166 167 168 169 167 167 171 172 171 174 171 172 172 171 171 173 175 176 
145 145 144 144 146 146 145 146 147 146 145 146 146 145 144 143 144 145 144 143 144 144 144 146 146 146 145 145 146 143 142 144 147 145 144 144 144 144 143 144 142 143 143 143 141 140 142 146 141 141 142 144 144 143 141 141 140 144 143 144 144 142 144 141 143 143 143 142 140 138 139 141 143 145 135 112 88 73 68 68 67 66 70 61 59 63 73 82 91 98 85 93 115 122 130 104 83 86 103 115 119 137 153 148 148 142 140 151 169 182 178 162 137 96 84 102 121 132 133 132 131 141 130 110 108 122 129 135 138 159 156 137 126 125 130 126 127 128 125 120 128 124 115 133 154 159 140 101 75 77 101 125 134 144 159 168 162 139 112 100 118 144 144 139 148 166 166 151 132 149 160 128 115 146 155 142 133 146 160 163 157 146 138 138 159 146 131 105 111 151 163 145 144 97 92 114 150 165 144 163 163 135 175 203 217 157 111 110 138 114 142 161 173 156 145 158 127 117 123 134 103 114 103 104 83 73 57 86 123 88 66 70 75 13 13 61 53 61 135 149 149 27 52 108 135 122 118 86 144 150 48 49 102 46 2 16 16 24 67 72 16 13 16 14 17 56 79 170 107 114 166 177 168 174 117 65 130 169 147 86 38 22 29 17 9 9 7 4 12 11 36 42 18 58 98 93 73 100 122 124 112 128 145 150 153 153 152 151 152 153 153 152 153 152 152 152 152 152 152 152 152 152 154 155 155 154 153 153 157 154 152 154 157 158 156 153 154 155 155 155 155 155 155 155 156 157 156 155 155 157 158 158 159 160 161 161 160 159 160 161 160 160 161 162 161 160 159 160 163 163 164 164 164 164 165 165 165 164 164 166 166 166 167 168 167 168 168 168 170 170 171 172 172 172 171 171 173 174 176 177 
146 145 143 144 146 145 145 148 147 146 145 145 145 146 145 143 145 146 145 144 145 145 145 147 146 146 146 147 147 142 141 146 146 144 143 143 144 144 143 143 139 141 144 145 142 140 141 142 142 141 142 144 145 143 142 142 141 143 142 143 143 142 143 141 144 144 143 141 140 140 141 142 141 137 123 96 71 62 64 66 61 66 76 74 71 64 72 91 99 96 80 108 128 145 153 113 80 80 86 98 113 130 144 147 150 154 148 157 177 187 181 164 140 111 99 91 96 111 114 121 128 118 122 105 95 120 145 150 152 162 143 126 114 122 149 162 159 148 134 127 113 66 47 89 130 151 152 131 110 95 99 117 142 162 166 168 156 136 126 114 112 130 145 139 135 147 158 150 143 163 182 148 116 136 145 128 140 134 138 148 143 141 149 148 143 133 147 134 126 126 125 92 93 132 157 155 183 188 184 181 158 153 168 171 172 166 148 128 103 74 115 153 159 138 113 129 124 90 77 66 94 115 60 65 73 109 77 66 75 89 87 91 60 23 6 13 15 24 97 132 95 56 55 80 101 109 72 71 115 101 47 50 43 29 60 43 13 38 73 49 35 51 12 12 19 35 92 121 147 99 97 139 127 126 98 78 151 96 61 51 42 42 28 12 4 12 13 14 5 11 56 59 15 48 51 54 92 95 118 108 94 118 140 147 151 151 150 148 150 153 154 153 151 152 153 153 153 154 154 152 153 154 155 156 155 153 153 154 155 154 154 155 155 155 155 155 154 155 156 156 156 155 154 154 156 158 158 157 156 156 158 160 159 159 159 159 160 160 160 160 160 159 159 161 162 162 161 161 165 165 165 165 165 165 166 167 166 165 165 166 167 167 168 169 168 168 169 170 169 169 171 171 172 170 170 172 174 174 174 175 
148 146 144 145 147 146 145 150 147 147 146 144 144 145 144 142 144 146 145 144 146 145 145 147 144 145 146 147 147 144 143 148 145 143 142 143 144 144 143 142 140 141 142 145 146 144 142 140 143 141 142 144 144 142 141 142 140 141 141 141 142 143 144 143 144 144 142 141 141 142 141 139 135 121 103 82 65 61 62 59 58 66 73 67 68 72 82 88 84 73 83 121 145 163 155 121 102 87 77 85 98 105 111 119 122 136 141 156 172 176 172 158 140 142 133 110 99 88 74 83 97 112 122 107 112 131 145 146 158 147 123 107 87 100 136 164 168 160 147 123 96 74 70 88 119 148 155 145 144 137 127 128 148 163 160 158 155 150 147 133 119 108 120 124 131 151 163 144 151 168 185 177 149 149 162 149 135 150 162 156 144 122 113 139 142 139 136 136 131 110 122 129 104 133 189 166 165 166 152 136 137 143 129 139 146 136 151 172 166 131 111 146 159 157 144 149 162 145 106 58 59 129 120 59 47 100 90 65 37 73 97 45 21 38 31 27 39 18 29 52 88 135 60 42 22 58 103 71 81 92 64 16 6 49 99 86 13 54 77 36 24 49 13 40 21 25 67 142 154 9 67 118 105 104 81 72 66 52 61 54 77 66 30 5 45 58 28 49 18 7 14 20 10 35 44 52 58 79 103 90 81 105 133 152 151 152 153 152 152 151 152 152 149 152 153 153 154 156 155 153 155 155 155 155 154 153 154 156 153 154 155 156 154 153 154 156 153 154 154 155 155 155 155 154 155 157 158 157 156 156 159 161 159 159 158 159 160 160 160 159 161 160 159 160 162 163 163 163 165 165 165 166 166 166 167 167 167 166 166 167 168 168 169 170 169 168 170 172 170 171 173 171 172 171 171 174 175 173 172 173 
148 146 144 145 147 145 144 148 147 147 146 144 144 145 144 141 142 144 144 144 145 144 143 145 143 145 145 145 146 146 145 147 146 144 143 144 144 144 143 142 143 142 142 142 143 144 144 143 142 142 143 144 142 140 140 141 141 141 141 140 141 144 144 145 145 144 142 141 142 141 135 127 120 103 84 69 57 56 58 57 62 61 61 56 60 74 87 81 71 62 86 121 151 169 162 143 116 94 89 95 91 88 87 79 92 104 122 143 154 157 156 147 147 157 153 141 123 86 61 63 74 91 109 124 137 129 139 153 140 127 126 120 99 108 129 149 145 117 113 121 110 102 106 113 128 137 127 122 142 158 152 145 163 161 143 127 131 146 156 154 134 110 108 113 133 155 164 148 143 155 168 175 167 170 184 179 148 139 148 136 136 137 112 117 151 134 99 125 147 144 150 152 148 156 154 145 143 149 153 147 146 131 122 142 163 150 129 104 137 164 178 159 147 164 163 162 165 151 129 120 71 120 112 77 84 94 112 156 105 82 99 33 40 36 28 81 91 60 63 73 131 165 100 59 90 144 169 152 81 110 148 91 22 25 49 37 23 60 61 20 23 14 45 64 35 73 78 109 104 17 51 72 89 82 56 31 5 30 47 40 37 105 123 88 130 120 113 109 47 9 8 16 38 64 80 69 56 89 111 62 50 84 123 143 148 148 149 153 154 152 151 152 149 151 151 151 151 153 153 152 153 153 154 154 153 152 153 155 156 153 152 154 156 156 154 153 153 153 153 153 154 154 155 155 156 156 157 157 156 157 159 160 162 160 159 159 160 160 159 158 161 161 160 160 160 161 162 162 162 163 164 164 165 165 165 165 167 167 167 168 168 168 169 171 170 168 170 172 171 173 174 171 174 173 174 176 175 174 174 176 
147 147 145 145 147 145 144 147 147 147 146 145 145 145 144 142 142 144 144 144 145 145 144 145 143 146 145 143 144 145 144 144 147 145 144 144 143 142 142 142 140 143 144 144 143 142 143 143 141 142 143 142 140 139 140 141 143 142 143 141 141 144 143 144 143 143 141 141 143 139 125 110 91 85 75 63 53 52 58 63 67 60 61 64 72 84 97 88 60 68 97 131 163 169 164 143 123 117 119 122 117 110 99 86 82 85 103 124 136 141 141 138 151 162 165 158 133 102 86 79 73 83 92 108 127 140 144 126 112 110 131 135 124 132 139 150 133 111 107 119 125 127 133 137 141 117 84 80 112 146 161 164 153 148 138 127 135 152 154 153 148 130 127 132 135 148 156 141 124 140 156 149 144 159 171 171 175 151 144 138 109 109 133 126 151 161 137 164 180 187 180 171 142 135 135 129 128 152 172 161 165 173 131 109 174 202 179 138 140 146 141 147 160 132 131 121 138 157 123 105 91 83 97 119 160 159 97 132 179 181 168 107 56 82 121 130 99 60 142 163 162 165 106 119 175 175 169 164 62 75 160 184 103 28 12 5 19 39 13 54 59 56 84 70 18 111 147 83 53 72 74 68 97 117 99 23 12 39 41 44 42 36 66 76 57 31 84 94 70 15 14 42 40 60 61 59 66 76 109 63 55 83 119 141 152 149 148 150 152 152 151 152 150 151 151 151 151 151 151 151 151 152 153 155 154 153 153 154 154 152 152 154 155 154 154 155 157 156 155 154 154 155 156 157 158 157 156 156 157 157 157 158 161 159 158 158 159 159 158 157 157 159 160 161 161 161 161 160 161 162 163 164 164 164 164 164 167 166 167 168 169 168 169 170 169 168 169 171 172 173 173 171 173 173 173 173 173 174 176 178 
146 147 146 146 148 147 145 146 147 146 146 146 146 145 144 144 143 145 144 144 145 145 145 147 145 146 144 143 144 144 143 145 146 145 144 144 143 142 142 143 140 143 146 145 144 143 142 141 140 143 143 141 140 142 143 142 144 142 143 140 141 144 142 143 142 142 141 140 141 132 110 88 72 76 71 59 51 51 56 60 64 71 68 62 77 101 115 99 84 89 107 134 158 155 150 128 116 121 125 129 134 130 117 107 94 92 102 113 127 133 128 133 149 163 171 154 128 112 104 100 104 95 79 95 130 140 118 99 93 106 135 151 154 144 138 148 149 149 149 152 148 139 139 146 134 103 82 92 118 141 154 157 154 138 124 124 145 161 154 144 147 139 138 149 149 153 150 128 120 141 153 135 120 136 151 148 138 156 155 168 143 119 157 166 172 181 164 167 169 178 151 127 122 112 138 156 119 98 147 165 141 151 164 141 146 147 132 107 144 134 73 72 133 150 129 125 92 100 103 73 128 141 141 174 172 152 101 104 139 137 151 84 35 119 155 122 46 84 140 153 138 136 82 107 140 111 115 123 35 83 142 137 88 62 69 46 56 39 81 60 60 105 99 75 49 97 151 134 97 114 130 134 116 94 126 122 21 19 28 21 46 23 8 6 10 13 0 21 94 70 13 34 24 30 19 25 55 55 88 77 60 69 94 124 134 141 147 149 150 151 151 150 151 150 151 152 152 151 151 153 151 152 153 155 155 154 153 153 151 152 154 155 153 151 153 157 158 157 156 155 155 156 157 157 157 156 155 156 156 156 156 158 158 157 156 157 158 159 158 158 155 157 160 161 162 162 162 161 162 163 164 164 164 165 165 166 166 165 166 168 168 168 168 169 169 170 170 170 172 172 171 172 171 173 173 172 172 175 177 176 
144 146 146 145 147 147 145 145 146 144 144 146 146 144 143 144 144 145 143 142 144 144 145 148 146 145 143 145 146 143 143 147 145 145 145 145 144 144 145 147 146 145 143 142 143 144 143 141 140 143 143 141 141 144 145 143 143 140 142 139 140 144 141 142 143 142 140 138 136 123 94 67 73 78 67 49 44 47 47 46 53 60 57 56 77 95 105 96 100 94 111 140 158 150 135 116 106 101 111 125 129 130 124 109 105 104 108 109 121 124 113 124 149 155 154 131 118 113 111 129 131 111 113 128 126 124 108 99 100 112 127 143 154 129 125 146 165 178 185 180 162 143 140 146 139 112 105 122 135 144 151 152 153 136 117 119 137 148 143 133 142 157 148 153 157 146 129 119 130 145 143 131 116 126 149 138 125 133 144 157 155 150 159 157 145 140 145 138 130 147 135 113 146 167 169 178 165 120 101 174 150 105 168 153 136 157 117 71 118 161 115 124 125 150 110 81 96 125 152 142 169 176 108 127 139 123 103 127 128 132 121 27 28 76 105 64 18 83 94 106 100 97 114 113 154 146 115 97 66 96 104 108 52 117 160 147 117 103 134 79 96 78 106 135 80 79 156 146 92 79 137 127 140 138 139 148 48 13 8 22 98 78 21 51 86 60 32 49 34 76 26 6 41 61 28 35 47 57 61 75 63 69 62 60 76 103 131 143 147 152 153 151 150 148 150 153 153 151 151 154 152 151 151 153 153 153 152 153 153 151 150 153 155 154 154 155 156 155 154 153 153 154 155 155 155 154 154 155 155 155 156 158 156 156 156 157 159 160 160 160 159 160 160 160 161 162 162 160 162 162 163 163 163 164 165 166 165 165 166 168 168 168 168 168 168 172 170 169 172 171 170 173 171 174 175 173 174 177 176 173 
150 147 145 145 147 147 145 143 146 146 145 144 143 143 144 146 146 145 145 146 146 145 145 145 145 144 144 145 144 143 144 146 143 144 144 143 145 144 144 146 145 144 142 142 144 144 143 142 141 142 140 142 147 144 139 140 142 143 144 144 144 144 143 141 139 141 142 138 125 109 79 68 78 85 74 58 40 36 36 45 60 55 57 49 61 82 97 102 90 84 119 137 151 139 124 93 73 70 85 99 107 110 101 101 112 104 100 114 104 88 83 94 123 135 134 104 68 86 109 137 148 149 140 129 134 127 114 124 132 133 129 133 119 96 95 127 165 181 191 188 178 163 155 159 150 124 122 143 152 146 142 142 145 144 136 130 137 148 148 142 144 147 144 144 143 127 113 114 119 136 139 128 123 130 142 151 145 131 136 142 145 152 154 157 146 125 116 143 147 138 158 136 123 160 169 154 173 170 141 163 157 135 163 135 108 155 127 86 125 147 128 128 99 86 131 151 159 133 109 112 145 140 96 122 116 113 149 134 126 134 80 22 16 52 104 42 23 34 14 10 17 69 103 136 144 138 143 169 144 77 79 120 104 144 146 148 107 91 107 124 160 92 129 169 64 26 90 131 78 47 118 133 158 140 79 59 31 5 16 45 128 89 57 47 140 142 59 30 4 75 74 29 71 70 49 60 74 62 50 73 82 64 50 35 29 41 92 132 143 147 149 150 150 150 148 148 149 148 150 155 151 151 151 153 153 152 151 151 154 153 152 152 153 154 156 156 154 152 153 155 154 155 157 155 156 158 157 154 153 155 157 156 159 160 160 158 157 159 162 163 162 162 162 162 161 161 161 162 165 163 162 163 164 165 164 163 164 165 165 165 166 168 170 170 169 170 171 172 172 172 172 171 171 174 174 172 173 174 175 177 
149 148 146 145 146 147 146 146 145 145 145 145 145 145 145 145 143 143 144 145 145 144 145 146 145 144 144 144 143 142 143 144 143 144 143 142 143 143 142 145 146 145 144 144 143 143 142 140 141 141 139 140 144 143 140 142 144 142 141 141 143 144 142 138 145 141 141 127 118 87 62 70 78 94 75 50 42 38 36 57 62 60 58 46 60 84 97 90 66 74 107 128 144 137 115 87 75 72 80 81 82 84 81 85 90 99 107 116 97 76 71 79 95 120 123 95 62 71 92 126 161 160 152 140 129 114 111 127 142 148 136 118 93 63 64 100 139 168 173 166 171 169 159 151 142 134 138 147 148 144 138 131 144 155 150 138 142 146 141 134 138 141 137 136 139 126 105 97 107 123 123 114 120 128 136 152 156 148 141 148 144 142 157 159 169 167 134 140 162 140 142 156 127 155 156 121 138 176 178 181 159 135 154 131 105 99 127 114 130 116 67 86 112 84 159 175 138 110 77 73 75 106 142 164 114 104 146 141 136 148 105 95 19 36 102 101 46 111 117 98 85 73 86 89 24 47 122 166 79 12 47 82 124 126 130 144 113 70 52 97 123 85 134 176 66 8 44 103 24 12 39 90 108 78 36 14 1 29 51 74 84 117 121 44 112 149 109 20 16 43 54 37 30 26 46 56 66 66 74 79 96 80 54 43 37 32 54 94 116 131 148 148 148 150 149 148 151 152 151 151 151 152 152 151 152 154 154 152 153 153 153 153 154 154 154 154 154 153 154 154 153 154 156 155 155 157 157 155 155 157 159 159 159 160 160 158 157 158 160 161 160 160 160 161 161 161 160 160 164 164 165 165 165 166 165 165 165 166 165 164 165 168 169 169 170 171 172 171 171 171 173 174 173 176 176 174 175 176 176 177 
147 147 147 146 145 145 146 146 144 144 144 145 146 146 144 143 143 143 144 145 144 144 144 145 146 145 144 144 144 143 143 144 143 145 143 142 143 143 143 145 147 147 146 145 144 143 142 141 142 142 140 140 143 143 141 143 144 143 141 141 142 143 141 139 144 140 134 113 89 58 60 83 95 97 80 56 40 46 61 75 87 82 73 60 77 94 102 84 68 84 111 129 142 140 126 115 103 103 109 105 98 94 85 86 91 104 115 126 117 99 84 75 98 122 130 123 95 78 90 133 156 164 157 132 99 81 96 121 143 155 139 105 84 63 66 93 128 152 140 127 147 163 156 141 137 139 148 153 149 144 145 146 145 150 149 143 141 138 130 122 116 123 131 135 137 141 133 115 103 120 131 117 112 130 142 143 133 136 143 164 155 134 144 150 155 169 144 136 154 140 139 156 160 152 153 134 147 173 175 165 148 146 166 163 116 100 110 130 128 50 43 88 146 133 123 125 103 105 111 74 42 123 185 166 158 135 133 146 138 137 111 92 33 47 98 110 48 125 192 192 159 38 77 142 66 86 70 85 128 121 72 19 22 71 126 134 91 71 114 105 54 89 176 173 78 46 111 144 100 66 75 81 47 28 12 3 15 48 59 55 76 139 239 162 106 155 130 65 38 48 56 53 22 19 40 61 71 67 81 64 102 84 85 68 37 43 57 66 66 86 121 142 150 149 148 149 150 148 148 151 151 153 153 150 150 154 155 153 153 153 153 153 153 153 154 154 154 153 154 154 152 153 155 155 153 155 156 155 155 157 158 158 158 160 160 158 157 158 160 161 160 160 160 161 162 162 161 159 162 164 166 167 166 166 166 166 166 166 166 165 166 168 169 168 170 171 172 172 171 172 174 177 174 177 177 176 177 177 176 178 
143 145 147 147 146 144 144 144 144 144 144 145 146 146 145 143 145 145 144 145 145 144 143 144 147 146 144 144 144 144 144 144 143 145 143 142 143 144 144 146 145 146 146 145 143 142 143 144 142 143 142 142 143 142 141 141 141 143 143 141 139 139 140 141 142 145 133 115 69 50 66 75 87 84 62 40 40 53 73 95 103 90 81 80 102 111 118 101 98 106 123 140 148 138 125 121 118 122 132 134 131 122 109 108 112 121 128 135 135 126 112 98 113 135 143 139 119 107 117 142 152 164 149 121 100 98 114 124 135 141 133 115 108 94 100 122 140 151 130 118 136 154 155 142 132 144 158 163 155 146 144 149 142 141 146 142 128 119 114 106 101 108 139 154 141 143 156 152 131 125 136 131 122 134 139 132 135 134 147 160 154 140 138 145 139 136 138 145 138 123 126 134 141 142 157 145 166 195 191 159 107 133 145 144 118 93 107 106 128 97 104 114 108 142 112 122 123 133 135 141 143 159 183 168 180 144 93 137 120 126 93 48 38 47 37 41 50 76 112 137 115 44 63 125 175 158 52 28 140 180 129 64 67 71 94 65 70 104 144 152 80 124 160 172 83 59 143 153 148 129 147 99 63 20 7 8 16 60 56 50 94 116 195 241 203 123 138 71 13 39 85 97 56 20 22 38 55 63 57 55 92 69 95 76 46 67 98 89 55 42 62 117 142 144 145 148 151 151 151 152 152 153 153 150 150 153 153 152 155 154 153 152 152 153 154 156 154 153 154 154 151 152 155 155 153 155 155 155 154 155 156 155 157 159 159 158 158 159 161 161 160 161 162 162 163 163 163 162 162 164 165 166 165 165 165 165 166 166 167 167 169 170 169 168 168 169 171 172 173 173 174 176 174 176 175 175 177 177 177 179 
144 145 147 147 146 145 143 143 145 145 145 146 147 147 146 146 147 145 144 144 145 145 143 143 145 145 144 143 143 144 144 144 143 145 143 141 142 143 143 144 142 143 143 143 141 141 143 144 143 143 143 142 141 140 141 140 140 142 143 141 139 138 140 141 142 139 125 101 65 62 70 66 76 63 48 40 49 71 97 113 102 87 81 93 120 127 136 127 124 126 140 147 144 125 118 114 113 120 132 141 142 132 124 129 139 146 151 157 161 153 139 120 120 132 141 142 130 131 143 151 155 163 146 128 128 135 138 129 128 143 146 126 125 134 141 136 147 152 145 141 149 157 158 149 141 161 172 167 156 145 138 137 142 147 145 130 108 95 96 102 107 100 123 153 151 140 145 154 150 139 130 121 125 140 138 128 130 140 152 149 137 133 141 153 139 136 147 148 133 132 128 109 110 126 147 138 157 174 166 144 128 123 104 101 95 75 114 101 117 151 156 164 105 134 137 155 179 165 154 168 180 161 177 185 177 130 73 84 111 95 56 59 80 92 66 40 18 8 55 115 104 52 52 94 156 128 64 66 101 138 101 109 139 149 82 79 138 102 76 100 92 99 168 159 47 47 99 134 126 51 105 139 133 29 12 21 25 105 74 64 90 115 127 194 137 80 141 83 29 8 32 92 96 36 30 39 59 35 68 88 67 74 60 54 60 105 127 94 53 37 34 65 118 136 148 149 148 149 150 151 152 151 151 152 152 151 151 152 154 154 153 152 152 153 155 156 154 153 154 154 151 152 154 154 154 155 156 156 156 156 156 155 156 158 159 158 158 159 160 160 158 160 162 162 161 162 163 163 163 163 163 164 164 165 164 164 165 166 166 167 169 171 171 170 170 169 170 171 172 172 173 174 173 174 174 174 176 177 177 180 
147 147 146 146 145 145 145 145 145 145 144 145 146 146 146 145 147 144 142 143 145 145 144 143 144 145 145 144 144 144 144 144 145 147 144 142 143 144 143 143 143 144 144 143 142 141 142 143 145 144 144 142 139 140 143 142 143 143 142 141 142 143 142 140 141 129 117 83 72 74 72 75 68 48 45 48 56 79 105 104 91 79 78 94 118 131 141 140 139 140 145 141 132 108 98 88 86 99 117 132 136 128 128 140 150 160 168 170 171 162 148 128 127 118 123 128 123 134 151 156 153 145 133 134 146 152 144 131 130 121 125 136 145 149 154 153 157 152 153 158 164 167 162 155 162 177 182 172 154 131 116 118 133 139 132 125 115 91 83 102 118 112 111 132 153 148 137 141 140 141 135 117 109 132 150 141 115 130 146 157 146 130 139 153 145 126 142 163 153 157 151 124 110 123 138 132 144 146 138 134 157 133 91 93 86 114 153 131 129 152 154 176 129 138 150 128 173 170 160 159 172 140 138 161 136 90 94 81 70 44 68 92 106 128 130 99 68 36 50 114 167 115 95 127 112 89 99 104 59 45 22 55 95 136 85 91 174 125 70 95 76 56 119 111 32 54 82 138 80 56 90 133 124 25 21 32 64 122 90 67 90 102 126 107 24 49 135 121 69 22 17 99 82 63 86 57 101 60 57 94 117 118 70 62 110 146 129 88 50 41 53 74 98 107 119 133 143 147 147 149 150 149 150 152 152 151 151 152 152 153 154 154 153 153 154 154 154 153 154 154 152 152 154 154 153 154 155 156 157 157 157 157 156 158 158 158 158 158 158 158 155 158 160 160 159 161 162 163 164 163 163 164 165 165 165 163 166 166 166 166 167 170 172 172 173 171 169 170 171 171 171 172 173 174 173 174 177 177 178 181 
147 147 146 145 144 144 145 146 145 144 143 144 146 146 145 143 145 143 141 143 145 145 144 143 144 146 147 146 144 144 144 144 145 147 145 143 144 146 145 144 142 144 145 145 144 142 142 142 144 144 145 144 140 142 146 144 144 144 143 143 144 144 142 139 133 121 103 78 75 74 72 71 63 65 57 54 77 90 96 101 80 69 70 87 101 116 126 137 144 144 134 130 120 88 59 42 46 60 75 91 104 108 122 142 161 176 182 171 163 155 152 140 112 93 89 83 91 123 144 143 137 107 110 140 162 168 155 136 118 109 108 126 146 162 163 160 147 132 134 146 154 144 127 130 162 179 187 179 157 118 93 95 114 118 120 126 126 105 88 93 112 124 127 132 147 148 139 137 127 126 134 135 115 120 150 154 133 126 133 152 157 142 136 145 138 124 138 155 149 168 165 127 123 147 155 129 126 147 146 127 160 109 58 100 139 154 164 144 147 153 146 175 155 131 150 133 154 150 121 138 139 109 114 82 73 107 129 120 104 136 133 74 92 142 115 99 92 111 144 79 151 187 173 120 131 150 153 156 97 75 17 39 81 96 79 131 156 134 112 141 104 38 30 72 93 67 81 78 48 61 63 108 65 20 31 31 76 93 88 80 86 98 103 112 47 38 134 135 88 89 43 44 33 51 86 65 75 29 33 57 105 97 84 95 143 180 151 97 51 61 89 97 97 86 78 90 116 137 146 149 149 150 151 151 151 151 152 152 151 152 154 154 153 152 152 153 154 153 154 154 153 153 155 154 153 153 154 156 157 157 157 157 156 157 158 158 158 158 158 157 154 158 160 160 160 162 163 162 164 163 163 165 166 167 165 164 166 167 168 167 168 169 171 172 173 171 170 172 172 171 172 174 174 175 175 176 178 177 177 179 
143 144 145 144 143 143 144 145 147 145 144 146 148 149 146 143 145 143 142 143 144 144 144 144 143 146 147 145 143 143 143 143 142 145 144 142 144 146 145 145 140 142 144 145 144 142 140 139 141 141 145 145 141 143 146 144 141 143 144 143 141 140 139 138 118 105 67 62 57 64 78 62 64 69 69 65 84 97 103 100 90 73 72 86 89 97 103 123 141 150 136 129 107 69 43 49 39 43 42 48 65 85 113 141 161 174 177 164 161 153 142 119 88 59 57 67 88 116 128 130 109 78 104 150 165 166 155 136 131 131 124 130 144 161 159 156 133 120 132 149 149 119 91 107 148 176 187 177 157 128 106 105 113 116 120 113 104 111 111 95 93 102 120 137 144 145 137 126 116 122 125 138 136 130 143 142 132 118 126 127 134 140 129 142 148 137 134 139 133 142 136 113 121 132 149 140 121 126 130 123 130 121 114 116 137 150 123 147 145 177 160 136 137 119 103 108 129 108 83 136 157 140 142 115 125 139 137 131 155 167 147 102 72 106 95 91 87 166 180 97 115 177 159 133 136 144 146 139 170 161 110 100 77 85 97 146 148 144 114 120 148 88 38 101 140 105 103 125 127 101 91 110 65 34 49 52 82 95 83 81 84 104 101 113 38 34 132 85 66 100 87 46 74 34 44 55 52 15 32 52 87 74 95 117 136 166 158 117 65 66 80 81 103 105 86 61 66 101 133 147 149 152 152 150 149 151 152 150 152 153 153 152 151 151 152 152 154 153 153 154 153 154 155 153 154 154 155 156 157 157 157 157 155 157 158 158 159 159 159 158 156 159 162 162 163 165 165 163 162 163 164 166 167 167 166 164 165 168 171 171 170 170 170 170 170 169 171 174 174 173 173 175 174 175 176 177 179 177 175 177 
142 145 148 146 144 144 144 145 144 144 144 144 146 148 147 144 145 144 144 144 145 144 144 144 146 145 144 145 144 143 143 144 143 143 143 143 143 143 143 143 145 143 144 146 143 142 143 144 140 141 141 142 142 143 143 143 139 142 142 141 141 145 143 127 113 77 48 45 47 57 67 63 66 69 72 71 84 96 105 102 98 87 92 101 94 92 107 120 136 137 133 125 99 79 64 63 60 54 43 37 47 73 106 129 156 169 174 162 157 144 124 98 71 60 72 88 113 125 132 134 108 101 117 148 167 161 142 132 137 144 142 143 144 151 144 134 126 141 155 166 157 123 90 107 141 173 185 168 147 131 135 134 131 132 132 115 103 110 114 115 102 104 120 128 132 132 123 125 130 114 113 133 140 140 145 139 118 95 112 118 114 126 128 136 160 154 132 134 136 133 108 73 88 101 116 140 115 109 116 98 88 118 157 134 114 152 133 128 144 136 133 104 79 97 108 127 131 140 142 151 152 129 154 151 154 160 141 130 142 155 151 102 49 93 99 50 58 153 167 143 125 138 136 126 128 149 144 103 109 135 135 145 148 92 72 86 112 138 88 94 131 130 78 127 140 117 146 145 144 147 143 150 110 44 47 65 78 82 82 85 87 103 105 114 63 54 131 49 24 79 83 54 83 80 83 69 57 60 29 55 80 57 92 112 158 184 167 128 88 72 79 106 114 117 107 77 45 50 108 135 145 148 150 152 151 149 148 148 152 150 149 151 152 152 152 152 150 152 155 155 154 153 153 155 155 157 158 156 155 156 157 157 156 157 158 159 157 156 158 161 157 160 162 161 160 161 162 162 164 165 165 162 162 165 167 168 167 166 167 170 170 167 168 172 171 172 173 172 172 173 175 175 174 175 175 176 177 178 180 182 
144 146 147 146 146 146 145 144 144 146 147 145 144 144 146 146 144 145 145 146 145 145 144 143 145 144 144 144 144 143 143 144 144 141 141 143 143 141 140 142 146 144 145 148 145 143 142 141 143 143 143 142 141 141 141 141 141 143 143 143 141 141 137 122 95 57 44 36 43 53 58 61 67 68 69 67 80 93 103 102 98 97 109 122 122 120 119 116 119 125 128 121 104 95 92 92 78 63 55 51 51 64 90 114 142 152 153 151 144 132 117 91 72 72 80 114 125 137 155 139 127 126 141 163 169 149 115 97 120 128 136 139 144 141 115 102 122 156 170 170 157 133 117 137 159 168 166 149 133 133 147 156 164 159 153 138 121 113 112 116 121 108 116 128 131 122 109 114 114 117 118 129 138 142 144 138 117 97 98 120 127 111 108 124 145 151 132 139 145 134 121 113 109 88 95 119 111 113 104 82 108 119 167 157 108 144 169 128 137 115 102 127 143 133 142 162 141 135 148 142 127 129 147 144 147 160 153 129 133 133 117 89 105 113 55 50 77 149 128 144 137 122 118 98 91 86 81 60 55 104 109 146 164 120 134 50 100 126 74 104 144 147 136 148 153 92 143 158 143 152 184 162 141 92 45 95 148 102 57 62 82 85 96 108 100 70 68 51 94 135 72 75 138 121 140 57 76 108 109 134 116 83 70 97 171 217 175 113 103 100 91 101 120 123 104 75 44 33 68 128 146 150 150 148 150 152 152 150 153 152 151 152 153 152 152 152 153 154 154 153 152 152 153 154 153 155 156 156 156 156 155 154 154 155 158 159 159 157 157 158 158 160 161 161 161 161 162 162 163 164 165 164 164 166 168 168 167 167 168 169 169 167 168 170 169 171 172 171 171 172 173 173 173 175 176 176 176 176 179 181 
147 146 146 146 147 147 145 142 145 147 147 145 143 144 146 147 142 145 146 146 145 145 143 141 144 143 143 143 143 142 142 143 146 142 141 145 146 142 141 143 145 142 143 146 146 144 143 142 144 144 143 142 141 140 140 141 140 141 142 144 142 139 130 112 74 42 38 30 40 48 57 63 65 62 57 52 61 76 91 95 96 99 109 122 134 139 131 118 112 111 113 109 108 110 115 111 94 73 66 64 59 62 75 95 120 130 136 133 120 113 110 100 94 95 102 130 135 151 152 147 148 155 169 179 175 146 104 82 79 96 122 132 142 127 94 87 123 151 167 170 158 145 145 159 162 161 156 135 116 119 143 166 174 170 161 153 141 125 120 121 118 115 124 126 118 103 93 100 112 128 131 135 145 143 131 122 120 110 99 113 118 99 93 102 106 116 132 132 143 157 140 143 144 116 111 124 117 131 114 103 146 141 155 164 133 120 142 148 115 107 134 131 155 149 153 159 118 153 151 130 141 169 133 109 114 99 117 94 123 135 72 110 92 45 19 63 65 129 132 159 148 119 110 107 111 91 89 45 92 141 82 108 105 101 146 131 131 107 80 95 151 155 125 135 156 122 163 164 142 146 150 149 150 124 74 104 158 95 57 58 25 33 46 69 100 84 93 111 119 81 34 50 139 152 144 59 71 119 126 142 105 70 61 75 104 113 72 85 115 116 132 98 88 93 88 65 54 43 51 109 141 152 155 152 152 152 151 152 153 152 152 153 153 152 151 151 153 153 153 152 152 153 154 155 154 154 155 156 157 157 156 154 157 156 155 156 157 159 160 162 160 161 161 161 161 162 163 162 162 163 164 166 166 166 167 169 167 168 169 170 170 170 170 171 170 172 173 173 172 172 173 173 174 176 177 177 175 176 178 180 
147 147 146 145 146 145 143 141 147 145 144 144 146 147 147 147 142 144 145 144 144 144 142 139 144 144 143 143 143 142 142 142 147 144 143 145 147 145 143 144 145 141 141 143 142 142 144 143 143 143 142 141 141 141 142 142 140 141 141 144 143 138 122 95 61 45 37 33 38 41 58 61 57 54 49 41 45 57 72 79 79 85 96 114 135 146 137 121 112 101 99 99 112 124 137 134 118 97 85 76 71 66 64 77 87 90 96 89 95 107 115 120 122 111 113 125 127 145 135 145 153 165 177 180 175 151 118 105 93 107 124 130 143 128 113 120 146 151 162 159 145 149 158 161 166 158 149 117 95 87 114 154 174 175 163 158 154 143 135 128 131 131 135 132 125 114 96 87 97 113 124 135 148 143 126 116 108 105 106 109 112 110 105 105 105 112 123 124 127 150 146 112 104 105 123 145 116 128 130 132 154 156 128 117 123 117 114 126 128 122 142 135 141 159 126 146 145 138 131 132 135 136 126 116 98 79 72 87 163 175 136 140 79 36 64 64 77 92 110 165 123 87 114 109 120 147 149 140 131 138 115 101 86 123 128 135 111 120 114 81 98 117 127 116 122 134 163 150 108 139 160 154 162 124 110 115 90 66 102 119 63 60 100 101 125 133 121 89 42 41 60 70 120 133 140 91 55 84 70 62 62 45 69 78 73 56 70 105 107 95 113 88 43 52 83 75 61 46 47 99 139 149 153 152 152 149 148 152 152 152 152 152 152 151 150 150 151 152 152 152 153 154 154 154 154 154 155 155 156 157 157 157 158 157 156 156 157 160 163 164 162 162 161 161 162 163 163 162 163 162 164 166 166 165 166 169 166 168 170 170 170 171 172 171 172 173 174 174 174 174 174 175 176 177 179 178 177 177 178 179 
146 146 146 146 145 144 143 143 146 145 144 145 147 147 146 145 144 143 143 143 143 144 142 140 145 144 144 143 143 143 143 142 143 143 143 143 144 145 144 142 146 142 141 142 140 140 142 143 144 142 141 141 141 142 142 141 143 144 142 143 143 137 113 79 52 47 40 35 31 33 43 44 47 51 50 46 44 50 58 63 63 66 75 92 114 131 129 118 102 95 91 87 105 131 154 155 133 114 92 77 70 56 50 65 67 74 67 59 82 102 129 140 135 117 112 116 112 128 133 133 146 159 169 169 167 155 139 136 143 146 139 142 156 147 150 160 165 164 161 134 124 144 158 164 161 147 142 123 112 84 102 146 175 178 167 162 160 153 147 140 150 146 142 137 132 121 100 85 92 102 114 124 130 132 123 115 113 112 114 125 132 121 109 108 90 99 119 135 120 113 120 98 73 87 118 146 120 121 139 131 136 129 122 115 122 127 140 120 118 128 149 152 131 163 130 95 113 115 83 99 98 111 101 135 141 137 139 103 134 152 163 132 99 109 112 137 119 74 103 137 122 101 73 93 100 110 125 123 142 120 155 172 166 145 45 96 142 165 168 115 106 159 139 130 135 157 176 162 148 145 116 131 151 134 96 104 69 83 86 55 36 49 65 67 96 76 47 37 23 37 56 83 109 97 128 108 79 65 50 30 31 48 78 70 119 126 147 135 114 81 66 52 30 25 67 90 72 46 42 101 141 147 148 146 148 149 149 151 151 152 153 153 152 152 151 151 153 154 153 153 153 154 153 152 152 153 154 155 155 155 157 158 155 157 159 160 160 160 161 161 163 162 161 162 163 163 163 162 164 163 164 166 166 165 166 169 166 168 169 169 169 170 170 169 173 173 173 173 173 173 175 176 177 179 179 178 178 179 179 178 
145 145 146 146 146 145 145 146 144 145 146 147 145 144 144 145 146 143 142 143 144 143 142 143 144 145 144 143 143 143 143 143 141 143 143 142 142 144 144 142 144 141 142 144 142 141 143 143 145 144 142 141 141 141 140 140 144 144 142 142 142 137 116 84 66 60 62 52 44 47 41 44 46 50 50 49 46 50 54 59 61 57 56 64 78 95 103 100 82 82 74 69 95 135 161 164 149 128 100 83 68 48 47 68 74 87 65 67 90 108 147 152 143 127 120 105 107 124 122 129 140 150 160 163 164 160 155 159 167 167 155 159 166 159 167 171 173 175 160 129 128 138 142 153 138 134 147 153 149 108 111 147 172 173 172 173 168 156 148 145 153 156 150 134 123 120 113 103 92 100 109 104 102 114 122 121 130 138 124 136 150 128 107 101 98 84 97 134 139 102 87 92 83 113 131 123 122 111 117 104 108 98 106 119 142 123 149 151 119 102 137 160 122 93 93 87 91 116 125 94 124 142 126 116 136 152 136 109 116 140 154 109 137 153 118 151 126 99 125 194 177 128 87 165 185 147 125 154 188 121 113 172 162 142 44 119 175 186 169 148 124 188 159 117 124 200 179 128 146 169 85 49 123 152 123 119 81 106 97 9 36 8 13 34 45 44 41 45 48 16 28 41 73 105 151 146 110 153 124 80 54 56 52 68 121 129 154 149 117 63 45 49 40 31 55 95 86 62 51 101 135 144 151 149 146 149 151 150 152 153 153 153 153 153 153 152 153 154 153 152 152 154 155 154 151 153 155 157 156 156 156 158 156 159 161 160 158 158 159 160 162 161 161 162 163 163 162 162 165 165 166 166 166 165 167 168 169 169 169 169 169 169 169 169 173 173 174 174 174 174 175 177 177 178 179 178 179 180 179 177 
146 145 145 146 147 147 147 147 144 145 147 147 146 144 144 146 146 143 143 145 144 141 142 146 143 144 144 143 143 144 144 143 142 143 144 144 143 144 144 144 143 140 142 145 145 144 144 143 143 143 143 142 141 140 140 141 142 141 141 143 142 139 129 110 87 76 76 65 60 55 46 48 51 50 46 47 45 51 54 58 59 55 56 60 63 73 77 69 60 65 57 59 88 129 150 158 144 122 91 75 55 37 45 57 75 77 58 81 108 137 163 156 152 138 121 98 105 116 108 131 135 138 148 154 157 157 157 164 172 168 163 170 170 168 169 165 173 177 168 156 151 134 127 121 114 126 147 162 152 124 126 144 161 157 164 172 169 157 145 141 138 137 124 110 108 116 117 109 107 113 114 93 80 91 103 107 129 144 128 122 137 131 111 91 98 99 86 118 134 93 99 115 91 131 153 121 127 118 106 113 118 125 132 126 145 119 112 118 120 132 128 107 88 88 98 123 132 149 170 134 150 158 131 120 150 180 151 115 91 109 104 104 180 162 116 128 152 122 130 153 174 138 102 150 157 150 146 168 187 144 114 157 167 146 123 168 182 160 149 109 65 132 186 127 106 192 195 147 112 169 130 26 85 131 147 130 102 95 78 43 38 19 16 30 30 30 54 39 37 62 106 83 80 92 122 105 105 151 133 125 119 122 91 101 105 71 107 137 124 79 52 65 66 82 100 112 94 77 83 109 118 122 135 146 146 147 151 150 152 152 152 151 152 153 153 151 152 153 154 152 152 155 156 155 153 153 155 157 157 156 156 157 157 160 160 158 156 157 160 162 161 161 161 163 164 164 164 164 165 166 167 166 165 166 167 167 170 169 168 170 170 169 169 171 174 174 175 175 175 174 175 177 176 178 179 179 179 180 180 178 
149 145 143 146 148 148 146 145 147 145 144 146 148 147 146 146 146 143 144 147 145 140 142 148 142 143 143 142 143 144 145 144 143 143 144 145 144 142 143 145 145 141 142 145 145 144 143 141 139 141 143 143 141 140 142 144 142 141 141 145 142 140 140 132 114 99 88 78 76 60 61 58 53 51 44 47 47 55 54 56 55 53 59 62 60 65 63 50 52 60 54 59 77 102 117 134 120 99 73 63 46 39 56 54 64 58 61 94 114 156 165 162 155 139 105 99 98 96 111 130 128 125 133 141 143 145 147 154 157 152 160 179 183 186 172 154 150 165 173 175 157 132 129 97 90 114 138 155 143 141 147 145 136 128 137 150 157 159 149 144 129 115 100 100 106 111 116 118 113 118 116 94 82 90 99 108 133 142 136 110 109 119 94 66 88 107 102 96 105 95 103 122 110 110 137 122 128 140 121 140 149 127 148 139 104 96 102 128 121 138 135 104 109 132 165 157 141 162 167 140 152 169 136 135 150 155 136 79 84 127 98 97 132 120 90 72 87 78 93 113 146 127 84 133 133 134 156 121 100 130 103 102 147 148 179 192 151 83 97 84 118 126 185 158 95 143 216 155 90 119 90 69 54 82 141 133 110 102 69 106 73 11 11 8 31 29 34 41 47 87 132 137 146 86 89 113 117 110 121 135 145 133 72 88 80 63 69 114 140 110 89 84 101 132 155 132 105 90 125 127 105 90 101 130 144 147 150 150 151 151 150 149 150 152 151 149 151 154 156 154 154 155 154 152 154 153 153 154 155 154 154 155 154 158 160 160 159 160 161 162 161 161 162 164 165 165 165 167 163 166 167 165 165 166 167 166 169 167 166 169 170 169 170 173 174 174 175 176 175 174 174 176 175 178 180 179 179 180 180 179 
148 146 146 148 146 143 145 149 148 148 147 145 145 145 143 141 145 143 143 143 141 139 140 143 143 144 144 144 144 144 144 144 143 145 145 142 140 142 145 145 142 141 141 142 144 145 145 144 142 142 142 143 143 143 143 142 141 140 140 140 140 138 139 140 131 119 103 94 72 61 57 53 55 50 43 41 46 52 55 53 49 51 59 64 65 61 54 54 60 65 70 69 69 77 88 93 85 73 62 57 53 56 58 55 58 54 64 82 122 148 155 160 146 133 107 84 78 93 114 121 113 116 122 127 131 138 140 137 126 131 168 194 214 221 184 153 136 153 164 167 158 138 115 85 90 108 131 150 149 139 140 139 120 92 92 118 143 161 168 145 114 95 87 91 110 118 119 116 107 114 117 100 92 104 116 128 124 123 136 115 82 80 79 69 79 114 125 110 107 113 117 127 114 106 101 110 113 134 138 139 151 125 131 159 117 119 167 136 120 118 105 130 154 126 125 131 150 137 116 132 145 143 152 149 111 124 119 92 135 132 133 126 105 65 48 66 53 48 90 174 125 103 142 128 133 121 104 121 110 80 104 125 137 150 171 183 144 98 151 183 183 140 142 138 54 74 158 140 79 90 99 128 111 104 130 170 123 110 62 110 133 21 11 11 14 15 34 62 65 119 127 98 109 133 125 157 113 71 108 123 120 99 81 83 91 90 86 122 150 137 128 106 122 137 138 141 117 105 135 135 121 84 65 99 131 146 147 151 153 151 150 151 151 151 151 153 154 154 152 152 153 152 151 152 153 155 155 153 154 157 158 156 155 156 158 159 158 159 160 161 160 161 162 164 166 166 165 164 164 167 166 166 166 165 168 166 167 168 169 169 169 169 171 173 173 174 174 174 174 175 175 175 176 177 178 178 178 179 180 180 
147 147 147 146 145 144 145 146 147 149 149 146 143 142 144 145 144 144 144 144 143 142 143 145 144 144 143 142 142 143 144 144 143 143 143 143 143 143 143 142 140 140 140 140 141 142 142 142 143 143 143 143 143 143 143 143 141 141 141 141 140 139 139 141 140 133 118 102 72 56 54 54 57 52 47 45 50 55 55 53 52 55 62 62 63 62 54 49 55 62 73 78 73 67 63 60 55 51 53 57 61 68 73 71 67 66 69 75 99 120 134 143 135 116 88 74 80 97 108 103 101 97 95 98 109 124 126 116 98 117 166 207 238 249 214 178 160 148 145 149 147 124 106 105 115 107 116 127 118 115 123 119 106 87 75 85 117 149 160 142 124 105 104 113 112 116 117 109 102 96 98 110 112 107 117 133 117 114 125 109 71 64 77 83 98 117 134 129 124 137 139 127 103 108 118 122 99 109 123 127 145 133 128 173 137 114 152 121 101 93 83 127 133 128 128 119 132 95 117 131 139 119 118 117 124 154 142 107 170 157 127 162 194 125 106 145 122 119 103 162 160 145 172 156 106 121 107 133 175 140 151 186 161 164 157 142 140 98 152 175 164 122 108 148 66 17 97 178 151 149 174 143 128 160 155 162 166 115 68 70 110 117 62 12 18 17 28 32 56 120 133 108 97 130 118 106 103 103 97 105 100 85 147 139 102 94 116 127 129 136 122 115 128 108 113 131 138 120 116 141 133 104 60 59 109 138 145 152 153 151 151 153 154 153 152 152 152 153 152 153 155 155 154 156 155 156 156 154 154 157 158 157 156 158 160 160 160 159 159 160 164 163 162 162 163 165 167 168 166 168 166 166 166 166 170 169 167 168 169 171 171 171 171 171 173 173 173 175 175 174 174 176 178 178 179 180 180 180 180 179 
146 147 147 145 145 146 146 144 148 147 146 145 146 147 146 144 144 145 145 144 143 144 144 145 145 144 144 143 143 143 144 144 144 142 142 144 145 145 143 142 141 141 140 140 140 140 142 143 145 145 144 143 143 143 144 144 142 141 141 141 141 140 140 141 138 141 132 117 87 65 59 61 56 52 49 49 54 57 56 53 54 56 60 60 61 63 56 52 61 65 74 79 75 67 63 60 56 53 57 68 81 90 90 84 70 73 71 70 83 98 117 126 114 98 79 79 94 113 122 116 104 98 91 82 81 92 94 80 68 90 150 214 248 246 220 200 174 147 146 145 140 126 122 129 112 102 102 100 87 76 75 83 95 92 74 61 81 112 135 136 128 121 105 100 105 121 111 90 80 96 101 110 118 124 128 117 112 96 100 102 82 79 106 132 125 116 130 131 120 134 141 120 107 119 126 133 122 130 128 107 122 135 131 163 144 102 90 81 75 79 126 149 140 138 146 161 130 102 163 156 130 96 108 134 147 185 167 134 146 131 135 154 179 160 112 142 152 125 102 113 155 118 149 139 92 147 153 91 165 175 144 110 140 152 107 74 101 73 94 146 115 130 165 174 122 60 119 193 183 180 192 158 146 181 187 155 150 124 126 105 81 123 136 96 33 21 35 75 96 106 101 132 142 115 142 78 49 68 50 52 91 100 102 115 107 102 138 128 97 113 96 69 96 78 113 137 148 128 94 97 110 89 54 41 68 109 140 148 152 150 150 151 153 153 152 151 152 153 152 153 155 154 153 155 157 157 156 155 155 156 156 157 158 159 160 161 160 160 160 161 159 161 162 163 163 163 166 168 166 168 166 167 168 168 171 170 168 169 169 170 172 172 171 170 175 173 174 176 175 172 173 177 179 179 178 179 181 181 181 181 
146 147 146 145 146 147 146 145 146 144 144 145 148 148 146 143 144 146 145 143 142 143 143 142 144 144 145 146 146 145 144 144 146 142 141 144 146 145 145 145 142 142 142 141 141 142 142 143 145 145 144 144 143 144 144 144 142 142 142 142 141 140 141 141 140 144 139 129 104 74 61 62 58 54 52 53 57 59 57 55 59 55 57 59 61 61 58 59 60 64 72 77 75 72 71 68 64 60 60 70 83 91 88 81 75 76 71 71 79 83 96 98 88 80 74 85 103 121 134 134 125 120 112 96 79 77 71 56 56 70 124 198 233 222 206 201 180 167 159 145 149 154 149 133 119 112 109 98 81 63 56 69 72 80 73 61 71 85 102 104 112 112 101 99 107 116 108 92 80 97 104 110 123 133 124 100 104 99 89 84 88 108 135 149 136 108 115 124 113 115 116 103 105 127 123 126 138 155 150 127 123 138 131 132 114 81 54 70 88 110 156 142 145 141 137 166 142 143 137 152 132 121 150 160 141 142 158 130 115 89 99 111 68 87 80 81 99 72 62 63 77 77 106 100 111 155 168 85 106 138 96 54 63 90 81 137 156 133 84 108 100 121 183 191 161 103 120 174 161 150 171 166 152 151 151 149 133 130 168 167 114 93 130 173 107 75 86 148 142 143 99 103 131 125 128 124 75 53 42 42 118 141 105 85 117 123 150 132 74 52 48 35 33 53 114 142 136 103 71 59 63 55 52 52 41 70 122 143 151 150 149 149 151 152 152 152 153 154 153 153 154 153 151 153 156 155 155 155 155 155 155 156 158 158 158 159 159 161 162 164 158 160 163 163 163 162 163 164 164 167 166 169 169 168 170 168 170 170 170 170 170 171 172 172 174 174 174 176 175 174 175 177 178 178 177 178 179 181 183 183 
147 145 144 145 146 146 146 147 141 144 146 146 143 142 142 144 143 145 144 142 142 143 143 142 144 144 145 146 146 146 146 145 144 141 141 143 145 144 144 145 142 141 141 142 142 143 143 142 144 144 145 145 145 145 144 144 143 143 143 142 141 141 142 142 141 141 137 130 108 75 62 63 62 58 56 58 61 61 61 61 63 59 61 61 61 60 58 61 63 66 70 69 67 68 69 66 61 61 63 67 76 82 83 81 74 71 67 71 75 71 78 76 67 63 66 86 108 124 137 140 144 138 133 123 108 97 80 61 60 60 82 130 166 176 178 177 172 149 128 133 156 159 157 149 136 117 110 94 71 60 56 58 57 70 77 73 76 83 95 93 94 94 99 99 100 110 119 101 83 101 121 119 111 109 110 116 115 114 96 88 102 117 127 135 118 96 100 108 102 93 80 78 106 138 140 128 120 129 144 142 159 140 118 110 80 67 90 139 134 128 142 154 128 133 133 127 112 129 134 119 148 133 156 157 148 113 101 131 157 140 88 132 106 115 144 103 56 58 70 63 111 153 115 86 137 138 95 85 85 64 56 123 152 136 115 160 180 169 131 103 160 123 153 183 180 143 96 132 138 138 172 163 136 95 114 125 119 140 157 161 106 107 114 138 159 166 127 140 147 148 143 109 97 119 95 91 124 79 51 71 101 106 80 94 110 118 152 136 92 47 33 40 45 49 85 124 132 94 52 37 32 42 52 54 42 43 96 143 151 151 151 150 151 152 153 154 152 153 152 153 155 154 153 155 154 154 154 156 156 155 155 156 157 157 157 157 158 160 162 163 164 164 164 163 162 162 163 164 164 166 166 169 169 168 169 167 170 170 171 171 171 171 172 174 171 173 174 174 175 178 179 178 177 178 178 179 180 181 182 183 
147 144 143 144 145 144 145 146 146 146 146 145 143 142 142 144 143 144 144 143 143 144 144 143 145 145 144 144 145 145 146 147 141 140 141 143 144 143 142 142 142 142 142 143 143 143 143 142 144 144 145 145 145 145 145 144 143 144 144 142 142 142 142 142 139 137 138 131 107 72 61 60 58 55 55 59 62 64 67 70 66 67 68 63 61 63 61 61 65 66 65 61 58 63 68 68 64 65 65 67 76 82 83 83 74 68 69 72 73 67 71 72 65 65 74 94 106 114 128 137 146 145 145 143 133 117 97 81 77 68 62 74 95 115 131 139 118 103 108 136 142 146 158 152 150 137 123 106 86 68 59 60 74 87 96 89 86 92 103 96 83 94 101 95 94 101 115 104 98 108 123 116 106 107 110 121 133 117 101 106 115 103 95 109 112 108 113 106 102 101 99 113 121 131 137 133 119 125 141 134 125 111 112 106 106 117 114 132 139 147 149 149 125 150 145 131 107 139 140 124 142 136 156 176 139 91 119 134 160 147 134 170 122 132 163 143 127 126 131 87 66 152 167 132 143 142 100 126 141 125 99 153 166 160 132 105 166 164 135 116 176 161 130 173 165 132 101 121 146 171 152 128 72 87 140 156 149 137 157 141 121 142 134 113 120 138 157 146 132 135 128 135 117 124 92 93 134 124 97 49 41 40 66 135 124 80 128 126 105 83 58 67 87 72 98 130 127 100 59 29 26 46 57 51 49 35 86 139 148 150 151 151 151 152 152 152 151 152 152 152 154 153 152 155 153 154 155 157 157 157 157 156 157 156 157 158 159 160 160 159 162 162 163 164 164 165 165 165 166 167 165 168 169 167 170 169 169 171 173 173 173 172 173 174 173 176 176 174 175 178 178 175 178 179 181 182 181 181 181 182 
146 146 145 144 144 144 145 144 149 146 143 144 146 146 145 144 144 143 143 144 145 144 144 145 145 145 144 144 144 145 146 146 142 143 143 143 143 144 142 140 143 143 143 143 143 143 143 143 144 144 144 144 143 143 143 143 142 143 143 142 141 142 142 141 144 141 140 128 101 68 59 53 51 50 52 58 62 65 71 77 73 73 73 66 62 64 63 64 61 65 70 71 68 67 66 64 64 66 63 67 79 87 87 87 92 84 86 82 77 69 68 68 73 77 85 94 88 84 100 118 134 141 144 142 134 119 103 96 84 77 69 63 64 71 83 96 97 107 115 112 102 133 154 146 146 148 137 125 107 80 68 77 97 106 109 102 101 99 94 76 76 96 109 114 101 81 89 102 102 114 125 121 106 99 108 123 119 106 105 105 97 82 75 88 97 113 139 136 129 132 127 131 147 131 128 131 131 136 125 93 69 58 83 109 152 157 117 122 136 142 147 116 110 163 160 127 133 146 162 140 131 120 131 155 126 127 150 126 136 146 124 163 148 138 167 138 143 106 120 117 68 107 162 136 137 159 137 115 158 136 130 144 173 155 146 94 125 184 137 106 185 170 166 122 130 147 177 146 121 162 150 137 100 126 171 168 158 118 129 143 140 166 160 116 94 95 113 135 139 129 136 138 149 130 109 119 120 127 135 127 78 59 75 117 96 44 104 127 123 123 104 100 105 82 104 133 113 106 81 40 55 73 71 64 60 56 97 137 148 150 151 150 150 151 151 151 152 153 152 152 153 151 151 153 152 155 156 156 157 159 159 157 158 158 158 159 160 161 160 159 158 160 162 164 165 166 165 164 166 166 164 167 169 168 170 170 168 170 171 172 173 173 173 174 176 178 178 176 176 177 177 176 180 180 181 181 182 182 182 182 
145 148 148 144 143 146 145 142 144 143 144 146 146 145 145 147 146 144 144 145 145 143 143 144 145 145 145 145 145 145 145 145 146 146 144 142 143 145 144 142 143 144 143 142 141 140 142 143 144 143 142 142 141 141 142 142 141 142 142 141 140 141 141 140 145 139 134 118 94 70 66 58 49 49 52 58 62 64 70 78 83 77 74 68 64 62 62 68 72 76 84 88 82 74 68 63 62 68 70 74 86 97 102 107 105 96 100 91 84 77 71 67 71 74 79 83 72 64 84 106 121 130 133 130 127 116 104 102 99 96 86 70 64 71 79 90 101 115 101 92 103 126 120 133 141 137 132 130 109 85 86 93 105 117 119 109 102 89 82 72 79 93 106 115 90 76 84 85 94 120 130 121 105 100 108 107 99 88 107 111 87 72 83 111 127 129 146 137 126 136 132 126 128 126 132 135 141 136 101 57 58 92 121 124 140 139 127 116 139 120 106 108 121 147 141 118 150 142 137 147 142 133 154 143 152 182 155 144 132 137 125 140 156 137 178 153 143 99 131 131 93 96 133 119 148 161 147 135 165 171 149 116 155 172 162 143 114 136 142 130 181 168 146 109 112 178 186 168 147 143 166 190 171 144 152 164 153 142 162 148 149 152 140 158 121 88 87 86 124 113 131 144 142 140 124 118 98 70 118 154 133 122 108 113 74 78 111 114 125 151 136 95 98 79 90 122 90 74 80 73 100 114 84 82 77 88 109 141 151 151 150 149 150 152 153 152 153 154 153 153 154 153 152 155 153 155 156 155 156 159 160 157 161 160 159 159 161 162 162 162 163 163 162 162 162 163 165 166 164 165 164 168 170 168 170 169 169 169 169 170 171 172 173 174 177 177 178 179 179 178 179 181 182 180 179 179 180 182 184 184 
145 146 147 145 145 146 147 148 144 144 145 145 144 143 144 145 146 145 142 142 144 144 143 145 144 144 144 143 142 142 143 144 145 140 139 143 145 143 141 143 144 143 143 142 141 140 141 143 144 140 142 144 141 141 143 141 142 143 142 140 139 140 140 140 141 141 135 113 86 73 67 60 52 51 54 61 65 64 70 82 85 78 73 65 61 63 68 78 90 100 104 110 105 87 78 70 68 69 74 88 101 118 127 124 119 120 113 104 92 85 81 70 71 73 75 76 71 66 76 93 100 111 114 110 107 98 90 92 100 103 96 84 75 78 85 81 90 100 92 80 97 101 116 122 119 117 113 104 90 82 90 102 111 116 107 94 94 84 75 88 91 102 101 92 83 84 98 103 110 110 114 110 102 112 112 111 89 88 111 100 91 79 97 137 152 132 138 132 114 136 137 114 114 123 138 144 123 110 71 64 107 142 144 128 116 134 113 111 132 118 92 136 136 113 106 140 170 142 118 134 137 164 158 145 150 174 154 148 134 145 140 126 97 121 170 159 154 120 151 125 89 121 175 144 90 137 170 144 165 182 155 161 165 133 165 123 90 122 137 133 143 149 120 81 112 166 169 156 144 123 131 179 166 113 105 148 151 146 136 149 152 129 131 128 137 108 102 94 105 92 86 112 133 123 117 97 78 57 130 149 133 120 87 108 109 142 115 103 118 151 138 90 100 100 110 125 84 48 77 117 128 118 95 81 111 120 127 138 142 147 151 149 147 153 156 150 152 153 153 153 153 153 154 155 157 157 155 153 155 159 161 160 160 160 159 159 160 160 161 161 164 164 165 166 166 166 166 165 163 165 167 168 169 170 171 171 171 170 171 173 175 175 176 177 175 176 177 176 177 180 182 182 181 181 182 183 183 182 183 185 
144 145 145 144 142 143 145 146 143 143 144 145 146 146 146 146 148 146 144 144 147 146 143 144 142 143 144 144 144 144 144 144 144 140 139 142 144 143 142 144 144 143 143 143 141 140 140 141 144 141 142 143 141 141 143 142 145 145 143 141 139 140 141 141 140 138 129 108 85 75 70 62 55 55 53 58 61 66 73 84 86 81 75 64 58 62 75 93 106 119 127 133 127 111 97 80 70 71 81 96 111 129 139 135 135 130 125 116 103 96 92 85 81 82 83 85 87 85 84 87 98 102 99 93 89 80 72 71 89 92 89 85 84 89 96 91 85 77 78 78 100 110 121 124 111 94 82 80 78 81 94 107 112 88 79 88 94 88 82 90 105 108 100 92 91 95 104 104 91 88 96 97 99 111 118 112 93 78 84 84 90 84 92 120 138 134 124 125 111 117 131 116 116 128 138 143 98 59 62 109 141 154 147 130 108 97 99 108 103 109 141 140 104 100 96 124 169 148 143 157 147 152 161 151 140 133 125 121 129 129 116 94 97 112 119 126 109 89 131 124 106 114 146 147 62 88 146 126 141 153 136 168 175 133 117 92 92 144 150 139 137 172 157 125 140 159 148 98 125 168 111 112 122 140 165 158 159 143 132 141 158 133 128 130 148 124 131 104 105 97 73 93 99 86 129 130 74 72 123 129 106 93 66 81 122 149 122 94 113 133 108 74 77 100 142 136 89 44 96 128 135 104 83 102 130 129 115 114 130 136 143 150 153 151 150 154 151 152 153 153 153 153 154 155 155 156 156 154 155 158 160 159 158 161 162 161 159 159 161 164 164 164 165 166 167 167 168 168 169 169 170 171 171 171 171 171 170 170 172 174 174 173 174 175 174 176 177 177 178 180 181 181 182 182 183 184 184 184 184 186 
144 146 146 143 141 142 144 145 142 142 143 144 145 146 146 145 145 144 142 143 146 146 144 145 143 143 143 144 145 144 144 143 146 144 142 142 143 143 144 144 141 142 143 144 143 142 142 143 144 141 142 143 141 141 143 142 145 145 144 142 140 140 141 140 140 136 123 102 84 77 72 64 58 58 53 55 59 69 78 89 94 87 77 61 53 60 79 103 122 137 148 155 151 140 123 95 73 71 83 101 119 135 142 137 139 134 136 129 112 101 94 89 89 91 93 95 97 96 97 103 112 113 109 102 93 80 70 68 74 76 77 84 91 99 105 100 86 65 72 76 88 99 111 117 106 84 70 70 72 78 86 86 70 62 66 80 89 82 79 94 118 121 112 107 112 118 113 100 76 72 84 92 97 108 127 121 95 81 69 67 79 85 91 108 123 118 108 132 124 98 105 114 128 147 131 104 70 70 108 140 136 147 143 129 124 117 140 137 114 145 155 126 104 112 126 124 141 153 144 163 149 114 115 131 90 72 72 84 83 102 88 140 175 145 103 70 49 27 41 50 50 33 48 66 50 53 94 109 128 136 103 108 139 122 99 90 83 101 143 153 111 129 166 167 143 161 164 109 150 175 137 97 94 168 199 152 140 168 159 119 139 151 138 136 154 101 125 152 117 124 87 95 105 100 129 135 122 123 116 64 41 49 31 64 127 80 96 89 102 116 95 67 79 106 124 117 69 52 93 112 105 79 64 93 132 131 100 81 92 124 145 148 150 151 151 154 151 152 152 153 153 153 153 154 154 156 157 156 155 157 158 157 160 160 160 161 162 162 163 163 162 163 165 166 167 168 169 169 167 167 168 169 171 172 171 171 170 172 174 175 175 174 174 175 175 177 178 179 180 181 181 181 182 181 182 184 185 185 185 185 
146 148 148 145 142 143 145 146 143 143 143 143 144 145 144 144 144 143 140 140 143 144 144 146 146 145 143 143 143 143 143 142 145 145 144 143 143 144 145 144 141 142 143 144 144 143 143 144 143 142 141 141 141 141 142 142 141 142 143 143 141 140 139 138 141 136 120 97 81 77 72 64 58 57 55 54 62 69 81 93 97 89 75 58 52 60 82 111 129 142 153 164 166 163 147 113 82 70 82 106 127 139 143 136 141 142 153 144 119 102 94 90 93 94 98 103 103 102 112 128 130 136 137 128 108 86 73 72 74 77 81 91 100 108 111 105 89 71 75 78 83 88 97 98 80 66 60 61 64 73 74 63 59 59 65 76 85 84 85 101 115 124 121 118 131 140 129 109 79 76 90 103 100 105 122 112 107 110 90 70 62 76 97 119 126 112 110 136 141 119 102 112 144 154 109 63 67 100 134 145 126 134 140 127 131 140 169 142 121 158 144 133 129 120 152 145 112 158 136 141 137 89 79 80 47 34 55 68 100 144 144 152 184 162 136 110 126 97 46 30 36 38 15 0 20 43 62 92 84 80 74 100 85 61 90 90 39 43 65 81 44 36 92 136 144 129 130 141 158 161 143 159 125 126 180 157 116 171 172 125 133 178 130 138 141 111 157 171 142 144 96 88 113 104 114 83 113 161 119 84 92 60 37 54 58 52 102 86 112 112 98 79 96 90 78 87 89 91 101 84 71 70 58 66 124 134 105 78 83 102 125 144 154 154 151 151 151 152 153 153 153 153 154 154 155 157 158 158 157 157 157 156 161 160 160 161 163 164 164 164 162 164 166 168 169 169 169 169 166 166 166 168 171 172 172 171 172 173 175 176 175 175 175 176 178 179 180 181 181 182 182 182 182 181 182 184 186 186 185 185 
147 149 149 146 144 144 145 147 146 145 144 144 144 145 145 145 146 146 143 142 143 144 144 145 147 145 143 142 143 143 142 141 142 143 143 142 143 144 145 143 143 144 143 143 142 142 142 142 142 142 141 140 141 141 141 141 139 140 142 143 142 140 139 140 140 135 117 93 80 76 72 66 58 55 57 55 65 65 80 92 100 94 80 60 50 54 75 106 128 138 148 163 172 176 162 128 86 62 75 105 132 141 142 135 142 153 166 153 117 92 86 87 90 92 97 105 110 114 124 137 144 153 156 143 116 84 67 68 81 89 97 108 116 120 118 108 90 79 73 83 96 99 99 86 69 57 54 58 64 76 79 68 68 57 67 78 76 79 90 99 106 114 118 126 146 153 136 118 97 92 99 108 94 100 118 111 101 125 124 106 74 65 81 108 117 105 117 143 145 131 122 145 152 138 89 67 101 118 119 132 118 112 141 135 110 120 160 141 118 129 140 136 127 134 154 144 130 149 117 109 83 45 96 113 109 132 138 120 149 165 159 125 138 151 134 130 180 173 122 99 130 130 104 75 115 136 152 131 95 120 128 134 133 149 114 104 71 39 55 79 66 58 37 84 100 87 63 93 103 120 120 137 149 125 127 142 138 141 152 154 145 167 150 143 164 112 149 164 149 151 165 108 104 110 128 109 112 111 87 102 126 105 100 73 38 73 147 73 118 138 92 90 92 70 75 121 138 131 115 82 67 86 73 58 106 134 125 107 93 86 102 133 149 152 153 152 151 152 153 154 154 154 155 155 155 157 158 158 158 158 157 156 157 160 163 163 161 160 164 167 164 165 167 168 168 169 169 170 171 170 170 171 173 174 174 173 174 174 174 175 175 176 177 177 181 181 182 182 182 183 183 184 184 183 184 186 187 188 188 188 
146 147 147 145 144 144 145 146 145 145 144 144 144 145 145 145 144 147 147 145 146 145 145 146 145 144 144 144 145 144 143 141 144 144 143 143 144 144 143 142 143 143 143 141 141 142 142 142 142 143 142 140 141 141 139 140 141 141 142 142 141 140 141 143 140 135 115 91 81 80 77 71 60 55 56 55 65 66 81 93 102 100 87 64 48 45 63 95 121 132 141 157 173 180 167 135 84 53 67 100 132 141 140 133 135 156 170 156 111 71 63 68 74 86 95 100 109 121 132 140 155 165 163 147 118 79 57 60 77 95 115 130 139 143 137 121 99 86 71 81 98 103 102 89 82 66 61 69 76 83 85 80 61 64 74 73 68 76 91 105 113 107 105 115 134 133 114 105 97 96 102 101 73 78 99 104 98 113 120 114 79 54 60 84 97 98 120 154 146 122 127 154 143 106 91 112 140 134 119 126 116 85 106 111 85 104 149 143 117 92 104 112 126 151 151 135 143 133 85 80 45 70 140 153 177 169 157 151 132 154 129 102 107 135 154 139 182 161 129 100 127 161 154 143 151 164 148 140 130 156 166 167 121 144 167 117 143 139 156 173 146 138 143 127 115 90 74 43 24 26 73 100 128 126 85 112 154 155 124 140 162 123 101 125 151 138 142 144 170 155 154 122 110 120 122 113 100 86 93 93 104 103 109 98 68 111 152 68 113 131 90 97 96 70 95 152 148 126 94 58 78 109 98 67 84 129 144 137 100 75 83 118 139 148 154 152 152 153 154 155 155 155 155 155 154 155 157 158 159 160 159 158 158 160 162 162 162 162 164 166 165 165 165 165 165 166 168 170 172 171 171 172 173 174 174 173 176 176 176 176 177 179 180 180 182 182 182 183 184 184 184 186 186 186 186 188 189 189 190 190 
145 146 146 145 144 145 145 145 144 144 145 145 144 144 144 145 141 146 148 146 146 145 146 148 144 144 144 145 145 145 144 143 147 144 143 143 144 144 143 143 142 142 142 141 142 143 144 143 142 145 143 141 142 141 139 140 142 142 142 142 141 140 141 144 140 132 109 86 82 85 81 75 64 58 51 54 64 78 91 103 105 103 90 68 52 46 59 89 112 127 136 151 170 178 166 135 81 49 67 100 134 145 145 137 135 161 171 160 110 53 43 51 61 82 98 103 110 123 135 143 157 170 167 147 115 68 40 45 66 96 127 149 164 173 166 146 115 89 69 73 82 88 91 90 80 69 67 76 83 84 82 79 72 81 79 69 71 81 94 113 119 104 90 91 106 106 93 96 99 102 117 108 77 75 91 97 94 93 99 102 90 76 64 60 79 94 115 146 142 123 118 119 127 98 108 142 143 124 111 114 101 72 66 81 103 126 146 149 123 97 90 125 163 156 153 152 153 110 71 90 81 132 165 163 159 146 142 136 122 142 122 118 105 89 117 117 174 156 150 86 87 151 158 127 146 153 136 144 120 154 156 164 150 169 201 149 149 165 191 177 150 142 177 186 187 152 105 137 127 69 83 97 84 102 44 91 150 156 116 130 116 130 126 125 137 139 150 128 143 141 144 135 135 169 123 99 84 101 129 127 98 84 111 97 125 111 112 62 86 121 115 103 95 99 140 148 122 91 82 68 102 121 101 73 90 129 146 149 116 70 59 99 134 145 149 152 152 153 154 155 155 156 156 155 155 156 158 159 160 160 160 161 161 159 158 160 164 166 165 163 164 165 165 165 166 167 169 171 170 170 171 172 173 174 175 175 178 179 179 179 180 181 183 182 182 182 183 185 186 186 186 188 189 189 189 190 191 191 192 194 
145 146 146 145 145 146 146 145 144 146 147 147 146 145 144 144 143 148 149 146 145 144 145 148 146 146 145 144 144 144 145 145 144 141 139 142 145 145 146 146 143 144 144 143 143 144 144 142 142 146 144 141 143 142 139 140 141 141 142 142 141 139 139 141 138 128 103 80 80 85 81 74 65 61 47 53 64 90 102 115 121 115 96 73 58 48 54 77 106 126 135 146 166 176 164 135 73 45 66 98 133 148 150 140 142 167 170 160 108 42 33 46 62 83 104 114 121 129 136 142 156 174 173 150 111 56 23 30 54 91 129 155 174 188 182 159 126 85 66 67 70 76 77 83 77 76 77 82 86 85 80 76 78 77 84 83 71 66 78 98 103 99 93 92 107 110 99 101 99 94 106 95 79 84 101 105 102 92 88 88 99 112 93 60 53 68 96 131 131 113 107 119 121 131 126 124 124 113 89 78 93 111 105 119 157 138 118 138 127 129 112 135 166 139 140 134 107 99 140 145 124 147 167 154 143 144 141 141 110 113 145 154 113 91 106 125 139 105 142 71 44 109 114 115 141 143 146 136 118 149 134 142 122 149 189 165 121 139 173 158 148 157 137 121 162 168 103 151 187 158 115 125 108 74 48 63 60 65 61 75 86 76 141 134 118 130 126 113 136 119 131 147 140 141 131 136 107 87 94 114 121 121 117 82 111 117 88 99 116 102 112 111 108 139 154 145 123 132 113 109 130 116 81 69 116 130 131 143 123 86 62 78 115 142 152 153 152 153 154 155 156 156 156 155 156 158 160 161 160 159 160 162 160 160 161 162 163 164 165 165 164 166 169 170 170 171 171 172 172 173 173 174 174 175 176 177 177 180 181 180 180 181 182 182 181 182 184 187 188 188 188 189 193 193 193 193 193 193 195 197 
144 143 144 146 146 146 147 148 148 147 148 147 145 145 146 143 147 147 147 147 147 146 146 145 143 145 146 145 144 145 144 143 145 140 142 146 144 141 143 146 143 144 144 143 142 142 141 140 142 143 142 144 145 142 140 142 145 144 142 141 141 140 138 137 135 130 107 79 78 84 82 85 76 61 46 56 75 101 115 123 128 120 99 76 58 49 49 73 106 119 135 147 163 172 163 131 72 42 62 95 132 151 159 154 154 174 174 158 94 38 35 40 60 92 118 128 131 131 133 142 159 178 174 150 106 40 26 30 47 77 120 153 178 192 192 170 128 77 62 69 65 69 74 80 81 81 86 81 85 88 90 84 83 88 84 75 72 75 79 82 90 101 99 103 106 117 120 119 97 91 96 94 93 95 109 117 113 104 88 94 115 129 122 98 64 50 66 107 112 105 113 134 135 149 145 106 98 103 93 83 115 150 139 143 156 141 108 120 120 157 147 98 137 126 73 63 61 133 180 162 143 156 158 138 139 127 132 124 114 153 140 94 99 193 184 161 155 116 94 44 31 41 72 125 160 137 135 99 121 171 104 108 128 141 126 133 89 124 141 123 176 187 161 132 81 102 87 152 192 150 115 112 156 121 97 87 62 24 23 12 46 80 123 108 102 120 116 119 151 126 108 128 132 103 116 140 175 102 92 124 115 104 124 59 92 119 109 131 108 109 85 61 84 109 134 147 139 155 140 129 138 103 71 60 95 121 110 122 131 118 101 73 86 122 141 149 150 152 154 155 155 155 156 157 158 158 159 161 162 161 162 163 162 161 162 163 165 167 167 166 166 166 167 170 171 171 172 174 175 172 175 178 176 175 178 178 181 182 183 184 184 184 184 183 184 186 187 187 189 192 192 190 194 194 194 195 196 197 198 199 
149 147 147 147 146 145 145 146 146 145 145 145 144 146 147 144 145 145 145 145 145 144 143 142 144 145 145 145 145 146 145 143 144 143 145 146 143 142 144 145 140 142 144 143 143 143 142 141 141 142 141 142 143 142 140 141 142 142 141 141 141 140 139 138 137 129 107 81 81 84 84 89 84 65 50 56 82 108 125 130 129 120 98 75 57 49 46 66 101 122 135 145 165 172 163 132 63 37 56 89 129 155 170 169 168 176 172 155 88 31 29 39 62 98 128 139 140 137 139 149 164 180 180 155 96 36 29 35 44 70 112 148 178 194 195 173 126 68 51 56 60 75 83 86 84 82 84 79 83 85 88 85 84 84 78 73 80 89 89 83 83 98 105 103 106 116 127 126 114 89 81 89 75 75 103 117 110 97 91 109 128 132 127 121 105 70 57 74 98 109 123 145 151 126 118 92 70 98 130 121 128 151 134 133 147 144 110 82 110 167 156 103 109 76 54 86 123 114 123 147 139 142 154 136 141 130 128 88 146 180 136 91 156 165 165 158 148 144 152 84 79 77 91 158 182 165 142 64 134 184 132 113 171 174 133 85 133 183 167 153 178 205 165 156 106 127 119 132 157 158 107 89 163 155 93 109 155 127 74 41 24 34 40 42 64 63 67 72 76 98 129 129 132 123 106 112 156 141 125 152 113 99 123 96 132 120 137 174 103 116 94 50 61 102 110 133 108 77 82 115 123 108 77 60 67 109 101 99 135 143 122 89 64 89 129 146 154 155 155 155 155 156 158 160 161 160 161 162 163 163 163 164 165 164 164 165 167 169 169 169 167 168 170 171 172 171 173 175 178 175 176 178 177 178 181 184 181 181 182 184 186 187 187 186 188 189 191 192 193 195 195 195 195 196 196 198 199 201 202 203 
148 146 145 145 145 145 145 145 146 144 144 144 144 146 147 144 142 142 142 143 144 144 143 142 144 144 144 144 145 145 144 142 141 143 146 146 143 143 146 145 141 143 144 143 143 143 142 141 141 143 142 141 142 142 141 142 140 141 142 143 143 142 141 140 141 129 109 84 84 84 83 86 84 69 59 61 87 109 125 126 124 115 94 75 59 49 44 59 94 122 131 142 165 171 161 125 51 33 53 85 125 151 167 169 174 173 169 149 80 28 27 38 61 100 137 152 151 145 145 152 169 180 180 153 82 31 31 36 47 69 107 144 176 194 195 173 127 56 42 57 73 98 108 113 101 90 82 78 84 84 84 81 82 81 74 68 72 82 84 79 76 88 103 107 116 126 140 134 113 85 59 65 62 78 101 96 89 85 88 100 117 125 124 127 131 113 89 63 73 96 124 150 144 110 109 113 93 120 154 136 116 140 133 127 144 143 115 96 104 128 138 112 98 115 148 163 144 122 82 104 110 108 150 141 118 154 164 145 132 144 126 122 144 134 130 135 133 140 151 99 120 135 120 133 166 151 147 100 173 168 131 148 181 168 143 121 163 205 157 143 138 172 178 141 121 176 170 147 142 129 90 92 149 161 105 104 161 119 120 114 119 76 43 70 121 97 60 51 61 38 98 119 109 106 110 90 91 135 112 129 158 129 120 108 121 125 99 154 144 124 75 65 60 116 115 103 74 58 92 113 121 115 88 53 72 110 118 100 111 145 133 101 59 64 118 146 153 155 157 158 159 159 159 160 162 161 162 163 163 163 163 164 166 166 166 167 168 170 171 171 170 171 173 174 173 173 175 177 181 180 179 179 180 179 181 185 183 183 184 186 189 191 191 190 192 192 194 196 197 197 198 199 198 198 200 201 203 204 205 206 
145 144 143 143 145 146 146 146 148 146 146 145 144 146 147 145 142 142 142 143 144 145 144 144 144 144 144 144 145 145 144 143 141 142 145 145 143 143 145 144 144 145 144 142 141 142 142 142 143 146 144 141 142 142 141 141 140 141 143 144 143 142 142 142 139 128 109 84 84 81 78 77 78 72 68 68 86 104 119 122 118 110 93 80 64 49 43 55 89 118 128 142 164 171 160 115 45 36 57 87 122 145 159 163 169 169 169 146 78 33 31 37 59 97 136 155 157 153 153 158 171 179 171 144 73 34 34 38 49 68 104 139 172 190 193 171 124 49 43 67 97 132 142 144 130 107 79 71 81 87 85 79 76 76 75 70 67 72 80 83 77 80 92 106 122 132 136 121 96 70 49 68 91 102 96 82 81 77 84 99 124 136 128 125 137 147 126 77 55 68 105 132 122 119 129 149 139 143 152 137 122 139 145 128 134 135 132 144 144 105 104 105 119 159 162 158 136 132 85 66 112 114 121 159 127 144 158 154 124 105 88 118 124 126 75 92 116 135 143 92 93 84 94 111 121 149 155 88 136 154 118 146 193 150 131 138 131 177 166 160 116 112 146 122 159 185 163 143 130 156 153 154 171 145 99 131 145 137 96 98 152 114 91 126 129 99 94 122 124 74 82 91 78 72 69 58 105 107 96 84 97 132 122 106 112 99 82 64 112 148 73 102 101 113 100 83 98 118 145 139 133 125 93 56 99 121 130 110 87 113 120 94 61 58 115 146 153 156 159 160 161 161 161 161 162 162 163 163 163 164 164 165 167 167 168 169 170 171 172 172 173 174 176 176 176 176 178 179 181 183 182 182 184 182 181 185 187 187 188 190 192 193 194 194 195 195 196 199 200 199 200 202 201 202 203 204 205 205 206 207 
147 146 145 144 145 146 146 146 148 147 148 146 144 145 147 145 146 145 145 144 144 144 144 144 146 146 146 146 145 144 144 145 145 142 144 146 144 142 142 142 145 145 144 142 141 141 141 141 142 145 143 140 141 141 141 141 141 142 142 142 141 140 140 141 141 131 114 89 85 84 77 72 75 75 71 73 82 103 116 124 118 110 96 88 68 48 43 56 85 108 122 140 158 166 155 99 39 37 56 84 113 133 149 159 164 169 172 150 81 36 33 37 58 89 126 149 158 162 166 170 173 180 164 132 68 38 38 45 45 63 97 131 164 185 190 170 117 49 49 76 115 158 173 172 158 123 73 57 70 86 90 84 86 80 76 71 63 58 60 62 70 72 78 96 110 127 126 109 84 61 60 83 117 127 114 102 82 56 58 96 133 132 116 121 150 150 123 96 71 65 75 74 77 101 128 153 142 136 141 131 128 127 126 113 113 128 156 165 140 107 85 135 151 135 134 130 136 137 114 116 176 166 117 144 114 135 155 145 127 103 110 111 128 123 116 115 100 126 117 67 86 63 87 128 95 92 91 132 143 74 76 145 164 148 140 136 104 136 134 112 79 68 69 137 193 163 141 135 149 181 145 156 175 123 78 112 140 140 116 83 116 141 116 128 129 87 81 146 163 127 120 116 60 81 100 82 94 78 53 72 83 121 130 95 90 77 50 34 50 129 67 97 165 114 66 70 121 149 143 126 113 124 106 105 134 145 132 112 80 83 106 88 64 62 103 136 153 157 159 159 159 161 163 165 164 164 165 165 166 167 167 168 168 169 171 173 174 174 174 175 176 176 177 178 179 181 181 181 180 183 183 184 188 187 186 189 189 190 192 193 193 194 196 197 199 198 199 202 204 203 203 205 204 205 206 207 207 207 208 208 
146 147 146 145 145 146 147 146 146 146 148 147 144 145 147 146 145 145 145 145 144 144 144 145 145 145 146 146 145 143 144 145 146 143 143 146 145 143 143 143 141 143 144 143 142 142 141 140 140 143 143 141 142 142 141 142 143 143 142 141 141 140 140 141 143 136 119 95 84 82 73 66 72 74 72 77 83 100 110 116 116 109 96 91 71 51 49 62 84 100 116 134 149 155 142 86 34 39 57 83 105 118 133 147 162 169 171 153 87 37 33 39 46 75 112 140 156 165 172 175 179 185 164 124 62 37 36 45 43 62 94 125 156 178 185 166 109 41 45 79 121 158 182 193 176 133 70 50 67 88 94 89 79 67 62 60 50 44 48 52 57 67 71 82 92 114 119 108 74 50 68 94 123 138 134 126 102 65 53 87 116 108 106 131 161 143 110 109 111 108 89 60 54 67 104 136 126 135 156 139 114 111 98 107 122 132 163 161 142 125 112 143 168 161 127 117 133 133 138 140 138 165 144 108 106 156 156 148 125 98 123 126 67 126 140 125 115 125 110 35 81 70 103 121 134 105 94 168 161 124 70 120 143 151 163 127 139 183 150 86 129 171 129 164 168 142 124 90 147 171 130 124 156 111 120 147 134 111 126 124 109 144 115 106 157 146 107 164 171 118 106 157 126 83 121 129 121 107 94 113 75 90 107 60 46 58 34 13 47 111 39 68 125 83 54 90 127 150 130 96 100 129 136 151 152 155 137 114 95 106 118 94 69 57 73 119 138 147 156 160 161 162 164 165 166 166 167 167 168 169 170 170 170 172 173 175 175 176 176 177 178 179 179 180 182 184 184 184 184 185 185 186 188 189 190 192 190 193 195 196 196 196 198 200 202 201 201 204 206 206 206 207 208 209 210 210 210 211 212 213 
144 145 146 145 145 146 147 147 145 145 147 147 145 146 147 145 142 144 145 145 144 143 144 146 145 144 144 145 145 144 144 145 144 143 144 145 144 144 145 144 140 142 144 143 143 143 142 141 140 142 142 143 143 141 140 143 144 143 142 142 141 141 141 141 139 136 122 105 85 81 67 64 71 73 75 78 84 93 102 107 110 106 95 92 75 61 61 70 85 97 111 124 135 138 121 74 39 47 63 85 100 107 122 141 162 175 174 155 91 39 34 36 37 62 98 126 143 158 171 178 187 190 170 127 65 40 37 40 46 65 95 121 150 173 179 158 98 38 42 75 115 145 175 192 177 133 70 63 89 108 103 89 72 60 55 53 42 37 42 46 51 59 63 70 80 93 101 98 70 48 70 110 128 124 117 119 116 94 73 77 84 78 91 120 139 123 106 110 131 137 119 103 72 55 67 89 96 119 148 137 122 130 125 131 141 136 137 124 116 134 134 129 132 158 140 88 117 122 168 119 73 139 144 108 154 140 148 156 135 117 146 156 98 94 107 117 119 128 105 40 67 85 90 62 122 146 122 112 143 179 107 80 128 128 92 44 164 199 151 113 183 192 144 115 167 137 121 108 145 159 152 118 99 98 145 166 144 123 174 144 128 118 106 112 130 148 127 120 123 89 89 133 148 105 127 121 87 74 71 152 122 127 125 97 66 48 55 33 97 97 48 85 80 63 68 102 107 120 128 118 140 160 159 149 142 135 126 107 82 126 154 136 97 56 57 85 107 123 143 156 161 164 165 164 168 169 169 169 170 172 173 173 173 174 175 176 176 177 179 180 181 182 183 184 185 187 188 187 190 189 189 189 190 192 195 195 194 197 199 200 200 200 201 203 204 205 206 206 207 209 210 210 211 212 213 214 214 215 216 218 
144 147 148 146 145 146 147 147 145 145 147 147 146 146 146 143 141 144 147 147 144 142 142 144 146 145 144 146 147 147 147 147 143 144 146 144 141 143 145 142 143 144 144 143 143 143 143 143 139 140 141 142 143 139 138 141 142 141 141 141 141 141 140 140 140 140 131 121 97 90 75 75 75 76 79 77 82 87 102 110 108 107 97 95 80 70 71 74 78 90 101 107 117 115 95 57 42 50 61 80 91 99 118 144 164 186 181 157 93 42 36 31 38 58 87 110 126 146 170 184 193 193 177 136 75 51 47 41 48 67 95 118 146 169 175 153 92 52 56 75 109 144 175 182 168 125 71 82 119 132 113 88 56 46 46 50 46 44 45 43 40 40 45 58 76 78 84 86 75 77 85 109 117 108 96 100 112 108 86 74 70 61 69 85 95 92 104 111 127 116 98 111 102 73 52 54 76 94 116 121 138 150 166 146 127 125 98 65 87 159 150 126 145 170 150 107 109 125 156 89 73 113 125 143 174 136 97 125 136 138 128 91 92 94 101 85 80 86 56 54 59 77 69 96 92 115 61 32 106 147 151 120 51 49 39 31 123 162 133 138 191 164 127 77 140 153 139 144 111 126 117 94 113 98 153 164 149 117 162 143 127 140 131 158 108 108 154 141 81 90 127 107 99 127 133 141 80 59 57 88 117 160 120 87 89 82 102 106 124 121 71 104 75 74 88 87 88 96 125 152 175 188 167 142 138 127 106 92 64 113 164 153 99 56 91 95 82 103 128 147 157 163 167 169 171 172 173 172 173 175 176 176 176 177 178 178 178 179 182 184 183 186 187 187 188 189 190 190 193 191 193 195 194 197 201 200 200 201 203 204 204 204 205 205 207 209 210 209 210 212 214 213 214 215 216 216 216 216 218 219 
148 147 147 147 146 145 146 147 146 147 146 149 147 147 151 150 145 144 144 147 148 145 143 143 146 146 146 146 147 147 147 146 144 144 143 143 143 143 144 144 142 142 142 142 141 141 143 144 144 142 145 144 142 142 141 141 139 142 143 142 141 141 142 141 142 139 137 132 120 102 89 83 77 78 79 82 83 87 97 106 107 109 105 99 83 79 75 74 74 89 93 93 95 79 72 56 44 47 63 76 86 97 118 148 173 180 186 150 91 38 38 36 40 54 75 102 119 143 166 182 195 196 178 137 84 62 52 41 48 67 93 115 138 162 174 151 89 58 61 75 113 138 172 185 169 112 77 105 140 161 136 89 47 43 43 62 73 73 73 60 46 38 44 49 58 62 67 84 98 100 105 108 94 75 76 83 87 104 100 67 61 69 74 72 71 80 99 103 100 81 73 87 114 119 98 69 61 73 95 114 155 179 156 131 127 120 79 62 97 153 143 127 154 170 143 150 140 109 133 98 63 97 83 147 154 133 87 98 127 127 104 84 104 104 84 80 75 91 70 42 56 75 93 114 103 103 59 85 97 109 128 125 21 107 179 111 101 142 131 106 118 156 142 76 83 147 122 97 131 117 51 109 184 137 113 165 172 128 147 170 125 96 125 165 138 123 157 178 100 70 165 185 114 139 136 96 109 104 76 90 109 102 116 74 73 130 87 108 99 90 96 72 54 79 111 87 97 80 98 136 158 166 137 134 160 156 124 88 55 93 148 138 99 64 99 119 107 117 119 128 148 155 169 172 173 171 176 178 176 177 179 181 179 178 179 182 184 184 184 186 188 190 190 191 193 192 193 197 196 196 196 197 199 201 202 202 204 203 204 206 208 208 208 209 213 213 214 215 216 216 215 215 218 218 218 218 218 220 220 221 
144 147 148 147 146 147 146 144 146 146 145 147 146 145 149 146 146 144 143 146 147 146 145 146 145 146 146 146 145 145 145 146 143 144 145 146 146 146 145 145 144 144 143 143 143 143 143 143 146 141 143 143 142 144 142 140 142 144 144 143 142 142 142 141 141 142 141 139 132 122 108 99 85 82 79 77 78 83 93 104 103 105 104 102 90 87 79 73 77 85 90 89 87 77 73 58 49 52 62 70 79 91 112 144 171 184 173 142 86 39 40 39 42 52 66 87 103 130 159 181 195 195 177 137 86 65 59 51 50 65 86 100 129 159 166 142 82 54 62 81 115 143 175 184 164 118 82 115 154 165 144 92 43 45 56 86 101 101 104 95 72 51 41 47 54 49 54 76 107 112 105 92 77 68 66 63 77 94 101 78 66 95 113 105 87 68 69 91 87 59 67 79 114 150 147 108 66 59 76 85 149 170 143 127 121 99 92 124 107 113 112 101 115 127 120 159 143 96 100 109 81 81 105 153 121 119 123 104 114 130 97 104 116 112 101 89 107 118 107 81 45 51 62 68 94 106 86 71 63 71 86 36 49 123 163 177 121 97 104 126 111 133 153 70 48 39 26 88 175 162 95 120 186 140 122 133 132 117 128 163 147 88 97 168 147 137 140 186 126 80 93 128 120 158 152 64 81 79 92 107 147 84 92 110 79 108 54 71 62 48 83 81 80 111 126 89 77 74 78 102 96 100 93 131 171 176 153 113 71 100 136 131 81 81 93 105 115 143 121 100 115 154 167 173 176 175 178 180 179 179 181 184 184 183 184 187 189 188 188 190 190 192 192 193 195 194 194 198 199 199 200 201 202 203 204 205 206 205 206 209 211 211 212 212 214 214 215 216 217 217 217 216 219 219 219 220 221 221 222 222 
143 146 148 146 146 147 147 144 146 145 143 145 145 145 147 144 146 144 144 145 146 146 146 147 144 146 147 146 144 143 144 146 143 144 146 146 146 146 145 144 143 143 143 144 144 144 144 143 144 141 143 142 141 144 142 141 143 144 144 144 143 143 142 140 140 143 143 141 141 139 127 115 98 92 84 79 79 84 95 105 102 104 106 105 94 88 79 72 79 84 92 90 86 79 72 58 49 55 61 65 73 85 107 138 162 173 159 126 67 39 38 39 46 53 60 72 83 111 146 177 192 194 176 137 86 66 64 59 48 60 80 94 125 155 157 134 75 53 63 85 114 146 176 183 165 112 86 122 157 160 131 69 44 48 67 103 122 128 137 133 116 80 44 45 55 51 58 77 89 90 83 79 76 66 61 60 73 92 101 87 82 122 139 126 109 88 76 84 76 55 69 79 121 154 149 139 116 81 58 58 94 112 106 108 116 109 118 151 124 91 108 114 94 97 127 161 130 103 89 99 121 128 142 125 113 111 131 126 168 200 162 128 140 145 121 106 116 112 97 77 64 55 69 63 33 68 78 41 50 47 44 54 69 78 92 121 137 86 144 195 163 99 81 125 167 118 71 89 147 123 116 116 160 136 109 75 114 98 72 98 138 136 105 164 158 123 117 145 136 103 80 89 116 108 111 81 85 93 121 121 116 73 60 95 105 84 65 102 109 119 76 73 102 124 93 75 98 95 103 90 76 70 89 144 161 154 143 130 114 116 116 90 96 115 98 86 105 137 134 98 102 137 163 173 179 179 180 182 181 181 184 187 188 188 189 192 193 192 192 193 194 196 196 197 198 198 198 200 201 203 204 204 204 205 206 208 208 208 209 212 214 214 215 216 216 216 217 219 220 220 220 220 221 222 223 224 224 224 225 225 
145 146 146 145 145 147 148 147 146 146 144 146 145 145 148 145 147 146 145 147 147 146 145 145 145 147 147 146 144 143 144 146 146 146 145 144 144 144 144 143 141 142 143 144 144 143 142 142 141 140 145 143 139 140 141 143 142 142 142 143 143 143 142 141 142 143 142 140 142 143 136 126 111 103 94 89 90 96 104 111 105 106 108 107 95 85 79 77 77 81 85 78 73 69 60 51 50 59 63 64 70 79 100 129 148 150 147 104 44 38 35 39 48 54 59 65 69 94 130 167 188 193 177 138 84 61 62 60 47 56 76 94 119 143 150 126 70 56 62 82 107 141 168 179 165 92 78 114 147 154 122 63 56 64 88 122 142 157 174 174 160 114 49 36 48 56 63 70 71 69 65 72 77 64 54 56 73 95 99 90 101 123 115 102 99 93 91 87 80 61 69 94 113 144 136 128 140 141 104 75 60 59 77 95 115 135 142 137 126 118 144 156 97 86 146 144 124 126 147 131 113 86 94 96 122 145 179 184 208 221 219 188 175 198 156 117 113 98 79 61 57 57 65 55 56 83 58 34 69 97 56 84 78 51 59 91 45 64 131 104 110 134 83 117 164 163 156 102 121 147 117 86 135 131 103 91 147 151 144 99 77 87 98 148 135 113 91 86 116 131 107 121 163 93 74 101 115 81 110 128 87 96 49 126 105 52 121 176 143 139 63 87 120 126 91 82 124 138 125 108 100 92 115 144 132 120 117 126 148 148 112 62 93 134 111 87 107 126 135 107 111 137 161 172 180 182 182 184 185 184 186 189 190 191 193 195 196 195 195 196 197 200 200 200 202 202 202 204 204 205 207 207 207 208 209 211 210 210 212 215 216 216 217 218 219 219 220 222 223 223 224 224 225 225 226 226 227 227 227 227 
148 146 145 146 146 145 147 150 148 148 147 148 146 144 148 145 148 147 146 147 147 146 145 145 147 147 147 146 145 145 145 146 147 146 144 142 142 144 144 144 140 142 144 144 143 141 141 141 142 141 145 143 140 141 142 144 142 141 141 142 143 143 142 140 143 143 142 141 142 142 139 135 124 115 106 103 106 111 117 120 110 107 109 108 99 86 82 81 79 81 73 59 55 57 53 54 58 66 67 63 62 66 87 113 131 134 124 74 36 37 35 43 47 52 59 64 65 84 117 159 183 193 178 141 82 55 59 59 48 55 72 92 107 126 138 107 61 55 60 76 99 130 151 166 152 86 69 100 133 138 117 77 62 78 108 135 150 173 197 199 183 131 51 28 41 60 72 73 71 75 68 67 71 64 56 51 59 80 94 99 119 115 90 76 74 86 94 91 87 81 99 124 131 115 109 113 129 149 135 126 92 61 60 83 97 115 130 117 130 142 132 146 111 92 140 130 128 149 144 116 105 98 100 120 164 198 223 212 209 215 214 203 189 202 178 138 147 104 56 53 53 42 47 49 48 77 58 37 48 82 96 66 53 62 64 45 26 55 80 63 82 118 81 83 130 115 141 124 67 102 64 42 100 125 103 80 142 171 171 167 121 91 135 164 88 98 130 134 115 107 87 141 179 97 36 82 165 75 90 158 78 58 56 107 104 78 122 190 89 133 85 97 116 130 121 126 126 146 116 92 111 123 128 129 117 115 114 109 145 156 125 71 93 124 112 76 93 130 139 115 109 135 145 167 177 185 186 189 191 189 192 192 193 194 196 198 199 198 199 199 200 202 203 203 205 206 205 207 207 208 209 210 211 212 213 214 213 213 215 217 218 218 219 220 221 222 223 224 225 226 226 226 228 228 228 228 227 228 229 229 
149 146 146 148 148 146 146 150 149 149 148 149 146 144 147 145 148 146 145 145 146 146 147 147 147 147 146 146 146 146 146 146 143 144 143 142 143 144 144 142 139 141 144 144 143 142 143 144 145 141 143 143 142 145 143 142 144 143 142 143 143 142 141 141 142 142 143 143 142 141 140 140 135 128 120 118 121 126 129 129 118 112 112 107 99 87 82 78 81 81 67 54 48 55 60 65 64 68 65 59 50 49 71 93 105 114 87 47 41 37 37 45 47 49 58 66 69 82 109 152 177 191 179 145 85 54 59 60 45 52 71 87 97 110 114 77 51 51 60 75 94 117 135 148 141 105 61 72 95 98 108 98 77 93 120 133 140 169 199 203 188 128 49 32 45 69 85 89 80 85 79 75 76 73 68 62 53 68 99 119 130 112 89 76 76 86 88 94 91 95 138 152 124 98 93 88 99 111 107 120 131 108 88 93 70 56 86 106 138 135 92 114 128 81 71 89 111 135 107 101 98 109 136 159 116 195 225 213 195 212 218 204 189 195 197 179 195 144 33 41 50 47 46 63 62 80 68 50 51 43 43 54 55 62 72 56 78 79 51 53 58 79 86 87 113 87 100 137 91 103 67 32 64 84 72 65 104 125 144 77 94 121 135 118 101 124 168 151 117 129 146 116 125 129 70 55 126 80 61 85 56 74 90 80 122 110 115 178 81 88 69 107 120 100 107 123 117 136 127 79 83 123 129 129 123 110 116 110 130 138 118 94 117 105 85 65 57 100 135 117 91 97 117 146 166 184 189 193 196 194 197 196 195 196 198 200 200 201 201 202 202 205 205 205 208 209 208 209 209 210 211 212 213 214 215 216 216 217 219 220 220 219 221 223 223 223 224 225 226 227 227 228 229 229 229 229 228 228 230 231 
149 148 148 149 148 146 146 148 149 149 147 149 147 146 149 146 146 145 145 145 146 147 147 147 146 145 145 145 146 146 147 147 141 143 143 142 143 145 144 141 140 142 144 144 144 144 145 146 145 141 143 143 143 145 143 141 144 143 143 143 143 142 141 142 141 141 142 142 142 140 140 141 141 137 133 132 134 136 136 136 128 124 119 102 90 81 81 76 79 77 64 56 42 50 64 63 64 66 65 60 43 36 55 73 77 81 60 45 51 45 43 48 49 46 54 67 75 83 100 140 168 186 180 151 93 58 61 59 44 47 70 80 86 88 76 55 50 48 65 79 89 107 127 135 135 123 75 61 60 77 118 123 105 111 124 127 133 169 200 203 183 115 43 38 54 81 94 97 97 98 95 94 89 80 76 72 64 73 103 124 118 100 85 77 87 94 108 134 118 81 95 104 94 87 89 80 93 85 76 100 113 123 142 151 105 57 55 90 134 140 130 139 142 79 47 78 112 109 97 96 112 149 180 146 64 156 211 218 184 183 216 178 151 185 194 182 199 169 25 24 41 49 58 60 73 63 65 70 73 51 48 68 73 91 61 57 59 61 56 63 52 66 79 73 75 102 120 130 154 189 167 137 151 142 111 70 64 57 66 61 67 96 144 91 79 111 151 106 55 126 133 87 92 96 116 58 84 74 92 97 60 100 140 71 77 149 173 154 62 64 56 108 120 62 95 93 104 129 128 76 56 107 134 128 107 68 73 92 111 121 107 128 143 108 55 50 51 61 103 110 88 70 91 115 151 179 191 196 198 196 201 200 199 200 202 203 203 203 204 205 205 208 208 208 211 212 211 211 211 213 215 216 216 216 218 219 219 220 221 222 222 221 223 226 225 225 226 227 227 228 229 230 230 230 231 231 231 231 232 233 
149 149 149 147 147 147 147 147 148 147 146 148 148 148 151 148 145 145 145 146 147 148 147 145 145 144 144 144 145 146 146 147 144 145 144 143 144 146 144 141 144 145 145 145 144 143 143 144 143 141 145 144 142 143 142 142 143 142 142 143 142 142 142 144 142 143 142 141 140 140 140 139 140 139 139 139 140 140 139 137 134 135 127 97 79 75 84 82 84 77 64 57 34 43 63 56 65 67 69 66 44 31 46 58 60 51 55 58 60 58 52 52 51 44 50 67 77 81 90 127 160 181 180 156 99 62 62 57 51 46 68 71 73 64 44 47 57 48 70 83 85 101 127 131 129 133 113 92 67 91 131 127 116 110 115 117 129 170 199 196 172 101 35 41 66 98 107 106 110 111 108 103 93 86 83 76 62 70 90 106 96 86 76 78 78 96 120 138 125 84 82 102 85 78 84 87 110 104 97 106 108 92 124 151 133 106 75 106 102 130 165 149 126 103 109 122 126 114 103 67 147 198 206 166 80 113 187 219 193 168 211 154 99 148 169 173 204 164 28 30 30 37 42 49 57 57 49 82 87 86 65 67 81 73 68 63 88 105 92 83 101 116 98 89 78 84 112 152 152 159 183 160 151 171 170 102 25 71 87 124 92 73 140 101 47 64 125 142 102 104 128 90 94 67 64 117 111 64 88 102 120 98 78 100 97 136 178 129 101 88 96 133 127 86 95 62 53 80 116 83 50 99 150 136 113 77 77 115 140 119 101 109 137 111 71 48 59 56 83 117 105 77 70 92 140 176 192 198 199 198 204 203 203 205 206 206 206 207 208 208 208 211 211 211 213 214 213 213 215 217 220 220 219 219 221 223 221 221 222 223 222 222 225 228 227 227 228 228 229 229 230 231 230 231 233 233 233 233 234 235 
149 148 147 147 147 147 147 146 147 144 144 146 147 147 147 148 145 145 145 146 147 147 146 145 145 146 146 146 144 143 144 147 145 145 144 143 143 144 145 145 141 142 144 145 144 142 142 143 141 142 142 143 144 143 142 141 144 141 141 143 144 142 141 142 142 142 142 140 139 139 140 141 139 140 140 141 140 139 140 141 138 139 134 96 65 79 85 86 80 75 69 59 39 43 56 60 69 73 75 100 52 35 53 60 55 44 56 66 65 61 63 53 48 51 50 60 71 79 89 117 146 173 174 151 105 68 62 56 53 56 60 66 52 70 65 39 62 61 75 76 76 90 127 129 130 136 136 121 113 126 134 124 113 108 110 107 130 167 188 188 158 75 33 54 87 119 124 135 138 143 132 114 90 65 72 72 65 63 67 81 89 96 88 76 73 73 93 116 103 96 119 133 103 88 95 89 99 109 117 114 86 91 94 107 108 104 121 130 111 133 116 96 100 97 93 116 149 158 121 55 150 182 197 197 94 96 158 206 189 150 190 148 87 95 105 181 205 156 26 31 31 41 46 50 52 59 58 56 74 93 77 75 72 69 65 81 88 133 125 122 137 151 149 129 97 111 124 155 120 116 160 134 118 149 148 133 21 46 76 76 48 37 92 91 82 65 61 90 101 79 99 79 55 92 92 179 159 44 39 105 170 131 93 72 150 121 145 112 110 120 113 122 145 101 82 58 36 57 110 76 43 80 137 144 138 131 135 154 159 130 92 108 139 125 77 58 64 64 90 130 122 88 63 67 119 174 192 195 199 202 205 207 206 207 208 208 208 210 211 212 214 215 216 215 216 217 217 215 220 220 220 220 221 222 223 224 225 224 224 226 226 226 227 228 228 229 229 229 228 230 231 232 233 231 233 235 233 233 234 234 
148 147 147 147 147 147 147 147 148 146 145 146 146 146 146 146 144 146 146 146 145 145 146 148 148 147 147 146 146 145 145 146 143 143 143 142 142 144 144 144 144 142 141 142 144 144 144 144 142 143 143 144 143 143 142 142 143 141 141 142 142 141 140 141 142 142 141 140 139 140 142 144 141 140 140 141 141 140 140 140 139 140 136 102 68 83 91 85 83 78 69 60 42 44 56 61 76 70 94 122 59 37 58 60 56 52 64 63 63 67 82 54 48 52 51 58 65 79 92 107 129 156 159 149 100 57 59 58 61 61 65 56 55 97 102 35 54 68 73 75 68 87 129 129 131 128 132 137 135 131 127 123 115 104 106 108 130 162 179 174 134 61 49 79 113 138 154 167 177 178 167 137 85 55 60 62 61 71 79 87 89 92 95 96 82 84 86 82 87 96 115 120 90 101 120 115 104 96 121 117 105 123 92 78 87 87 101 111 120 118 90 83 84 68 140 188 202 200 131 65 143 173 193 212 121 89 135 188 174 125 178 104 42 61 83 170 210 169 21 21 32 49 55 51 50 52 56 65 64 64 76 84 64 68 75 73 77 104 96 113 121 114 145 138 108 99 116 125 134 142 164 109 86 116 119 124 81 56 84 142 153 75 74 109 89 105 64 33 43 66 55 46 74 136 82 157 133 28 31 132 130 90 90 59 154 105 153 126 106 81 75 117 146 106 90 76 41 59 101 58 60 91 94 135 150 155 165 170 163 137 81 105 142 141 102 69 71 65 91 126 115 84 65 71 122 165 180 189 198 202 204 205 211 212 212 212 212 214 215 215 216 216 216 216 217 219 220 220 221 221 222 223 223 224 225 226 226 225 225 227 228 228 228 229 229 230 231 230 231 232 233 233 235 233 234 236 236 236 237 236 
147 147 147 147 148 148 147 147 147 147 146 145 146 147 146 145 145 146 146 145 145 145 147 148 150 148 146 146 147 146 146 146 142 143 143 143 143 143 144 143 145 142 140 141 143 145 144 144 141 142 143 143 143 143 143 144 142 141 142 143 143 141 141 143 141 141 141 140 139 139 141 142 142 140 139 140 141 140 140 140 140 140 138 117 83 88 96 85 94 81 63 56 44 47 60 67 75 74 111 125 61 49 71 68 54 54 68 61 62 75 105 60 52 53 51 57 61 75 87 93 113 133 139 131 80 54 65 61 70 60 66 69 69 116 131 59 38 62 71 74 65 76 128 130 135 131 130 132 133 130 127 125 114 98 101 109 130 156 170 161 111 56 78 115 145 161 181 194 196 193 183 143 74 52 61 65 66 83 94 100 100 92 91 89 90 92 83 62 77 84 87 86 85 111 123 123 105 72 105 132 138 141 91 66 93 100 90 88 93 74 71 101 117 80 160 206 214 228 148 75 109 135 174 211 154 84 122 156 182 122 92 25 27 61 84 138 200 148 8 23 31 56 59 48 51 55 53 56 50 46 73 88 76 73 76 81 87 76 65 82 95 94 98 100 145 134 137 120 142 134 150 125 68 54 89 148 168 144 112 166 168 156 62 50 100 166 127 88 93 115 96 73 122 139 60 97 142 81 103 133 140 66 26 41 114 94 142 105 89 62 88 106 84 84 84 78 60 85 106 76 109 135 90 103 138 145 154 144 139 123 123 115 120 128 85 79 74 65 89 113 102 86 81 91 126 153 164 178 189 196 202 207 212 213 213 214 215 217 217 217 218 217 218 219 221 222 222 223 221 223 224 225 225 225 226 228 227 227 227 229 229 230 230 231 231 232 233 233 234 235 235 234 237 235 236 237 237 238 238 237 
147 147 148 148 148 147 146 146 146 146 146 145 145 147 147 145 148 145 144 145 148 149 147 144 148 146 145 146 147 147 146 145 145 146 146 145 145 144 143 143 143 142 142 143 144 144 143 142 142 143 143 143 142 142 143 144 141 141 142 143 143 142 143 145 140 141 142 142 141 140 139 138 140 139 138 139 140 140 140 141 141 140 138 134 110 101 102 95 115 91 62 57 48 44 53 62 65 85 125 123 76 64 70 66 56 56 68 65 63 82 119 71 57 55 52 59 63 70 78 87 110 111 113 102 60 54 64 58 106 81 60 73 65 111 138 108 64 66 75 75 71 74 129 129 131 134 132 128 129 131 129 125 114 95 97 110 131 155 165 148 99 72 111 141 165 174 189 198 199 192 176 123 62 55 67 70 76 94 107 115 115 106 101 86 74 72 69 59 71 66 60 70 72 90 87 81 72 58 82 111 128 115 96 88 106 110 90 94 88 42 74 132 167 116 141 194 210 226 147 73 84 105 151 191 172 84 103 146 193 75 5 19 26 62 82 118 194 128 8 22 27 53 59 53 45 50 49 54 53 52 63 67 70 64 69 84 109 111 87 82 105 105 56 75 129 128 128 116 112 105 151 174 130 109 135 139 171 151 91 126 136 130 126 57 85 142 91 82 146 184 127 85 147 153 44 58 174 190 194 94 128 120 48 55 90 99 154 55 106 88 112 109 79 68 67 100 123 124 121 129 128 130 93 79 126 129 120 123 116 123 142 130 105 78 70 58 64 58 84 107 105 103 99 97 123 142 152 165 173 183 194 203 210 213 216 217 218 219 220 219 219 218 220 223 225 223 223 224 223 225 226 227 226 226 228 230 229 229 229 230 231 231 232 233 233 233 234 235 236 237 236 234 238 236 237 237 236 237 239 238 
148 148 148 148 147 146 145 144 146 147 146 145 146 148 147 145 148 146 144 145 148 149 146 143 147 146 146 147 148 147 145 145 147 147 147 147 146 145 144 144 142 144 146 146 144 143 143 143 145 145 144 143 141 141 141 141 141 142 143 143 142 141 142 144 142 143 143 143 143 142 140 139 140 139 139 140 140 139 140 141 139 143 138 142 133 122 118 116 129 103 72 71 60 45 49 62 74 101 135 127 87 67 64 66 64 65 69 70 64 94 128 87 59 60 57 60 65 69 70 88 120 112 90 80 64 55 59 59 116 104 64 67 65 112 136 129 85 73 87 84 74 82 129 132 131 131 131 133 135 132 129 130 116 95 93 109 135 158 158 129 88 97 135 153 168 178 186 195 197 188 159 96 59 63 75 80 91 112 129 135 128 118 107 89 76 69 68 66 67 65 67 85 92 74 77 84 78 82 83 99 100 82 85 93 91 86 97 125 104 33 105 173 207 136 119 185 213 222 139 58 78 90 127 179 181 87 90 130 184 70 14 19 15 50 79 125 196 104 11 20 23 34 38 47 37 46 49 57 61 60 62 59 58 54 65 64 79 115 73 80 127 115 60 76 81 84 69 76 109 125 144 172 163 127 100 107 132 130 84 114 128 75 84 71 97 111 57 27 132 149 56 45 138 87 14 103 209 183 156 50 86 186 111 137 104 139 194 113 81 115 98 89 120 82 48 89 131 107 99 115 99 100 108 76 97 124 119 127 121 103 140 130 93 61 49 51 54 63 99 122 120 112 108 107 117 132 140 149 155 168 180 189 201 207 214 217 218 219 220 220 222 221 223 226 226 225 224 224 226 227 228 228 228 228 231 233 230 231 231 232 232 233 234 234 234 235 235 236 237 238 237 235 238 237 238 238 236 238 240 240 
148 148 149 148 147 146 145 144 147 147 147 146 146 147 146 144 146 146 146 146 146 146 146 146 148 147 147 148 148 146 145 145 146 146 146 146 146 145 145 146 144 146 147 146 144 143 144 145 145 145 144 143 142 142 141 141 144 144 144 144 142 142 142 144 143 142 142 141 142 142 142 142 142 141 141 141 141 140 139 140 136 144 137 139 140 138 134 135 133 112 80 77 63 41 47 67 85 115 141 129 86 68 71 69 68 71 69 69 67 110 135 105 64 66 65 61 63 68 64 87 128 131 86 66 73 61 62 67 114 126 95 80 88 121 136 135 99 85 90 87 74 100 129 134 136 130 128 131 133 132 129 128 117 97 91 106 136 156 148 110 84 119 150 157 164 174 183 193 190 175 133 75 63 72 84 97 116 143 163 170 158 134 95 73 75 70 67 61 52 58 70 81 87 89 98 87 86 105 83 74 70 72 82 104 89 78 124 163 94 36 132 196 224 143 116 164 199 225 150 38 72 84 108 168 196 74 65 114 143 32 23 24 14 50 94 132 202 70 8 19 16 22 26 39 37 56 60 59 61 58 61 68 66 54 61 57 70 81 54 60 83 68 64 83 80 67 64 64 83 103 114 138 148 148 128 97 126 108 84 110 127 123 96 85 92 93 48 43 116 75 16 73 131 89 73 163 198 167 134 34 109 193 71 85 130 108 175 135 53 93 82 50 75 86 54 67 109 85 81 99 83 68 114 92 84 100 117 120 108 89 120 133 92 53 44 55 58 82 122 150 151 129 118 116 114 122 121 120 126 146 163 175 187 196 207 214 217 219 221 222 226 225 225 226 227 227 227 227 227 228 229 229 228 229 231 232 231 233 233 233 233 234 235 235 235 236 237 237 238 239 238 237 239 238 239 239 239 241 242 240 
147 147 148 148 147 146 146 146 148 146 146 147 148 147 146 146 146 146 147 147 147 147 147 147 149 148 147 148 148 147 146 146 147 146 145 146 146 145 146 147 145 146 146 145 143 144 145 145 144 144 143 143 144 144 144 143 145 146 145 144 143 143 144 144 143 142 140 140 141 142 142 141 142 141 141 142 142 141 140 139 136 142 138 139 140 142 139 139 137 122 88 81 65 43 50 71 89 125 140 134 94 74 77 69 70 71 67 67 77 126 139 122 75 67 73 67 63 69 65 95 130 135 107 73 74 66 64 67 115 138 134 125 128 132 130 128 133 113 96 88 90 123 132 131 131 129 131 133 132 132 130 124 121 105 96 106 129 140 130 95 95 136 157 159 164 172 184 188 182 155 102 64 69 79 89 111 138 169 185 195 185 147 80 64 73 75 78 72 64 66 82 88 89 98 90 75 89 94 71 63 31 68 109 139 97 71 132 167 81 50 126 179 210 142 118 149 184 223 169 29 64 88 98 144 177 60 42 97 97 8 24 18 17 45 97 128 173 44 12 14 13 24 33 39 40 54 65 69 58 55 55 59 61 54 58 66 75 51 55 71 78 70 69 72 76 72 75 74 86 77 63 80 96 99 105 122 136 113 82 77 107 126 112 87 71 95 99 92 118 75 47 120 123 88 161 160 114 100 115 80 169 112 13 41 103 41 94 90 64 71 53 69 63 79 57 39 78 71 64 109 73 80 128 100 79 101 124 98 102 97 108 124 93 54 50 58 77 102 127 156 177 157 132 112 111 113 101 88 89 111 132 151 167 178 193 204 211 217 222 224 225 226 226 226 227 229 230 230 228 229 230 231 231 231 231 231 233 235 235 234 234 235 236 236 237 238 238 238 238 239 240 240 240 238 239 240 241 242 240 235 
145 146 147 147 147 147 147 147 147 145 145 148 149 147 147 147 146 146 146 148 151 151 148 146 149 147 146 147 147 147 147 147 150 148 147 147 146 146 146 148 144 145 144 143 144 145 144 142 146 144 143 144 145 145 144 143 144 144 144 143 143 144 145 145 144 143 142 142 142 142 141 140 140 139 139 141 143 143 141 140 139 139 140 145 142 140 136 136 138 128 98 93 84 66 73 89 107 135 132 134 103 73 74 77 73 70 68 69 88 134 137 130 85 66 77 77 69 73 72 108 139 127 138 100 81 73 62 67 117 132 135 134 132 133 131 136 133 129 117 109 118 132 132 133 131 127 132 137 132 131 135 135 128 115 105 108 120 122 113 87 109 144 159 160 167 172 187 184 173 134 76 61 77 89 98 126 151 182 187 191 182 138 62 63 85 89 99 99 94 83 101 110 113 109 78 61 88 97 90 67 54 95 156 177 106 72 131 157 71 62 115 169 204 141 107 140 174 212 183 35 52 78 86 127 135 24 28 45 21 17 21 25 17 36 91 126 100 17 20 17 23 17 21 29 42 40 52 70 54 58 63 52 48 58 60 60 65 55 59 75 80 71 57 65 79 75 72 79 85 73 61 53 53 85 79 106 105 60 62 66 85 126 138 74 49 56 84 84 119 110 115 155 143 170 170 135 43 42 168 174 174 69 13 21 22 49 91 115 74 42 46 110 76 49 42 21 67 89 55 92 94 134 158 121 68 101 128 121 114 119 118 107 84 54 58 69 94 121 126 137 164 157 143 124 104 106 90 69 63 78 97 120 143 155 171 186 197 207 214 217 222 224 226 226 229 232 232 231 230 231 233 234 235 234 233 232 234 236 237 235 235 236 237 237 238 240 240 239 239 240 241 242 240 239 239 241 241 241 236 228 
151 147 145 146 149 150 148 146 145 147 146 147 149 149 148 149 149 148 146 146 147 147 147 146 146 148 148 147 147 148 147 145 146 146 147 146 145 145 146 147 146 144 144 145 146 144 143 142 142 145 146 145 143 143 143 143 143 143 143 143 144 144 143 142 142 144 143 140 139 140 141 140 141 139 138 138 141 142 142 141 141 142 142 139 139 140 139 137 136 135 121 101 93 95 95 92 117 136 134 133 113 79 73 72 70 73 72 72 107 139 134 136 113 67 78 78 81 76 81 120 135 131 137 132 99 71 66 69 117 136 134 133 136 133 136 133 132 133 132 131 130 132 132 131 133 130 134 136 132 131 134 135 130 129 125 121 121 120 109 96 118 152 158 163 173 178 187 184 163 105 71 68 76 89 108 131 155 177 192 190 171 114 64 62 91 108 117 123 116 106 106 114 116 104 83 101 125 131 125 90 68 114 172 187 101 84 152 152 67 61 101 156 195 131 95 138 167 212 185 40 30 65 77 98 56 23 13 19 15 20 25 13 16 22 47 55 32 20 24 21 21 19 22 22 23 29 40 55 57 61 49 39 48 53 51 55 55 45 42 56 67 72 59 53 69 64 77 87 87 72 79 73 87 80 72 85 90 72 77 94 105 136 152 104 95 71 84 139 164 200 180 178 175 184 180 142 85 116 199 138 125 87 43 66 25 52 163 147 61 71 45 57 49 49 44 32 73 83 53 93 133 174 171 121 77 84 112 131 124 110 118 98 76 59 61 79 119 124 110 120 145 150 140 133 117 110 99 88 78 63 61 75 101 123 145 162 179 189 196 205 212 217 223 227 230 230 230 231 232 232 233 234 235 235 234 234 236 237 238 238 239 239 239 238 239 241 241 240 239 240 240 239 242 242 244 243 240 237 229 220 
147 146 145 145 147 148 146 145 147 148 147 147 149 148 147 147 147 148 148 148 148 147 147 148 146 147 148 149 147 145 144 145 146 146 147 146 145 145 146 147 145 144 144 145 146 144 143 142 143 144 144 144 144 145 146 145 144 144 143 143 143 144 143 143 143 141 140 140 141 142 142 142 142 141 140 140 140 140 140 140 139 139 140 141 140 139 138 138 134 139 136 121 102 89 92 103 125 139 136 137 121 87 78 77 73 74 73 83 126 139 132 134 125 84 77 87 85 82 94 130 131 141 135 133 127 91 67 83 124 137 134 132 135 135 136 135 134 133 133 132 132 132 132 131 136 133 135 136 132 130 132 132 133 133 131 130 132 129 116 102 122 153 158 161 171 175 181 176 148 95 68 68 78 94 112 135 160 178 189 188 162 95 61 77 102 131 147 156 143 103 101 128 129 130 141 151 169 178 179 90 41 100 166 164 77 86 140 136 42 52 87 142 156 89 100 123 161 199 200 60 14 32 30 28 27 23 16 16 19 20 20 25 22 23 23 20 16 17 23 29 27 27 31 29 24 22 26 35 43 43 38 40 48 39 44 51 47 47 50 44 44 50 43 29 38 52 66 75 81 68 74 84 138 118 97 97 87 99 126 86 71 66 89 91 93 82 87 118 141 155 142 124 86 84 145 175 142 167 175 67 88 143 124 103 108 156 103 60 117 67 45 36 44 29 37 28 66 72 82 141 162 173 169 127 79 73 103 131 118 92 95 85 74 82 71 99 132 120 104 116 137 143 136 120 101 104 104 93 84 69 56 52 66 87 113 136 153 164 174 187 195 202 211 221 227 229 231 236 233 234 235 236 237 237 237 236 236 237 238 238 239 240 240 240 240 241 242 241 241 241 241 241 242 242 243 243 240 233 219 203 
146 148 148 148 148 148 148 147 149 149 147 147 149 149 147 147 146 148 149 149 147 146 146 147 147 147 149 150 148 144 144 146 146 146 146 146 145 145 146 147 146 145 145 146 146 145 144 145 145 144 143 143 144 145 144 142 146 145 144 143 143 144 144 145 144 140 139 141 143 143 142 143 141 141 142 142 141 141 141 142 141 140 140 142 141 138 138 140 143 141 137 133 124 111 107 112 133 140 136 140 127 94 80 78 78 79 76 94 137 137 133 135 137 113 74 72 85 83 102 139 136 139 133 134 139 122 111 126 131 136 134 131 134 136 135 136 135 133 132 133 134 133 133 132 135 133 134 136 133 131 133 134 132 132 131 132 134 130 117 105 127 152 154 158 169 173 176 167 132 87 69 71 84 102 116 140 165 179 184 179 140 73 61 89 126 163 182 193 177 110 113 165 173 162 164 164 178 193 193 60 21 80 162 120 16 56 111 70 12 55 88 117 76 45 92 111 153 197 203 76 19 24 27 27 28 34 25 18 25 24 18 22 23 24 28 28 25 29 31 25 26 24 26 28 27 24 18 19 23 40 49 47 52 47 66 65 50 41 43 36 37 39 37 25 27 40 46 52 59 55 58 67 82 95 90 85 78 61 95 103 76 80 59 57 79 98 88 77 75 38 41 48 31 16 86 188 148 191 149 32 66 84 143 129 143 90 16 45 78 37 53 49 49 31 21 23 63 108 121 165 175 167 152 131 81 81 122 128 107 89 76 79 80 97 95 113 133 118 107 121 142 148 141 120 85 64 69 96 123 110 77 54 50 54 68 94 118 136 150 161 174 183 194 205 218 227 231 232 235 236 236 237 237 237 236 236 237 238 239 239 239 241 241 241 242 241 242 243 243 242 243 244 244 245 244 239 230 218 197 177 
147 150 150 148 147 149 149 148 148 148 146 147 149 149 148 148 147 149 150 149 147 145 145 146 146 147 148 149 148 146 146 148 146 146 146 145 144 144 145 146 147 146 145 144 144 144 145 147 144 144 144 145 145 144 142 140 146 145 144 143 143 144 144 144 146 143 141 142 143 143 142 141 141 142 142 143 142 142 142 142 143 142 141 141 140 139 140 143 140 142 140 137 135 132 129 130 137 139 136 140 130 98 79 77 81 83 83 109 138 135 138 136 137 132 90 65 84 84 109 135 135 133 137 139 134 135 139 137 134 135 134 132 135 136 132 135 135 133 131 133 135 135 134 134 133 132 133 135 134 133 135 136 135 133 131 131 132 129 121 113 131 149 150 156 169 175 173 160 125 85 72 74 87 105 118 142 169 184 183 171 113 63 67 93 138 175 195 205 188 110 124 188 201 177 155 169 184 196 176 36 9 49 84 40 10 24 37 24 20 28 45 37 8 42 83 108 154 198 214 90 23 31 30 29 32 28 21 18 20 25 24 19 20 22 29 30 26 26 23 12 16 12 15 19 24 25 20 20 21 44 54 41 44 59 77 62 57 56 56 39 36 48 52 39 44 41 38 38 38 47 57 60 65 68 59 69 54 58 54 79 82 78 56 101 102 133 117 63 61 54 45 44 38 23 70 110 48 107 80 26 17 34 59 86 85 12 24 40 44 54 56 72 76 64 38 28 39 106 115 132 164 140 104 118 77 78 135 131 114 122 109 94 91 107 122 131 133 128 124 134 148 149 148 135 101 60 56 94 144 144 104 67 55 49 52 65 78 92 110 124 143 160 177 190 205 219 227 229 236 238 240 240 239 239 239 239 239 240 240 240 240 242 242 242 243 242 242 243 244 244 245 246 242 243 240 230 216 202 183 164 
148 149 148 146 145 147 147 146 147 148 146 146 149 149 147 148 149 149 149 148 147 146 146 147 146 147 148 146 146 148 149 148 147 147 146 145 145 145 146 147 145 144 144 144 144 143 144 145 143 144 145 146 146 145 144 144 144 144 144 143 143 143 143 142 145 145 144 142 142 143 142 140 142 142 141 141 141 140 139 138 140 141 141 140 139 141 143 143 137 142 141 138 137 139 140 141 139 139 138 141 133 105 82 80 83 79 87 126 139 137 140 134 136 139 128 105 103 105 127 134 133 135 137 137 135 136 136 133 136 135 135 135 135 135 132 134 136 133 132 134 136 136 135 135 134 134 134 134 134 133 133 134 136 135 132 131 131 130 126 122 134 145 147 157 172 176 169 154 123 86 71 71 84 103 118 145 172 185 183 162 86 57 70 92 133 170 196 203 180 105 126 187 195 170 146 175 188 196 159 25 10 7 16 9 16 11 10 9 11 12 8 14 21 28 78 93 150 180 212 96 12 24 25 26 17 11 11 11 8 14 20 16 18 22 17 14 20 16 7 8 9 9 14 15 16 18 20 26 25 40 54 41 37 60 69 58 71 71 65 56 55 63 49 32 40 44 51 49 37 36 42 46 62 51 61 52 41 46 46 59 54 43 68 84 64 52 83 61 43 53 63 71 70 71 75 52 56 58 33 46 94 82 37 91 56 33 27 47 65 46 80 124 106 66 40 26 48 98 97 88 136 116 68 83 80 86 131 128 130 153 149 105 86 116 138 155 144 136 141 147 140 132 148 146 122 81 54 60 111 144 116 72 61 53 51 53 56 61 71 80 96 119 147 169 186 200 213 223 229 233 237 239 239 240 241 241 241 242 242 241 241 243 243 243 244 243 242 244 245 246 246 247 241 238 230 215 199 183 161 141 
151 150 148 147 147 147 147 148 148 149 147 146 148 148 146 148 148 147 146 146 146 147 147 148 147 148 147 145 145 147 148 146 148 147 146 146 146 147 148 148 145 145 145 147 146 145 144 144 146 146 146 145 144 143 144 146 144 144 145 145 145 144 143 143 143 145 145 142 141 143 143 141 143 142 141 141 142 142 140 138 138 141 142 141 142 144 144 142 143 142 139 139 141 141 139 139 139 139 140 141 137 114 89 85 84 70 86 134 138 137 138 136 135 140 143 136 131 133 133 135 139 136 133 135 138 138 138 138 138 138 136 136 135 135 136 136 136 136 135 134 135 136 136 134 135 136 134 134 135 134 133 134 135 135 133 132 132 132 129 124 130 138 145 161 175 173 161 146 125 89 68 69 83 100 122 151 175 184 183 147 68 56 72 97 129 165 197 201 171 105 129 184 199 166 150 177 189 202 159 21 3 9 11 13 14 10 10 11 12 15 21 19 18 15 46 86 106 159 130 32 11 19 10 12 9 8 8 10 10 11 12 12 15 17 17 17 16 11 9 13 15 13 16 15 14 16 17 22 22 34 56 50 47 69 65 50 65 76 72 62 50 45 41 55 51 55 57 46 37 34 46 65 57 56 55 47 31 26 21 32 36 46 50 51 51 63 60 69 51 37 64 98 114 100 49 35 51 36 43 55 95 52 55 59 45 42 35 65 73 71 109 150 121 76 47 46 98 118 76 64 117 107 68 70 120 131 130 121 126 149 131 99 83 122 151 161 143 122 135 145 124 112 144 151 139 112 80 50 52 73 74 73 76 73 65 56 53 54 56 57 64 77 104 138 165 180 195 210 219 225 232 236 238 240 242 242 242 243 243 243 243 244 244 243 245 245 244 244 246 247 246 245 241 230 214 199 183 163 135 109 
152 150 149 150 149 148 148 150 148 150 148 147 148 147 146 148 146 146 145 145 146 147 148 148 147 148 147 146 145 145 146 146 148 147 146 146 146 147 148 149 147 146 146 147 147 146 145 145 147 147 146 145 143 142 143 145 144 145 146 146 146 145 145 145 142 143 143 143 142 143 143 143 144 142 142 143 144 145 143 142 141 141 142 142 143 144 143 141 141 144 144 142 140 138 137 140 139 139 141 140 139 124 95 86 76 63 93 136 137 137 136 141 134 136 136 135 139 138 129 134 139 134 135 139 138 138 137 132 139 140 136 137 136 135 139 136 136 138 137 135 135 137 137 134 135 137 135 134 138 137 135 137 137 139 138 135 136 136 130 122 118 126 141 162 175 168 153 139 126 94 69 74 88 101 126 155 177 182 178 121 60 63 76 102 126 160 193 198 169 109 126 177 190 152 140 170 188 206 149 14 4 7 7 15 14 9 9 11 12 14 9 10 7 12 21 41 49 46 10 4 15 8 14 4 9 10 11 13 17 19 18 15 12 10 16 16 6 6 16 18 21 17 16 15 15 17 15 16 19 29 48 46 54 72 66 41 46 69 67 54 62 63 51 57 66 55 53 42 36 29 37 47 41 41 50 42 46 45 59 53 51 48 34 36 48 62 34 31 41 41 29 40 55 49 35 36 42 33 20 24 21 22 29 35 38 34 48 119 134 90 109 138 104 98 91 89 105 100 55 81 132 109 70 82 144 150 117 111 103 116 96 101 106 128 157 152 126 104 106 112 103 95 128 142 143 123 97 67 42 43 45 72 94 103 95 71 53 48 50 54 59 61 74 101 131 152 171 189 203 213 224 230 235 240 243 244 243 244 244 244 244 245 245 244 244 246 246 245 246 247 244 239 230 214 195 180 162 138 105 77 
150 147 147 149 149 146 146 149 148 150 149 148 148 147 147 149 148 148 148 148 148 148 149 150 147 146 147 148 147 144 145 148 147 146 145 145 146 147 148 149 149 146 144 144 145 145 145 145 146 146 147 147 146 144 145 147 144 144 145 145 144 144 144 144 143 142 142 144 144 142 142 144 145 144 143 143 144 144 143 141 145 141 140 141 142 140 139 139 139 144 143 140 139 141 140 139 141 141 142 139 141 130 98 86 63 62 106 140 142 140 135 142 139 136 144 137 137 132 138 138 134 138 138 135 136 138 138 136 139 141 135 139 138 136 141 134 135 139 138 135 135 139 139 136 138 140 137 136 140 139 137 139 138 139 138 135 135 135 127 116 105 115 136 162 174 164 148 136 127 97 72 80 94 102 127 153 170 173 164 90 49 65 74 97 123 155 190 200 175 114 119 165 186 148 131 166 185 203 134 17 8 2 7 11 11 7 14 8 14 10 13 12 12 9 9 6 6 5 10 11 8 10 15 14 12 11 15 16 13 18 22 15 13 14 13 11 13 15 18 22 19 17 19 16 14 15 14 17 10 27 50 48 51 61 79 73 64 68 50 40 72 77 65 74 58 32 41 43 42 42 54 51 48 51 50 54 61 58 48 52 53 59 37 46 45 45 32 37 49 46 34 29 25 21 31 45 36 31 20 13 17 16 15 21 30 57 92 148 117 104 142 104 63 64 94 97 78 78 75 129 150 122 69 77 111 129 100 89 80 78 89 110 129 130 143 141 116 100 79 70 81 80 105 126 122 126 114 84 53 52 44 65 98 112 103 74 57 54 53 54 57 58 60 68 88 115 143 165 180 192 207 218 226 234 240 242 242 244 244 244 245 246 245 245 242 246 247 245 245 246 241 233 219 201 179 158 134 102 65 37 
148 148 147 147 146 147 149 151 149 149 149 149 148 147 147 148 149 148 148 149 150 150 149 148 146 146 148 149 146 146 147 147 147 146 146 148 147 145 145 147 149 148 149 147 144 145 148 148 148 148 146 147 149 148 146 146 143 144 144 143 143 144 145 146 144 143 142 142 142 142 141 140 141 143 145 144 144 143 142 141 141 142 143 144 144 143 141 139 142 140 137 137 140 144 143 139 141 142 141 140 138 136 120 87 61 60 109 139 142 139 139 140 139 140 141 139 138 139 140 141 137 139 139 137 137 139 140 140 138 138 138 139 139 138 138 138 138 138 138 138 138 138 138 138 140 138 137 139 141 140 140 141 140 136 140 141 136 135 133 123 103 108 136 167 172 159 146 137 134 98 75 85 100 110 128 153 165 161 144 57 38 74 72 88 116 150 188 199 180 108 100 152 176 125 123 167 181 204 129 10 7 4 4 5 8 10 8 8 11 12 13 14 11 8 9 13 10 10 10 10 10 11 12 13 10 15 18 17 17 19 18 16 15 13 14 14 13 16 22 25 21 19 19 18 15 15 15 14 15 10 36 52 52 66 80 88 89 75 64 56 61 66 71 74 42 18 25 23 41 47 68 70 76 81 63 58 67 64 55 50 51 55 57 59 40 36 55 47 60 60 52 41 29 40 39 45 38 37 25 17 17 19 31 61 101 137 149 158 124 111 156 91 58 93 80 63 57 86 97 139 161 135 102 104 99 97 88 85 95 95 96 122 135 130 120 116 111 103 94 79 73 80 86 92 99 122 125 98 58 60 47 61 85 106 101 78 57 46 49 47 55 60 58 61 64 81 103 127 149 166 184 199 213 225 235 243 244 244 245 245 245 247 248 245 247 244 246 248 249 241 234 218 202 179 157 129 98 58 33 28 
147 148 148 148 148 148 149 149 149 148 148 149 149 149 150 152 149 149 148 148 148 148 149 149 149 146 146 148 149 150 150 147 150 148 148 149 149 147 146 148 148 147 148 147 145 146 148 148 149 149 147 147 148 147 145 146 145 145 145 145 145 144 145 145 144 144 144 144 144 144 143 142 145 145 145 143 142 143 143 143 143 143 143 143 143 142 141 139 141 141 141 140 141 141 142 142 141 139 140 143 142 140 134 116 82 60 118 149 137 140 144 140 139 140 140 140 139 140 140 139 138 139 139 138 138 139 140 140 139 138 139 140 140 139 138 138 136 137 138 140 141 141 140 139 141 139 138 139 141 141 140 140 141 137 141 142 139 139 137 130 111 109 128 158 166 154 144 141 135 109 86 90 108 122 139 155 162 157 105 24 34 66 81 88 107 151 185 197 171 95 97 133 135 100 122 167 186 203 122 12 8 3 3 3 6 8 6 7 9 11 12 11 9 10 11 13 10 10 11 11 11 11 11 12 14 18 19 18 18 19 18 15 15 12 13 14 14 16 20 21 23 21 20 18 16 17 19 19 15 17 26 51 56 65 70 76 81 75 70 67 50 51 75 64 24 22 27 35 51 56 76 78 78 78 83 70 58 65 63 56 61 58 74 67 33 45 69 48 30 33 41 42 41 47 46 30 37 42 39 25 37 63 98 129 162 169 179 166 108 94 165 88 74 110 74 43 56 90 89 87 133 138 128 115 77 72 101 99 105 107 107 131 148 137 107 88 97 106 105 95 79 67 67 71 77 105 119 102 74 65 58 71 98 109 96 79 62 52 49 47 47 53 55 58 57 63 71 83 109 132 158 177 196 213 226 233 242 243 246 247 246 247 249 249 248 247 249 249 245 232 221 203 181 165 135 90 59 35 25 27 
147 148 149 149 149 149 149 149 149 149 148 148 148 148 149 150 149 149 149 147 146 147 148 150 148 146 146 147 148 149 149 146 149 148 147 148 148 147 147 148 148 145 146 148 147 146 148 148 148 149 148 147 148 146 145 147 143 144 145 145 145 145 145 145 142 143 144 144 144 144 143 143 144 145 144 142 141 142 143 143 144 144 143 142 142 142 141 141 142 141 141 142 141 140 140 141 140 140 141 144 141 140 143 137 114 102 134 144 137 143 145 143 141 141 140 140 140 141 141 140 139 139 139 139 139 140 141 140 140 139 140 141 141 140 139 139 139 139 140 142 144 144 142 140 142 141 140 140 141 142 142 140 141 139 141 143 141 142 142 137 125 116 120 138 148 144 142 145 137 117 91 92 108 122 142 157 157 142 59 13 36 47 75 89 97 139 179 193 137 66 102 116 97 90 114 155 183 202 121 10 8 3 2 1 3 7 5 7 7 10 10 7 7 10 12 12 10 10 9 9 9 11 14 16 16 18 19 17 17 19 17 14 15 12 12 15 16 18 19 19 22 20 20 19 17 18 22 22 21 16 16 40 47 57 77 72 74 82 81 74 56 61 69 46 21 17 32 52 65 81 85 72 81 77 79 69 54 51 57 72 73 57 61 62 57 69 70 53 35 34 38 50 57 67 57 50 40 43 53 70 93 109 117 142 157 169 168 169 121 119 123 113 110 70 60 58 75 93 69 85 110 98 75 78 73 93 117 112 104 109 106 123 143 143 115 91 95 100 101 105 91 63 54 55 59 81 115 107 90 77 76 90 112 129 124 103 72 52 42 43 46 50 51 55 57 61 62 68 74 86 111 144 172 190 207 223 234 238 244 246 246 245 246 247 247 246 248 245 236 219 205 184 156 137 100 53 31 22 21 24 
148 149 150 150 150 150 150 150 150 150 149 148 147 147 147 147 150 150 149 148 147 147 149 150 147 146 148 148 145 145 147 147 147 146 146 147 147 147 147 149 149 145 146 149 148 147 148 147 146 148 148 148 148 146 145 148 144 145 145 146 145 145 146 146 142 143 144 145 144 143 143 144 141 143 143 143 143 143 144 143 144 143 143 142 143 143 143 142 145 142 140 141 142 142 140 140 139 143 144 143 140 141 145 139 136 144 141 138 141 140 144 145 143 143 142 140 141 142 143 143 141 141 141 141 141 142 142 141 141 140 140 141 142 141 141 141 145 144 144 144 144 144 143 142 143 144 144 142 142 144 144 142 144 142 144 144 143 145 147 144 142 136 131 133 140 142 144 148 142 128 100 93 104 120 143 154 148 110 28 26 42 37 57 79 89 127 176 194 113 29 66 60 68 94 110 162 190 203 117 3 7 2 1 0 3 6 6 9 7 8 8 6 6 9 10 10 9 9 10 12 14 16 19 21 17 19 19 17 17 18 18 16 14 11 12 14 15 17 18 17 19 18 19 20 19 20 22 21 19 15 20 37 52 54 96 112 116 107 100 72 59 71 50 27 26 22 29 46 65 81 80 68 73 81 74 73 77 76 77 75 74 63 56 62 75 73 62 66 56 58 60 55 55 52 41 64 63 79 93 141 122 104 117 139 170 180 177 173 144 137 145 145 104 51 66 81 75 75 69 107 108 55 31 75 111 139 130 127 104 113 113 116 127 144 137 120 108 99 103 117 108 83 65 56 53 64 115 122 116 111 104 108 122 140 142 115 81 59 46 42 47 47 45 48 54 59 61 65 63 61 73 104 138 162 186 209 223 231 240 246 248 247 247 248 249 247 246 238 226 206 190 167 139 101 63 34 26 23 22 20 
149 149 150 150 150 150 150 150 149 149 149 149 149 149 149 148 150 150 149 149 148 148 149 149 149 148 149 149 146 146 148 147 148 147 146 147 148 148 149 149 148 145 146 149 148 147 147 146 145 148 149 149 149 146 145 147 148 148 147 146 145 145 145 145 144 145 147 147 146 145 145 146 142 144 145 144 144 145 145 144 144 143 143 144 144 144 143 143 148 145 142 142 143 143 142 142 142 144 143 144 144 144 145 141 142 142 139 144 141 138 144 143 142 143 144 143 143 144 145 145 142 142 142 143 143 143 142 142 143 141 141 142 143 143 144 145 146 147 147 146 145 144 144 144 144 147 147 145 144 146 147 146 147 147 147 147 146 147 149 148 148 148 146 143 145 145 146 147 145 129 104 92 99 123 146 146 134 64 12 32 44 41 47 61 88 125 173 194 114 16 22 13 41 85 106 168 191 201 100 2 7 2 1 0 2 6 6 8 6 5 5 7 8 7 7 9 8 10 14 17 19 19 19 18 17 19 19 17 16 17 17 17 11 9 9 11 11 11 13 13 15 14 16 19 20 22 22 20 22 21 16 24 51 57 112 181 170 143 142 110 75 64 37 29 30 35 29 37 64 73 83 84 77 84 81 80 77 73 74 66 71 75 78 82 78 68 60 53 42 52 52 46 61 65 71 81 107 119 142 162 111 110 133 153 187 173 166 129 127 146 174 132 56 44 77 94 84 85 82 110 84 29 44 110 133 123 105 107 100 116 129 125 119 141 148 135 105 94 117 136 126 105 74 53 48 59 114 145 141 136 127 108 111 127 143 122 92 70 56 47 45 48 49 48 50 51 56 61 62 61 61 71 95 128 163 189 206 218 230 239 247 249 248 250 251 246 238 224 208 187 168 143 113 65 36 24 21 20 22 17 
149 149 149 149 149 149 150 150 148 149 150 150 150 150 149 148 150 149 149 149 149 149 148 148 150 147 147 148 149 150 150 147 150 149 148 148 149 149 148 148 147 145 147 148 147 147 147 145 147 149 149 149 149 146 144 147 148 147 146 145 144 144 145 145 146 147 147 147 146 146 146 146 145 145 145 144 143 144 144 144 144 144 145 145 145 145 144 143 145 146 146 144 142 142 143 145 145 142 139 144 146 142 143 143 144 137 144 145 138 145 143 143 141 143 145 146 146 146 146 145 143 143 144 145 145 143 143 144 145 143 143 144 144 145 146 147 144 146 148 148 147 147 147 147 147 149 149 148 147 148 149 149 148 149 150 148 148 148 149 149 149 148 149 151 150 149 150 151 143 107 89 91 98 124 149 151 114 26 13 35 46 39 41 55 82 112 164 191 106 17 17 13 21 67 106 156 182 196 80 3 7 2 2 0 2 4 3 5 5 3 5 8 8 6 6 8 10 11 12 12 12 12 13 13 12 14 14 11 9 10 10 10 9 7 8 9 7 7 9 9 11 10 12 14 15 18 20 20 15 20 16 30 56 79 118 180 165 139 135 127 102 58 31 27 22 34 67 83 130 133 100 93 80 77 74 67 65 61 61 81 78 81 83 83 72 62 59 49 66 74 54 67 79 119 140 122 124 148 157 134 96 111 145 166 176 173 155 127 141 142 122 74 45 35 81 117 103 86 77 90 59 48 82 122 125 84 82 101 101 121 141 136 119 132 138 129 97 79 116 151 144 114 73 55 60 79 122 159 146 130 128 102 85 92 115 108 91 88 76 64 64 71 74 64 56 49 54 62 62 63 61 60 66 88 126 160 184 202 217 227 238 245 247 249 248 240 228 209 191 167 143 113 71 37 26 22 18 18 23 17 
149 150 150 150 150 150 150 150 150 151 151 150 150 150 149 148 149 150 150 150 149 148 149 150 150 147 147 148 149 150 149 146 150 149 148 148 149 149 148 147 146 146 148 148 146 148 149 146 148 150 149 149 149 147 145 147 145 145 146 145 145 145 146 146 146 146 145 145 146 146 146 146 145 146 145 143 142 143 144 144 145 145 145 145 146 146 145 145 143 147 148 145 142 144 145 144 144 142 139 142 144 141 143 146 147 147 149 143 141 150 141 146 143 145 146 146 147 148 147 146 145 145 147 148 147 145 145 146 147 146 146 147 147 147 147 147 146 147 149 149 150 150 150 151 151 150 149 150 150 149 150 150 148 152 152 151 150 150 150 151 155 152 154 155 154 155 154 149 121 76 77 93 96 123 148 150 80 12 24 40 46 38 36 51 70 97 152 182 86 11 18 12 11 50 106 138 160 153 48 1 6 2 2 1 2 4 2 3 4 5 6 7 7 6 6 7 9 8 6 4 4 5 7 8 7 8 8 6 5 5 6 5 8 6 8 9 7 7 8 8 9 8 9 10 9 11 15 17 19 21 20 36 55 85 116 150 134 131 128 117 94 47 42 38 45 37 107 139 163 181 153 112 87 79 65 55 63 65 56 65 66 69 74 79 89 99 111 129 152 163 156 162 130 137 137 117 144 185 153 123 94 114 183 196 184 190 162 160 163 122 134 96 63 43 70 123 130 111 106 80 70 97 116 106 97 76 85 117 116 132 146 137 116 115 117 123 107 83 106 144 147 119 89 87 94 104 131 152 140 121 117 104 71 57 59 60 66 114 117 98 100 104 102 84 69 54 53 56 60 59 60 63 61 63 86 115 147 174 196 209 224 235 241 245 239 229 214 194 174 145 113 75 38 23 23 20 20 19 20 18 
150 151 151 152 151 151 151 151 152 152 152 151 151 152 152 150 150 151 151 150 149 148 150 152 149 149 151 151 148 147 148 147 150 149 149 149 150 151 150 149 146 148 150 148 147 150 151 147 149 149 148 148 149 148 147 150 147 148 148 148 147 147 147 147 147 146 145 145 146 146 146 146 145 146 146 145 144 145 146 146 144 144 144 145 146 147 147 147 144 148 148 145 146 148 147 142 141 146 144 143 144 146 150 150 148 147 144 151 149 147 143 149 147 147 146 145 147 149 149 148 146 147 149 150 148 146 146 148 148 148 148 149 149 148 147 147 151 151 150 150 150 151 152 153 154 150 149 151 152 150 150 150 150 154 155 154 154 153 152 154 158 157 158 156 153 156 149 132 84 54 76 91 88 121 141 127 46 14 33 41 44 47 37 40 68 99 139 163 73 7 14 12 9 33 90 114 122 79 9 5 5 1 2 2 3 4 2 3 5 7 8 6 5 6 6 5 2 3 4 5 4 4 4 4 7 7 6 6 6 7 7 7 5 4 6 8 7 7 8 8 9 9 11 10 6 7 12 14 13 18 21 39 59 68 96 133 174 159 149 126 108 88 86 41 35 89 116 142 189 177 156 142 106 84 72 83 79 70 78 81 86 87 103 116 139 161 164 178 173 169 188 171 143 119 128 142 176 163 124 93 79 151 201 186 166 172 152 157 150 123 145 107 62 69 129 145 147 133 115 106 116 135 134 96 77 99 97 113 118 130 137 128 109 101 103 124 118 102 104 121 128 118 112 121 118 106 124 130 136 126 105 102 68 52 40 36 46 130 146 127 116 116 113 96 85 67 60 55 55 56 59 64 64 60 63 73 104 139 169 186 205 220 228 234 223 212 196 175 152 118 78 35 29 21 18 15 22 19 15 17 
148 149 150 151 150 150 150 150 149 148 147 148 149 150 150 150 150 151 151 150 149 150 150 150 148 148 149 151 152 150 150 151 150 151 151 149 147 147 149 151 150 151 151 150 148 147 148 150 149 148 148 148 149 150 150 151 148 148 149 149 149 147 145 144 148 148 147 147 148 148 148 147 147 148 148 147 147 147 147 147 146 145 145 146 146 147 147 146 145 147 147 147 147 148 148 146 146 146 146 145 144 144 146 148 145 147 148 148 147 148 149 149 148 149 149 150 150 150 149 148 150 148 149 152 152 149 150 153 149 149 149 149 150 151 153 154 153 152 153 155 154 151 152 154 152 152 153 156 156 154 154 155 158 158 156 156 158 157 155 157 158 153 158 159 158 161 133 77 47 46 54 80 93 113 135 81 22 28 39 41 42 41 33 34 70 93 132 141 44 8 11 9 12 13 31 40 29 6 3 6 3 6 2 6 9 7 10 10 8 6 11 8 7 7 1 2 5 4 3 2 3 4 5 6 6 6 6 7 7 7 9 11 6 6 6 7 8 8 7 6 7 8 8 7 7 7 8 9 10 11 10 28 54 65 110 178 198 177 161 147 134 150 92 30 34 74 133 203 185 149 148 152 143 125 118 125 119 108 134 123 125 129 152 169 172 195 188 181 180 172 152 123 127 140 138 145 140 106 117 126 113 173 200 169 147 170 165 152 129 136 166 114 84 133 151 148 127 117 106 110 124 134 110 73 70 102 118 127 118 128 125 114 102 88 106 139 143 138 122 110 114 114 125 133 133 118 122 128 124 123 115 99 72 48 49 44 49 123 152 134 128 116 107 86 83 81 54 56 51 54 59 58 59 64 62 62 71 100 130 155 178 196 207 207 201 190 173 151 122 85 46 21 21 21 20 19 19 18 18 18 
149 149 150 150 150 150 149 149 150 148 147 148 150 151 150 149 150 151 150 149 150 151 151 151 150 150 150 152 153 152 151 152 149 150 151 150 148 147 148 149 149 150 151 150 149 148 149 150 149 148 147 147 148 149 149 150 149 149 149 149 149 148 147 147 148 147 147 147 148 148 148 147 148 149 148 147 147 148 148 148 147 147 147 147 147 147 147 147 148 150 150 149 147 147 146 145 148 148 148 148 147 147 147 148 149 151 152 151 150 150 151 152 151 151 151 151 151 151 151 150 153 151 151 153 153 152 152 154 151 152 152 152 152 153 154 156 156 157 157 156 155 155 156 157 157 156 157 159 160 158 157 159 159 159 158 159 161 160 159 160 161 159 162 162 160 154 105 47 36 35 43 68 92 108 98 42 19 30 40 40 38 35 26 23 44 76 82 50 16 7 11 6 7 3 5 3 1 2 8 9 12 18 15 15 16 14 17 16 15 17 18 14 9 9 7 8 5 5 5 5 5 5 4 4 5 6 7 7 6 6 8 10 8 8 7 7 7 7 7 6 6 7 7 7 7 7 7 8 7 11 6 23 48 62 125 177 168 163 160 150 143 136 79 48 80 84 129 172 161 158 155 150 160 159 153 189 193 174 196 181 159 168 172 173 171 187 176 164 175 179 153 126 141 150 147 144 128 127 155 183 177 177 181 165 177 191 174 121 119 159 183 98 105 159 140 125 95 76 97 86 76 91 78 56 75 120 131 123 109 112 118 119 105 95 127 150 160 153 139 103 103 110 105 122 129 131 134 128 122 125 118 105 85 70 63 51 50 79 85 90 115 111 95 73 77 79 60 48 49 47 53 57 57 56 57 66 64 72 84 112 145 166 178 181 173 164 149 125 85 44 24 25 20 17 16 19 20 18 17 18 
148 149 149 150 150 150 149 149 151 149 148 149 151 151 150 149 151 151 150 149 149 151 152 152 150 149 150 151 152 152 151 150 150 151 152 152 151 150 149 149 148 149 150 151 150 150 150 151 149 149 148 148 148 149 149 149 150 150 149 149 149 149 149 149 151 150 150 150 150 151 150 150 149 149 149 147 147 148 150 150 148 149 149 149 148 148 148 149 150 152 152 151 149 148 148 148 150 150 150 150 150 149 148 148 151 153 154 152 151 152 153 153 153 152 152 152 152 152 153 153 155 154 154 154 155 156 156 156 154 156 157 157 155 155 157 159 158 160 160 157 156 158 160 159 161 159 159 161 162 161 160 161 160 160 160 161 163 163 162 164 163 164 165 165 166 154 92 47 40 43 46 56 70 78 52 17 20 34 40 38 34 29 23 15 22 20 18 5 13 10 9 6 6 11 14 14 12 20 23 20 19 22 18 17 19 19 19 17 16 18 17 15 12 11 13 12 10 8 6 4 5 6 7 8 9 7 6 8 10 10 9 9 8 8 7 7 6 6 7 8 7 6 6 6 7 7 7 8 5 12 5 37 69 102 128 178 161 157 161 161 155 109 58 76 122 133 138 166 197 177 158 174 169 177 177 180 177 179 180 168 181 183 175 183 182 177 169 168 176 129 115 136 150 141 131 127 132 169 174 154 173 169 155 160 173 186 164 104 134 193 139 63 125 155 120 70 47 63 86 67 58 74 72 56 77 114 116 96 85 101 110 122 118 112 141 155 149 131 134 109 79 87 106 100 103 116 130 130 124 117 113 116 104 94 86 67 49 49 48 60 86 84 70 71 94 92 78 54 40 41 48 52 53 55 56 61 60 62 60 71 95 120 140 148 140 137 121 90 53 28 18 18 19 14 14 18 20 17 16 18 
148 148 149 150 151 151 150 150 152 151 149 150 152 152 150 149 151 152 152 150 149 150 151 151 150 149 149 150 151 151 150 149 152 152 153 153 153 153 151 150 149 150 150 151 150 150 151 151 150 150 150 149 149 150 150 149 150 149 149 149 150 150 149 149 149 149 149 149 149 149 149 149 149 150 150 148 148 149 151 151 149 150 151 151 150 150 151 152 150 151 152 152 151 151 151 152 151 151 151 151 151 151 149 148 152 153 153 152 152 153 154 154 154 153 152 152 152 153 155 155 155 156 156 156 157 159 160 159 158 159 160 160 159 159 160 161 160 161 161 159 159 160 162 162 164 162 161 162 163 163 162 162 162 163 163 164 166 166 165 167 165 168 168 166 164 144 76 52 47 53 49 44 37 34 21 16 29 39 37 35 33 27 24 16 13 2 10 11 7 5 5 7 8 14 17 22 19 23 22 23 23 22 18 18 21 22 22 23 17 18 14 17 18 14 15 10 15 12 8 6 8 11 14 15 11 13 14 14 11 10 11 15 9 10 9 8 7 6 7 8 9 8 6 6 7 8 9 9 13 4 7 39 56 113 131 151 174 157 155 158 155 94 64 108 107 124 168 198 206 180 175 161 153 175 179 175 175 177 186 182 195 200 177 172 179 193 195 179 179 159 153 144 143 152 128 120 132 175 166 156 166 128 129 162 151 131 136 120 167 133 53 50 96 94 66 49 45 49 62 49 39 51 57 41 47 69 81 73 77 97 107 120 119 130 146 147 133 127 130 111 84 78 91 91 78 88 113 132 133 116 100 98 106 107 104 78 57 51 51 56 65 69 69 79 104 94 78 51 38 36 40 43 48 52 51 53 56 65 62 59 65 81 103 114 113 107 84 51 30 26 23 17 19 16 15 18 19 16 15 16 
150 150 151 151 152 152 152 151 153 152 151 151 152 152 151 149 150 153 154 152 150 149 150 150 152 151 151 151 152 153 151 150 151 151 151 152 152 153 152 151 152 151 151 150 151 151 151 151 151 151 151 150 150 151 150 149 150 150 150 150 151 150 150 149 150 150 150 150 150 150 150 151 149 151 151 150 150 151 152 151 151 152 153 153 152 151 152 153 152 152 152 153 154 154 154 154 151 151 152 152 153 153 152 151 155 155 154 154 155 157 157 156 155 155 154 154 155 156 158 159 157 159 159 158 158 159 160 161 161 161 161 162 163 163 163 164 163 162 162 164 164 163 164 166 167 165 164 165 166 166 165 165 166 167 166 167 169 168 168 170 166 169 169 170 167 133 61 52 52 52 44 42 25 17 19 26 40 42 34 32 31 25 22 16 14 11 11 7 5 8 7 16 17 18 16 20 20 24 23 26 23 20 18 18 20 20 21 27 23 22 17 22 21 14 14 12 17 15 14 15 17 19 19 18 20 17 15 16 17 16 14 12 12 12 12 10 8 6 6 7 9 8 7 8 9 9 9 9 7 7 18 40 49 73 116 149 158 159 163 155 122 71 83 133 111 115 169 181 192 170 149 136 108 140 179 178 188 194 190 190 206 193 176 184 179 171 183 189 182 186 180 150 126 160 156 150 148 158 166 153 140 131 143 174 153 112 117 149 166 77 41 54 56 41 35 41 45 41 38 35 26 25 35 38 58 87 105 100 100 97 102 112 100 130 142 134 123 122 140 121 101 92 81 88 71 75 98 124 140 137 106 75 75 86 85 73 70 66 62 66 79 95 108 105 114 103 91 72 66 52 47 48 48 46 50 62 58 63 63 64 63 62 71 79 81 71 55 39 26 20 19 21 18 19 19 18 17 17 16 15 
153 153 153 153 152 152 153 153 153 153 152 152 152 152 152 151 151 153 155 153 151 150 150 150 152 152 152 152 152 153 152 151 150 151 151 152 152 153 153 152 154 152 151 151 151 152 152 152 151 152 151 150 150 151 151 149 151 151 151 152 152 152 151 151 152 153 153 153 153 153 153 154 150 152 153 152 152 153 153 153 154 155 155 155 154 153 153 154 157 155 155 155 156 155 155 155 153 154 154 155 155 155 155 155 156 156 156 156 158 159 159 158 159 159 158 158 159 160 162 163 161 162 163 162 160 159 161 162 164 164 163 164 165 166 166 166 166 164 165 167 168 166 167 169 168 167 167 167 168 168 168 168 168 169 169 169 170 170 169 172 169 169 170 174 172 131 62 58 60 53 43 44 28 16 27 35 42 40 32 29 28 23 17 13 8 5 5 7 23 24 22 22 15 21 22 22 20 21 20 22 26 20 15 15 20 22 18 21 20 18 17 19 17 13 16 20 21 18 16 17 20 22 21 20 23 18 15 17 21 20 15 10 12 12 11 10 8 6 6 5 6 6 8 9 10 9 8 7 7 10 22 63 111 131 123 143 140 148 150 138 74 41 106 157 122 133 163 175 190 159 126 117 99 123 180 172 185 203 187 188 192 188 185 187 176 166 174 179 191 169 162 175 141 138 145 144 159 150 139 137 137 147 162 178 186 173 167 163 119 70 81 79 65 62 52 33 35 58 54 42 38 42 68 90 111 136 144 129 128 108 99 104 97 129 136 135 120 115 141 128 86 82 100 92 82 81 94 112 132 143 118 82 66 63 64 78 85 87 89 90 102 109 122 122 126 119 113 109 105 91 77 62 52 51 61 77 76 79 72 64 60 57 58 56 56 50 45 41 32 22 18 20 17 20 21 18 17 18 18 16 
153 154 154 153 152 152 153 155 154 154 153 153 152 152 152 153 152 153 154 153 152 152 152 151 151 152 152 152 152 153 153 152 151 152 153 153 153 153 153 154 153 152 151 152 153 154 154 153 152 154 153 152 152 153 153 151 152 152 152 153 153 154 153 153 151 152 152 152 152 152 153 154 153 154 154 153 153 155 156 156 156 156 156 156 156 156 156 156 159 158 158 158 157 156 156 157 157 157 158 158 158 158 159 160 158 159 159 159 160 161 161 160 162 162 162 162 163 164 164 165 165 164 165 166 164 162 163 165 167 167 166 166 167 168 168 168 169 168 168 168 168 169 170 171 169 169 170 170 170 170 170 170 171 172 171 171 172 171 171 174 175 173 173 173 170 126 64 62 64 52 41 36 23 12 27 37 36 35 30 23 22 21 15 13 6 17 29 27 28 28 33 24 20 26 28 24 23 20 22 28 30 27 25 19 21 24 20 19 16 14 15 13 13 17 19 22 22 19 16 17 20 23 22 20 13 18 24 25 20 16 17 20 16 15 12 10 8 7 6 5 4 5 7 8 8 7 7 7 9 2 25 57 90 157 150 144 150 151 141 145 68 41 106 117 129 178 182 169 150 127 115 123 158 170 192 187 185 190 192 188 195 188 182 176 183 190 184 181 191 179 161 167 150 140 150 159 150 148 140 116 133 161 155 189 194 167 152 128 85 68 105 101 96 107 79 68 69 90 100 78 79 94 130 144 129 131 134 126 123 105 90 94 105 135 145 148 138 140 137 117 74 59 93 96 90 93 99 104 117 125 111 92 94 80 75 98 107 117 122 114 121 109 105 114 122 117 118 124 123 115 102 81 68 70 79 90 99 101 84 62 53 56 59 54 53 50 44 36 31 28 23 19 19 20 19 18 17 17 17 16 
151 152 152 152 151 151 154 157 154 154 154 153 152 152 153 154 153 153 152 152 153 155 154 153 151 153 153 152 152 153 154 153 151 152 153 154 154 153 153 153 152 151 151 152 155 156 155 153 154 156 155 154 154 156 155 153 153 152 152 152 153 154 155 155 153 154 154 154 154 154 155 156 155 155 155 154 154 156 157 158 156 156 156 157 158 159 159 159 158 158 159 159 159 158 159 161 159 160 160 160 159 160 161 163 160 162 163 163 162 162 163 163 163 163 163 164 164 164 164 165 167 165 166 168 168 166 166 168 169 169 169 168 168 168 169 170 172 172 171 168 169 172 173 172 171 172 173 172 172 173 173 173 175 175 174 174 175 174 175 178 173 174 177 176 171 124 70 67 64 49 38 27 22 15 26 36 28 29 29 19 17 21 16 16 27 37 40 39 30 24 33 37 28 26 26 25 31 25 27 32 23 33 39 25 16 18 18 24 23 19 18 12 15 23 20 17 20 18 18 21 25 26 23 19 13 14 18 24 27 26 23 20 26 23 18 13 10 7 5 4 5 6 6 5 5 5 7 8 9 11 41 70 81 125 149 154 156 159 138 146 67 56 127 110 123 171 182 166 125 126 128 165 186 199 214 189 174 196 196 185 188 180 178 174 186 187 173 181 181 160 160 164 150 148 160 157 139 147 142 112 133 159 152 193 187 152 126 144 83 65 104 102 108 116 109 101 104 131 128 123 116 115 131 134 102 95 96 93 94 75 68 77 94 131 161 153 152 148 143 119 86 59 65 76 74 93 101 99 111 119 104 92 101 101 85 103 124 141 136 127 115 98 77 79 86 92 104 110 128 119 113 104 95 92 97 109 111 105 84 64 55 55 59 59 58 56 51 44 39 34 27 21 21 19 18 18 18 16 15 16 
154 153 153 152 152 152 153 154 153 153 153 152 151 151 151 151 152 155 157 154 153 154 154 151 152 153 155 156 154 155 154 151 155 154 153 154 155 155 154 153 155 152 152 155 158 158 156 155 153 153 154 155 156 157 157 156 156 156 153 155 156 155 157 155 156 155 157 159 157 155 157 161 156 157 158 158 160 161 161 160 160 160 159 158 159 160 161 160 163 161 160 161 161 161 161 162 161 161 162 163 163 162 162 163 162 163 164 165 165 166 165 163 166 168 169 168 168 169 169 168 170 169 168 167 167 168 170 172 170 172 172 172 173 173 171 169 174 173 173 174 174 175 176 176 175 175 174 174 175 175 175 175 176 177 178 177 176 176 177 178 177 182 181 177 164 103 66 69 57 44 38 26 16 14 25 27 22 26 25 18 18 15 28 39 41 35 29 31 36 33 23 34 34 36 26 24 24 23 22 29 16 25 34 21 29 29 27 25 25 15 11 11 15 17 23 18 20 26 23 23 27 23 27 22 23 38 27 24 43 45 53 47 33 21 20 15 14 9 9 8 4 5 5 4 5 7 7 6 9 10 41 66 96 142 155 145 152 144 126 75 52 89 117 95 84 161 182 151 122 134 134 153 184 203 203 194 197 204 187 187 199 185 192 186 189 183 180 172 170 166 164 162 159 151 137 123 146 143 135 149 148 178 155 134 137 104 143 165 94 82 132 131 131 127 125 122 108 124 127 111 102 81 73 87 66 70 86 89 99 79 62 71 75 126 150 150 154 153 143 127 107 83 56 53 67 84 99 108 114 125 113 98 108 100 71 81 114 130 136 121 108 79 84 75 76 72 84 87 103 114 104 110 127 121 110 103 94 92 76 55 57 56 59 61 59 57 58 53 42 37 34 30 27 26 21 19 21 18 15 23 
155 155 154 154 154 154 154 154 153 153 153 153 153 153 153 154 155 155 155 155 155 155 154 153 156 155 157 157 155 156 155 152 158 156 155 153 153 155 158 160 157 155 155 156 157 157 156 155 156 155 155 155 156 156 156 156 156 157 156 158 158 157 159 158 159 160 160 160 159 158 159 160 159 160 160 160 161 162 162 161 161 162 161 160 160 161 162 161 164 164 163 163 163 163 163 164 164 164 164 165 165 165 165 167 167 167 167 166 167 168 168 167 168 170 171 170 170 171 171 170 172 171 171 170 171 171 172 173 173 174 174 173 173 174 174 172 176 176 176 176 176 176 177 177 175 175 176 175 175 175 175 176 179 179 180 179 178 178 179 180 177 181 180 178 168 103 65 58 46 29 27 28 21 11 17 23 22 21 19 20 26 30 41 39 41 35 24 37 37 41 35 21 21 32 26 27 34 41 38 38 38 14 21 33 32 39 46 20 12 10 22 16 25 31 26 38 42 51 59 43 20 46 39 55 60 79 89 77 76 85 100 99 94 60 30 23 15 14 10 5 5 5 4 4 4 6 6 5 8 4 54 96 81 133 162 152 158 147 141 63 55 105 122 124 102 189 176 144 125 122 131 139 191 202 184 184 198 195 178 198 211 187 205 198 183 184 180 159 177 184 169 161 167 161 150 147 130 104 126 159 174 177 169 108 100 115 157 144 126 116 114 135 156 149 139 141 131 127 120 95 81 69 57 61 66 71 78 122 136 119 91 75 90 135 151 151 140 139 135 131 120 106 83 75 84 94 107 117 126 131 122 124 113 89 55 35 55 94 116 106 103 72 70 75 89 98 94 82 87 105 107 119 134 125 105 88 80 71 87 81 70 66 61 58 58 57 59 58 46 36 40 50 56 57 49 37 31 28 29 35 
155 154 154 154 155 155 154 153 152 153 153 153 153 154 154 155 156 154 154 155 156 155 154 155 157 156 156 156 155 156 156 154 156 158 158 158 157 157 159 161 158 157 156 157 158 158 158 158 160 159 158 158 159 159 159 159 158 160 159 160 160 159 162 162 162 162 162 160 160 161 160 157 163 163 163 162 163 164 164 163 163 164 164 163 163 163 164 164 164 166 167 165 165 167 168 167 166 166 166 167 167 167 168 170 170 170 170 169 169 170 170 169 170 171 172 171 171 172 172 172 174 173 173 174 175 175 175 174 176 176 175 175 175 176 176 176 177 178 178 178 177 177 178 179 177 178 179 178 177 177 178 180 182 182 182 182 182 182 182 182 182 184 181 180 171 102 67 51 36 20 17 17 17 13 18 19 16 37 35 33 43 39 41 41 33 27 25 34 31 34 39 41 37 31 25 28 47 55 42 59 69 70 70 63 44 27 19 19 23 19 43 54 63 61 54 69 98 76 86 47 55 63 51 58 72 89 115 126 117 114 124 113 116 105 65 24 25 11 12 12 7 5 3 3 4 4 4 5 7 5 109 182 127 122 162 188 166 160 136 52 71 104 151 174 171 172 172 152 128 118 109 130 188 191 177 187 206 208 187 182 181 185 173 176 191 187 179 172 183 184 175 179 153 133 121 125 107 103 161 189 180 167 157 151 130 141 142 98 95 80 82 111 149 154 151 156 156 142 132 99 80 88 63 67 97 99 107 138 145 129 115 101 124 150 149 142 132 122 125 134 129 121 107 103 99 93 97 106 128 133 128 141 121 72 34 14 23 58 95 97 85 61 51 60 86 120 109 82 93 104 108 119 119 99 89 91 89 93 119 120 105 88 77 80 84 76 60 50 51 58 68 78 94 101 99 82 61 50 50 54 
155 154 153 154 155 155 154 153 154 154 154 155 155 155 156 156 155 155 155 156 157 157 157 157 157 156 156 156 156 157 158 156 156 158 160 161 159 159 159 160 159 159 159 160 160 160 160 160 161 161 161 161 162 163 163 163 161 162 160 161 161 161 164 165 163 163 162 162 163 163 161 159 166 166 165 164 164 165 165 164 164 166 167 166 165 166 167 167 165 168 169 167 167 170 171 171 169 168 168 169 169 169 170 172 171 172 172 172 173 173 172 171 173 173 174 173 173 173 174 174 175 174 174 175 177 178 177 177 179 178 177 177 177 178 179 179 177 178 179 179 179 179 180 182 179 180 181 181 180 181 182 183 184 183 183 184 184 185 184 184 184 183 181 183 168 89 59 39 19 13 14 12 13 12 17 17 40 51 33 28 40 38 38 39 44 46 33 29 50 64 68 53 52 55 81 80 56 59 64 77 92 107 133 107 85 42 23 31 28 50 68 65 60 81 114 109 51 55 65 60 82 95 89 86 95 98 104 123 107 95 129 135 126 120 97 45 32 15 12 10 8 5 3 3 4 3 3 5 6 24 114 158 158 131 133 153 144 156 110 76 67 86 146 186 182 169 154 133 136 146 140 148 171 182 196 199 198 188 164 145 138 142 100 97 151 177 163 165 172 165 165 170 126 138 111 62 121 145 157 176 177 171 158 173 176 143 133 84 89 99 97 115 144 152 153 155 167 158 141 98 68 79 72 93 129 139 144 129 110 96 112 118 134 142 141 141 131 120 126 133 111 93 92 107 98 83 87 93 115 123 120 130 108 56 18 18 29 47 92 103 85 62 43 39 55 94 104 95 94 100 108 118 111 88 89 105 105 124 137 144 136 115 109 110 117 108 79 56 63 81 97 110 120 127 127 111 85 66 61 59 
157 155 154 154 156 157 157 156 157 157 157 157 157 157 157 157 154 158 159 158 158 160 161 159 159 158 159 159 158 160 161 159 158 159 159 159 159 160 161 162 163 162 162 163 164 163 161 159 160 161 161 163 164 164 164 164 163 164 162 163 164 163 165 164 165 163 164 166 166 164 164 165 167 167 167 166 166 167 167 167 166 168 169 169 168 169 170 170 167 171 172 170 169 171 173 172 172 171 171 172 172 172 173 174 174 175 175 175 176 176 176 174 177 177 177 177 177 176 176 177 177 177 176 177 178 179 179 179 180 179 179 180 180 181 181 181 179 180 181 181 181 182 183 183 181 181 181 182 183 183 184 185 185 184 184 185 186 187 186 185 185 185 187 190 163 76 50 32 17 13 14 11 11 12 27 39 41 30 23 38 43 45 55 53 58 70 59 70 79 84 105 105 102 80 99 95 68 107 129 93 80 114 122 130 80 86 100 46 40 52 74 103 99 83 101 95 64 77 74 86 74 90 108 114 108 111 103 113 107 104 128 129 110 134 118 74 37 25 12 15 9 6 3 4 3 2 3 5 1 41 123 143 163 166 157 142 135 110 95 109 79 75 122 151 165 148 135 137 151 160 175 192 172 177 204 204 192 163 154 165 142 136 134 103 107 158 156 160 179 159 149 137 123 167 143 81 104 161 181 176 167 160 158 173 165 146 137 105 125 137 116 115 128 133 146 147 152 142 133 111 94 81 93 99 115 138 143 119 88 75 90 105 126 140 136 138 145 134 135 130 97 71 66 81 83 74 86 88 94 96 97 99 76 49 21 17 32 58 103 120 104 74 53 40 36 45 67 84 84 95 105 116 120 112 112 119 131 139 143 154 147 130 126 123 141 127 96 76 81 89 95 106 124 128 118 99 76 61 55 46 
157 156 155 155 156 158 158 159 158 158 157 157 158 158 158 158 155 159 161 159 158 161 162 160 161 161 162 161 159 160 161 160 159 159 160 161 162 163 163 163 164 164 165 165 167 167 164 162 163 163 163 164 165 166 165 165 164 166 165 167 167 165 166 164 166 164 165 168 169 166 167 170 169 169 169 168 169 170 170 169 169 171 171 171 170 171 172 172 172 174 174 173 172 173 173 172 173 173 173 174 173 173 174 175 177 177 176 175 176 178 178 178 180 179 180 180 179 178 178 179 181 181 180 180 180 180 180 181 182 181 181 182 183 183 183 183 183 183 184 184 184 185 185 185 185 185 184 185 186 187 187 187 186 186 186 187 188 188 187 187 189 188 191 190 152 68 49 37 23 16 9 6 18 32 49 56 35 28 27 36 27 21 33 50 63 73 84 95 83 106 112 111 101 78 86 108 81 100 138 99 104 152 116 105 69 101 83 42 57 59 67 87 96 75 63 54 79 87 101 98 79 82 95 80 76 110 131 127 117 124 124 119 104 112 136 106 41 17 9 10 9 7 5 4 3 2 3 5 4 41 107 152 159 175 175 158 121 53 92 155 139 96 144 163 158 140 144 134 139 136 128 175 189 173 192 191 173 149 166 193 156 133 116 97 110 161 173 177 181 158 136 114 129 138 122 110 142 183 194 179 159 153 149 170 151 144 126 118 141 131 101 93 83 85 118 135 130 114 127 136 145 138 134 101 83 104 120 98 82 85 92 103 133 150 129 116 128 133 135 123 93 67 51 56 66 55 65 74 72 68 68 65 66 64 55 39 46 79 108 133 122 86 61 45 37 26 38 48 63 80 98 117 134 136 136 143 155 156 154 154 146 129 118 137 151 138 108 87 87 85 79 80 107 118 107 84 61 48 44 34 
157 157 157 157 158 158 159 159 158 158 158 158 159 160 160 160 160 161 161 159 160 162 163 162 163 163 164 162 159 160 163 163 162 163 164 166 166 166 165 164 164 166 167 167 168 169 168 166 167 166 166 166 167 168 168 168 168 170 169 170 169 167 169 168 168 167 168 169 170 170 170 172 170 171 171 171 172 173 172 171 173 174 174 173 173 174 174 174 175 175 175 175 175 175 175 175 175 175 175 176 176 176 176 177 179 179 178 177 177 179 179 179 181 180 181 182 182 181 181 182 182 183 183 182 182 182 183 184 184 183 183 185 186 185 185 186 186 185 185 186 187 188 187 186 189 189 189 189 189 189 189 190 189 189 189 190 190 189 189 188 190 187 190 183 136 59 43 33 16 11 9 14 40 57 58 47 27 41 41 36 34 34 30 43 45 43 68 95 88 97 101 114 114 101 104 89 97 101 85 145 178 148 136 93 61 66 54 52 81 92 92 73 71 69 60 50 46 74 94 88 90 104 94 77 92 109 122 121 123 137 133 134 136 142 129 133 106 28 22 12 9 10 8 5 3 2 3 4 5 63 77 119 149 147 151 157 104 52 80 161 142 119 171 224 191 155 154 148 133 118 109 149 194 180 180 177 154 136 150 154 130 123 73 94 158 190 202 196 149 144 129 121 145 129 120 128 154 171 146 170 163 155 154 154 143 105 110 115 136 123 78 82 63 59 94 131 129 113 124 121 127 146 142 106 86 103 115 90 89 104 119 127 144 144 118 96 85 116 132 119 90 65 47 56 57 37 35 63 70 59 52 49 78 91 95 85 78 92 99 121 122 92 66 46 41 31 34 33 40 72 103 126 146 149 147 156 155 160 152 148 140 123 117 144 140 131 105 82 73 67 66 71 88 104 100 87 66 44 36 30 
159 159 160 160 160 160 160 160 159 159 159 160 162 163 164 164 166 164 162 162 163 163 164 165 164 165 166 164 160 162 167 168 170 169 167 166 165 166 167 168 167 169 169 168 168 168 168 167 169 168 166 166 167 169 170 171 171 173 171 171 169 168 172 173 171 171 171 171 172 174 174 173 172 173 173 173 174 174 174 173 176 176 175 174 174 175 175 175 175 174 175 177 178 178 178 178 178 178 178 180 180 179 180 181 181 181 181 180 180 181 181 179 182 182 183 185 185 184 184 185 181 182 184 184 183 183 185 186 187 185 185 186 187 187 187 189 186 185 185 187 189 190 189 188 190 191 191 190 189 188 189 190 191 192 192 192 191 191 190 190 191 191 194 185 131 58 36 22 17 10 14 33 60 65 59 51 33 53 53 29 26 52 53 53 57 60 48 73 81 64 99 105 99 94 101 117 123 119 101 101 121 133 118 127 82 48 84 79 56 82 97 80 77 93 97 77 43 58 62 74 113 107 87 108 111 107 111 134 139 134 132 141 154 150 142 118 118 83 22 16 9 11 10 6 2 2 3 4 8 63 66 118 182 166 172 148 92 73 85 133 127 127 142 198 201 168 142 128 141 140 123 168 192 192 169 179 182 164 145 119 133 135 85 103 166 190 193 170 153 151 137 140 138 118 128 142 170 169 158 178 162 161 168 161 148 116 128 137 138 106 78 89 67 69 102 142 138 120 122 93 83 99 121 104 107 139 135 122 129 120 130 143 153 145 121 88 82 116 133 127 111 87 62 67 57 32 26 72 88 67 50 52 86 110 114 118 101 94 89 96 105 89 77 66 53 34 32 32 49 91 119 127 143 150 145 148 154 156 146 151 135 123 128 128 122 97 70 60 58 51 52 65 82 91 87 89 78 48 32 26 
160 161 163 163 161 159 160 162 162 162 162 163 165 164 162 164 168 164 163 165 166 165 166 168 165 165 166 167 167 167 167 167 166 166 167 168 168 168 169 171 171 170 169 169 170 171 171 171 171 171 172 172 171 172 172 173 176 172 173 175 171 170 174 174 174 174 174 174 174 175 175 175 175 174 174 174 175 176 175 175 179 177 177 177 177 177 178 180 179 179 181 181 179 180 180 177 179 179 180 181 181 182 182 182 183 183 183 183 184 184 183 183 183 186 188 186 184 185 185 184 185 185 186 186 186 186 185 184 188 188 188 188 188 188 188 188 191 191 190 190 191 193 192 191 192 191 190 190 191 191 190 189 191 193 194 193 192 193 192 192 190 193 191 182 125 44 31 24 16 16 17 53 68 72 74 68 45 77 70 58 66 67 55 79 70 82 88 82 96 70 98 100 101 78 112 138 123 103 98 137 148 117 78 81 103 123 83 49 56 80 88 81 80 97 87 67 88 77 107 71 112 114 107 109 116 104 106 132 116 108 132 140 149 146 135 130 110 111 43 11 13 9 9 6 4 1 8 2 10 59 54 119 170 177 172 145 75 87 98 129 139 140 162 164 168 172 145 126 157 137 147 181 176 189 191 180 198 196 161 143 174 150 117 114 154 195 193 171 152 171 166 137 128 143 161 178 182 172 169 178 165 176 164 147 158 129 135 152 147 96 88 129 108 96 119 144 138 127 110 80 62 90 110 108 127 146 145 135 133 124 115 136 148 138 110 94 105 127 145 143 129 110 95 83 74 46 39 95 115 80 63 69 102 101 101 114 104 100 89 82 94 96 97 88 73 45 35 31 50 101 117 117 123 132 127 143 147 148 149 143 131 120 124 109 84 55 61 66 58 48 51 62 92 81 63 76 81 62 37 22 
162 163 164 165 164 164 165 167 164 165 165 166 167 166 164 166 168 166 165 167 167 166 166 167 167 167 167 168 168 168 168 169 168 168 170 171 171 170 171 173 171 172 172 172 172 172 173 173 174 174 174 174 174 174 175 176 177 173 174 177 174 174 177 177 175 175 175 175 175 175 176 177 177 177 178 178 178 179 179 179 178 177 179 181 181 180 180 180 181 181 183 183 181 183 183 181 181 181 181 182 183 183 184 184 184 185 186 186 186 186 186 186 185 188 188 187 186 187 186 185 184 185 186 187 187 187 186 186 188 188 188 188 188 188 189 189 191 191 191 190 191 193 192 191 194 193 193 193 193 193 193 192 192 193 194 193 193 193 193 193 195 194 194 185 110 36 26 26 19 17 41 70 73 79 76 77 67 60 70 96 94 93 57 70 83 109 107 96 108 93 76 110 126 122 132 142 124 96 167 153 102 63 35 104 171 96 54 42 57 72 92 103 106 99 95 87 99 70 51 74 104 120 109 112 125 115 127 123 100 92 122 145 145 146 142 113 106 96 57 14 17 13 15 6 4 6 3 5 19 62 64 130 162 168 177 129 98 87 96 130 156 169 190 176 150 135 136 142 145 154 150 158 159 185 198 193 186 182 177 163 170 151 134 126 149 155 173 172 145 148 168 157 167 188 204 203 178 166 154 172 179 173 144 138 127 111 126 136 125 94 99 147 141 137 135 122 116 124 130 117 110 116 126 130 123 123 124 117 117 101 92 117 125 113 106 111 115 134 135 130 125 113 103 106 94 77 53 76 97 82 76 103 111 107 93 95 107 110 98 93 94 98 107 110 93 63 47 38 39 67 101 98 92 90 108 126 137 143 147 139 126 116 110 97 72 64 89 102 93 78 74 79 100 100 71 70 91 92 72 57 
165 165 165 165 165 165 166 167 164 167 167 167 168 166 165 167 169 169 169 170 169 169 167 167 170 170 170 170 170 171 171 171 170 170 172 173 173 172 172 173 173 174 175 174 174 174 175 175 176 176 176 176 175 176 177 177 178 175 176 178 177 178 180 180 178 178 179 179 179 179 180 180 179 180 181 181 181 181 181 182 179 179 180 182 183 182 181 180 183 182 184 184 183 185 186 184 184 184 184 185 185 186 186 186 184 186 188 188 187 186 186 187 188 190 190 189 189 189 189 187 187 188 188 189 189 189 189 189 189 189 190 190 190 190 190 190 192 193 192 192 192 193 193 192 193 194 194 194 194 194 194 194 193 194 195 195 194 195 195 195 195 192 191 185 102 44 28 21 22 30 70 87 99 88 75 70 77 88 51 48 71 98 109 81 72 107 124 95 110 118 59 70 93 119 124 131 128 131 124 91 90 54 41 115 109 53 63 61 62 40 67 82 97 70 90 110 102 73 49 95 105 115 131 112 112 125 123 127 113 107 143 145 141 120 152 117 121 109 53 23 15 13 11 7 5 4 2 6 36 60 64 139 156 153 151 109 121 128 115 161 181 185 191 183 147 109 128 141 142 152 145 165 159 152 166 188 176 162 132 135 178 134 117 138 139 125 151 177 143 130 163 167 181 177 176 170 171 139 124 145 154 153 146 147 130 134 146 104 85 90 111 153 159 147 129 102 105 133 159 157 154 145 128 112 93 98 100 89 105 95 97 126 121 93 89 98 111 120 118 128 127 115 106 113 119 99 69 56 51 55 74 109 113 106 94 91 107 119 118 112 100 96 107 126 117 98 85 75 62 66 98 91 71 56 71 89 109 123 132 134 129 123 115 109 93 86 105 115 113 105 95 85 99 111 89 81 98 113 104 88 
166 165 165 166 166 165 166 167 166 168 168 168 170 168 167 168 170 172 173 172 172 172 171 170 172 172 172 172 173 173 174 174 173 173 174 174 174 174 175 175 177 176 176 175 175 176 178 179 178 178 177 177 177 177 178 179 180 178 178 179 179 180 181 181 181 181 181 181 182 182 183 183 181 182 183 183 183 182 183 183 184 183 182 183 183 184 183 183 185 184 185 185 185 186 187 186 186 186 187 187 187 188 188 188 187 188 189 188 187 187 187 187 190 191 191 191 191 192 192 190 191 191 191 191 191 191 191 190 192 192 192 192 193 192 192 192 193 194 194 193 193 193 194 194 193 194 195 195 195 194 195 195 195 196 196 196 196 196 196 196 194 196 194 179 91 43 34 32 29 52 86 101 108 85 79 79 81 96 78 45 44 60 92 110 106 105 76 109 135 130 124 101 86 77 84 119 104 86 99 95 83 85 78 75 54 76 85 87 64 61 64 61 66 61 55 111 89 88 115 118 130 126 124 118 101 110 147 127 134 125 133 123 149 122 114 131 139 155 84 31 20 13 20 8 7 11 4 3 59 78 63 136 163 126 69 69 65 97 103 147 159 167 167 164 123 135 191 189 179 183 161 158 162 140 157 179 144 148 149 160 154 151 128 158 163 126 141 181 168 152 170 183 195 175 163 167 155 146 148 149 134 143 160 158 146 163 156 109 122 119 119 145 158 142 131 110 112 140 163 148 126 138 120 80 74 107 113 101 109 104 111 138 130 96 85 81 98 96 102 132 128 119 117 124 134 120 97 73 39 35 65 97 98 84 85 85 84 111 131 125 111 96 100 125 125 124 124 119 107 108 115 100 67 49 39 62 101 120 125 138 137 126 117 116 114 111 120 116 112 109 100 85 100 110 105 97 92 104 113 108 
165 166 167 169 168 168 168 170 169 171 170 170 172 172 170 170 172 173 174 173 173 174 174 174 174 174 174 174 175 175 176 176 177 177 177 176 176 177 178 179 179 178 177 177 178 180 181 181 180 180 179 179 179 180 180 181 181 182 180 180 181 182 181 181 182 181 180 181 182 183 183 182 184 184 185 184 184 184 184 184 188 187 185 185 185 186 187 187 189 186 187 188 187 188 189 188 188 188 188 188 188 189 189 189 191 191 190 190 190 190 190 191 191 192 192 192 193 194 194 193 191 192 192 192 192 192 192 192 194 193 193 194 195 195 194 194 194 196 196 195 194 194 195 195 195 196 197 197 197 197 197 198 197 197 196 196 196 196 196 196 196 198 196 178 93 41 32 32 36 79 96 104 113 115 105 88 93 98 76 92 70 58 100 97 99 107 64 65 101 117 101 143 169 114 65 92 125 128 119 66 75 97 46 43 53 66 85 104 90 65 73 78 85 83 80 117 97 82 80 80 131 121 113 125 124 117 127 129 134 151 125 109 132 122 105 115 122 151 129 79 34 18 14 14 14 3 8 2 63 97 117 161 143 120 115 129 85 65 90 135 155 144 142 137 128 128 156 158 152 204 194 148 157 154 149 158 134 125 161 181 156 162 161 135 136 121 131 173 189 189 200 220 206 175 159 163 147 177 178 160 150 159 161 151 149 187 158 138 150 119 128 144 153 153 151 132 127 140 143 116 93 115 125 85 73 97 105 104 94 95 111 142 141 110 90 75 96 102 108 136 128 116 116 124 136 136 121 106 63 40 70 104 93 67 62 62 55 96 125 123 115 104 104 123 122 127 135 136 131 139 133 107 63 47 31 56 107 129 122 134 138 129 128 125 113 117 124 113 106 108 109 97 108 106 101 94 74 73 89 104 
167 168 170 171 170 169 170 171 171 172 171 171 174 174 172 172 174 174 174 174 174 176 177 177 176 176 176 177 177 178 178 178 179 179 179 178 178 180 181 181 179 179 179 180 181 182 181 180 182 181 181 181 182 182 182 182 184 186 184 182 184 184 183 183 184 183 182 183 184 185 185 184 187 186 186 185 185 185 185 185 187 187 187 187 187 188 189 189 191 188 188 189 188 189 190 189 189 189 189 189 189 190 191 191 193 192 191 191 192 193 194 195 192 192 193 193 194 194 195 195 192 193 193 193 194 194 195 195 194 193 194 195 196 197 196 195 196 197 197 196 196 196 197 197 197 197 197 198 198 198 199 199 198 197 196 197 196 196 196 196 197 195 195 182 101 40 32 33 54 85 101 108 113 62 60 98 97 84 107 108 103 109 99 76 76 81 135 89 72 121 107 149 165 92 107 121 89 120 83 41 62 84 71 59 72 102 95 62 63 67 73 93 108 47 107 124 98 69 99 95 116 125 126 114 129 136 106 136 138 126 131 96 108 112 109 117 103 91 122 100 54 27 16 9 10 11 14 14 72 72 113 174 134 86 139 175 121 149 130 138 177 156 146 145 107 80 94 110 100 155 200 179 172 148 159 169 157 119 138 142 159 178 131 120 127 96 140 201 205 166 143 174 178 165 142 121 144 164 159 157 156 151 143 141 145 166 126 143 123 97 149 138 123 130 127 124 130 134 124 113 112 108 126 103 71 63 72 84 72 86 119 146 140 102 77 66 91 117 119 134 138 129 128 139 140 134 124 120 78 57 95 127 114 84 60 53 55 97 112 110 105 108 112 121 121 124 133 137 135 139 139 113 67 46 32 43 92 120 115 124 133 125 118 105 96 106 119 114 108 109 115 112 109 105 95 89 71 58 60 77 
172 172 172 173 172 171 171 172 172 174 173 172 175 176 175 175 178 176 175 176 177 177 178 179 177 178 178 179 179 180 180 180 179 180 180 180 181 182 182 182 180 181 182 182 183 182 181 181 184 183 184 184 184 184 184 183 184 189 187 184 186 187 185 186 187 188 188 188 188 188 188 188 188 188 188 187 186 186 187 188 187 189 190 189 188 189 190 190 192 189 189 191 190 190 191 190 192 191 191 191 192 193 193 194 193 193 193 193 193 194 196 197 194 195 195 195 195 195 196 197 195 195 195 195 196 196 197 197 195 195 195 196 197 197 196 195 197 198 198 197 197 198 199 198 198 198 197 197 198 199 199 200 199 198 197 198 198 197 197 198 198 198 197 182 88 34 50 59 71 91 92 96 99 41 68 113 94 82 74 90 120 103 119 111 66 94 120 117 131 128 135 158 108 76 120 136 117 118 77 43 59 73 87 68 76 90 108 73 44 45 82 80 84 81 106 98 92 53 78 99 94 112 146 124 102 126 109 128 101 102 129 130 128 104 107 137 108 109 91 86 107 37 21 18 19 18 0 53 89 78 97 128 79 64 145 168 113 141 118 133 160 162 160 118 107 87 118 149 109 119 176 177 184 172 186 179 188 162 140 146 150 142 109 137 120 81 151 239 219 169 130 140 156 150 115 75 127 121 124 153 140 124 125 134 140 144 133 152 102 66 132 126 98 92 82 97 115 125 118 122 128 113 118 111 86 78 95 107 106 119 145 150 137 106 90 93 117 140 133 137 146 133 122 122 122 115 115 118 86 76 107 129 123 102 77 57 61 93 97 94 90 96 93 95 112 124 133 134 130 128 131 118 78 48 31 34 47 74 92 112 131 121 100 82 70 81 99 104 97 86 93 98 95 100 98 91 78 75 71 73 
175 174 173 174 175 175 175 176 174 177 176 175 176 178 178 179 182 178 176 178 179 178 178 180 178 179 179 180 181 181 181 181 180 182 183 183 184 185 185 183 184 185 185 185 184 183 184 185 186 186 187 187 188 188 187 186 184 190 188 185 187 188 187 188 189 190 191 191 189 189 190 191 191 191 192 190 189 189 191 193 191 193 193 191 190 191 192 193 194 191 191 193 193 193 193 192 194 194 194 194 194 195 196 197 195 195 196 196 195 195 197 198 196 197 198 198 197 196 197 199 196 196 196 196 196 196 196 196 198 197 197 197 198 197 196 194 198 198 198 198 198 200 200 199 200 199 198 198 199 200 200 200 201 199 198 199 200 199 199 200 199 201 197 180 81 42 69 72 82 105 93 109 74 55 107 107 98 92 60 70 93 85 120 144 104 98 107 115 112 131 130 107 78 132 113 118 153 100 51 49 58 47 53 90 84 90 88 74 88 85 104 73 93 122 108 76 65 88 98 101 98 146 131 102 104 113 128 122 117 122 128 116 133 118 120 146 131 141 131 102 128 88 24 17 13 12 15 48 115 143 112 81 70 120 169 170 117 146 161 144 153 160 145 93 83 66 116 194 132 124 167 178 199 180 160 162 187 190 151 136 126 118 136 170 150 92 135 210 199 180 152 134 169 186 158 118 110 88 88 132 128 125 129 132 142 152 153 128 102 79 126 136 111 96 81 93 100 121 121 120 121 128 120 117 110 121 140 144 135 137 144 132 126 114 108 116 131 141 136 146 152 125 98 75 74 87 98 106 96 84 82 98 107 97 83 54 50 74 83 81 82 79 61 59 95 121 131 128 120 120 118 119 84 49 29 42 49 59 81 98 121 110 86 78 62 51 52 61 64 54 58 63 73 84 94 85 71 92 103 93 
175 175 176 177 177 177 177 176 180 179 178 176 177 178 178 176 179 181 180 180 182 182 180 181 183 181 181 182 184 184 185 185 185 185 186 187 186 184 184 186 190 188 187 186 186 187 187 188 187 188 188 188 189 189 187 185 188 189 189 188 189 192 192 190 191 191 192 193 192 191 191 192 193 193 192 191 191 191 192 191 192 192 193 193 192 192 194 197 196 196 196 195 195 195 194 194 195 195 196 196 196 196 195 194 194 195 195 195 196 197 197 195 196 197 198 198 197 196 196 197 198 198 197 196 196 197 198 197 197 198 198 198 198 198 198 198 199 199 198 198 198 199 199 200 202 201 200 200 200 199 199 198 201 200 200 200 202 203 201 198 198 198 203 173 69 53 73 62 89 112 84 78 65 89 96 92 112 116 109 69 52 75 73 113 127 84 102 125 103 136 156 53 101 127 81 105 74 85 36 63 85 45 40 61 72 87 66 64 83 97 77 90 99 88 95 103 104 127 147 131 117 111 74 85 119 141 154 162 151 130 98 102 124 128 128 136 119 134 143 132 136 117 74 31 15 14 25 56 90 165 156 73 80 142 202 171 146 166 167 144 165 177 102 104 132 57 48 128 148 116 158 171 175 174 186 173 176 174 157 125 119 131 194 217 174 109 125 161 180 171 162 192 229 201 173 154 142 117 138 163 135 150 149 134 154 167 113 79 65 90 137 161 142 120 106 93 93 99 122 116 129 133 119 94 92 114 134 144 139 142 138 117 101 112 116 100 119 113 120 136 144 125 86 59 65 80 82 103 107 103 89 87 83 79 75 56 43 58 71 66 76 70 47 36 65 102 128 118 119 114 111 102 86 67 53 52 59 58 64 88 109 106 84 60 51 40 24 24 33 36 37 36 52 67 89 85 83 96 111 112 
176 176 177 178 179 180 181 181 180 181 180 179 179 180 180 180 180 182 182 182 184 184 182 183 184 182 182 184 186 187 188 188 188 187 187 188 188 187 187 188 191 189 188 188 189 190 190 190 191 191 190 189 189 190 191 191 190 192 192 190 191 193 193 192 193 192 193 194 193 192 192 193 194 194 193 192 193 195 195 194 195 194 194 194 194 194 194 195 197 197 197 197 197 197 197 197 195 196 197 197 196 196 195 195 197 198 198 197 198 198 198 197 198 199 200 200 199 198 198 199 201 200 199 198 199 201 201 199 200 200 200 201 201 201 200 200 200 200 200 200 200 201 201 201 202 202 201 201 201 201 199 199 201 202 202 201 202 203 202 200 202 197 203 164 63 67 73 69 102 106 99 81 63 59 99 114 100 91 104 146 150 86 53 100 110 85 105 91 76 138 181 68 122 151 126 88 45 65 49 50 88 63 62 55 93 71 50 43 42 43 61 71 62 56 68 70 81 118 113 102 86 109 113 88 141 151 155 159 169 150 96 94 128 126 127 98 114 150 122 132 143 117 57 29 22 9 41 60 113 152 118 63 120 162 140 130 157 158 156 145 129 133 99 119 136 118 67 111 152 127 182 204 170 158 184 193 172 162 154 130 96 114 173 177 144 129 119 121 130 133 144 196 187 157 165 161 161 179 185 176 148 128 144 166 179 164 106 90 63 107 148 154 153 142 124 89 89 98 116 131 142 125 101 77 81 84 79 103 128 144 144 123 91 89 94 76 83 91 88 105 134 123 90 80 90 95 91 107 113 108 96 95 89 71 58 45 46 70 77 62 62 52 42 45 47 59 98 113 124 114 91 79 87 94 88 81 80 72 63 77 105 115 88 45 30 26 19 17 19 28 32 21 40 63 92 95 95 98 104 105 
178 178 178 178 180 181 183 185 179 181 183 182 181 181 183 183 182 184 184 185 186 185 184 185 187 185 184 186 188 188 188 188 190 188 188 189 190 190 189 189 191 190 188 189 191 192 191 191 192 192 192 190 190 191 193 194 191 193 194 192 191 193 194 194 195 195 195 195 195 194 194 195 195 195 194 194 196 199 199 197 197 195 195 196 197 197 196 196 197 197 198 198 198 198 199 199 197 198 199 199 198 197 197 197 199 199 199 199 199 200 200 199 201 201 201 201 201 201 201 201 202 201 200 200 201 203 202 200 201 201 201 201 201 201 201 202 201 201 201 202 202 203 203 203 202 202 202 203 203 202 201 200 200 202 202 201 201 201 202 201 203 199 201 179 74 75 74 77 98 102 119 113 107 83 92 71 45 64 119 125 134 112 104 104 82 122 147 118 119 124 131 106 132 148 120 74 28 40 39 69 71 60 78 78 88 89 78 58 77 85 98 90 69 118 108 91 106 120 118 135 142 172 168 166 161 174 169 162 147 160 167 118 129 112 123 139 141 166 201 175 124 108 75 46 20 21 66 60 96 131 82 65 130 176 148 135 171 164 177 218 124 58 80 95 123 135 107 152 184 145 167 203 174 146 170 172 147 150 154 142 136 148 135 125 96 101 124 111 91 81 144 156 161 153 144 166 179 145 140 167 154 115 133 175 185 170 113 90 54 112 140 139 141 125 102 72 94 108 108 135 151 140 104 71 75 72 65 93 122 140 136 126 103 100 97 72 75 88 78 93 127 116 85 77 92 91 85 96 109 105 95 90 84 77 74 59 55 80 91 75 60 40 38 68 67 55 76 94 117 120 95 80 91 100 105 107 110 100 78 76 104 129 109 61 31 20 20 26 22 23 32 28 25 42 63 69 84 97 107 115 
181 180 179 180 181 183 184 184 180 183 185 185 184 184 185 186 184 186 186 187 188 187 185 187 190 188 187 188 190 190 189 189 192 191 190 191 192 192 191 191 191 191 191 191 192 193 193 192 192 194 194 194 193 194 194 193 193 194 195 193 193 194 195 195 197 196 196 197 196 196 196 197 196 196 195 196 198 200 201 200 197 196 197 198 199 199 199 199 198 198 199 199 199 199 200 200 200 200 201 201 200 199 199 199 199 199 199 199 200 202 202 201 203 202 202 202 202 202 202 202 201 201 201 201 202 203 202 200 203 202 201 199 199 200 202 203 203 202 202 202 202 203 203 204 203 203 203 203 203 203 203 203 201 202 202 201 200 201 202 202 200 204 203 151 51 77 71 81 93 107 105 97 105 122 124 100 52 43 102 91 77 106 129 103 86 129 134 92 91 133 77 121 165 109 95 74 55 65 68 86 83 83 97 91 102 86 52 75 83 80 77 80 102 135 76 107 133 130 128 153 165 195 187 162 150 155 184 146 120 151 157 159 151 143 116 135 151 130 161 133 87 114 124 108 28 25 104 85 78 109 82 87 113 172 186 168 168 167 174 175 134 103 77 109 177 173 139 141 147 145 139 145 133 158 168 166 165 130 155 197 197 173 120 114 115 115 151 175 120 78 133 141 140 153 145 170 185 133 112 147 152 140 123 137 155 132 107 94 75 118 126 129 124 108 93 74 95 104 102 131 153 161 122 76 57 53 75 101 121 121 111 120 121 120 111 102 98 102 93 111 132 116 87 63 64 68 72 84 112 118 109 96 98 101 103 83 70 95 109 95 75 59 44 68 70 53 60 78 109 124 110 106 110 98 98 109 125 124 111 106 123 142 124 79 41 32 28 28 25 34 48 44 30 35 40 50 87 112 119 123 
184 182 182 183 185 186 186 184 185 187 188 188 188 188 189 188 188 189 189 189 190 188 187 190 190 189 189 191 192 193 193 193 194 194 193 193 193 193 194 194 193 194 195 195 194 194 194 195 196 197 198 197 198 198 196 194 195 196 196 196 196 197 198 198 199 198 198 198 198 198 198 199 197 198 198 198 199 201 201 201 198 199 200 201 200 199 199 201 201 201 201 201 201 201 201 201 202 201 201 201 202 202 201 200 199 200 200 200 201 202 202 201 202 202 202 202 202 203 203 202 201 202 203 203 203 203 203 202 204 204 202 202 202 202 203 204 205 204 203 202 202 203 204 204 203 203 203 203 203 203 204 205 204 204 203 202 202 204 204 203 202 204 197 88 29 76 55 91 97 108 106 107 102 88 94 128 126 102 89 82 80 104 102 93 83 75 103 119 132 102 93 113 130 81 54 74 66 63 83 80 74 88 88 108 100 68 80 87 101 68 87 100 120 108 123 115 123 139 157 179 170 162 150 147 132 123 120 106 115 139 153 172 157 131 120 96 122 120 97 96 122 141 126 67 7 68 125 98 89 63 114 152 147 176 179 142 147 191 173 145 152 132 96 135 175 183 169 135 118 139 145 131 124 159 196 189 178 127 112 176 194 153 134 164 195 142 126 174 134 106 116 79 86 116 128 149 179 137 111 137 147 167 146 125 115 99 123 111 110 133 134 131 127 112 106 94 92 92 99 119 141 156 139 109 76 66 92 106 117 111 106 111 111 100 94 119 120 112 106 129 140 118 87 56 47 59 71 81 118 135 126 106 106 111 121 108 93 104 109 97 90 94 65 52 46 36 40 66 103 122 119 126 128 104 101 119 126 128 129 132 137 142 131 103 71 55 38 32 28 32 43 45 49 45 39 51 101 130 129 126 
184 183 183 185 187 188 187 186 188 189 189 189 190 190 190 189 191 192 191 192 192 190 190 193 192 191 191 193 193 192 192 193 194 194 194 193 193 194 195 195 194 196 197 197 196 195 195 196 199 199 199 198 199 200 199 197 197 197 197 197 198 199 199 199 200 199 199 200 201 200 200 201 199 201 202 201 200 201 202 202 200 202 203 203 201 199 199 201 202 202 202 202 202 202 202 202 202 202 201 202 203 203 202 201 201 202 202 202 202 203 202 201 202 202 202 202 202 203 203 203 201 203 204 203 203 203 203 203 204 204 204 204 204 204 203 203 206 205 204 203 203 203 204 205 204 204 203 203 203 204 205 205 205 205 204 203 204 205 204 203 205 207 161 44 39 67 51 102 106 97 104 109 111 66 82 146 99 72 86 95 85 94 85 64 115 131 83 102 156 60 118 159 68 53 46 53 57 83 61 75 84 87 98 104 103 82 61 42 100 89 97 82 80 111 126 139 139 160 178 173 136 138 147 120 94 92 97 97 94 102 110 117 128 130 140 133 122 114 140 138 136 113 95 29 18 101 113 107 57 59 122 159 183 152 126 141 154 197 165 122 143 144 117 137 133 138 170 144 153 184 167 123 152 162 189 200 170 123 92 143 161 113 117 155 182 104 76 150 114 117 138 101 138 143 112 141 156 143 122 136 159 182 179 138 112 111 132 107 126 140 137 135 134 113 110 113 98 87 93 103 120 125 128 123 115 115 114 101 95 106 115 103 95 89 90 117 114 104 105 135 147 117 78 54 44 60 74 82 116 138 131 114 102 99 110 117 112 107 94 80 83 109 96 60 37 27 39 75 102 110 104 108 112 100 105 124 130 128 133 137 130 127 135 135 107 77 54 53 47 36 42 52 65 56 45 55 102 123 116 110 
185 185 186 187 188 188 188 188 189 190 190 190 190 191 191 190 192 193 192 193 194 192 192 196 195 195 195 195 194 192 192 193 195 195 194 194 195 197 197 196 196 197 198 198 197 196 196 197 199 199 199 198 199 200 201 200 198 198 199 199 198 199 200 201 201 200 201 202 203 203 202 203 202 203 203 202 202 202 202 201 204 203 204 204 202 201 200 201 203 203 202 202 202 202 202 202 203 202 202 203 204 204 204 203 203 203 204 204 204 204 203 201 202 203 204 204 204 203 204 204 202 203 203 203 203 204 204 203 204 204 204 204 204 204 203 203 206 205 205 204 204 204 204 205 204 205 205 205 204 204 204 204 206 205 204 203 204 205 204 202 204 199 99 25 37 52 58 107 83 62 62 63 88 86 109 141 121 73 71 93 108 104 102 116 156 169 119 47 98 121 148 112 37 37 38 25 60 81 54 37 70 70 96 89 89 72 73 76 87 76 78 82 103 101 149 181 141 178 139 141 129 123 134 94 106 96 90 87 81 68 42 56 78 98 115 130 147 134 122 118 112 110 56 10 68 99 88 90 53 83 100 131 179 147 105 112 150 174 158 118 111 145 137 101 119 106 144 167 207 196 143 131 187 162 155 164 161 143 91 122 131 107 111 132 139 89 62 97 113 160 170 165 176 174 120 120 147 185 152 110 137 162 168 148 141 118 95 96 136 134 119 122 113 105 111 112 101 95 97 101 126 124 112 118 139 149 136 111 76 82 94 86 92 105 120 128 99 86 97 135 146 111 72 58 45 60 76 87 116 136 133 128 113 93 90 102 113 108 85 67 65 91 112 87 53 39 59 99 105 93 75 70 78 85 99 117 131 123 129 139 126 115 127 138 111 83 69 75 70 66 74 77 81 69 58 66 99 104 88 83 
188 189 190 189 189 189 190 191 190 191 192 191 191 192 192 192 192 192 192 192 194 192 193 198 197 198 199 198 196 194 195 197 197 197 196 196 198 201 201 199 198 199 199 199 199 199 199 199 197 199 200 200 200 201 202 202 200 201 202 201 200 199 201 203 202 201 202 204 205 204 204 204 203 204 203 202 202 203 202 200 205 204 203 204 204 203 202 202 204 204 204 204 204 204 204 204 203 204 204 204 205 205 206 206 202 203 204 204 205 205 204 202 203 204 206 206 205 204 205 206 203 204 204 203 204 205 205 204 207 206 204 203 203 204 205 206 204 204 205 205 205 205 204 204 205 206 207 207 206 204 203 203 207 207 206 205 205 206 205 204 208 169 49 38 36 38 48 115 105 68 63 77 81 78 71 74 96 140 104 93 75 66 65 91 129 124 123 74 70 193 114 28 46 79 59 60 90 60 36 59 85 91 103 105 70 83 75 75 107 68 69 120 82 67 154 135 144 191 152 135 99 75 88 106 101 76 62 61 68 72 43 58 77 83 90 106 110 117 132 125 99 46 11 13 73 79 98 76 108 144 120 130 153 155 111 102 133 161 150 150 145 129 112 123 143 162 144 168 216 170 111 134 177 173 169 162 144 166 150 104 144 155 87 93 102 104 131 82 75 149 148 148 167 148 103 125 152 175 165 139 146 144 148 158 159 125 82 106 136 130 108 93 76 90 97 87 94 120 118 108 125 132 106 120 150 146 139 123 85 60 60 68 90 108 136 138 105 81 97 135 137 100 68 59 52 64 81 95 116 128 124 129 114 101 96 100 106 99 78 64 62 64 105 112 90 74 79 98 104 91 76 62 57 69 98 129 122 106 110 129 127 118 126 133 110 74 70 92 87 78 90 97 91 74 61 68 95 93 79 80 
192 193 193 191 191 192 192 191 192 192 193 193 193 193 195 196 195 197 197 197 196 197 197 196 199 198 197 197 197 196 196 197 200 200 200 199 199 199 199 200 200 201 201 201 201 202 202 201 199 201 202 201 202 203 204 204 201 202 203 203 203 204 203 202 205 204 204 205 205 204 204 205 205 204 203 205 205 204 204 204 205 204 203 205 205 204 204 204 204 204 205 206 206 204 204 206 205 205 206 206 206 204 204 205 204 206 207 206 204 203 203 204 208 207 205 205 206 207 207 207 205 205 205 205 206 206 206 206 207 207 207 206 206 206 207 207 205 204 204 205 206 206 205 204 205 205 206 206 205 205 206 206 208 204 207 206 203 202 204 200 200 101 54 49 44 43 74 114 109 73 103 113 98 103 113 85 69 86 93 112 127 60 37 54 116 124 135 140 80 117 72 64 73 60 60 57 93 63 48 76 82 79 80 84 55 50 61 53 109 114 114 115 64 83 154 143 197 176 102 94 107 110 112 115 106 94 88 81 72 63 43 48 52 63 63 75 75 79 85 67 44 24 5 67 83 69 111 82 127 183 141 150 157 166 127 98 118 145 137 146 134 120 142 163 199 209 179 170 189 155 118 133 169 190 181 146 145 170 169 122 146 186 135 93 78 134 154 70 66 95 114 149 144 110 87 120 146 154 162 177 147 134 141 149 147 112 94 105 114 110 111 92 81 88 77 64 106 145 125 103 93 102 109 122 143 135 119 135 114 71 50 59 84 98 112 123 106 94 100 135 132 93 57 41 46 76 85 99 108 121 122 120 117 113 115 118 114 96 76 70 70 81 90 107 111 102 91 89 91 89 71 58 56 72 100 110 91 85 105 123 114 109 123 133 107 78 89 94 84 83 76 74 76 71 71 70 74 65 57 79 
193 194 194 193 193 194 194 194 194 194 195 195 195 195 197 198 196 197 198 197 197 198 198 198 200 199 199 199 199 199 199 200 201 202 202 201 201 201 201 202 201 203 203 203 202 203 203 203 203 203 203 204 204 204 204 204 205 206 206 204 203 204 204 204 207 205 205 206 206 205 204 204 207 206 206 206 206 205 205 205 206 205 205 206 206 205 205 206 204 204 205 206 206 204 205 206 206 206 206 206 206 204 204 205 207 207 207 207 206 206 206 207 207 206 206 206 207 207 207 206 205 206 207 207 206 206 206 206 207 207 207 207 207 207 207 206 208 206 205 205 205 206 206 206 207 207 207 206 206 206 208 209 206 209 206 204 205 206 200 206 132 45 66 55 50 46 81 105 114 71 93 92 63 85 117 115 130 129 103 77 119 120 72 49 87 141 140 131 125 46 63 64 71 55 42 63 70 60 54 43 47 43 43 71 91 74 78 46 97 156 95 64 118 163 141 155 172 91 106 119 114 112 114 133 114 112 105 89 66 85 73 45 42 45 49 39 44 61 46 29 18 11 44 110 60 74 113 118 161 173 169 135 111 168 161 114 124 131 152 160 112 113 161 166 161 165 174 171 179 163 122 108 146 160 154 134 147 171 136 81 118 169 187 134 67 112 136 137 136 92 91 125 150 123 73 111 123 125 139 174 156 118 126 122 118 123 89 77 84 86 92 83 77 92 93 112 138 141 121 84 83 93 106 115 118 107 102 123 135 111 85 77 96 90 88 94 93 95 104 134 129 94 50 26 46 96 88 93 112 120 121 123 120 127 134 136 134 124 107 96 96 103 95 99 115 127 111 85 73 54 48 52 58 73 102 100 82 74 92 106 98 97 111 124 118 105 103 101 96 96 88 74 67 98 117 110 82 54 64 95 
194 195 196 196 196 197 197 196 197 197 198 198 197 197 198 199 198 199 199 199 199 200 200 200 201 200 201 202 202 202 202 203 203 203 203 203 203 203 203 204 203 205 206 205 204 204 205 206 208 206 205 206 207 205 204 204 207 208 207 205 204 204 204 205 208 206 205 206 207 207 206 205 207 207 207 207 206 205 205 206 207 207 207 208 207 206 206 207 205 206 207 207 206 205 206 207 207 207 207 207 206 205 206 207 207 207 207 207 207 207 207 207 208 208 208 209 210 209 208 207 206 208 209 209 207 207 207 208 208 208 207 206 206 207 207 207 209 208 207 206 206 206 207 207 207 206 206 206 205 206 207 208 204 211 204 206 209 206 205 185 73 62 84 58 45 63 97 80 82 100 107 103 101 112 114 140 118 116 117 79 67 110 122 69 68 131 125 89 85 41 41 31 48 57 68 86 111 87 72 74 66 69 56 81 70 61 75 39 87 111 76 95 116 151 147 131 97 87 109 105 114 113 121 115 122 104 97 97 67 150 200 116 40 43 30 61 75 47 48 30 11 26 117 79 79 102 113 114 154 174 188 126 57 118 195 177 137 150 188 202 126 68 143 154 148 102 120 165 173 177 132 74 124 148 146 136 143 134 63 41 68 131 137 141 74 87 161 184 162 101 104 164 197 153 126 91 94 130 143 156 149 115 119 135 141 128 93 80 74 90 110 110 104 115 120 139 137 123 119 92 90 111 129 124 104 89 81 85 115 131 122 99 95 84 88 92 89 99 111 136 121 83 36 14 58 102 84 96 117 123 127 119 114 127 138 142 138 131 122 114 119 117 103 107 129 147 128 96 76 44 34 39 49 63 99 100 73 67 90 99 81 69 76 98 117 130 124 116 106 101 100 82 89 134 149 135 94 64 86 110 
195 196 197 198 198 198 198 197 200 200 201 200 199 198 199 199 200 201 201 201 201 202 202 202 202 201 202 203 204 203 203 204 203 204 204 204 204 204 204 204 205 206 206 205 205 206 208 208 209 207 206 208 208 205 204 205 205 208 209 208 206 205 206 206 208 207 206 207 207 207 207 207 207 207 208 208 207 206 206 207 207 208 209 209 207 206 207 208 207 208 209 209 208 207 208 209 209 208 207 208 208 207 208 209 208 207 207 207 208 208 207 207 209 209 209 210 211 210 209 208 207 208 209 210 209 208 208 209 210 209 207 206 206 207 208 209 208 208 209 209 208 208 208 208 205 205 206 207 207 206 206 206 206 208 205 210 209 202 208 125 32 75 78 67 60 93 120 95 81 109 88 70 91 83 78 115 115 95 117 81 69 81 136 102 72 87 103 114 102 51 50 67 80 52 86 105 86 36 72 106 89 94 88 82 79 98 108 45 62 110 148 145 93 135 150 107 84 102 115 114 116 114 131 135 132 124 118 100 86 115 196 201 133 63 74 70 49 59 43 10 26 131 102 69 128 130 117 117 131 142 152 111 86 136 169 156 164 194 197 188 141 100 115 142 134 111 88 140 169 174 123 66 98 134 127 87 93 105 104 65 99 71 100 161 118 121 179 187 166 104 138 197 191 148 156 137 135 132 135 141 143 151 145 157 149 111 110 110 95 117 140 142 137 127 127 125 115 117 118 105 101 127 149 144 122 100 78 62 88 127 135 106 75 66 83 85 76 88 107 135 112 65 21 15 73 98 81 103 121 119 121 114 112 117 127 137 131 118 117 120 129 125 112 116 128 138 127 108 88 68 53 51 62 70 94 97 61 60 97 114 88 57 55 88 120 133 123 113 104 98 97 78 97 142 149 118 71 48 73 90 
197 198 199 200 200 199 198 198 200 201 202 201 200 200 200 201 202 203 203 202 202 202 203 203 203 203 203 204 205 204 204 205 204 205 205 205 205 205 205 205 206 206 206 206 207 209 209 209 209 207 208 210 209 205 205 207 207 209 211 210 208 208 208 209 208 208 209 208 207 207 207 208 208 209 210 209 209 209 209 209 208 209 210 210 208 208 208 209 209 210 210 210 209 209 209 210 210 209 209 209 210 210 210 211 210 210 210 210 211 210 209 207 209 209 209 209 210 210 209 209 208 208 209 209 210 210 210 209 210 209 208 208 208 208 209 208 207 208 209 209 209 208 208 209 206 207 208 208 209 208 207 207 208 206 207 210 205 207 185 63 44 73 79 53 59 92 99 85 102 126 110 97 114 90 61 104 132 121 110 66 88 117 143 148 134 77 53 83 77 64 75 44 64 89 101 95 63 61 102 87 98 87 93 100 103 112 85 54 55 101 130 155 128 131 117 108 115 113 103 104 105 111 135 146 125 82 99 113 79 104 146 142 203 162 67 66 71 39 14 15 119 141 71 103 118 127 125 104 137 154 127 125 164 202 174 147 189 184 171 144 133 139 165 174 168 152 91 109 140 141 126 108 83 109 166 130 98 122 137 159 174 103 109 151 133 128 164 177 148 106 132 162 143 136 161 193 174 123 109 121 139 147 124 131 121 103 116 114 111 125 131 123 112 104 111 107 100 108 108 104 117 132 149 158 147 121 94 79 104 129 132 116 78 54 54 55 71 78 99 125 99 51 15 18 62 81 76 104 122 114 107 113 115 110 116 131 128 114 115 121 118 127 126 128 126 125 109 87 75 74 74 88 104 111 107 85 54 50 91 122 104 64 55 91 126 124 109 93 78 76 83 76 87 125 131 92 48 32 44 51 
200 200 201 202 202 200 199 199 200 201 202 202 202 202 203 204 203 204 204 203 203 203 204 203 206 205 205 206 206 206 206 207 206 206 207 207 207 207 207 207 208 207 207 207 209 211 211 209 209 209 210 211 210 208 208 210 210 211 211 209 208 208 209 210 209 211 211 210 208 208 208 208 209 210 210 210 210 210 211 210 210 211 212 211 210 210 210 210 210 211 211 210 210 210 210 211 211 210 210 211 211 211 211 212 211 211 211 211 212 211 210 208 211 210 210 210 210 210 211 211 209 209 209 209 210 211 211 210 210 210 210 211 211 210 209 207 209 208 208 207 208 208 209 210 208 208 208 208 209 209 209 208 207 207 208 208 206 214 137 39 44 69 66 44 77 111 105 95 138 93 100 118 132 114 98 139 175 94 98 101 74 83 126 131 162 102 28 58 47 86 81 58 90 92 100 106 72 83 112 93 102 80 87 99 93 118 73 56 81 52 71 154 142 132 120 102 123 95 116 114 106 103 105 127 121 76 43 49 41 91 121 112 175 206 85 34 32 12 23 102 129 99 111 107 101 93 91 91 131 127 122 176 207 195 145 135 165 178 137 118 123 178 201 198 199 191 140 103 114 143 163 136 90 73 168 159 105 138 155 169 165 101 80 117 121 129 172 148 109 104 127 139 141 141 177 178 151 119 100 104 137 133 105 84 92 110 121 118 119 113 114 104 89 84 93 104 101 103 113 113 120 125 132 140 138 128 118 106 113 115 115 127 113 73 49 52 71 78 104 124 102 61 28 22 28 38 57 103 123 121 109 108 114 110 113 129 131 123 124 119 105 118 131 145 141 125 94 65 53 52 66 100 125 138 126 87 50 39 64 96 95 68 59 87 124 111 89 63 48 56 75 83 89 112 111 75 43 29 22 20 
202 202 202 204 203 202 201 202 201 202 203 203 203 203 205 206 204 205 206 205 205 206 206 205 207 207 206 207 208 207 208 209 207 208 209 209 209 209 209 209 209 209 209 209 210 212 211 210 210 211 211 212 212 212 211 211 210 211 211 209 208 209 210 210 210 211 212 210 210 210 210 210 210 211 211 211 211 212 212 211 212 213 213 212 211 212 212 211 211 212 213 211 210 211 212 211 211 210 210 211 212 211 211 211 211 211 211 211 211 211 210 210 212 212 212 212 212 212 212 212 210 210 210 210 210 211 211 212 211 211 211 211 212 211 209 208 210 209 207 207 208 209 209 209 208 208 208 209 209 209 209 208 206 209 208 209 209 200 85 37 34 61 54 72 108 111 108 100 87 102 114 140 81 103 96 151 167 72 111 129 131 60 89 114 156 135 52 56 70 68 60 85 100 96 98 89 66 77 97 105 71 52 82 81 70 88 92 113 106 47 100 145 123 124 114 99 96 128 135 132 127 96 95 110 135 164 125 24 37 75 109 110 151 194 94 16 15 17 69 112 84 100 99 102 91 92 110 135 152 167 110 142 192 170 127 106 154 134 115 118 145 185 182 173 164 186 175 137 125 145 176 171 122 83 148 115 116 146 152 158 152 154 164 117 84 138 155 146 89 63 107 118 125 127 165 154 134 143 145 131 129 125 118 75 79 112 122 123 124 108 106 115 96 72 69 94 103 107 119 109 95 92 93 99 103 119 133 125 94 81 87 112 128 107 91 88 75 82 111 121 103 75 53 40 30 29 51 107 126 123 110 102 111 116 121 133 133 129 131 119 107 111 124 148 146 124 93 69 49 47 62 93 115 117 112 91 60 51 54 65 69 63 63 82 126 114 78 50 53 75 94 97 101 112 101 72 48 29 18 21 
204 203 204 205 205 204 203 204 204 204 204 204 203 204 205 206 205 206 207 207 207 208 208 207 208 207 207 208 208 208 209 210 208 209 210 210 210 210 210 210 210 211 212 211 211 212 212 211 211 212 212 212 213 214 213 211 210 211 212 212 212 212 211 210 210 211 211 211 211 213 213 212 213 213 213 212 213 214 213 212 213 213 213 212 212 213 212 211 212 214 214 212 211 212 213 212 212 211 211 212 212 211 210 210 212 211 211 210 210 211 212 213 211 212 212 212 212 212 212 212 211 211 212 211 210 210 211 213 213 212 211 210 211 211 211 210 210 209 208 209 210 210 209 207 207 208 209 211 211 211 209 207 207 210 208 211 210 172 51 34 28 46 67 101 123 112 137 129 75 45 60 114 100 115 129 128 76 101 173 117 135 108 82 87 94 60 49 46 83 60 67 89 100 97 56 68 78 62 62 103 80 90 105 77 37 52 86 148 112 92 137 128 129 112 102 98 126 135 121 113 97 89 100 91 110 168 227 110 43 79 103 107 146 162 104 10 24 35 83 59 62 71 101 128 101 112 143 197 218 174 108 88 105 129 137 125 119 127 108 127 146 160 159 154 169 192 189 148 79 98 153 157 114 108 91 76 97 148 162 157 147 158 194 158 75 115 152 189 155 87 94 104 95 112 141 133 127 147 139 134 148 151 135 105 102 116 98 94 117 113 92 114 110 75 74 102 112 120 126 110 79 62 63 77 83 106 135 132 91 64 72 85 116 130 139 122 105 98 109 97 77 64 66 64 69 66 67 112 129 111 95 102 104 116 126 135 127 122 127 116 106 109 122 145 141 121 91 68 56 65 79 97 108 80 76 81 90 88 76 60 54 56 64 76 102 106 68 38 49 75 95 95 86 87 68 54 46 29 20 25 
205 206 206 205 205 206 207 206 206 206 205 205 206 207 207 208 206 206 206 207 208 208 209 209 209 209 210 210 211 211 211 211 212 210 209 210 211 210 210 210 211 212 213 213 212 212 213 214 212 211 211 211 213 213 213 212 211 213 215 214 213 213 213 211 211 211 211 212 213 213 213 213 213 212 212 212 212 211 212 214 213 213 213 212 212 213 213 213 215 214 213 213 214 214 213 212 212 213 214 213 213 214 213 212 214 212 211 211 212 213 214 214 213 212 210 210 211 212 212 211 211 211 213 213 211 211 213 212 213 212 211 210 211 211 211 211 211 211 210 209 208 209 210 211 208 209 211 211 211 210 209 207 208 212 210 212 215 128 31 50 45 64 93 115 133 135 160 81 96 98 92 61 101 131 142 111 84 157 195 88 106 115 116 76 50 49 56 46 64 56 86 78 96 100 71 76 85 73 62 92 124 115 97 113 72 47 57 110 130 149 127 131 114 105 110 115 129 117 117 102 81 88 81 70 91 161 198 154 56 71 104 100 117 139 132 30 36 68 114 115 120 142 163 198 174 117 113 165 161 151 169 127 124 138 146 174 144 124 105 118 136 141 147 150 160 181 180 158 120 99 120 134 138 148 127 78 99 141 143 142 100 138 180 170 90 84 168 214 190 150 134 171 170 116 112 127 127 138 129 136 144 148 132 122 132 135 97 75 102 107 87 90 89 73 87 115 119 111 109 108 100 86 98 102 111 113 129 133 93 48 73 69 74 118 134 137 131 118 97 74 60 48 52 74 104 96 88 118 136 118 92 88 87 93 126 133 118 108 115 117 120 122 133 152 141 113 80 67 60 75 102 119 102 78 62 69 99 106 101 84 82 78 79 82 107 105 79 48 35 53 64 71 64 55 40 35 38 35 30 26 
205 207 207 207 207 207 207 206 204 205 205 206 207 208 209 210 208 208 208 209 209 210 210 211 210 210 211 211 212 212 212 212 211 210 209 211 212 213 212 213 210 211 213 213 213 212 212 213 213 213 213 214 215 215 214 213 211 213 214 213 213 214 215 214 213 212 212 212 213 213 214 214 215 214 214 214 213 213 214 215 214 214 214 213 213 214 214 213 214 214 214 214 214 214 213 213 212 214 214 214 214 214 213 212 215 214 213 213 213 213 213 212 212 212 212 212 212 212 212 212 212 211 212 212 211 211 212 211 213 212 211 211 211 211 211 211 211 211 212 212 211 211 211 211 210 211 211 211 211 211 209 207 211 212 210 206 203 96 55 72 58 71 105 128 115 118 131 81 97 97 113 109 61 101 123 106 108 162 116 119 129 129 172 110 24 62 47 40 48 73 59 42 78 78 91 88 109 77 54 87 110 102 80 78 66 113 92 63 125 134 121 119 125 113 113 120 112 121 102 58 57 61 47 72 88 138 186 163 47 56 85 88 96 150 163 89 98 131 134 152 177 183 192 215 208 150 103 137 150 168 165 157 173 197 190 196 183 144 103 98 104 142 135 134 153 160 152 174 161 102 108 156 160 162 175 86 55 104 113 101 61 127 160 161 116 122 176 174 183 180 147 172 200 135 105 135 106 127 122 120 135 127 99 97 110 117 106 94 105 103 87 91 90 65 77 103 104 98 99 105 111 122 135 134 139 127 121 127 102 59 52 62 73 106 117 127 129 108 77 65 50 43 47 85 115 117 115 140 149 117 80 73 84 83 115 134 127 109 104 103 117 123 139 158 143 112 88 85 92 104 122 109 100 89 81 66 81 94 97 92 106 105 99 105 114 116 107 80 66 60 57 56 43 32 26 30 33 31 27 22 
206 207 208 208 207 208 208 208 206 207 208 208 207 207 208 209 209 209 210 210 211 211 212 212 212 212 212 212 212 212 212 212 213 212 212 213 213 213 213 213 211 212 214 214 214 213 213 213 214 214 215 216 217 217 215 214 215 215 215 214 214 214 215 215 215 214 214 213 214 214 215 215 215 215 215 215 215 214 215 216 215 215 215 215 214 215 214 214 214 214 215 215 214 214 213 213 213 214 214 214 214 215 214 213 215 214 214 215 215 214 213 212 211 213 214 214 213 213 213 214 214 212 212 212 211 212 213 212 213 213 212 211 211 212 211 211 212 212 213 213 213 212 212 212 209 210 210 210 211 212 211 210 208 212 209 206 206 99 62 71 64 69 86 109 54 50 72 109 109 97 76 113 150 106 79 107 104 126 99 137 120 117 169 68 30 52 30 33 34 47 31 51 66 88 74 62 102 96 81 92 83 60 85 76 94 96 95 111 127 108 90 121 111 101 102 99 110 101 43 31 40 18 45 87 99 141 189 146 33 40 52 70 105 143 114 113 140 157 160 137 155 179 209 224 209 169 153 148 168 193 170 142 187 202 197 189 183 173 155 134 103 113 110 107 129 151 155 159 167 148 149 162 154 149 157 122 122 156 150 116 74 127 159 151 106 128 145 162 172 158 139 151 160 143 149 151 118 141 134 118 129 120 91 81 85 88 102 103 99 94 89 102 102 82 93 102 103 113 114 111 112 127 134 132 136 128 117 125 117 82 45 44 64 106 130 126 107 81 50 46 40 41 55 100 118 126 136 154 143 108 82 81 91 96 123 139 135 120 108 98 100 105 126 148 135 111 105 118 130 142 142 112 88 99 100 83 97 106 100 87 102 100 90 102 102 105 116 108 111 87 65 52 40 32 36 45 43 38 31 23 
207 208 208 207 207 209 211 211 210 210 210 209 208 207 207 208 210 210 211 211 211 212 212 213 212 212 212 212 213 213 213 213 215 214 214 214 214 214 214 214 212 213 214 214 214 213 214 214 215 215 216 216 217 217 216 215 217 217 217 216 215 216 216 216 216 216 216 216 216 216 216 216 215 215 215 216 215 215 215 216 215 216 217 216 215 215 215 214 214 215 216 216 215 214 214 214 215 215 215 215 215 215 215 214 214 214 214 215 216 216 215 214 212 213 214 214 214 213 214 214 215 213 213 213 212 213 214 212 213 212 212 212 212 212 212 211 212 212 212 212 211 211 212 212 209 210 211 210 211 212 213 212 209 208 209 217 168 67 86 64 94 119 114 122 118 105 106 97 87 61 61 98 163 134 60 97 115 107 157 109 138 122 105 32 33 39 31 30 43 62 52 52 74 90 53 93 95 98 122 132 70 38 101 130 88 48 91 121 120 107 80 106 99 97 90 99 102 68 65 32 13 20 74 94 105 136 184 148 30 40 58 57 91 94 91 128 154 180 181 118 125 196 224 227 198 176 140 160 197 212 178 116 140 170 171 178 181 173 164 155 165 176 113 70 107 131 145 110 110 142 153 145 136 157 149 152 165 183 167 128 90 119 150 127 91 128 142 152 157 143 150 150 141 143 148 124 119 147 155 141 119 107 103 97 79 68 88 99 93 87 87 107 97 73 87 107 118 129 122 117 112 108 109 110 102 105 108 115 122 89 57 52 71 105 136 117 87 64 43 27 25 33 55 81 98 109 132 142 118 90 82 84 93 115 133 130 125 128 121 105 91 87 104 128 124 108 110 127 129 138 140 117 81 91 102 101 110 120 117 100 106 100 85 91 88 88 110 116 124 94 65 51 37 41 51 55 52 47 40 34 
208 209 209 207 208 209 211 211 210 210 210 210 210 211 211 211 211 211 212 212 212 212 213 214 212 212 212 212 213 213 213 214 214 214 215 215 215 215 216 216 214 214 214 213 213 213 214 215 217 217 216 216 217 217 217 217 216 216 216 217 217 217 217 218 216 216 217 218 218 218 217 217 215 216 216 216 216 216 217 217 216 217 217 216 216 216 216 215 215 216 216 216 216 215 215 215 216 215 215 216 216 216 216 215 214 214 214 214 215 216 216 216 214 214 214 214 215 215 215 215 215 213 214 215 214 214 214 212 213 212 213 213 214 214 213 213 212 212 212 211 211 211 211 212 212 213 213 212 210 210 211 212 214 208 212 208 92 38 78 75 113 124 115 101 90 105 86 103 104 91 61 53 103 136 70 46 87 105 129 91 123 132 58 29 47 38 33 46 53 65 47 43 66 75 55 54 90 80 94 93 58 80 126 125 72 84 135 94 98 90 103 101 91 81 93 110 78 108 189 145 16 38 76 94 121 141 185 151 98 59 104 100 57 81 130 153 157 202 195 133 98 132 132 143 168 140 128 165 194 189 177 128 129 170 175 166 161 155 155 202 193 178 140 101 95 143 163 111 73 117 144 144 146 135 146 173 168 157 152 171 117 88 131 101 85 128 138 142 126 111 135 130 119 138 139 112 106 133 143 139 96 79 99 108 81 60 76 98 104 97 93 114 111 83 89 102 112 122 115 113 112 99 102 108 88 84 86 91 108 97 79 62 71 101 121 96 84 80 74 51 40 58 71 64 72 93 110 101 83 71 73 80 82 117 128 108 95 105 114 111 99 88 99 116 111 97 102 116 110 107 124 114 91 78 86 85 94 100 102 94 105 114 114 115 102 81 86 99 114 95 63 45 41 58 68 61 58 54 44 44 
209 211 211 210 210 210 210 209 211 211 211 212 212 213 213 212 212 213 213 213 213 213 214 215 213 213 213 213 213 214 214 215 215 216 217 216 215 216 216 216 217 216 215 215 215 215 217 217 218 218 217 217 217 218 218 219 217 216 217 218 218 217 217 217 216 217 218 218 218 218 218 218 217 218 218 217 217 218 218 218 216 218 218 217 216 216 217 216 217 217 216 216 217 217 217 216 217 216 216 217 217 217 216 216 216 216 215 215 215 215 216 216 217 216 215 215 216 217 216 215 215 213 215 215 214 214 214 212 213 213 214 215 215 215 214 214 212 212 213 213 213 212 212 211 212 213 213 212 210 211 212 212 208 210 219 172 69 78 101 116 122 77 78 64 74 93 84 114 92 126 129 89 68 85 106 80 75 114 110 114 144 139 36 36 50 47 40 33 30 30 22 30 39 56 45 54 105 113 43 76 91 117 119 115 85 121 112 94 99 103 102 87 83 74 94 93 78 138 195 204 57 47 82 106 123 152 178 154 137 138 111 73 94 127 146 159 169 212 194 141 119 117 131 110 110 131 129 146 174 165 176 151 125 152 164 144 140 151 157 168 157 144 140 138 138 156 169 159 76 65 107 139 107 107 143 158 153 136 142 166 145 96 155 141 86 107 106 140 143 85 123 136 103 128 157 139 106 136 137 132 101 93 109 120 99 80 90 112 123 117 112 130 142 121 115 107 102 103 102 111 106 96 101 114 107 98 87 87 109 125 109 76 64 87 87 70 73 92 104 96 82 107 102 74 74 104 107 77 65 56 57 75 79 121 131 102 70 68 92 118 124 118 126 124 102 86 102 122 111 99 113 123 110 95 88 82 78 77 79 81 97 116 130 125 113 73 63 77 96 95 65 43 43 64 76 65 59 49 33 37 
210 212 212 212 211 211 211 210 213 213 214 214 213 213 213 213 213 214 214 214 214 214 215 216 215 215 215 214 215 215 215 216 217 218 218 217 216 216 217 217 219 218 217 217 217 217 218 219 218 218 218 218 218 218 219 219 219 218 218 219 219 217 216 216 218 219 219 219 218 218 219 219 219 220 219 218 217 218 219 219 217 219 219 218 217 217 218 218 219 218 216 216 218 218 218 217 218 217 216 217 218 217 217 217 218 217 217 216 216 216 216 216 218 217 216 217 218 218 216 215 215 214 215 216 214 214 215 214 214 214 215 215 215 215 214 213 213 214 214 214 213 213 212 213 212 212 212 211 211 212 213 212 212 213 194 113 75 92 134 113 103 119 121 119 113 121 122 103 112 155 96 104 136 72 66 80 115 138 147 124 91 136 51 36 43 44 46 41 43 31 30 39 44 39 37 75 117 129 53 44 100 127 91 65 111 113 87 106 106 109 94 91 82 93 77 47 99 141 183 197 104 46 86 110 130 167 189 154 145 138 91 101 129 136 154 176 200 233 190 155 150 156 175 154 156 148 153 128 143 160 167 156 105 120 123 144 172 166 130 123 152 119 136 159 149 144 154 167 104 60 75 72 49 94 141 141 134 121 138 151 139 136 168 163 80 86 118 152 139 121 153 137 96 118 141 115 100 119 120 114 104 103 106 115 117 108 116 127 124 116 117 130 133 105 95 104 107 94 90 110 110 101 102 112 118 118 105 99 112 127 127 108 76 61 48 43 48 68 85 93 93 117 110 92 99 115 116 93 82 62 52 66 93 136 139 109 72 64 88 123 138 135 141 128 103 93 116 135 117 108 118 135 120 114 107 108 104 94 81 79 92 107 129 127 98 73 79 86 84 80 63 52 50 61 72 66 59 47 35 45 
211 212 212 211 211 212 213 213 213 214 215 215 214 213 213 214 213 214 215 214 214 214 215 216 217 217 216 216 216 216 216 217 215 217 218 217 217 218 219 219 218 218 217 217 217 217 217 218 218 218 218 218 218 218 218 218 220 218 218 219 220 219 219 219 221 221 220 219 218 218 220 221 220 221 220 218 217 218 219 219 218 219 220 218 217 218 219 219 220 218 216 216 218 219 219 218 219 217 216 217 218 218 217 217 218 218 217 217 217 216 216 216 217 217 217 217 218 218 216 214 216 215 216 216 213 214 216 216 214 214 214 215 215 214 213 211 215 215 214 213 212 212 213 214 214 213 211 211 212 213 212 210 211 213 134 70 91 129 129 115 115 117 105 64 74 93 124 121 113 138 92 65 144 138 114 97 94 125 140 127 62 54 41 36 42 53 70 84 77 68 63 65 73 68 47 77 103 97 104 74 71 109 75 103 137 103 102 82 101 97 83 73 72 69 18 77 120 151 176 202 119 51 90 117 133 174 199 161 127 124 128 134 142 148 195 216 207 203 159 131 116 170 193 166 146 156 179 138 99 131 149 140 138 133 116 159 186 139 133 141 117 87 125 140 150 148 145 132 147 140 135 87 47 82 120 120 116 125 141 150 106 116 148 139 90 96 132 142 115 119 133 115 88 92 121 137 129 101 88 85 92 95 89 98 99 104 117 121 107 98 105 114 110 74 51 70 101 104 98 106 122 110 108 105 103 109 106 95 87 102 126 117 81 51 47 34 30 37 50 61 83 105 115 119 120 102 103 104 101 81 72 77 106 143 136 108 86 88 103 123 114 107 113 111 108 112 131 136 123 117 134 137 119 101 106 115 109 105 94 97 105 105 118 115 88 80 108 111 94 82 73 68 60 53 57 53 43 33 31 50 
212 212 213 214 213 214 216 214 214 215 215 216 216 216 215 215 213 213 214 215 216 216 216 216 218 219 218 217 216 218 218 217 218 218 218 219 219 219 218 218 220 219 219 219 219 220 219 219 218 220 220 220 219 220 220 220 221 220 220 221 221 220 220 222 221 220 220 220 221 220 220 221 219 220 221 221 220 219 219 220 217 220 220 217 216 218 219 219 219 219 218 218 218 218 219 220 219 219 219 219 219 219 219 220 219 218 216 216 217 218 218 218 216 217 218 218 218 216 215 214 216 217 217 216 216 215 215 216 218 216 215 214 215 215 215 214 213 212 212 213 213 211 211 212 210 212 212 209 216 210 210 215 215 182 93 78 117 133 133 119 66 71 81 79 104 111 92 106 106 122 141 84 138 169 131 132 129 133 120 126 125 44 32 32 47 47 56 69 65 75 72 41 83 108 63 72 71 100 118 86 96 128 130 126 126 118 102 70 98 89 78 46 40 14 41 97 121 163 181 211 118 66 110 120 140 180 220 181 127 139 150 143 138 167 209 192 181 181 132 101 132 172 157 153 159 170 171 142 76 88 124 126 163 171 137 138 146 155 145 139 141 77 106 130 133 126 129 146 157 166 163 133 71 62 90 87 76 99 109 106 75 110 135 149 133 80 99 143 143 127 140 156 162 151 161 169 157 116 96 90 91 93 86 94 100 92 99 104 104 105 99 99 98 82 84 105 108 112 110 106 104 110 113 106 82 71 85 91 93 103 112 109 77 55 57 41 32 31 36 54 79 99 125 121 109 89 70 84 100 98 93 108 130 139 117 97 100 108 125 106 72 68 79 76 93 115 138 138 134 146 154 140 101 68 71 90 99 92 98 113 112 109 107 111 96 97 119 120 108 100 100 96 69 50 40 33 28 27 29 42 
214 213 214 215 213 215 216 214 214 215 215 215 215 216 215 215 216 216 216 217 218 218 218 218 217 218 218 218 218 219 220 219 219 219 219 219 219 220 220 220 220 220 220 220 221 221 221 221 219 220 221 220 220 221 221 221 222 221 221 222 222 221 221 222 221 220 220 221 222 222 222 222 221 221 221 221 221 220 220 220 218 221 221 219 218 219 220 220 218 218 218 219 220 220 219 218 218 218 218 219 219 219 219 219 219 219 218 219 219 219 219 218 218 218 217 217 217 217 218 218 217 217 217 217 216 215 215 216 216 215 215 215 215 215 215 215 215 214 213 213 213 213 213 215 216 207 214 211 211 213 213 205 219 150 74 64 117 137 123 86 83 90 107 109 100 97 87 63 59 121 166 112 107 122 124 109 111 110 101 131 152 69 41 37 33 36 38 33 46 49 46 42 78 99 58 85 60 106 95 68 130 144 108 78 114 114 85 88 87 80 57 19 21 11 71 99 137 172 177 210 108 54 126 120 118 130 157 152 141 143 165 163 105 125 173 185 175 153 103 109 141 142 137 142 161 172 165 145 149 148 140 127 149 151 120 129 142 133 110 151 176 93 60 80 91 132 177 168 137 141 157 128 163 157 145 171 136 108 88 51 73 114 156 171 155 141 165 174 160 155 158 164 174 173 162 153 142 118 106 100 100 97 90 102 116 114 113 115 110 105 112 116 108 108 129 143 124 109 108 106 98 99 104 101 77 62 78 97 114 121 110 87 71 62 56 53 36 36 38 58 86 105 115 102 87 70 47 62 101 100 94 119 135 115 83 71 88 111 122 96 63 73 89 86 79 87 118 142 144 150 145 117 67 49 60 70 79 81 101 105 90 73 76 89 90 111 119 114 95 100 116 100 68 53 48 44 38 35 34 40 
216 215 216 216 215 216 217 215 215 215 215 216 216 216 216 217 218 217 217 217 218 218 219 218 217 218 219 219 220 220 220 219 221 220 220 220 220 220 221 222 220 220 220 220 221 221 221 221 220 221 222 221 221 222 222 222 221 221 222 223 222 221 221 222 224 222 221 222 222 222 221 221 222 222 222 222 222 222 221 221 219 222 222 221 220 221 221 221 220 219 219 220 221 221 220 218 219 219 220 220 220 220 220 220 217 218 219 220 219 219 218 218 220 219 218 218 218 218 219 220 217 218 218 217 217 216 216 217 215 216 216 216 215 215 215 216 216 215 214 214 215 215 215 217 212 215 210 217 214 214 212 216 186 77 69 91 99 98 126 123 135 113 83 98 89 105 111 104 95 92 108 101 83 91 104 114 97 102 74 85 102 41 34 41 39 64 52 34 38 37 52 63 85 91 50 78 63 118 125 193 141 122 84 89 130 118 105 103 92 74 53 55 34 37 91 103 140 172 189 210 112 55 146 97 92 98 118 142 149 168 218 196 82 57 79 112 111 133 142 104 103 101 130 151 164 151 131 154 188 176 131 137 154 138 122 141 144 97 121 135 131 138 153 111 88 149 165 154 110 118 131 140 177 133 111 158 174 170 143 87 93 144 156 143 142 163 162 149 147 150 141 146 154 154 142 123 106 96 98 109 114 96 76 83 120 127 118 118 118 122 141 141 114 90 104 126 113 94 95 92 77 75 83 85 77 75 86 103 119 114 92 69 69 66 56 63 54 58 50 58 78 98 98 81 60 44 34 58 101 92 86 111 120 88 64 53 67 98 116 105 71 82 99 108 90 79 103 140 148 135 110 76 39 52 82 82 82 82 90 77 48 30 27 45 88 127 117 95 72 69 84 87 77 65 63 57 46 42 41 40 
217 217 218 218 216 217 218 216 217 216 216 217 217 217 218 219 218 218 218 218 218 219 218 218 220 220 220 220 220 220 219 219 221 221 220 220 220 221 221 222 221 220 221 221 222 222 221 221 222 223 223 222 222 223 223 222 221 222 223 223 223 222 223 223 226 224 222 223 223 222 221 221 223 223 222 222 223 223 222 222 220 222 223 222 221 222 222 221 223 222 220 220 221 221 222 222 221 221 221 221 221 221 220 220 218 219 219 220 220 219 218 218 220 220 220 220 219 219 218 217 218 218 218 218 218 218 218 218 217 217 217 216 215 215 216 217 216 216 216 217 217 216 216 216 213 213 216 214 215 215 211 213 90 73 116 117 72 98 129 121 99 93 108 116 122 115 115 117 137 77 116 128 123 115 136 145 93 130 150 107 49 19 40 59 73 87 80 63 55 70 72 83 94 89 70 113 114 105 163 165 140 110 71 83 113 107 102 89 131 143 69 39 19 39 93 122 151 176 194 204 180 153 117 117 120 125 145 160 179 207 203 166 118 126 102 116 139 189 184 143 101 96 126 128 112 101 97 149 166 151 118 133 145 133 131 163 143 128 104 120 133 173 189 123 53 112 146 138 94 85 119 152 154 104 101 140 134 151 139 123 127 135 110 107 112 143 132 128 140 144 138 146 141 133 135 106 85 89 107 132 138 112 81 73 101 124 121 112 112 126 146 139 106 62 63 84 82 77 92 93 70 64 71 82 91 94 93 102 117 98 66 47 51 51 47 53 58 76 70 65 69 81 75 62 44 32 43 73 94 89 95 112 109 73 53 45 65 101 112 110 93 91 95 110 101 84 102 135 132 94 57 38 43 79 110 98 76 75 62 46 26 33 31 66 115 139 112 65 38 41 66 96 92 78 70 60 45 44 50 48 
217 216 218 218 216 218 219 216 218 217 217 218 219 218 219 220 219 219 220 220 221 220 219 219 222 221 220 220 220 219 220 220 221 221 221 221 222 222 222 222 223 223 223 223 224 223 223 222 223 224 224 223 223 223 223 222 222 223 224 224 224 224 225 225 224 222 222 223 224 224 224 224 224 223 222 222 223 224 223 223 222 223 223 223 223 223 223 222 223 223 223 222 221 221 222 224 221 221 222 221 221 220 219 219 221 221 220 220 221 221 220 220 219 220 220 221 220 219 218 217 219 219 218 218 218 218 218 218 217 217 217 216 215 215 217 219 217 217 217 217 216 216 216 215 215 213 213 212 213 209 220 137 67 105 130 98 115 138 139 117 109 102 107 141 139 102 120 90 111 116 133 132 115 87 101 141 89 130 198 124 25 34 45 41 59 74 61 66 65 77 86 84 78 79 110 120 113 141 174 119 120 91 94 104 94 94 94 103 180 231 107 8 45 46 78 111 152 175 193 213 185 133 123 142 146 145 151 174 204 192 184 140 140 182 187 120 112 167 182 166 111 105 115 132 160 124 85 132 158 115 114 139 140 105 80 114 142 152 109 124 158 170 169 150 73 80 125 160 159 117 95 128 115 94 127 134 132 141 167 140 117 131 147 153 96 114 124 129 127 114 121 121 113 121 138 108 90 89 99 125 140 126 97 73 81 115 134 122 110 122 133 131 115 84 86 93 92 102 123 119 88 73 76 92 103 93 81 90 105 91 57 52 64 54 44 44 57 85 94 92 80 71 58 55 52 54 69 86 85 94 107 114 99 72 60 59 79 102 94 89 110 106 98 102 101 95 119 141 112 58 24 28 67 92 93 64 60 62 42 27 21 35 44 100 142 131 94 47 27 52 105 130 116 95 73 54 39 40 46 41 
216 216 217 217 216 218 219 217 219 217 218 219 220 219 219 220 220 220 220 221 221 221 220 220 221 221 220 220 220 220 221 222 221 222 222 223 223 223 223 223 224 224 224 224 224 224 223 222 223 224 223 223 223 223 223 222 222 224 224 224 223 224 225 226 224 223 223 224 225 224 224 225 225 224 223 223 224 224 224 224 223 224 224 224 224 224 224 223 222 223 224 223 222 221 222 223 223 223 223 222 222 221 220 220 222 221 220 220 221 222 221 220 220 220 220 220 220 220 220 220 219 218 218 218 219 219 218 218 216 216 216 216 215 216 218 220 218 218 216 215 214 215 216 215 212 219 210 216 213 221 187 52 85 103 133 114 124 112 113 84 87 82 113 166 147 129 111 91 84 99 99 125 110 114 74 109 167 148 123 68 19 31 47 55 61 73 67 55 70 86 81 83 60 101 128 133 133 175 169 117 102 98 104 101 77 68 74 120 169 212 164 35 45 47 96 127 145 180 202 216 140 124 152 171 191 169 122 151 183 185 145 137 147 182 188 103 87 135 156 141 133 124 122 146 191 129 78 116 130 105 110 147 173 154 120 88 126 140 169 157 146 147 158 153 114 73 103 155 174 124 69 122 113 95 123 130 131 161 187 163 123 150 161 153 105 123 126 123 135 81 107 136 134 118 114 114 103 85 75 100 120 110 98 93 90 110 140 138 125 128 129 130 128 115 120 123 119 128 143 139 108 96 91 102 111 97 81 87 92 83 60 83 110 78 50 52 71 93 106 104 84 58 46 53 66 90 104 106 103 112 107 97 80 86 100 106 100 87 63 59 97 106 103 107 111 113 135 138 90 35 15 36 86 100 72 35 39 43 34 22 30 37 58 114 142 108 58 36 41 66 123 140 127 100 67 47 36 36 37 26 
217 217 218 218 217 219 220 218 219 218 218 221 221 219 219 220 221 220 220 220 220 221 221 221 221 220 221 222 222 222 222 223 223 223 223 223 224 224 224 224 223 223 224 224 224 224 223 222 224 224 224 224 224 225 225 223 223 225 225 223 222 223 225 226 226 225 225 226 225 224 224 225 225 225 225 224 224 224 225 226 224 224 224 224 225 225 224 223 223 224 224 223 223 222 222 223 224 223 223 223 223 223 222 222 222 221 221 220 221 221 221 220 221 221 220 220 220 220 221 221 220 219 219 219 220 220 219 219 217 218 218 217 217 217 218 219 217 217 216 214 214 215 216 215 215 213 218 215 213 222 121 55 90 124 133 131 95 84 92 128 139 134 132 129 118 128 117 94 58 95 71 101 113 122 131 139 172 175 74 27 31 40 53 50 53 65 48 55 82 91 83 77 77 104 132 159 173 168 137 86 96 104 102 79 59 76 92 111 147 196 187 40 37 50 92 109 128 161 202 186 138 141 171 176 186 188 123 92 152 130 114 141 167 182 163 125 85 115 131 156 179 130 112 139 163 134 109 115 146 122 111 154 182 168 151 111 79 100 136 150 139 147 155 148 135 101 138 154 156 134 141 167 123 78 113 136 157 157 153 145 133 145 136 138 146 150 139 144 149 117 130 139 142 137 122 116 118 106 87 107 125 106 108 131 119 108 123 133 131 133 129 127 126 127 130 127 116 122 134 139 125 124 115 115 116 101 93 101 95 74 55 87 120 93 62 64 83 96 105 92 69 43 37 47 63 98 122 127 130 125 99 74 67 89 121 139 111 73 45 39 75 95 104 127 130 133 146 139 80 31 19 43 86 108 71 38 39 45 42 32 45 60 85 119 131 93 47 42 54 67 98 116 101 80 52 38 33 33 33 24 
219 218 220 220 219 220 221 219 220 219 220 222 222 220 219 221 223 222 220 220 220 221 222 223 221 221 222 223 224 223 222 223 224 223 223 223 223 224 225 225 224 224 224 225 226 226 225 224 225 225 225 225 226 227 227 226 226 228 228 225 224 225 226 227 225 225 226 226 226 225 226 228 226 226 226 225 225 225 226 227 224 223 223 223 224 224 223 223 226 225 223 222 222 223 224 224 223 222 222 222 222 222 223 223 222 222 223 222 222 222 221 221 221 221 221 221 220 220 219 219 221 220 220 220 221 221 221 220 220 220 220 220 219 218 218 217 215 216 216 215 215 216 215 214 219 214 213 212 217 179 100 105 118 142 141 110 73 114 154 162 151 138 100 85 77 119 125 110 94 102 115 134 126 144 144 118 112 128 43 19 39 43 45 55 50 49 44 75 85 77 53 61 85 108 139 171 156 151 99 96 106 119 113 56 53 88 92 131 164 198 190 54 41 50 124 94 89 101 123 136 148 160 186 200 193 184 143 92 107 123 123 161 178 173 158 108 97 116 136 193 189 132 98 147 159 126 103 147 150 124 130 154 159 151 152 165 96 70 126 141 132 135 144 118 100 115 138 151 131 121 150 158 140 111 127 145 141 132 127 140 137 129 124 125 134 129 138 140 126 130 126 131 145 152 147 141 128 127 101 115 144 131 121 134 136 105 103 119 128 138 140 136 135 141 132 118 111 126 132 129 135 140 132 128 114 85 87 110 93 65 52 72 104 107 84 71 81 98 108 86 63 43 40 43 56 83 114 126 130 111 79 50 51 72 107 133 98 55 37 32 47 67 82 121 121 120 134 135 98 50 34 47 72 101 61 29 27 41 41 35 45 83 113 129 117 88 74 72 67 77 80 82 75 63 42 32 27 24 25 20 
218 220 220 220 220 221 221 221 219 218 218 219 220 221 222 221 225 223 222 221 221 222 222 222 222 222 222 222 222 223 224 224 224 224 224 224 224 225 225 226 225 226 225 224 224 226 227 227 224 226 227 226 225 226 227 227 227 227 227 227 228 228 227 227 226 227 228 227 225 224 226 228 227 226 226 226 226 227 226 225 224 224 224 225 225 225 223 222 224 226 226 224 224 225 225 223 224 225 224 222 222 223 224 224 222 223 223 222 222 223 223 221 219 220 221 222 222 221 220 219 220 221 221 220 219 218 218 218 220 220 219 218 217 218 217 215 217 216 219 218 216 217 215 217 215 214 210 216 190 102 99 121 145 125 102 111 117 122 147 141 135 90 84 77 82 108 115 79 54 67 99 127 134 117 127 100 77 60 22 39 47 45 50 60 54 43 60 98 78 67 58 85 108 121 138 149 129 109 87 109 124 118 97 35 64 90 115 149 166 191 207 82 26 101 151 108 92 86 120 151 182 201 193 183 181 185 179 175 177 163 109 147 173 147 113 125 122 115 131 155 150 111 112 144 160 124 60 82 104 116 140 153 128 134 165 171 119 40 94 99 95 122 145 152 86 115 120 119 102 119 130 145 142 122 128 126 127 119 119 134 131 131 108 115 122 116 123 123 114 118 125 137 136 130 138 142 141 121 108 119 138 143 127 136 141 129 105 121 133 139 150 143 156 153 135 113 99 118 131 140 144 137 134 129 110 84 93 104 72 63 79 82 101 118 108 95 91 76 86 86 67 56 48 44 46 63 98 115 106 84 55 37 36 57 92 114 85 45 39 43 41 46 82 106 98 97 114 130 129 111 83 75 97 105 71 31 20 41 45 32 50 102 141 143 118 100 105 97 88 86 86 71 67 54 37 21 14 11 11 20 
219 220 221 220 220 221 222 221 220 220 221 221 221 221 221 221 224 223 222 222 221 221 221 222 223 223 223 223 223 223 224 224 224 224 224 224 225 226 227 227 225 226 226 226 226 227 227 226 225 227 227 226 226 227 227 227 226 226 226 226 227 227 226 226 226 227 228 228 227 226 226 227 228 227 227 227 227 227 227 226 226 226 226 226 227 226 225 225 225 226 226 225 225 226 226 225 225 226 225 224 223 223 224 223 223 224 223 223 223 224 223 222 223 223 222 222 221 221 221 221 221 221 221 221 220 219 219 219 220 220 219 218 218 219 218 216 216 220 219 216 215 212 217 215 213 216 219 206 94 82 132 131 118 129 141 139 110 134 103 70 77 86 96 109 105 111 114 104 93 54 49 82 123 84 138 88 81 29 28 51 53 57 60 54 48 48 69 84 70 84 89 101 121 130 156 139 126 89 102 119 125 114 71 48 79 89 126 163 170 181 220 119 57 144 117 107 101 139 146 160 194 180 181 183 180 170 166 187 179 178 111 88 127 123 149 180 143 110 114 116 105 77 123 144 126 148 137 112 104 79 131 140 104 116 159 155 136 125 132 134 122 140 170 171 84 83 137 177 131 106 137 136 146 107 117 125 139 122 90 118 134 160 119 114 126 97 116 117 109 109 130 141 132 118 116 134 127 93 101 133 147 150 145 147 143 142 135 139 140 127 129 143 149 148 143 126 102 106 119 136 141 126 127 134 117 99 104 86 61 62 76 91 107 113 112 111 95 71 72 80 75 63 48 43 38 53 80 96 84 63 45 34 32 63 97 108 85 53 37 33 38 45 74 91 86 96 113 121 137 143 133 118 117 108 81 56 39 62 59 44 66 121 149 129 99 89 94 92 81 76 81 77 70 52 35 21 11 10 17 30 
220 221 221 220 220 221 222 222 221 222 222 222 222 221 221 221 223 224 224 223 222 222 223 223 225 224 224 224 223 223 224 224 225 225 225 225 226 227 228 228 226 227 228 228 228 228 227 226 227 227 227 226 227 228 228 227 228 228 227 228 228 228 228 227 227 228 228 228 228 227 227 227 228 228 228 227 227 227 228 228 228 227 227 227 227 227 227 226 226 227 227 225 225 227 228 227 226 227 227 225 224 224 224 223 224 224 224 223 224 224 224 223 224 224 223 222 222 222 222 223 221 221 221 221 220 220 220 220 220 220 220 219 219 219 219 218 220 212 216 218 219 218 223 216 209 177 128 91 57 88 122 120 137 140 157 158 147 97 86 108 116 102 117 123 136 104 93 122 132 138 120 104 105 107 116 124 110 33 40 49 61 57 45 42 43 54 70 57 56 98 116 121 117 145 165 138 86 102 115 121 108 92 39 51 81 78 124 177 170 187 206 171 133 126 112 87 124 175 168 150 165 168 169 171 167 163 155 169 165 179 124 73 113 164 173 176 156 125 142 167 153 108 85 79 114 158 178 174 149 90 100 150 129 95 136 130 156 179 167 166 116 135 147 145 119 125 175 188 157 105 113 146 159 93 110 138 154 139 113 141 144 136 130 140 110 107 134 125 133 123 119 117 116 109 112 139 123 75 87 129 149 155 157 155 139 135 141 142 153 139 112 100 123 142 151 143 126 119 113 122 123 120 119 123 114 106 113 91 51 34 64 88 100 111 93 85 80 62 63 73 73 62 50 55 70 84 91 87 66 49 48 41 42 70 94 95 90 80 58 40 39 47 63 62 60 86 109 111 115 137 138 115 91 75 74 85 88 96 72 52 73 120 129 86 51 53 57 68 59 57 78 98 80 55 35 20 9 11 25 44 
220 221 222 222 221 222 223 222 221 221 221 222 223 223 223 223 223 224 225 224 223 223 223 223 225 225 225 224 224 224 224 224 226 226 226 226 227 227 228 228 226 227 228 228 228 228 227 227 228 227 226 227 228 229 228 227 229 229 228 229 229 230 229 229 229 229 228 228 228 228 228 229 228 229 229 228 227 227 228 229 228 228 227 227 227 227 227 227 228 228 227 226 226 227 228 228 226 227 227 226 225 225 224 224 225 224 224 224 224 225 224 224 223 223 223 223 223 223 223 223 221 221 221 221 220 220 220 220 220 220 220 219 220 220 219 218 217 215 221 217 216 219 216 217 154 94 65 49 83 87 102 128 141 138 124 125 81 99 139 140 118 124 113 119 124 104 107 130 120 144 153 139 79 90 109 154 87 35 65 63 57 56 59 49 64 57 51 41 66 95 108 128 136 175 135 96 94 111 120 108 119 99 19 57 72 83 127 173 172 185 197 178 139 124 114 120 168 197 186 137 105 94 127 142 161 168 156 160 170 150 127 119 120 177 165 166 153 114 146 171 170 168 129 136 163 158 154 153 149 117 107 160 147 88 135 110 121 142 141 140 95 96 115 125 122 159 151 127 136 127 144 148 140 111 141 150 136 121 126 130 122 118 127 131 123 132 126 133 144 152 138 128 126 117 123 136 130 89 82 99 122 132 140 144 135 120 123 128 140 144 123 97 108 138 143 140 129 118 96 103 114 123 128 121 108 107 108 86 47 28 50 74 89 106 76 52 52 52 64 71 67 52 44 60 97 114 103 78 54 55 72 65 61 63 69 69 88 114 108 88 78 82 81 59 46 71 93 93 92 110 108 87 65 49 55 76 108 119 96 74 67 80 78 41 20 61 75 79 61 61 84 103 84 59 34 23 25 30 39 56 
219 221 223 223 223 224 223 223 222 221 221 222 224 225 224 224 223 224 224 224 224 224 224 223 225 225 225 225 225 225 225 225 227 227 227 227 227 228 228 228 227 227 227 228 228 228 228 229 229 228 227 227 228 229 228 227 228 228 228 228 229 229 229 229 230 229 229 228 229 229 229 229 229 229 229 229 228 228 229 230 229 228 228 227 227 227 227 228 229 229 228 226 226 227 228 228 227 227 227 226 225 225 226 225 225 224 224 224 225 225 225 225 223 223 223 223 223 223 224 224 222 222 222 221 220 220 221 221 221 220 220 220 220 219 219 218 214 223 219 216 219 222 213 211 96 68 76 77 95 108 120 126 140 150 125 82 78 138 144 105 98 102 99 120 127 117 136 153 118 122 102 99 127 50 81 110 35 48 79 69 61 62 67 49 83 76 46 41 86 106 108 133 162 146 108 84 110 103 105 100 147 183 90 37 68 74 121 159 142 167 187 175 125 117 132 177 215 194 183 102 81 118 167 181 198 153 99 101 114 107 145 124 101 147 153 154 130 88 123 146 151 139 99 142 151 147 133 128 121 82 106 149 128 101 164 126 110 141 127 129 168 156 165 124 96 134 135 122 129 140 142 139 103 94 126 130 112 89 115 124 116 113 115 100 106 102 119 124 132 145 148 143 131 128 130 118 109 106 104 86 77 79 101 119 130 114 103 115 130 143 140 128 124 125 111 115 109 113 95 103 117 122 142 139 119 119 104 69 58 80 74 85 99 98 76 46 32 39 61 72 65 46 38 56 91 110 95 70 57 78 114 112 83 57 43 39 59 104 123 116 112 112 114 95 70 67 71 69 88 90 77 63 60 56 51 53 83 115 116 103 71 49 34 10 42 114 116 80 51 77 107 111 81 58 33 33 56 62 54 59 
220 222 223 223 224 224 224 224 223 222 222 223 224 225 225 224 224 226 226 225 225 227 227 225 226 226 226 226 227 227 227 227 228 228 228 228 228 228 228 228 229 228 228 228 229 229 230 231 230 228 227 228 229 229 229 228 229 228 228 228 229 229 230 230 230 230 230 231 231 230 230 229 229 229 230 230 229 229 229 229 230 230 230 229 228 228 229 229 230 229 229 228 227 227 228 228 227 228 227 226 225 226 227 227 226 225 224 225 225 225 225 226 226 225 224 223 223 223 224 225 223 223 223 222 221 221 221 222 221 220 220 220 220 219 219 219 220 218 217 220 207 203 211 191 87 66 61 92 111 119 127 136 152 144 116 95 75 97 95 123 128 120 119 98 115 141 157 142 101 123 122 120 127 116 73 62 36 74 73 60 63 56 55 53 70 79 44 50 92 111 126 156 173 125 77 114 107 106 99 92 142 197 186 65 45 46 88 128 112 129 128 118 129 128 173 226 196 183 185 164 133 164 204 195 187 182 115 130 166 149 168 136 95 121 131 103 87 63 69 95 130 79 81 140 139 139 138 131 135 81 95 130 90 103 138 79 91 119 88 86 135 146 140 78 101 123 139 100 79 117 120 141 115 85 121 145 131 93 101 114 107 111 121 114 103 73 96 125 138 122 129 118 97 111 121 107 99 117 134 118 90 85 98 100 115 114 91 102 128 141 132 120 138 127 112 113 103 125 123 118 124 130 143 144 132 123 100 77 94 122 111 100 101 103 95 70 48 50 69 75 60 39 32 48 70 78 63 47 43 70 113 120 83 52 34 26 28 58 86 89 86 89 114 131 118 93 77 74 90 80 61 51 58 63 55 46 62 107 121 111 72 38 15 2 53 128 126 85 66 97 111 95 69 47 26 35 65 69 48 41 
221 223 223 223 223 224 225 225 224 224 224 224 223 224 225 226 225 227 228 227 226 228 229 228 227 227 227 228 228 228 228 228 228 228 229 229 229 229 229 229 229 228 228 229 229 229 229 230 231 230 229 230 230 230 229 230 231 230 230 229 230 230 230 230 230 230 231 231 231 231 230 230 230 230 230 231 231 231 230 229 230 231 231 230 229 229 229 230 229 229 229 229 229 228 228 228 227 228 228 227 227 227 227 227 228 226 225 226 226 225 225 226 226 225 224 223 223 224 224 225 224 224 223 222 221 221 222 222 221 220 220 221 221 220 220 220 220 215 222 187 160 179 204 175 63 59 79 108 113 113 122 139 146 140 124 119 111 106 100 109 158 157 137 109 106 143 155 140 118 135 140 96 117 152 71 57 40 57 55 52 45 42 54 58 56 65 37 72 96 107 138 166 144 90 100 107 43 72 89 88 148 183 204 106 34 52 65 146 133 112 105 126 148 186 222 194 184 181 178 152 125 177 188 175 179 166 129 170 216 195 184 153 118 127 156 135 146 137 97 90 126 92 66 65 89 108 126 164 189 137 112 137 102 118 135 115 113 159 142 95 68 133 155 120 117 133 167 159 108 109 144 162 148 129 150 154 138 123 126 131 112 107 124 130 107 72 75 121 130 119 123 112 94 101 105 99 110 120 137 145 133 127 119 103 108 119 97 88 107 118 114 107 131 141 142 127 107 119 121 116 128 139 132 139 132 108 97 105 129 125 114 91 92 116 122 106 82 78 91 86 63 47 39 39 54 55 44 36 35 53 83 88 61 44 36 35 30 41 62 65 50 51 84 123 134 122 108 105 94 74 57 54 57 55 49 43 67 107 109 86 47 22 9 17 59 123 133 112 100 107 95 69 45 27 23 40 58 53 32 22 
223 224 224 223 222 224 225 225 223 225 226 225 223 224 226 229 223 227 228 226 225 227 228 228 228 228 229 229 229 229 229 229 228 229 229 230 230 230 230 230 229 228 228 229 229 228 228 229 232 230 230 231 231 230 230 231 232 231 230 230 230 230 230 230 231 231 231 231 230 230 231 232 230 230 231 231 232 232 231 229 230 230 230 230 229 228 229 229 229 229 229 230 230 229 229 229 227 229 230 229 228 228 228 227 230 228 226 227 227 225 225 226 223 224 224 225 225 225 225 224 224 224 223 222 221 221 221 222 221 220 220 221 222 221 221 221 218 220 213 120 126 199 217 180 63 64 101 122 122 116 93 113 116 117 111 67 107 142 163 139 133 116 133 111 111 121 114 134 143 109 113 139 127 93 81 50 47 63 61 60 69 71 61 60 59 78 54 92 104 126 154 142 93 83 120 75 24 51 86 100 138 179 205 115 35 52 71 121 104 94 120 145 189 223 198 182 178 181 161 115 136 176 171 171 158 112 114 150 183 184 171 139 139 164 168 108 143 177 155 156 175 174 134 127 134 148 141 175 189 179 173 153 154 175 181 168 160 174 178 157 108 148 179 174 170 151 156 165 156 145 148 133 120 127 121 111 112 117 113 117 108 99 110 116 113 72 57 73 96 112 114 124 138 128 107 89 93 105 121 135 123 112 109 114 119 120 105 87 92 97 107 111 122 136 134 114 110 105 95 93 119 126 118 140 129 100 108 126 138 129 104 88 104 120 128 110 89 87 101 94 79 77 63 42 36 40 40 41 41 49 61 57 51 46 43 50 51 55 67 67 52 42 56 85 110 122 123 122 93 56 36 44 47 40 39 44 89 105 82 52 25 15 8 24 53 121 148 137 119 104 77 50 25 17 35 61 64 50 34 26 
225 225 225 224 225 226 225 224 224 226 227 227 225 224 225 227 227 226 226 227 227 226 227 229 227 228 229 229 229 228 229 230 229 228 229 230 230 230 230 231 228 230 231 231 230 230 230 229 231 231 230 230 230 230 230 230 232 232 231 230 230 231 231 232 232 232 231 231 232 233 232 229 232 232 231 230 231 232 232 231 231 231 231 231 231 231 231 231 231 231 230 230 230 230 230 230 231 229 228 228 228 229 228 227 227 227 227 227 226 226 225 225 222 225 226 224 223 223 223 224 224 224 224 223 223 222 222 222 221 220 220 221 222 221 220 219 220 220 203 88 116 169 206 158 54 89 106 117 116 118 124 113 109 123 118 68 61 138 124 110 117 104 102 105 120 127 119 91 136 124 132 158 62 62 80 49 59 54 62 52 77 77 85 78 76 79 92 97 90 131 153 102 64 98 103 44 24 49 80 107 150 181 202 140 44 67 89 106 108 103 127 189 208 185 180 179 180 165 145 147 154 163 173 166 135 161 142 130 140 145 150 119 128 151 159 98 117 171 165 169 146 170 180 171 166 166 144 151 164 154 155 151 169 167 172 132 123 141 137 123 120 139 146 141 137 130 140 130 126 134 129 114 85 115 120 96 98 102 96 84 70 74 77 89 91 76 64 54 72 89 94 112 123 110 92 67 68 79 90 89 78 72 78 87 86 91 91 89 88 95 104 102 94 101 100 95 108 113 103 108 117 115 110 128 126 100 106 125 136 144 121 106 110 121 126 104 82 73 84 84 91 101 74 48 35 36 56 64 55 56 57 50 41 45 52 49 58 61 59 55 44 42 52 59 68 99 120 111 86 47 40 34 39 34 40 84 97 89 64 40 19 19 24 30 49 97 139 143 119 94 67 36 18 29 65 79 74 66 46 40 
224 225 225 224 224 225 226 226 226 227 227 227 227 226 227 227 226 226 226 228 228 228 228 229 229 229 229 230 229 229 230 232 230 229 230 231 231 230 230 231 230 231 231 231 231 232 231 230 231 231 231 231 231 231 230 230 231 231 231 231 231 231 231 231 232 232 232 232 232 233 232 230 232 232 232 231 232 233 232 231 232 231 231 231 231 232 232 232 231 231 231 230 230 230 230 230 230 229 229 229 229 229 229 228 226 226 226 226 227 227 227 226 225 227 227 226 225 224 224 224 225 224 223 223 224 224 223 222 222 223 223 222 221 220 219 219 219 224 187 78 116 154 160 59 86 113 113 126 120 126 142 124 108 114 114 126 111 109 109 106 141 128 126 149 93 109 129 98 101 128 184 127 70 73 55 57 65 55 60 55 60 76 78 61 55 83 99 108 100 163 158 71 79 99 87 51 29 42 76 113 151 181 205 159 51 97 94 110 113 119 146 233 193 109 123 160 146 153 180 191 160 164 164 130 140 198 160 93 111 138 152 116 117 162 155 78 93 141 166 162 105 111 148 148 155 167 135 142 149 132 132 148 158 143 144 105 90 141 131 99 117 131 129 125 129 135 130 107 124 121 134 127 107 116 110 93 86 74 61 54 54 56 54 61 70 71 72 69 61 66 61 66 74 72 68 58 56 63 67 62 53 51 56 61 58 60 62 66 66 67 69 64 64 62 57 62 90 109 106 110 116 108 102 126 126 95 97 117 129 142 129 114 114 123 127 112 88 76 86 92 90 80 57 47 36 39 59 68 60 56 54 51 46 56 63 69 70 57 45 30 43 58 66 57 59 86 109 110 96 72 49 37 35 35 71 98 89 65 37 31 33 35 40 51 54 65 109 126 101 71 41 20 26 53 74 66 68 82 69 51 
224 225 225 225 224 225 226 227 227 226 226 226 227 228 227 226 227 226 227 228 230 230 229 229 230 229 229 230 230 230 231 234 231 231 231 232 232 231 230 230 232 232 231 231 232 233 232 231 231 232 232 233 233 232 231 231 231 231 232 232 232 232 232 232 232 233 233 233 233 233 233 232 233 233 233 233 233 234 233 232 232 232 232 232 232 233 233 233 232 232 231 231 231 231 231 231 229 229 230 230 229 229 229 229 228 227 227 227 227 227 226 226 227 228 228 227 227 227 226 224 226 225 224 223 224 224 223 222 220 221 222 223 223 223 221 220 218 224 165 87 119 134 77 80 115 117 93 100 122 90 105 150 139 102 94 130 116 122 121 122 137 119 103 141 123 153 138 134 129 132 126 96 81 71 53 56 57 56 54 53 74 85 65 56 66 98 107 104 110 162 105 69 90 91 109 163 156 70 73 116 145 169 205 160 77 109 111 114 119 131 189 230 187 125 86 109 124 199 200 185 150 124 122 112 146 162 155 106 118 150 162 128 110 150 138 107 98 134 155 162 109 89 125 138 166 159 101 132 128 112 124 148 141 136 137 91 91 148 147 88 100 128 123 94 120 140 140 104 120 127 117 124 108 94 75 66 60 56 54 60 58 59 52 51 58 63 66 62 55 53 48 48 52 53 52 53 59 61 59 52 49 52 56 56 55 50 45 46 43 42 49 50 52 50 44 43 57 71 73 77 88 92 96 121 134 120 116 115 126 140 132 112 104 112 122 119 110 90 84 84 74 57 43 43 39 48 57 48 36 41 50 57 64 74 70 75 71 61 50 31 42 71 85 79 79 87 92 95 95 92 70 50 43 50 93 97 63 41 24 23 33 39 49 58 64 82 110 108 73 37 21 27 46 62 55 39 55 80 72 50 
224 225 226 226 226 226 226 226 227 226 226 226 228 228 227 226 228 228 228 229 229 229 229 228 230 229 229 230 230 230 231 232 232 231 232 233 233 231 231 231 232 232 231 231 231 232 232 232 232 233 233 233 233 233 233 232 233 233 233 233 233 233 233 233 232 233 234 234 233 233 233 234 233 234 234 234 234 234 234 233 232 232 232 233 233 233 233 234 232 232 232 232 231 231 231 232 229 230 230 230 229 229 229 229 230 229 228 228 229 229 228 226 227 227 227 227 227 228 227 225 227 226 225 224 224 223 222 222 226 224 222 219 219 219 218 216 217 224 152 80 113 83 83 97 93 102 130 129 124 105 43 103 159 145 105 110 117 131 146 146 141 134 112 99 131 171 181 126 126 143 94 97 89 61 39 52 57 65 65 76 91 91 59 67 98 96 119 118 135 114 64 86 87 87 115 170 218 151 67 121 156 170 194 171 154 130 132 125 126 159 229 199 190 178 187 168 162 159 173 172 116 96 116 111 138 149 144 117 132 157 164 128 91 119 153 136 94 128 157 153 138 119 146 160 157 126 82 127 155 88 107 136 125 140 140 141 144 142 135 92 102 138 131 93 121 139 124 100 108 98 90 90 72 64 58 63 61 61 58 59 60 60 55 52 56 60 58 54 51 47 49 48 48 48 43 46 48 46 42 40 43 49 52 51 50 49 46 44 36 32 39 44 51 54 54 47 42 42 46 51 64 84 99 122 143 146 136 115 117 131 128 110 99 104 114 119 125 103 81 69 60 51 48 46 42 54 58 42 28 31 48 69 86 85 65 62 64 73 64 41 39 55 70 81 86 76 63 62 68 82 80 63 58 72 83 72 42 28 32 32 31 32 45 47 74 110 111 85 55 40 45 43 53 45 30 35 55 63 58 45 
226 226 226 228 228 228 226 225 228 228 228 228 229 229 229 229 229 229 229 229 228 229 229 230 230 230 230 231 231 230 230 231 232 231 232 233 233 232 232 232 232 232 232 232 231 231 232 233 233 233 233 233 233 234 234 234 234 233 233 232 232 232 233 233 232 233 234 234 233 233 233 234 233 234 235 234 234 234 234 233 233 233 233 233 233 233 234 234 233 233 233 233 232 232 232 232 231 231 232 231 230 229 229 230 229 229 229 229 230 230 230 229 227 227 227 227 227 228 227 225 226 226 226 225 223 223 223 223 221 223 223 223 222 222 221 219 220 224 149 79 83 103 106 98 91 110 109 124 109 110 103 72 129 155 126 115 111 147 144 115 127 102 121 154 155 127 139 137 155 132 111 109 67 36 62 60 74 89 78 85 81 83 63 98 108 102 121 147 113 61 56 75 76 78 103 151 189 183 64 103 151 161 165 177 175 128 123 133 141 207 211 182 186 169 183 184 176 160 157 144 152 187 179 120 112 145 174 122 126 160 160 141 147 172 183 144 98 133 141 136 164 171 154 146 139 136 130 163 179 113 97 133 133 129 127 133 134 119 129 142 147 146 138 134 130 123 119 102 101 67 65 60 58 56 56 62 59 63 62 62 59 57 54 52 56 59 57 57 56 48 50 47 45 46 43 47 41 36 33 35 42 49 52 53 48 50 49 44 34 30 36 38 41 44 46 45 42 40 42 42 52 69 83 102 116 118 113 100 91 108 116 113 112 116 122 124 119 96 75 74 72 65 61 56 47 46 47 45 38 32 48 83 99 80 54 46 58 86 87 72 62 56 59 70 72 59 51 54 62 75 73 57 56 73 66 57 38 22 44 54 43 41 52 47 52 81 83 58 39 52 71 61 50 38 33 51 58 51 51 47 
227 226 227 229 230 229 227 226 228 228 229 229 229 229 229 230 228 229 229 228 228 229 231 232 231 231 232 233 232 231 230 230 232 232 232 233 233 232 233 233 233 233 233 233 232 232 233 234 234 233 233 233 233 234 234 235 234 233 232 231 231 232 233 233 233 233 234 235 234 233 233 234 234 235 235 234 234 234 235 234 234 234 234 233 233 234 234 234 233 234 234 233 232 232 232 233 233 233 233 232 231 231 231 232 230 230 230 230 230 230 230 230 229 229 228 227 227 228 227 225 225 226 226 225 224 223 224 225 223 224 223 220 218 219 219 218 215 223 150 92 77 88 111 127 127 149 116 98 130 110 107 97 62 130 136 126 111 106 112 122 106 144 149 133 135 132 107 136 125 104 122 98 108 95 65 71 82 82 86 83 81 83 92 106 97 108 144 121 60 46 23 59 71 104 108 141 184 204 87 62 131 138 157 176 142 122 130 131 167 215 189 190 182 162 152 172 168 161 151 140 164 194 185 117 87 133 151 112 145 159 154 150 169 172 172 140 75 116 142 128 140 156 147 138 110 140 163 154 153 108 71 103 117 96 103 127 119 111 107 123 112 109 121 128 96 96 115 103 81 60 58 60 55 55 58 63 59 57 57 59 63 60 58 56 56 55 50 53 59 52 55 53 50 51 49 50 45 40 36 38 44 49 53 56 60 59 52 43 35 34 40 39 37 36 33 36 39 38 38 35 39 50 58 65 70 77 91 99 102 109 109 116 127 134 137 134 115 78 67 92 101 85 70 60 44 34 31 38 44 42 51 79 88 68 52 47 56 82 97 102 93 87 86 86 76 64 63 68 84 92 78 62 57 61 56 53 35 25 54 65 54 64 76 63 50 45 44 36 48 66 65 71 80 67 54 53 50 50 55 49 
228 227 228 229 230 229 228 229 228 228 228 229 229 229 230 230 228 230 230 229 230 231 231 231 232 231 232 233 233 232 231 231 233 233 232 233 233 233 234 235 234 233 233 234 234 233 233 234 233 233 233 233 234 234 234 234 233 233 233 233 234 234 235 235 235 234 234 235 235 234 234 235 234 235 235 234 234 235 235 235 235 235 235 234 234 234 234 234 234 234 234 234 233 232 233 234 234 234 233 232 232 232 232 233 231 232 232 231 230 229 230 230 230 230 229 228 227 228 228 227 226 227 227 226 225 225 225 225 228 225 221 220 223 223 217 209 210 186 130 104 100 104 123 121 150 143 119 98 113 113 101 113 67 69 127 144 148 102 106 127 100 134 158 112 92 110 134 109 107 112 97 93 123 94 63 104 86 65 82 87 86 86 101 71 91 127 135 91 60 25 24 43 62 100 131 156 186 207 118 52 110 113 141 151 124 128 152 137 132 183 188 176 175 139 154 172 169 92 103 151 163 153 150 145 85 94 116 98 109 134 137 156 174 166 171 136 128 155 169 122 127 140 134 116 99 133 137 131 130 122 144 131 131 128 97 102 85 97 115 115 84 93 115 122 126 144 134 117 72 50 57 56 61 57 58 58 57 50 51 56 59 58 59 57 56 53 47 50 52 49 53 54 51 51 50 48 54 51 47 46 49 53 56 57 60 59 54 48 42 40 42 38 41 41 35 38 42 40 40 39 39 46 49 47 47 63 91 109 132 123 105 114 135 144 146 135 114 75 78 114 120 95 70 56 39 36 39 51 65 63 55 60 66 56 54 57 59 66 81 84 81 95 107 105 92 77 71 71 85 90 90 78 66 50 52 53 43 36 55 59 52 73 80 64 53 47 52 51 59 56 51 89 116 92 61 45 47 53 54 45 
228 228 228 229 229 228 229 231 229 229 229 230 231 231 231 230 230 231 231 230 231 232 231 229 232 231 231 232 232 232 232 233 235 234 233 233 234 233 234 235 235 233 232 234 234 234 233 234 232 232 233 234 234 234 234 234 234 235 235 236 237 237 237 238 236 235 235 236 236 235 234 235 235 236 236 235 234 235 236 236 236 236 236 235 235 234 234 234 234 234 235 234 233 233 233 234 235 234 232 232 232 232 233 234 230 231 233 232 231 231 232 233 229 230 229 228 227 228 229 229 229 229 228 227 226 225 224 224 223 221 220 223 220 199 160 127 129 116 109 104 118 121 124 120 96 128 137 127 104 73 110 137 112 72 55 113 143 143 144 130 126 96 111 130 145 148 110 92 100 103 92 88 84 84 97 120 126 127 90 90 106 105 84 81 127 131 103 94 55 24 25 34 70 120 125 160 191 206 142 62 99 109 112 114 117 124 157 178 130 151 183 164 135 129 158 166 140 124 120 149 160 150 157 157 184 152 124 120 115 126 111 141 153 144 156 137 158 171 146 91 107 126 145 112 91 118 115 139 101 103 145 138 133 145 140 130 121 106 122 111 86 106 125 159 189 183 164 130 91 58 51 58 56 55 57 56 60 54 54 55 59 59 61 57 57 57 52 56 54 52 53 52 49 52 57 55 56 56 53 49 50 55 56 54 53 54 52 50 45 43 46 44 43 44 37 41 47 44 43 42 45 44 42 39 36 48 76 97 118 104 84 104 137 150 150 132 107 84 103 134 125 95 69 54 48 44 52 71 85 76 55 52 59 51 46 52 61 63 76 66 53 81 104 110 104 88 75 72 69 66 85 70 57 41 56 71 66 46 47 52 49 66 62 49 47 46 60 67 60 46 51 84 114 83 49 42 52 52 41 37 
229 230 230 230 229 230 230 230 229 229 230 233 233 230 229 231 231 231 232 232 231 230 231 231 235 234 233 232 231 231 231 232 231 233 235 235 234 234 235 236 234 233 232 233 233 233 233 234 234 234 234 233 234 234 235 235 235 235 235 235 235 235 235 235 236 235 234 234 235 235 236 235 236 236 235 236 236 236 236 236 234 235 235 235 236 237 237 236 237 235 234 234 235 236 235 233 233 235 235 233 232 233 233 232 232 232 232 231 231 231 230 230 232 230 228 230 231 230 231 227 229 225 229 231 225 225 229 225 220 228 219 204 170 114 117 118 107 107 122 130 110 94 112 135 112 98 128 130 137 94 75 140 130 127 76 48 104 140 124 128 154 142 107 125 153 133 100 98 64 90 85 90 101 105 109 122 115 113 110 111 106 102 105 119 121 108 106 85 47 27 26 45 70 125 130 152 182 207 158 67 92 103 69 79 110 135 194 193 150 99 127 137 166 143 92 135 164 182 157 169 152 147 138 144 183 172 151 155 174 164 132 104 112 105 111 139 156 149 125 114 107 124 150 157 103 96 142 155 93 97 120 105 124 110 100 110 114 109 101 116 165 188 199 213 206 186 163 136 103 73 57 60 55 55 57 57 55 56 59 60 57 61 59 59 58 57 60 57 55 53 48 51 52 52 56 51 43 43 49 53 54 56 52 41 41 45 50 52 52 50 46 42 41 45 46 41 46 48 39 36 38 41 38 28 29 36 48 68 83 73 59 70 104 135 132 130 106 85 98 124 133 107 73 48 50 49 58 74 85 71 48 49 66 65 57 54 49 64 68 54 44 49 96 114 104 94 81 61 53 51 63 56 42 37 47 87 97 74 57 56 52 55 41 28 42 50 54 56 51 43 60 93 84 58 48 55 62 45 21 29 
231 231 230 230 230 230 230 230 231 230 231 233 233 231 231 233 231 231 232 232 232 232 232 232 234 234 234 233 233 233 232 232 232 233 235 235 234 234 235 236 234 233 234 234 234 233 234 236 236 235 235 235 235 235 236 236 236 236 236 236 236 236 236 236 236 236 235 235 236 236 236 236 237 236 236 237 237 237 237 237 234 235 236 236 236 237 237 236 237 236 235 235 236 236 235 235 234 235 235 233 233 234 233 232 233 233 233 233 233 232 232 232 229 230 230 231 229 228 232 230 227 226 232 227 228 230 222 224 229 206 160 117 113 123 132 148 130 110 113 121 93 115 109 119 133 131 109 107 116 126 135 138 140 117 120 101 96 128 134 130 122 117 133 125 126 112 110 96 77 93 92 99 102 94 96 103 99 117 99 97 100 101 133 116 116 112 94 83 42 23 23 43 73 118 126 151 177 196 167 113 106 89 67 92 134 181 186 167 162 102 139 169 183 161 99 153 189 168 155 104 107 123 126 164 159 155 137 165 172 169 157 142 143 138 91 101 128 140 154 172 169 102 122 150 138 132 133 135 127 145 114 96 110 74 96 126 123 145 175 202 226 223 217 217 209 188 164 137 107 79 60 58 54 53 54 55 55 56 58 58 56 58 55 56 57 60 64 62 59 57 53 53 51 49 52 48 41 44 50 51 48 50 51 47 39 44 49 51 52 51 47 42 45 50 50 42 41 39 31 28 28 35 38 35 39 41 43 54 65 79 81 60 60 91 116 123 121 103 98 104 107 104 87 70 55 51 52 52 53 49 41 46 76 84 78 71 62 65 60 48 36 44 75 96 87 78 68 51 47 62 70 52 37 30 39 76 104 89 58 45 45 47 50 53 45 59 51 43 43 56 78 81 56 40 45 59 60 42 23 27 
231 230 230 230 231 232 231 231 233 232 232 233 232 231 232 234 232 232 232 233 233 234 234 234 233 234 234 234 234 234 234 233 233 234 234 234 234 235 235 236 234 234 235 235 234 234 235 237 237 236 236 235 235 236 236 237 236 236 236 236 236 236 236 236 237 237 237 236 237 237 237 236 236 236 236 236 237 237 237 236 235 236 236 236 236 237 237 237 236 236 236 236 236 235 235 235 236 236 235 234 235 235 234 233 234 234 234 234 234 233 233 233 230 231 232 235 232 230 232 229 226 230 229 222 225 227 224 229 206 127 98 114 118 129 121 118 117 111 112 109 95 113 128 124 151 133 147 106 127 135 139 130 147 141 140 134 122 127 150 166 122 117 130 131 126 109 95 81 80 110 110 109 123 109 104 120 115 120 99 109 117 128 134 126 124 102 88 82 94 116 126 66 50 111 127 139 175 191 159 120 111 70 92 112 170 185 158 170 150 185 190 170 175 150 135 130 172 175 136 106 127 126 132 156 152 122 125 145 158 150 135 162 165 161 108 121 119 134 150 153 122 90 113 99 108 121 108 111 119 97 89 112 119 124 191 221 219 221 229 226 221 216 219 218 209 189 165 136 106 80 62 59 55 56 56 56 56 56 57 58 60 59 53 52 55 58 62 59 62 59 53 49 44 43 50 51 48 49 51 50 46 47 49 48 47 47 44 42 44 49 48 44 45 48 48 42 38 37 33 34 29 35 39 37 40 40 40 48 68 82 94 67 51 75 115 128 132 130 114 92 82 106 109 98 80 71 59 39 28 35 44 48 64 77 77 79 85 88 75 59 52 59 59 67 58 56 57 47 43 66 69 52 45 36 40 69 84 74 48 34 33 44 68 67 59 58 52 46 45 61 73 61 43 34 40 50 45 33 29 33 
230 230 229 230 231 232 232 232 233 232 232 232 232 232 233 235 233 233 233 233 234 235 235 234 233 233 234 234 235 235 234 234 235 234 234 234 235 235 235 236 235 235 236 236 235 235 236 237 237 236 235 235 235 236 236 237 236 237 237 237 236 236 236 236 238 238 237 237 237 237 237 237 236 236 236 236 237 237 237 237 236 237 237 236 237 237 238 237 235 236 237 237 236 235 235 235 238 237 236 236 236 237 235 234 234 234 235 235 234 234 233 232 236 234 231 232 230 229 231 227 228 224 226 233 223 225 219 167 109 96 104 127 119 121 112 89 101 124 117 121 123 135 142 123 142 139 178 148 129 146 125 134 128 132 140 121 115 134 130 125 109 123 125 110 123 105 116 114 126 129 128 126 130 125 129 128 122 106 111 126 143 133 129 121 117 108 104 89 134 165 204 166 54 95 127 131 161 175 161 130 84 107 113 133 171 148 135 156 162 167 182 179 152 152 140 94 155 159 129 176 200 134 94 118 128 119 115 142 149 123 132 147 145 140 157 169 121 101 121 127 110 106 100 70 88 92 88 101 131 136 151 178 211 227 227 224 232 228 228 226 224 225 225 218 211 191 165 133 98 70 56 60 55 58 59 57 54 52 52 54 53 53 47 47 50 54 57 55 58 54 50 46 42 43 50 53 58 53 50 50 51 52 49 46 54 51 43 36 40 49 51 47 48 45 45 41 39 37 36 41 44 45 44 38 35 36 38 48 59 60 66 55 55 86 121 132 132 139 128 102 95 122 132 124 113 99 78 50 35 50 65 63 48 56 57 65 82 98 96 82 75 78 56 51 48 53 70 67 51 62 59 54 54 42 38 54 66 58 45 32 33 47 67 56 49 59 88 72 47 56 54 44 43 43 44 48 43 34 31 29 
231 231 230 231 232 233 233 232 232 232 232 233 232 232 232 233 234 233 234 234 234 235 234 234 234 234 234 234 235 235 235 236 236 235 234 234 235 236 236 235 236 236 236 236 236 237 236 235 236 236 235 235 235 236 237 238 237 237 237 237 237 237 236 236 238 238 238 238 237 237 237 237 237 237 237 238 238 239 238 238 237 238 238 237 237 238 238 238 237 238 239 239 238 237 237 237 238 237 236 236 237 237 236 235 235 235 236 236 235 234 233 232 232 233 233 236 234 232 233 229 226 230 222 223 227 224 181 98 91 118 123 119 110 118 127 104 116 135 134 135 130 137 144 146 147 143 149 136 138 128 138 123 117 129 145 124 116 133 126 117 106 105 93 82 102 113 140 135 135 135 131 128 134 126 124 121 126 112 138 137 106 121 116 114 107 99 88 82 116 161 205 210 82 57 112 137 145 154 169 143 100 129 96 104 151 158 150 152 128 145 172 172 148 171 167 71 106 134 116 137 175 151 135 147 170 141 101 143 126 100 131 136 113 101 132 131 87 107 113 130 127 108 102 120 144 149 174 197 220 237 234 233 230 232 232 230 226 228 226 225 225 227 224 221 214 191 164 131 92 58 45 53 53 56 55 53 52 49 46 47 48 48 45 45 47 48 50 47 54 52 56 58 57 57 55 54 54 50 47 52 56 53 45 39 47 50 49 45 45 50 52 50 47 39 40 43 43 40 38 43 52 48 45 39 36 36 35 40 44 45 39 32 48 94 122 130 125 125 125 115 120 133 135 128 121 105 82 58 48 63 75 67 49 53 54 54 62 81 97 90 80 76 52 47 55 59 82 84 73 71 64 61 53 37 33 37 49 47 43 35 44 48 50 49 44 57 99 88 53 49 42 34 46 51 46 45 48 43 33 26 
233 233 233 232 232 233 233 233 232 232 233 233 233 232 233 233 234 234 235 235 234 234 234 234 235 235 235 235 235 236 236 236 236 236 235 235 235 236 235 235 237 237 236 236 237 238 237 235 237 237 236 236 237 237 238 238 238 238 238 238 238 237 237 237 237 238 238 238 238 237 237 237 237 237 237 238 238 239 238 238 238 238 238 237 237 239 239 239 238 238 239 239 238 238 238 238 238 236 236 236 237 237 236 236 237 237 237 237 236 235 235 234 234 235 234 234 230 228 232 230 232 229 232 230 203 145 102 105 123 116 109 114 121 117 124 120 129 129 133 152 135 114 122 132 140 151 130 113 130 123 123 123 122 128 118 105 103 101 106 122 119 113 108 105 106 124 125 117 116 133 131 118 127 131 119 105 128 141 125 110 109 96 99 76 98 93 86 83 99 156 197 207 108 38 82 112 128 150 167 138 135 177 170 118 119 170 155 138 107 124 160 144 169 183 161 132 143 121 76 105 137 145 176 169 156 138 86 132 135 88 115 134 103 87 135 129 84 114 108 107 132 145 180 214 223 226 234 233 232 233 227 234 233 228 227 233 230 234 230 227 225 225 221 223 214 187 160 128 89 52 37 44 52 55 53 52 55 51 46 46 48 51 49 50 51 51 52 48 50 48 55 61 63 62 54 49 44 45 48 52 52 42 33 31 42 51 56 51 45 45 48 51 45 37 41 47 47 44 39 41 46 39 36 35 38 39 35 34 43 44 34 27 40 77 97 108 104 112 122 117 126 133 134 126 117 103 82 66 57 58 60 54 52 59 68 69 72 84 96 84 75 60 45 47 62 69 87 88 82 79 76 67 46 30 31 32 33 31 41 47 51 49 49 54 56 54 70 68 44 38 41 31 45 46 37 33 42 44 34 31 
232 233 233 233 233 233 233 234 233 234 234 234 233 233 234 234 234 235 236 236 234 234 235 235 235 235 236 236 236 236 235 235 236 236 236 236 236 235 235 235 237 238 238 237 238 239 238 236 237 237 238 238 238 238 238 238 238 238 238 238 238 237 237 237 237 238 239 239 238 238 238 238 237 237 237 237 238 238 238 238 238 239 238 238 238 239 240 239 239 239 239 239 238 238 238 239 237 236 236 237 238 237 237 238 237 237 237 237 237 237 237 236 236 235 232 234 232 231 233 230 226 192 182 165 127 103 97 105 110 125 117 111 122 128 138 138 125 122 109 138 130 134 123 122 135 144 132 104 131 157 124 123 125 108 110 95 98 118 114 121 115 118 128 113 122 125 115 84 108 147 134 115 144 159 140 138 114 110 115 118 91 75 62 45 91 90 78 74 104 142 177 202 103 38 77 109 128 150 147 134 170 195 185 156 99 128 132 143 141 103 122 127 160 167 138 178 185 169 101 99 129 153 157 149 147 131 153 152 127 123 138 142 122 107 121 101 133 125 136 170 207 210 219 220 223 231 233 230 231 229 236 234 229 236 230 231 227 230 228 231 229 229 223 222 209 184 157 125 84 47 30 36 48 55 56 55 56 50 46 50 47 51 50 53 56 58 60 56 47 41 47 52 55 54 44 39 42 48 52 52 45 32 27 34 45 51 53 46 39 39 45 50 53 46 47 46 42 42 39 37 42 34 33 35 39 42 39 37 41 36 32 29 32 46 62 80 86 105 119 114 115 123 126 126 123 116 101 92 78 58 51 53 55 65 75 80 90 97 97 79 69 51 43 47 65 87 94 83 64 65 72 65 43 29 29 31 35 36 48 58 49 51 60 62 54 57 60 45 24 33 47 40 37 31 30 30 36 37 29 32 
230 231 233 233 232 233 234 236 235 235 235 234 234 234 235 235 234 236 237 236 235 234 235 237 234 235 236 236 236 235 234 233 236 236 237 237 236 235 235 235 237 238 239 238 238 239 239 238 237 238 238 238 238 238 238 237 238 238 238 237 237 237 236 236 237 238 239 239 239 238 238 239 238 238 238 238 239 239 239 239 238 239 238 238 238 239 240 240 240 240 240 240 240 240 240 240 238 237 238 239 239 238 238 240 237 237 237 237 237 237 238 238 237 237 236 237 224 198 169 143 129 106 89 99 117 120 115 113 114 114 112 114 107 132 163 126 116 144 163 125 123 144 122 115 128 125 132 124 118 130 131 132 127 125 128 122 118 120 122 132 121 117 117 124 123 122 128 105 95 128 142 135 125 130 126 129 125 107 104 100 101 70 28 42 92 85 78 88 109 150 189 199 96 35 82 125 118 123 132 166 186 174 186 177 121 102 126 171 173 152 162 117 126 127 128 155 164 159 160 173 134 119 149 142 118 131 147 127 104 125 118 120 120 125 131 152 190 193 201 209 210 214 225 227 228 227 231 233 235 233 235 236 232 234 234 234 232 230 228 232 227 229 226 224 207 185 158 122 78 40 24 30 40 53 59 56 51 44 43 52 53 55 52 52 53 53 53 48 50 43 48 53 56 54 42 36 48 54 57 53 43 31 32 45 49 49 47 41 38 40 45 50 52 47 46 39 35 43 46 44 45 39 41 42 42 43 41 41 43 38 44 38 35 41 64 84 92 100 108 110 100 96 94 107 125 127 120 116 98 64 53 64 66 73 73 70 84 91 91 77 67 52 46 44 58 93 85 58 49 51 65 67 52 36 27 30 37 53 47 47 44 53 67 71 58 51 59 49 33 39 47 53 38 24 29 30 29 29 26 35 
231 231 231 232 233 233 233 232 235 234 233 233 233 234 235 236 236 236 236 234 234 235 236 236 237 237 236 235 235 235 235 235 238 237 236 236 237 238 237 237 237 237 237 237 236 236 238 240 236 237 238 239 238 238 238 238 237 238 238 238 238 238 238 238 237 238 238 238 238 238 238 238 238 240 240 239 238 239 240 240 237 239 240 239 238 239 240 240 239 239 239 239 240 240 239 238 242 240 239 238 238 238 239 239 234 242 234 240 237 240 238 240 240 235 224 208 156 122 114 110 101 113 110 115 118 108 110 118 112 101 116 126 91 112 121 112 119 133 138 122 102 108 125 118 125 119 120 127 123 127 141 135 138 144 142 143 143 138 128 112 115 133 115 97 96 104 125 136 130 136 134 102 90 113 125 129 115 94 80 87 91 39 28 45 81 85 96 99 116 153 183 193 81 37 87 106 114 130 165 213 194 174 173 155 137 154 137 154 157 177 171 138 112 111 114 153 150 140 181 191 143 85 122 126 92 117 139 110 81 101 133 153 166 174 184 192 196 200 205 210 219 222 226 228 229 230 231 233 232 232 232 232 234 234 233 232 231 232 231 231 230 229 229 222 206 181 150 116 71 35 24 17 30 42 57 61 53 47 48 49 54 53 52 51 50 48 45 43 47 51 52 53 58 60 52 44 45 51 54 49 43 37 37 42 50 44 39 40 42 42 43 47 45 40 41 44 45 45 48 51 48 47 44 47 51 48 42 41 44 46 46 49 43 40 62 83 95 91 95 86 89 90 78 89 119 126 134 127 111 79 60 64 80 84 54 50 60 73 77 63 54 58 59 62 63 64 63 52 46 42 50 54 44 43 44 33 39 47 48 39 46 63 70 71 65 49 43 54 58 52 48 41 25 28 34 36 27 20 31 48 
235 235 235 235 235 235 235 234 233 233 233 234 234 234 234 234 236 236 236 235 235 236 236 236 236 236 237 237 237 236 236 235 237 236 235 235 236 237 237 236 236 237 238 238 238 238 239 239 238 238 239 239 238 238 238 238 239 239 239 238 238 237 237 237 238 239 239 239 239 239 239 239 238 240 240 239 238 239 240 240 240 241 241 240 239 240 241 242 240 240 240 240 240 240 240 239 242 241 240 239 239 240 240 240 243 234 244 240 239 236 238 240 239 210 147 123 120 103 104 122 118 129 121 103 100 113 119 106 109 108 112 126 115 125 120 106 114 112 125 137 120 109 122 128 125 136 133 139 154 147 142 156 148 157 157 157 159 158 147 128 97 118 127 127 124 130 140 132 122 118 106 96 101 105 107 115 93 78 78 92 54 27 38 54 68 88 97 99 123 150 180 178 70 64 79 98 124 139 198 216 169 174 158 143 159 174 106 102 144 168 167 159 159 140 101 98 116 146 164 159 134 116 142 131 130 132 133 113 108 138 162 173 177 183 192 199 203 208 214 218 223 225 228 230 231 231 232 233 233 233 233 233 234 233 232 231 231 232 231 232 230 229 229 223 205 180 147 113 68 36 26 21 24 35 53 62 57 49 45 45 49 51 51 49 49 48 43 38 46 51 54 53 56 57 54 52 48 47 44 43 48 51 49 49 44 44 38 40 50 48 39 36 43 41 44 47 46 46 49 50 48 45 43 41 38 40 44 44 49 49 46 47 45 42 51 57 65 61 65 71 85 88 76 85 114 119 130 127 117 90 69 64 80 80 53 43 47 58 62 53 46 54 68 69 59 52 43 36 41 43 44 39 36 43 46 38 36 39 43 43 48 53 53 57 58 53 50 58 65 63 52 36 33 35 36 34 32 33 39 44 
234 234 234 234 235 236 236 236 234 234 235 236 236 236 235 235 235 236 236 235 235 236 236 235 236 236 237 238 238 238 237 237 237 237 236 236 236 237 237 237 236 237 238 239 240 240 239 239 239 239 239 239 239 239 239 238 239 239 239 239 238 238 238 238 239 239 239 240 240 240 240 240 239 240 240 239 239 240 241 241 240 241 241 240 239 240 241 241 240 241 241 241 241 240 240 240 242 241 240 240 241 241 241 241 239 246 233 240 241 239 242 240 206 126 104 124 129 115 109 123 111 105 109 108 102 112 122 121 124 130 131 143 142 141 142 134 145 132 119 129 142 140 141 148 138 149 153 154 165 166 158 160 156 162 161 159 157 155 148 135 127 132 136 136 135 134 119 97 97 99 101 101 91 87 94 92 78 77 88 90 45 26 38 57 67 89 106 107 118 135 183 171 53 66 74 102 132 162 213 187 155 159 138 140 170 162 120 106 140 161 139 118 138 160 165 127 128 164 156 139 121 147 124 114 120 106 117 144 164 170 170 182 187 192 200 206 211 216 221 224 227 229 231 232 232 232 233 234 234 233 233 233 234 234 233 232 232 232 231 231 230 230 230 224 206 179 144 109 65 35 28 24 19 24 39 51 52 47 43 42 39 44 47 47 49 52 50 45 43 48 50 51 52 52 51 53 49 49 45 44 49 54 54 52 47 50 40 37 48 45 32 28 37 39 44 46 44 44 47 47 49 49 48 40 32 37 47 51 50 48 40 39 42 44 44 37 35 38 48 64 86 92 80 76 89 102 119 120 124 118 96 70 69 68 51 42 41 50 53 48 52 51 62 60 51 49 42 37 36 39 36 32 38 45 44 37 33 39 50 56 56 48 37 37 43 52 56 60 60 54 45 36 38 39 37 34 40 48 45 35 
232 232 232 233 234 235 236 236 236 236 236 236 236 236 236 236 234 235 236 235 236 236 236 235 237 237 237 237 237 238 238 239 238 238 238 237 237 237 238 239 237 237 238 240 241 240 239 239 240 239 238 239 239 240 239 239 239 239 239 239 238 239 239 240 239 239 239 239 240 240 240 240 241 241 241 240 240 241 241 241 240 241 241 241 240 240 241 241 240 241 242 241 241 240 241 241 241 241 241 241 241 241 241 241 241 240 245 241 241 237 239 215 128 96 117 128 129 125 110 105 103 93 105 115 122 139 146 149 151 146 147 152 148 136 133 125 132 146 145 140 148 159 171 186 168 158 162 156 147 152 146 130 126 127 126 125 119 114 115 116 116 127 136 133 129 116 100 101 98 97 101 94 80 85 90 76 73 78 83 66 35 27 28 39 58 90 111 98 105 137 188 173 71 88 107 129 144 177 183 163 169 153 116 120 164 132 144 129 108 127 124 113 153 163 161 123 126 144 146 118 111 112 97 114 135 149 164 165 169 176 177 184 193 199 207 213 217 221 224 226 230 231 232 233 232 232 233 234 232 232 232 233 234 234 233 232 232 232 230 231 230 229 230 223 205 178 143 107 63 33 27 22 16 17 26 39 47 50 48 43 42 46 48 47 47 48 47 45 45 46 47 50 53 52 49 51 49 53 51 47 49 52 52 51 48 51 44 40 44 41 34 34 38 41 44 43 39 41 44 43 49 52 52 45 38 39 46 52 52 46 36 32 37 43 41 34 29 40 53 65 80 95 92 74 63 74 95 101 114 123 108 77 70 64 56 46 42 49 53 53 45 48 61 63 52 50 52 52 37 35 37 44 51 48 39 32 31 41 54 58 60 56 41 34 34 49 59 64 57 41 37 41 36 34 29 29 39 48 41 27 
235 234 233 233 234 234 234 234 236 236 235 235 236 236 236 235 234 236 236 236 237 237 237 236 237 237 237 237 237 237 238 238 238 239 238 238 238 238 239 239 238 238 238 239 240 240 239 238 240 239 238 239 240 240 240 239 239 240 239 239 239 239 240 241 239 239 239 240 240 240 240 240 241 241 240 240 241 241 241 241 240 241 242 242 242 242 242 242 241 241 242 241 241 240 241 242 241 242 242 242 241 241 241 240 241 240 243 240 237 237 218 131 95 112 123 132 133 110 112 120 118 118 129 133 144 159 164 177 192 166 156 153 160 147 133 127 119 136 164 171 157 154 159 155 146 127 123 118 109 105 100 98 96 97 103 107 109 110 114 121 120 111 112 118 123 114 97 101 108 110 116 109 104 102 88 81 75 67 85 76 30 9 9 17 52 88 108 92 116 149 171 172 139 143 171 173 139 144 152 155 148 130 124 121 133 116 153 153 109 127 161 127 145 159 138 69 92 125 128 113 121 124 147 157 163 162 162 165 174 180 185 197 200 207 214 218 221 224 227 229 231 232 233 233 233 233 234 234 232 232 232 233 233 233 233 232 232 232 230 231 230 229 230 223 203 177 143 106 62 32 25 20 16 16 21 32 45 56 55 46 45 47 48 48 44 41 41 42 44 44 44 47 50 48 46 49 51 52 49 46 50 54 52 47 40 41 47 51 50 48 47 45 46 45 45 40 37 39 42 40 44 48 48 45 42 38 39 47 52 46 40 36 38 40 38 36 38 48 60 62 62 82 94 75 58 58 77 89 96 97 92 79 74 68 65 57 51 48 46 46 45 53 58 65 58 53 62 58 48 42 48 58 56 48 41 35 34 37 40 42 53 62 53 44 34 44 50 58 55 40 35 39 36 31 29 33 43 48 42 34 
234 234 234 234 235 235 235 235 236 236 236 237 238 237 236 234 235 236 237 237 237 238 238 237 236 237 237 238 238 238 237 237 239 238 238 238 238 238 239 239 238 238 239 239 239 239 239 239 239 239 239 239 240 240 240 240 241 241 241 240 239 239 240 240 240 240 240 240 241 241 241 241 241 240 240 240 241 241 241 241 240 240 241 242 243 242 241 242 242 242 242 241 241 241 241 242 242 243 243 243 242 242 241 242 243 241 241 236 242 228 143 95 102 117 112 107 114 112 121 128 136 140 150 157 169 166 161 183 184 164 151 142 159 149 137 146 146 133 135 134 126 125 119 105 98 93 93 95 98 102 106 112 104 107 113 113 115 118 114 112 112 97 104 112 110 110 114 121 123 120 125 111 101 104 102 107 83 69 96 70 49 118 64 33 46 75 113 102 129 162 165 170 166 179 198 192 142 93 112 114 138 153 168 130 114 138 131 136 150 155 142 115 147 150 146 103 99 136 123 123 145 160 155 164 158 166 172 178 184 188 193 203 209 214 219 222 223 227 230 232 232 233 233 233 233 233 234 234 233 233 233 233 233 232 232 231 233 233 230 231 230 230 230 222 200 176 143 106 62 32 26 22 18 17 17 21 34 50 56 51 43 44 46 48 45 41 40 43 42 43 43 45 47 45 46 51 54 53 49 45 48 50 48 45 41 38 46 54 52 52 53 50 47 42 38 35 34 39 41 39 35 37 37 38 38 36 36 43 41 38 40 43 43 41 36 37 45 50 59 58 50 61 74 65 52 55 76 83 81 75 74 71 67 62 60 55 53 45 42 44 56 61 53 58 58 55 65 59 59 55 58 57 47 43 45 44 41 33 27 29 44 55 48 41 38 41 40 43 43 38 38 37 34 36 41 48 53 51 45 41 
233 233 233 234 235 236 236 236 237 237 237 238 238 238 236 235 235 236 237 237 237 238 238 237 237 238 238 239 239 239 238 238 239 238 237 237 238 238 238 238 237 238 239 240 239 239 239 239 239 240 240 241 240 240 240 240 241 241 241 241 240 240 240 240 240 240 241 241 241 242 242 242 242 241 240 241 242 241 241 242 242 241 241 242 242 241 241 242 243 242 242 242 242 242 242 242 243 243 243 243 243 242 243 243 244 246 242 241 228 148 99 115 123 124 102 85 104 123 124 144 149 156 156 155 167 160 147 161 158 153 148 140 147 132 124 127 124 124 124 116 112 114 109 107 105 109 107 105 104 107 107 100 97 100 105 103 106 111 108 106 102 98 109 116 112 115 122 121 116 108 110 105 98 104 107 104 82 80 88 53 115 167 187 129 34 49 102 90 118 161 173 176 183 205 193 186 178 129 156 165 164 157 148 131 147 144 103 122 151 150 104 104 141 148 162 134 131 119 143 158 156 158 162 162 169 173 175 181 190 197 203 207 214 219 222 224 226 229 231 231 232 233 233 234 233 233 233 234 233 233 233 233 233 232 232 231 233 233 230 231 230 229 229 221 199 176 143 105 60 32 28 25 19 16 14 13 19 35 49 52 48 48 48 47 43 40 39 40 44 44 44 46 49 48 48 51 50 51 48 44 42 41 41 43 48 45 46 46 46 49 51 50 46 37 31 31 35 41 42 38 28 24 28 31 29 35 43 43 35 31 36 42 46 45 38 39 45 49 53 51 47 48 49 48 42 49 67 68 65 62 63 61 62 55 48 43 45 38 43 52 51 64 60 58 55 50 58 59 61 60 54 46 40 39 42 44 44 37 29 25 32 40 35 33 43 42 37 36 34 36 41 39 34 43 52 54 51 48 45 42 
234 234 234 235 236 236 236 236 238 237 236 236 236 237 236 235 234 235 236 236 236 237 237 237 239 239 239 238 239 239 240 240 239 238 237 237 238 239 239 238 236 238 240 241 240 239 239 240 240 241 242 242 241 240 240 241 239 240 241 241 241 241 241 241 240 240 241 241 242 242 242 242 243 241 241 242 243 242 242 243 245 243 242 242 242 242 243 244 244 243 242 242 243 243 243 243 243 243 243 243 243 243 243 244 245 243 243 235 152 98 103 105 115 121 111 114 119 131 143 151 156 165 159 144 134 118 119 149 166 154 146 141 138 125 120 101 102 100 110 110 105 110 109 104 103 111 106 111 121 117 111 106 113 112 114 109 107 110 111 118 108 112 112 112 118 124 118 109 108 105 97 101 107 102 103 110 94 88 84 67 123 165 211 191 42 22 64 67 109 133 149 182 206 195 188 189 174 157 191 170 156 132 135 131 131 114 127 104 106 147 125 113 132 141 125 118 132 158 156 157 159 163 159 168 171 177 183 189 194 200 208 213 217 221 225 226 229 231 232 230 232 232 233 233 233 233 233 233 232 233 233 234 233 233 233 233 232 232 230 231 230 229 228 220 200 176 143 104 59 32 29 27 16 16 16 14 15 26 41 49 50 49 47 43 41 41 41 40 42 40 39 42 48 48 44 42 42 44 42 40 41 40 40 43 48 51 47 41 43 47 50 52 50 39 31 33 40 45 43 37 23 16 24 28 22 35 51 45 41 33 35 39 45 46 39 38 43 48 46 41 46 45 37 42 47 44 52 54 56 55 58 61 57 54 49 47 51 37 38 45 53 62 58 51 51 51 52 55 58 56 44 37 40 38 34 37 41 42 36 22 20 28 31 35 43 37 33 36 35 35 36 30 45 56 60 51 43 45 48 48 
235 236 238 238 238 237 238 238 238 236 235 235 237 238 238 237 236 235 235 236 237 238 238 238 237 239 240 240 239 240 239 239 240 240 239 240 240 240 239 238 239 239 239 239 239 239 239 239 240 240 241 241 242 241 241 240 240 241 241 241 241 241 241 240 241 241 241 241 241 241 241 241 243 242 241 241 242 242 241 241 242 242 242 242 243 243 243 243 241 242 242 243 243 243 242 242 244 244 243 245 244 242 245 242 242 240 239 186 92 102 97 87 98 124 123 117 128 149 150 149 150 159 159 137 117 117 131 152 151 138 138 139 122 107 102 100 98 92 108 111 111 117 112 114 113 112 109 113 120 119 113 112 126 120 134 120 108 112 121 122 118 113 107 113 119 114 109 106 102 96 104 104 107 105 94 76 94 100 52 61 128 174 192 190 49 11 44 42 79 132 135 190 201 189 189 181 162 141 173 162 142 125 126 121 100 119 144 126 143 158 133 87 94 118 127 151 159 156 157 161 162 161 163 169 175 180 186 192 199 204 210 217 220 222 226 228 229 230 232 233 233 232 232 232 232 231 232 234 233 233 232 232 232 232 233 233 232 231 231 231 229 229 227 223 199 176 144 107 57 34 27 24 18 16 15 14 15 20 31 43 47 51 41 40 42 45 41 50 45 43 44 45 43 41 38 33 35 37 39 45 47 43 44 43 53 51 47 43 44 48 48 45 45 41 35 38 43 43 37 27 17 24 34 33 28 38 49 49 47 39 42 46 38 37 44 45 44 45 42 39 43 46 41 35 40 41 50 54 48 52 65 71 70 64 53 51 53 44 38 45 48 55 51 43 41 46 55 58 47 41 38 32 35 39 33 33 46 43 35 20 23 33 42 38 42 35 36 40 34 38 37 39 66 72 65 51 40 43 47 32 
236 236 237 237 237 237 237 236 238 237 237 236 237 237 237 237 238 238 238 238 238 238 238 239 238 239 240 239 239 240 241 241 240 240 240 240 240 240 239 239 241 240 240 240 240 240 240 240 241 242 242 242 242 241 241 241 241 241 241 242 242 241 241 241 241 241 241 241 241 241 241 241 242 242 242 242 241 241 241 242 243 243 243 243 243 243 243 243 245 244 244 243 243 243 244 244 244 244 243 243 244 244 244 243 243 242 209 100 77 105 108 105 110 122 130 131 134 156 163 124 100 118 135 143 136 135 146 145 140 137 135 126 109 102 102 98 94 96 100 106 112 116 119 124 123 117 116 123 127 121 118 124 125 125 134 122 117 123 125 116 111 105 113 120 115 100 96 113 105 117 107 92 92 98 78 84 132 106 12 60 131 166 171 192 96 14 40 45 68 118 175 196 185 183 180 183 152 138 160 150 144 139 112 126 133 133 125 132 161 154 135 107 112 145 155 152 158 156 156 160 161 161 164 169 175 180 185 191 198 203 209 217 218 221 225 227 228 229 231 232 232 231 231 231 231 231 232 234 232 232 232 232 232 232 232 232 232 231 232 232 230 230 228 224 203 176 141 105 60 37 26 20 18 16 15 14 13 15 22 30 44 50 46 45 44 46 43 49 47 43 41 38 35 35 37 36 43 44 42 44 44 43 47 47 48 45 44 47 48 46 43 42 46 44 39 41 42 38 33 25 27 34 40 38 35 44 52 51 49 42 44 44 38 41 48 45 41 39 37 39 46 49 45 41 38 39 41 43 45 49 66 85 96 79 56 48 52 50 45 48 45 53 52 46 40 44 55 57 44 38 37 36 38 37 32 35 36 35 33 27 31 37 42 39 37 40 37 46 45 43 46 51 56 56 50 54 54 44 35 26 
237 236 236 237 237 238 237 236 238 238 238 238 237 237 238 238 237 238 239 239 238 238 240 241 239 240 239 238 239 240 242 242 240 240 240 240 240 240 240 240 240 240 240 240 240 240 239 239 242 242 243 242 241 241 241 242 241 241 242 242 242 242 242 242 240 241 241 242 242 241 241 240 242 243 243 242 241 241 242 243 243 243 244 244 243 243 243 243 245 244 244 243 243 244 244 245 246 246 245 243 245 246 242 242 240 236 144 71 96 108 99 98 115 122 146 143 142 143 131 114 94 99 121 138 139 143 145 130 129 126 117 108 106 112 113 108 101 114 110 113 114 109 121 130 124 125 126 123 121 123 122 119 115 111 114 114 117 119 121 118 100 108 124 116 105 104 101 112 117 110 103 105 104 99 99 149 187 188 85 60 118 152 167 203 157 37 44 49 77 128 189 184 176 167 167 169 151 157 156 141 142 122 109 128 144 141 116 141 148 128 138 152 154 159 160 158 158 157 157 159 161 163 166 169 172 178 184 190 196 201 206 212 216 219 223 226 227 228 229 229 232 231 231 231 231 231 232 234 231 231 232 232 232 231 231 230 231 231 232 232 230 230 228 224 205 178 143 107 63 37 24 18 18 16 14 13 11 11 13 17 31 42 49 51 44 42 40 42 46 44 42 40 36 39 45 48 49 51 48 47 45 44 46 44 42 41 44 49 52 49 46 45 47 49 48 48 42 35 34 33 38 43 44 41 42 48 52 52 47 41 39 36 33 42 51 47 40 36 34 40 50 52 48 47 41 43 38 38 44 45 60 89 99 82 57 46 53 55 52 52 46 53 56 52 44 48 60 61 48 39 39 45 47 41 32 34 27 31 33 27 34 45 45 31 25 36 36 56 64 55 50 48 43 33 24 38 51 37 23 23 
237 236 236 237 238 238 238 238 239 239 239 239 239 239 239 239 237 238 240 240 239 239 240 241 239 240 239 238 238 240 241 241 240 240 240 240 240 240 241 241 240 240 240 240 239 239 239 239 241 242 242 242 240 240 241 243 242 242 242 242 243 243 243 243 241 242 242 243 243 242 242 241 243 243 243 243 242 242 243 244 242 243 245 244 243 243 242 243 243 243 244 245 245 245 245 245 247 246 246 244 245 244 239 242 240 193 95 103 120 113 107 107 113 129 159 165 158 119 91 116 116 112 137 140 133 136 121 112 110 116 118 117 117 114 112 113 115 126 121 119 115 110 124 132 132 124 122 122 116 113 113 112 108 104 101 106 110 107 109 111 107 108 111 103 105 117 111 103 101 99 111 116 117 94 109 161 198 216 156 47 96 152 185 201 179 79 82 112 89 136 195 183 173 160 152 141 137 147 156 143 148 149 118 112 142 130 124 142 124 126 145 157 157 156 155 156 157 157 157 157 159 163 166 167 169 174 180 186 192 195 199 203 210 213 218 221 223 224 225 226 230 230 231 231 231 231 232 232 230 230 231 231 231 231 230 230 231 230 231 232 230 230 228 224 205 182 150 112 65 34 23 21 17 15 13 12 12 11 10 10 15 26 43 50 43 37 36 36 39 40 44 45 42 44 49 51 47 51 48 46 44 44 47 44 42 45 46 46 47 50 49 47 46 52 54 52 43 35 39 45 46 47 43 40 41 42 44 46 38 35 34 33 34 44 52 49 41 36 33 39 48 50 46 44 37 41 38 39 46 46 57 81 88 79 60 47 46 48 45 44 44 48 51 51 45 50 62 60 53 42 41 51 56 51 42 37 33 34 37 35 43 49 43 22 23 33 35 53 58 52 45 40 43 26 13 23 38 31 23 29 
237 237 238 237 237 237 238 239 239 239 238 239 240 240 240 239 240 240 240 240 239 238 238 238 239 240 240 239 239 240 241 240 241 241 240 240 240 241 241 242 241 242 242 241 241 240 240 241 241 242 242 242 241 241 242 244 242 242 242 243 243 243 243 243 242 242 243 244 244 243 242 242 244 243 242 242 243 243 243 243 243 244 245 245 244 244 243 244 245 245 245 246 246 246 245 245 245 243 243 243 244 242 240 242 222 128 97 115 115 106 113 121 133 155 163 179 158 104 87 101 114 117 137 129 116 112 100 106 116 124 129 131 130 123 119 123 120 117 116 116 114 117 124 125 125 116 112 110 107 106 107 104 102 105 100 102 107 109 107 103 111 102 99 105 106 105 108 108 112 115 118 106 105 81 110 165 194 215 161 41 113 154 155 182 171 148 155 174 157 131 183 176 164 156 142 141 148 143 156 148 147 150 142 117 136 131 124 121 142 152 158 153 152 159 159 157 155 156 156 155 156 160 162 162 167 172 176 179 184 187 191 195 201 205 210 213 216 218 220 222 225 227 229 230 230 230 230 230 231 231 230 230 230 231 231 231 231 230 231 231 230 229 228 224 206 184 155 116 69 33 21 22 17 14 12 12 12 12 10 9 7 12 28 41 42 38 38 35 38 41 47 49 46 45 47 47 42 47 45 43 42 44 49 47 44 46 45 41 40 42 44 44 45 50 51 51 45 40 45 49 51 47 41 37 35 34 34 38 31 30 33 38 41 47 51 50 39 37 33 35 43 46 43 40 39 42 42 42 45 47 53 62 67 65 53 39 32 34 36 37 42 40 40 42 41 47 55 49 48 41 41 49 57 60 59 52 48 36 41 50 53 45 38 28 26 33 43 50 42 40 34 30 40 27 24 33 37 29 24 31 
238 238 238 237 236 236 237 239 239 238 237 238 240 240 240 238 241 240 240 240 240 240 239 238 240 241 241 240 241 241 241 240 242 241 240 240 240 241 242 243 242 242 243 242 241 241 242 242 242 242 243 242 242 242 244 245 243 243 243 243 243 243 243 243 242 243 243 244 244 243 243 242 243 242 242 242 243 244 243 242 244 244 245 245 245 245 244 244 246 246 245 244 243 243 244 244 243 243 241 243 243 243 244 236 170 95 101 100 112 95 99 123 157 170 155 145 126 107 99 98 112 120 121 117 112 104 104 111 120 122 119 115 118 118 116 117 115 110 116 114 109 110 106 101 100 105 108 106 107 112 111 101 101 96 91 94 100 106 102 101 101 105 107 108 102 102 108 102 86 87 101 105 90 74 103 156 182 198 150 45 115 137 134 145 157 158 186 188 184 87 122 172 152 142 147 155 160 149 124 136 154 144 156 129 132 137 120 146 156 150 153 158 154 151 152 151 156 156 155 154 155 157 159 159 166 169 169 170 174 178 183 188 193 196 200 205 208 211 214 216 220 222 225 227 228 229 229 228 230 230 230 230 230 231 231 232 231 230 231 231 230 230 229 225 209 186 158 121 78 37 21 19 17 15 13 12 12 12 11 9 10 5 14 27 38 41 45 41 41 42 45 47 45 44 45 44 44 50 50 49 46 43 43 39 38 37 38 38 37 36 41 48 44 45 44 47 49 49 51 49 50 45 40 35 33 33 35 36 31 28 29 34 39 43 47 49 42 40 35 34 39 42 43 44 51 50 49 47 46 49 51 48 46 48 44 35 30 35 41 42 46 40 35 38 41 46 48 41 40 40 40 44 51 62 70 64 50 37 40 45 46 43 46 43 32 33 43 47 38 38 31 26 28 28 41 53 47 31 25 38 
238 238 238 237 237 238 239 240 239 239 239 239 240 240 239 239 240 239 239 240 241 242 241 240 240 241 241 240 241 242 242 240 243 241 239 239 241 242 243 243 241 242 243 242 242 241 242 243 243 243 243 243 243 243 244 244 244 243 243 243 243 243 243 243 244 244 244 244 244 244 244 244 242 243 243 244 244 244 243 243 245 244 244 244 245 245 244 243 245 244 243 242 242 242 243 243 241 244 241 245 244 245 242 216 120 92 97 99 113 93 100 133 159 156 138 109 110 120 109 107 108 115 114 118 119 110 107 105 108 113 112 107 103 102 102 103 105 106 110 106 99 95 88 86 93 100 108 114 115 111 109 111 105 94 89 92 93 98 94 100 99 104 106 99 102 113 96 61 46 55 87 90 68 80 105 145 186 208 165 66 120 127 130 137 158 185 190 176 182 123 78 125 140 138 155 158 161 155 117 149 156 151 160 157 138 137 147 156 155 152 154 156 152 153 156 153 155 154 153 154 155 155 155 156 160 163 162 161 165 169 174 178 182 185 189 193 196 200 205 208 212 215 217 219 221 224 225 225 227 227 227 228 229 229 230 230 230 229 230 230 229 230 229 226 214 191 164 128 88 43 22 18 17 16 15 13 12 12 11 10 10 5 8 13 27 37 46 45 40 38 39 41 41 41 40 37 42 50 55 57 51 42 37 30 31 33 36 37 35 35 42 51 47 47 43 44 47 51 53 50 48 45 42 36 33 40 43 37 34 28 24 26 31 38 43 45 47 42 36 33 35 36 41 48 51 51 49 48 51 54 52 47 40 45 46 39 35 41 50 54 53 47 38 40 46 48 46 38 39 39 39 42 48 63 73 64 45 37 37 35 39 50 59 49 40 37 34 43 42 40 35 32 29 41 55 57 48 35 40 67 
238 237 237 237 239 240 241 242 240 240 241 241 240 240 240 240 240 240 240 240 241 241 240 239 240 240 240 239 240 242 242 241 243 241 239 239 241 243 243 243 241 242 243 243 242 242 243 244 243 243 242 242 243 243 243 243 244 244 243 243 242 242 243 243 245 245 245 245 245 245 245 245 242 244 245 245 245 244 244 244 245 244 243 243 244 244 243 241 242 242 243 244 244 244 244 243 238 245 241 245 243 243 236 193 94 86 109 114 106 91 108 130 161 145 128 117 126 125 112 94 85 89 100 102 99 94 87 89 97 92 88 90 95 98 99 99 95 97 91 87 90 90 89 91 92 107 112 106 102 102 104 107 99 97 101 98 94 106 102 105 100 93 100 99 100 99 64 30 33 49 82 70 60 86 105 155 197 201 184 119 127 126 146 172 185 179 179 171 177 153 125 144 152 161 151 152 160 142 110 119 133 158 149 131 134 146 155 154 152 156 152 151 156 156 154 153 153 151 150 152 153 152 152 153 153 156 157 156 160 163 166 169 172 175 178 182 186 190 195 198 204 206 209 211 214 218 220 221 224 224 225 226 227 227 227 227 229 228 228 229 228 229 230 226 217 195 171 136 95 47 24 19 17 17 16 14 13 12 11 11 6 7 9 5 16 28 42 45 43 40 41 43 43 42 39 33 36 44 50 54 50 42 37 32 32 38 41 36 31 33 40 46 52 54 48 43 41 45 50 49 49 48 46 38 34 45 47 34 33 28 24 26 32 38 40 39 48 41 33 29 28 26 34 46 48 50 47 46 51 51 44 40 33 38 41 34 30 40 56 65 54 49 39 41 48 48 43 36 41 39 37 43 52 66 73 58 47 36 37 40 49 59 62 46 34 40 34 50 52 40 33 33 39 56 59 42 34 33 52 94 
239 238 237 237 239 240 240 240 240 240 240 240 241 241 240 240 238 240 240 239 239 240 241 241 240 240 241 241 241 241 241 241 241 243 243 242 241 242 243 243 242 242 243 244 244 243 243 244 243 244 244 243 242 242 244 245 243 243 243 242 243 244 245 245 245 244 244 244 244 244 244 244 245 244 244 245 246 245 245 246 245 244 242 242 242 243 243 243 245 244 243 243 242 243 244 245 244 243 244 244 244 243 222 131 70 80 111 117 107 108 124 125 136 132 131 132 126 101 73 62 54 56 54 54 57 53 53 63 58 58 62 71 89 97 89 85 80 85 85 87 93 98 98 91 92 101 100 102 105 103 98 105 94 100 96 101 104 102 113 119 116 106 98 94 95 71 32 26 23 60 55 31 53 81 105 155 188 197 201 166 124 146 148 141 171 176 173 169 165 145 161 165 164 158 155 138 130 127 124 122 144 129 117 140 153 149 156 152 152 153 152 152 153 154 154 152 151 150 150 150 150 149 150 152 153 153 153 155 156 156 158 159 163 165 167 171 174 178 183 185 191 193 197 200 203 208 212 216 216 220 223 223 225 228 229 227 227 228 228 227 226 226 228 229 223 201 173 147 109 57 23 19 17 14 14 14 12 10 10 9 8 8 7 7 6 10 20 31 39 42 45 48 48 45 37 30 34 40 42 47 46 40 42 41 39 45 45 37 27 27 35 42 46 51 48 43 45 49 49 49 45 48 47 43 40 40 41 41 37 36 31 31 39 42 41 44 46 44 41 33 24 25 33 39 48 47 45 38 38 40 34 29 25 34 36 35 30 35 55 65 59 49 40 46 45 40 45 41 41 42 42 54 57 59 66 56 39 37 33 41 61 69 58 48 34 37 36 45 49 42 30 30 50 71 55 28 22 26 46 78 
237 237 237 238 239 240 241 241 240 240 240 240 240 240 240 240 240 241 241 240 240 241 241 241 241 241 241 241 241 241 241 241 241 242 242 242 242 243 243 242 243 243 243 244 244 243 243 243 244 244 243 243 243 244 244 245 243 244 243 243 243 244 244 244 243 242 243 244 245 245 246 247 244 243 243 244 245 244 244 244 245 244 243 243 243 243 244 243 245 244 243 243 243 243 243 243 245 247 247 244 245 238 187 87 77 87 108 108 103 117 123 129 138 137 125 111 87 58 43 34 26 27 25 28 30 29 35 44 45 44 45 52 69 77 73 73 87 85 96 97 99 101 93 97 102 100 102 105 97 99 100 98 105 102 100 102 109 109 107 120 116 112 106 97 86 42 29 27 36 36 12 13 51 86 106 147 176 194 199 171 158 181 144 85 137 176 167 168 157 136 143 156 162 158 151 124 115 148 153 157 133 107 138 158 150 155 153 153 153 153 152 151 151 152 153 152 151 150 150 150 150 149 150 152 150 150 150 151 151 151 152 154 157 158 160 162 165 168 172 174 180 182 187 192 196 200 204 206 212 215 218 219 221 224 225 225 227 227 227 226 226 226 227 228 220 206 182 155 121 74 33 16 17 15 14 14 11 10 10 9 8 7 6 6 4 6 12 19 29 35 42 44 43 41 41 41 40 40 38 42 46 45 49 48 47 44 39 35 33 32 35 38 43 44 46 48 50 48 45 44 41 44 45 41 36 36 39 40 46 42 38 39 43 45 45 46 50 52 51 41 26 24 34 44 49 43 39 35 35 36 33 33 33 30 30 36 36 35 50 67 72 55 44 42 42 43 44 44 49 56 56 57 54 52 55 51 42 45 42 46 63 67 57 54 45 38 37 41 40 37 28 38 65 68 45 23 16 25 28 43 
237 238 239 239 239 240 241 241 240 240 240 240 241 241 240 240 241 242 242 241 241 241 242 241 242 242 242 242 242 242 242 242 241 242 242 243 244 245 244 242 245 244 243 244 243 242 242 243 244 243 242 243 244 245 244 244 243 244 244 243 244 245 245 244 244 244 244 245 245 244 245 245 244 243 242 243 243 243 243 243 245 245 244 243 243 244 244 244 245 244 244 244 245 245 245 244 240 245 249 245 241 235 130 72 79 98 119 118 114 124 113 119 132 124 101 84 63 45 42 28 21 22 21 27 26 22 28 29 36 38 42 44 52 60 67 81 81 76 93 104 103 95 87 100 107 101 92 92 92 100 104 109 101 98 100 102 99 102 104 97 96 97 100 104 69 34 23 13 17 11 21 28 45 88 106 146 173 188 186 170 174 192 170 124 114 165 168 163 150 154 156 151 158 145 145 133 141 154 132 138 138 148 154 153 155 152 149 159 151 152 152 151 150 151 151 151 150 149 149 149 149 148 149 150 149 149 149 149 148 147 148 150 152 152 153 154 156 159 161 163 167 170 174 179 185 190 193 195 202 204 207 211 215 218 221 222 223 222 222 223 224 224 224 224 223 212 190 163 133 93 49 21 17 15 14 13 10 10 11 9 7 6 6 7 6 5 7 10 18 27 38 43 43 41 41 42 42 41 38 41 45 47 51 50 50 44 39 39 40 40 39 39 44 43 46 50 49 46 42 38 36 39 41 40 39 40 41 41 46 41 38 40 41 41 43 44 52 49 46 41 34 35 41 46 47 39 36 36 39 39 37 40 37 29 29 37 41 37 42 63 67 54 50 42 38 42 44 52 56 71 64 44 40 50 54 51 59 53 42 45 60 60 53 56 54 40 36 31 27 39 44 62 78 54 32 29 38 45 32 30 
239 239 240 240 240 239 240 240 241 241 241 241 242 242 241 241 242 242 242 241 241 242 242 242 243 243 243 243 243 243 242 242 242 242 243 243 244 245 244 244 245 244 244 244 243 243 243 244 243 243 243 243 244 245 244 243 243 244 245 244 245 246 246 245 245 245 244 245 244 243 242 242 243 243 243 243 243 243 243 243 244 244 244 244 244 244 244 244 244 245 245 245 245 246 246 245 249 244 247 247 241 204 87 65 83 94 108 112 120 135 129 130 121 100 76 64 54 50 46 29 15 13 13 24 24 23 29 24 25 32 41 43 47 51 62 81 82 89 93 98 98 96 99 99 94 91 84 89 96 102 101 102 100 91 90 87 89 97 93 83 91 96 92 87 51 24 20 65 107 71 36 41 52 80 119 139 175 186 183 191 198 183 175 151 106 138 162 145 143 165 168 155 140 143 165 150 158 131 113 135 144 161 152 153 152 148 157 150 148 150 152 152 151 150 149 149 149 148 148 148 148 147 147 148 149 149 149 149 147 145 146 148 149 149 149 150 151 153 155 156 159 160 162 166 170 176 182 185 189 191 196 201 205 208 211 214 217 217 218 219 221 222 223 222 225 215 196 173 146 108 63 30 17 14 13 12 9 10 10 8 6 5 6 8 9 8 8 8 13 20 30 38 43 44 43 42 41 43 44 45 45 44 45 46 44 44 44 44 42 39 38 38 42 44 48 47 44 45 42 32 33 35 38 42 47 50 49 47 46 40 40 43 40 40 44 45 48 40 35 37 41 47 49 47 44 38 38 41 45 46 41 41 36 33 35 38 43 40 38 55 62 49 43 41 45 50 49 52 58 64 56 40 37 38 44 63 62 49 39 40 42 42 52 68 59 46 36 28 29 56 74 85 71 38 31 45 91 101 75 49 
240 240 240 240 240 240 240 239 241 241 241 241 242 242 242 242 241 242 242 241 241 242 243 242 243 243 243 243 243 243 243 243 243 243 243 243 243 243 244 245 245 244 243 244 244 243 244 245 244 244 244 245 245 245 244 244 244 245 245 244 244 245 245 244 243 242 242 243 243 242 242 243 242 242 242 243 243 243 244 244 243 244 244 244 244 245 245 245 244 246 246 246 245 246 246 246 245 244 249 248 242 146 75 69 70 82 96 103 116 131 140 129 98 76 67 58 48 47 41 33 17 9 9 19 22 25 31 25 16 22 31 37 43 45 48 59 67 72 78 89 96 97 100 99 95 89 93 102 95 99 100 92 93 92 99 84 84 98 91 95 91 87 79 49 24 21 68 145 176 207 134 38 49 91 122 142 152 175 184 210 217 185 181 156 116 119 137 130 144 162 166 163 135 118 135 141 158 124 126 147 153 144 149 153 150 151 152 149 148 149 151 152 151 149 149 149 149 148 147 147 148 147 147 147 147 147 147 147 146 144 144 146 145 145 146 146 147 149 150 151 151 153 154 155 157 162 169 173 176 179 185 190 193 194 198 202 205 206 207 209 211 213 214 215 217 213 201 181 155 121 76 38 18 14 11 11 9 9 9 6 7 6 6 7 9 9 8 7 12 14 19 27 35 42 47 50 45 47 49 48 44 42 41 42 44 50 53 49 44 42 42 42 37 40 44 43 40 42 41 33 36 38 40 44 48 51 51 50 46 41 43 44 40 39 42 44 43 36 34 38 43 48 50 49 43 40 41 41 44 46 40 38 37 39 42 41 42 41 39 54 63 55 43 43 46 47 54 58 57 58 50 38 35 32 42 69 58 44 37 35 33 41 57 66 57 47 31 33 44 74 94 89 66 29 23 40 82 86 85 98 
240 240 240 240 241 241 241 240 241 240 241 241 242 242 242 242 241 242 242 241 242 243 243 242 243 243 243 243 244 244 244 244 243 243 243 243 242 242 244 246 244 243 243 244 244 244 244 245 245 245 246 246 246 245 245 245 245 245 245 243 243 243 243 242 241 241 242 243 243 242 242 243 241 242 243 242 243 243 244 244 244 244 245 245 245 245 245 245 245 247 248 247 246 247 246 245 243 249 243 238 242 139 72 81 80 90 97 98 105 118 128 104 70 54 59 56 48 49 43 42 20 10 10 16 19 22 22 15 14 17 20 23 29 32 31 39 38 37 53 64 78 90 87 94 94 92 90 90 82 84 88 92 90 93 89 92 91 79 73 68 68 62 34 21 39 50 78 140 183 208 193 79 46 92 112 117 143 164 178 203 202 176 179 162 142 136 143 147 137 142 158 156 149 114 124 155 158 136 150 158 156 154 152 146 153 154 145 155 150 149 150 150 150 149 149 149 149 148 147 147 148 147 146 146 146 145 145 145 145 143 143 144 143 143 143 144 145 146 146 147 146 148 150 150 150 153 157 161 163 167 173 177 180 183 186 189 189 191 193 195 197 200 202 204 204 208 200 177 153 129 90 51 23 15 10 11 10 9 8 6 9 8 7 7 8 8 8 7 9 11 14 19 25 34 44 52 49 48 49 46 44 45 42 41 46 52 54 49 47 49 50 49 45 41 39 37 35 36 40 42 44 45 46 44 41 41 44 46 44 43 43 43 39 37 38 39 40 35 34 38 42 45 46 45 41 41 41 37 37 43 41 40 42 42 42 41 40 38 43 58 62 59 45 44 43 40 54 64 53 56 51 48 49 48 49 55 51 44 40 37 40 57 65 54 52 45 30 42 58 83 99 87 65 45 37 44 42 37 54 100 
241 241 241 240 240 240 241 241 241 241 241 241 242 242 242 242 242 242 242 241 242 243 243 242 242 243 243 244 244 244 244 244 245 244 243 244 244 243 244 245 244 243 244 245 245 244 244 245 246 246 245 245 246 246 245 244 244 245 244 242 242 242 242 242 243 242 243 244 244 242 242 242 242 243 244 243 243 244 245 244 245 246 247 247 246 246 245 245 246 248 248 247 247 247 244 239 244 246 242 247 240 168 79 87 84 86 92 99 104 108 98 69 59 47 51 53 50 50 44 41 22 13 18 20 21 25 19 17 13 13 12 12 19 23 21 25 27 32 39 32 42 67 73 75 81 88 81 79 80 78 75 85 75 69 77 84 91 147 159 70 28 25 38 49 46 56 80 132 170 187 190 119 75 99 119 108 132 138 167 192 187 172 168 160 156 155 169 165 120 109 132 141 158 132 129 152 148 151 159 149 149 153 152 152 151 152 154 147 152 150 149 150 150 148 148 148 149 147 146 146 147 147 145 145 145 144 143 144 144 143 143 143 142 142 142 143 144 144 143 143 142 144 146 146 145 146 149 151 151 155 158 161 164 169 172 173 174 176 178 180 182 185 188 191 190 194 190 170 149 130 98 63 31 18 10 11 11 9 7 7 9 9 8 7 7 7 8 8 8 10 13 15 18 23 32 40 47 45 47 44 45 47 42 42 42 45 45 44 46 49 51 50 50 46 37 32 32 35 40 46 46 46 45 42 39 38 40 42 47 48 47 45 45 45 43 42 41 34 33 37 40 41 41 38 37 40 43 37 35 40 43 45 48 45 40 37 36 37 48 58 62 50 38 45 56 55 53 55 51 46 52 75 77 56 45 41 41 52 54 44 42 52 57 50 44 50 49 55 60 75 82 71 67 74 71 58 31 32 48 71 
242 242 242 241 239 239 240 241 241 241 241 242 243 243 243 243 243 243 243 242 242 243 243 241 242 242 243 243 244 244 245 245 246 244 244 245 246 245 244 245 244 244 244 245 245 244 244 245 247 245 244 244 245 245 244 242 243 244 243 242 242 243 244 243 243 243 243 245 245 244 243 244 243 245 245 244 244 245 245 245 246 247 248 248 247 246 245 245 245 246 246 246 246 246 240 233 171 134 140 206 245 222 136 79 73 74 81 82 72 70 63 63 62 53 51 54 53 51 48 40 25 16 21 16 14 18 12 16 14 11 10 13 27 31 20 15 15 13 14 24 29 32 44 55 65 63 59 62 61 62 57 56 61 60 60 46 118 212 194 155 61 56 81 46 42 71 89 111 147 180 190 129 101 125 121 109 129 133 177 191 174 166 159 162 154 146 159 155 125 104 111 139 152 131 123 144 148 151 152 152 154 151 151 153 151 149 150 149 152 150 150 151 151 149 147 146 148 146 144 145 146 145 144 143 144 142 142 143 144 143 142 142 141 141 142 142 143 142 141 140 139 140 141 141 140 141 143 145 145 147 148 147 150 155 157 155 156 158 161 163 165 167 171 174 177 180 180 169 149 128 97 67 36 20 10 11 11 8 7 8 5 6 6 5 5 6 8 9 11 10 9 10 11 16 24 32 39 41 48 46 45 46 41 41 43 44 45 46 47 49 50 50 43 45 38 31 35 40 41 41 40 39 38 40 42 44 45 44 47 50 48 47 51 53 49 47 41 36 36 38 37 36 36 35 35 40 45 40 35 37 40 46 52 50 40 35 34 40 53 54 55 42 43 56 72 70 51 48 52 50 58 80 73 50 46 42 55 68 63 45 37 34 29 29 28 53 68 62 49 53 47 36 37 60 91 93 55 30 41 54 
241 241 242 243 242 240 241 242 241 241 241 242 242 242 242 242 244 243 243 243 244 244 244 243 243 243 244 244 244 244 244 245 243 243 244 244 244 244 245 246 245 245 245 245 245 245 244 244 244 244 243 243 243 243 243 243 243 244 244 244 244 244 244 243 243 242 242 243 244 244 244 244 245 244 244 245 246 246 245 245 245 246 247 247 247 246 244 243 244 248 246 246 245 243 220 131 83 76 68 113 228 237 219 174 143 111 68 71 58 48 50 55 53 53 50 47 52 54 48 42 21 15 16 15 14 15 14 13 16 7 15 30 37 35 19 26 25 23 16 11 12 13 18 22 18 22 18 17 20 24 17 34 38 36 30 35 120 164 182 194 172 188 158 66 51 81 109 121 154 192 194 125 113 137 120 107 131 111 131 170 164 157 156 164 141 134 155 142 139 130 128 148 147 138 134 143 154 153 150 152 149 152 154 153 148 146 148 150 148 149 150 149 148 147 147 148 144 145 145 143 143 144 145 144 145 144 144 143 142 140 140 142 141 141 140 140 141 142 141 138 140 140 139 137 137 138 140 141 140 139 139 139 138 138 142 145 142 146 147 148 150 151 153 157 161 164 164 159 143 119 93 68 45 22 11 10 8 7 6 9 5 6 8 7 6 6 8 10 7 8 10 12 13 16 20 24 28 36 43 43 40 43 47 48 47 45 46 48 48 44 43 45 42 43 41 38 39 41 39 35 37 33 30 32 40 47 49 48 49 48 45 45 51 56 54 48 46 42 39 39 39 33 39 35 36 40 43 45 45 43 42 45 48 44 39 39 35 45 50 50 51 46 42 54 78 64 46 45 53 67 58 54 46 42 43 45 54 65 64 48 35 29 24 21 28 66 77 44 26 30 41 43 44 49 71 92 96 85 65 48 
242 242 243 243 242 241 241 242 242 242 242 242 243 243 243 243 242 242 242 242 243 243 243 243 243 244 244 244 243 243 244 244 243 244 245 246 245 244 244 244 243 243 243 243 243 243 242 242 242 243 243 243 242 241 242 242 244 244 244 243 242 243 243 243 244 244 243 243 244 245 245 245 246 246 246 247 247 246 246 247 244 245 245 246 245 245 244 243 246 243 247 244 245 240 154 84 84 81 77 73 172 250 239 233 236 136 59 65 63 52 45 42 39 44 50 54 55 50 40 31 22 16 16 14 11 11 10 11 8 15 19 38 41 37 42 32 27 30 30 30 29 23 18 15 20 22 40 46 48 73 90 119 124 121 144 127 108 124 151 186 183 196 148 38 69 79 130 141 166 196 190 133 137 131 114 116 149 151 111 156 160 155 160 158 123 128 155 142 149 134 104 128 139 144 148 152 152 149 149 153 151 150 150 150 150 150 149 148 148 148 148 148 147 146 145 145 144 145 145 144 143 143 142 141 141 142 142 143 141 139 138 139 140 140 139 138 137 138 137 136 137 137 136 134 133 134 136 136 136 133 132 134 137 137 134 132 133 136 136 136 138 138 139 142 140 145 147 148 137 118 93 69 44 22 12 12 11 9 5 5 6 7 8 8 7 6 7 7 7 8 10 12 13 16 20 24 25 30 37 40 39 40 45 47 51 49 48 46 43 39 39 42 41 44 45 45 45 42 37 31 34 33 31 31 35 41 46 47 49 46 43 41 45 50 50 46 43 37 33 39 37 35 39 43 39 41 40 41 46 49 48 48 44 44 41 41 36 39 38 37 41 43 40 51 74 64 44 43 56 61 50 44 35 33 38 48 56 57 53 40 28 28 31 29 41 71 65 33 17 26 42 53 62 73 70 83 117 108 66 50 
243 243 243 243 242 241 242 243 243 243 243 243 243 243 242 242 243 243 243 243 243 243 243 243 243 244 244 244 244 244 244 245 244 244 245 245 244 243 242 242 242 242 241 241 242 241 241 240 242 243 244 244 242 242 242 243 243 244 243 241 241 243 243 243 246 245 244 244 245 246 246 246 246 246 247 247 246 245 245 246 243 244 244 244 244 244 244 244 246 242 248 246 241 217 105 94 87 90 84 79 107 189 234 240 242 116 60 68 56 55 56 36 26 30 39 44 41 36 31 25 23 18 17 13 9 9 9 10 8 17 36 32 30 41 38 29 29 27 26 28 28 24 23 29 37 63 79 107 176 169 166 193 159 139 127 97 84 127 150 161 185 141 57 43 68 76 122 152 175 194 190 172 136 115 123 152 185 176 121 124 161 162 157 156 122 126 140 128 134 139 128 117 141 148 152 152 151 150 149 149 151 149 147 148 150 151 150 148 148 148 147 147 146 146 144 144 145 146 145 144 143 142 140 139 140 141 141 141 140 138 138 138 139 140 140 138 136 135 136 136 136 136 135 133 132 132 133 133 134 132 131 131 131 130 129 129 127 129 129 128 129 129 129 130 129 131 133 135 128 112 90 66 47 24 12 11 10 9 6 6 7 7 7 8 8 7 6 5 7 8 11 14 15 17 22 26 32 31 30 29 27 29 35 42 46 47 47 44 41 40 41 43 42 44 47 48 45 39 32 28 30 35 37 34 33 36 41 44 42 41 42 44 46 47 46 45 38 29 28 38 36 37 36 45 43 43 38 37 45 52 52 47 47 47 42 40 34 32 28 31 32 40 39 53 76 71 48 45 52 52 52 49 38 37 45 62 67 57 46 32 20 24 34 35 54 73 57 34 20 23 30 36 51 77 92 98 106 83 44 37 
244 244 244 244 243 242 242 243 242 242 243 243 243 243 242 242 245 245 244 244 244 244 243 243 243 243 244 244 244 245 245 246 244 244 243 242 241 241 241 242 243 242 242 242 242 242 242 241 241 243 244 244 243 243 243 243 242 243 243 242 242 244 244 244 246 246 246 246 246 246 247 247 245 245 245 246 245 244 244 245 243 243 244 244 244 244 243 243 246 246 241 246 245 192 87 98 103 90 88 87 68 72 125 229 230 106 60 67 65 68 65 45 28 25 30 34 31 31 35 35 25 19 18 15 10 10 9 11 13 19 27 33 40 38 33 30 29 24 25 28 25 18 20 34 54 52 84 117 138 143 114 109 103 87 67 72 86 112 145 159 180 147 40 46 64 86 121 151 167 188 177 159 144 128 155 179 178 170 125 87 147 162 165 151 119 117 118 116 140 151 138 128 149 151 149 146 149 151 149 147 150 149 149 148 147 147 148 148 147 147 146 146 146 145 145 145 144 143 143 142 141 140 139 138 140 140 140 139 138 138 139 139 137 138 139 138 136 136 136 137 136 136 135 133 132 132 133 132 133 133 132 130 129 128 128 129 127 128 127 126 127 127 126 127 127 127 125 125 120 107 88 66 49 25 13 10 9 9 7 8 6 6 7 7 7 7 6 6 6 8 12 15 16 19 24 29 37 37 36 33 30 27 27 29 34 38 42 43 43 45 47 46 41 43 46 46 40 33 28 27 30 38 43 39 34 33 35 38 36 37 41 46 49 49 48 49 41 30 33 42 41 40 33 38 43 45 41 36 40 48 46 41 50 50 43 41 36 33 29 34 34 43 40 54 74 72 49 47 50 56 72 69 52 42 43 58 66 58 44 27 15 19 32 43 65 71 59 51 42 36 34 28 36 50 75 92 96 76 45 37 
244 244 244 244 244 242 242 243 242 242 243 243 244 244 243 243 244 244 244 244 244 244 244 243 244 244 243 244 244 244 245 245 243 242 241 241 241 241 241 241 243 242 242 242 242 242 242 242 241 241 242 243 244 244 243 243 243 244 244 244 245 246 246 245 245 246 247 247 247 247 246 246 247 245 245 246 246 246 245 246 242 243 244 245 245 244 243 242 242 250 241 241 247 172 90 90 90 96 106 98 99 71 59 114 112 74 65 63 72 68 57 58 34 25 28 34 32 36 42 40 25 18 17 15 11 10 8 10 9 29 28 32 41 32 26 27 27 27 33 32 26 20 22 38 44 72 108 114 99 105 108 104 94 61 48 89 96 105 143 163 182 160 61 50 70 82 113 141 162 190 170 139 139 159 195 181 173 173 151 97 128 160 152 137 128 126 147 121 118 143 138 149 150 151 149 147 148 147 147 150 148 148 148 147 146 145 146 148 145 146 146 145 144 143 143 144 141 140 139 139 139 139 139 139 138 138 138 137 137 137 138 138 135 137 138 137 137 137 136 135 133 134 133 132 131 132 131 130 131 129 128 129 132 131 127 122 126 127 124 123 125 124 122 123 122 122 119 119 115 105 89 70 46 25 15 13 11 9 6 6 6 6 7 6 5 5 6 7 4 7 11 14 15 18 24 29 37 42 42 38 36 32 26 24 23 27 32 37 42 48 49 47 39 41 42 40 35 31 31 33 35 41 44 40 34 31 33 36 38 37 39 44 48 49 51 54 49 39 44 46 49 44 35 32 41 48 48 41 40 42 40 38 49 49 43 42 40 39 34 39 50 54 45 51 59 56 40 43 43 57 85 80 57 39 30 40 46 56 51 34 22 21 38 62 72 61 53 51 46 44 53 51 34 34 39 61 93 86 49 43 
244 244 244 245 244 243 243 243 242 243 244 244 245 245 244 244 243 243 243 244 244 245 245 245 244 243 243 243 243 242 242 242 242 242 242 242 242 242 241 241 242 241 241 241 242 242 242 242 242 242 243 244 245 245 245 244 245 246 247 246 246 246 246 244 245 246 246 247 246 246 246 245 247 245 244 245 246 246 245 245 242 243 244 245 245 244 243 242 241 245 247 241 241 149 94 101 97 117 137 149 140 86 75 59 48 63 73 64 72 72 63 59 42 28 29 35 34 41 45 35 22 15 15 13 10 9 8 9 20 34 30 36 38 33 26 24 31 29 32 26 23 25 31 49 67 106 114 105 101 88 136 135 109 62 49 84 78 107 141 169 183 163 70 49 73 90 125 149 173 194 174 144 125 149 190 176 159 156 161 126 129 140 124 123 133 141 163 127 99 128 146 148 149 150 150 151 151 148 146 149 148 147 145 145 146 147 147 146 146 147 147 145 143 142 142 143 142 140 139 139 140 140 141 142 137 138 139 138 138 138 137 136 136 137 137 137 137 137 135 133 132 132 132 131 131 131 130 129 128 128 127 127 128 128 126 123 125 126 124 122 122 121 119 120 120 120 119 119 114 104 89 70 47 26 15 11 8 8 6 7 7 7 7 6 5 4 5 6 4 7 11 13 15 18 24 30 37 45 44 40 39 35 28 25 18 19 21 26 34 41 45 44 38 36 33 29 28 31 37 42 40 41 41 38 34 33 36 40 39 37 37 42 46 48 48 48 47 42 46 45 49 46 42 35 41 50 53 49 45 43 41 41 49 47 40 39 37 40 41 46 67 63 51 46 47 44 39 42 40 54 78 70 52 32 20 25 36 61 66 49 35 32 49 77 57 37 34 34 36 45 74 91 67 57 52 68 104 97 49 34 
243 243 244 245 245 244 243 243 243 243 244 245 245 245 244 244 243 243 243 243 244 244 244 244 243 242 242 242 242 242 242 241 242 242 242 242 243 243 242 242 242 241 241 241 242 243 243 244 244 245 245 245 246 246 246 246 246 247 246 245 245 245 245 244 245 245 245 245 244 244 245 245 246 245 244 245 244 244 243 244 241 242 243 244 244 244 243 243 244 239 244 244 235 130 90 106 128 147 163 170 160 104 103 109 83 72 68 77 81 77 78 68 53 33 30 36 36 44 46 31 18 11 12 12 9 9 10 13 30 32 42 79 64 50 55 48 58 39 31 25 24 26 36 61 110 117 108 114 112 108 107 109 94 44 45 76 73 104 125 160 185 182 98 56 87 94 144 179 169 175 161 139 152 122 148 168 160 164 155 143 144 119 121 117 138 153 146 143 148 149 151 150 150 150 148 149 152 150 147 147 149 147 145 145 146 147 146 145 147 147 146 145 143 142 142 143 143 141 140 140 141 141 141 141 138 139 139 139 138 138 137 135 137 137 136 135 135 135 134 133 131 132 132 131 131 131 130 128 128 129 128 125 123 123 125 126 125 126 124 123 123 121 120 121 121 121 119 119 115 104 88 69 51 28 14 9 6 8 8 8 6 6 6 6 5 5 5 5 5 8 11 13 14 17 24 30 36 46 50 50 51 42 31 28 21 18 15 16 22 28 32 33 31 30 28 26 29 35 40 41 36 34 34 37 36 34 35 39 39 36 35 39 45 47 44 40 41 42 44 47 47 46 48 45 44 49 53 55 54 49 46 48 50 47 39 36 32 39 45 49 62 53 45 43 51 57 56 49 45 50 59 51 45 29 18 20 40 63 67 50 38 39 52 68 42 26 26 29 38 54 83 117 103 69 62 80 108 109 72 51 
243 243 244 245 245 244 243 243 243 243 244 245 245 244 243 243 243 242 242 242 241 241 241 240 241 241 241 241 242 243 243 243 243 242 241 241 241 242 243 243 243 242 242 242 243 244 245 245 244 245 246 245 244 244 245 246 244 245 244 243 243 244 244 244 245 245 244 243 243 243 245 246 246 246 245 245 244 242 243 244 241 241 242 243 243 244 244 244 243 244 243 241 222 119 98 121 153 167 169 175 171 131 138 160 163 120 79 90 111 122 125 102 55 33 29 34 34 43 43 24 14 9 11 11 9 10 13 19 43 67 141 157 100 107 106 109 93 52 28 26 28 30 48 88 139 120 106 114 113 115 105 92 73 28 45 69 66 97 128 155 186 201 141 101 94 123 181 178 149 141 140 157 172 124 132 164 162 167 152 131 140 141 139 141 151 152 143 141 145 147 149 149 150 151 148 147 148 148 147 149 148 149 148 147 146 145 145 146 146 145 144 143 143 142 142 142 142 140 139 140 140 139 138 138 139 139 138 136 135 136 136 134 135 135 134 132 132 132 133 132 131 132 132 131 131 131 129 127 128 128 126 125 125 126 124 121 123 124 123 122 123 122 121 123 119 118 116 117 114 105 90 70 51 29 16 12 10 10 7 6 5 5 5 6 7 7 5 4 5 7 10 12 12 15 22 28 38 45 47 48 50 42 33 35 29 22 14 12 13 16 18 19 21 25 29 34 40 43 38 31 25 24 28 35 38 34 31 33 41 35 31 33 40 46 45 41 42 47 46 53 47 47 52 53 47 48 51 57 60 55 51 53 49 47 43 40 33 39 45 46 43 33 32 38 62 77 75 55 41 38 38 35 43 35 28 30 42 53 52 36 30 38 47 50 52 38 34 37 44 57 69 107 83 49 45 54 62 71 77 95 
243 243 243 243 244 245 244 243 242 243 243 243 242 242 243 243 244 242 240 240 240 241 242 242 242 241 240 240 240 240 240 242 241 241 241 242 243 243 243 243 243 243 245 246 246 246 245 244 245 245 245 245 245 245 244 244 246 246 245 245 244 245 245 245 244 244 243 243 243 243 244 244 245 245 244 244 245 245 245 244 241 241 243 243 244 243 242 242 242 240 237 244 212 107 103 136 167 173 167 169 175 148 147 183 192 166 125 121 148 147 152 128 100 92 65 46 42 42 37 20 16 14 18 10 10 11 10 31 68 137 202 125 107 117 124 124 87 38 30 24 28 40 65 114 171 134 111 95 98 117 100 121 100 29 54 78 72 103 132 155 181 202 149 111 144 170 149 128 121 134 151 185 181 122 107 156 162 161 140 112 128 150 137 144 147 139 138 145 148 149 150 150 150 150 148 147 147 147 147 147 146 146 147 146 143 143 145 143 143 143 143 143 142 142 143 144 143 142 141 140 139 137 137 138 136 136 136 136 137 136 136 136 135 134 133 133 133 133 131 129 131 133 132 128 127 128 128 127 128 126 124 124 126 126 123 121 120 122 121 118 119 119 119 120 114 117 119 118 114 109 94 75 53 32 14 9 7 5 5 5 5 5 5 6 5 5 4 4 5 6 10 11 13 14 18 30 33 40 46 54 51 48 44 42 37 32 23 16 17 16 12 15 11 19 26 31 43 48 39 33 24 28 31 32 35 34 29 26 31 28 23 25 32 37 40 43 42 42 52 58 52 46 49 54 48 44 46 43 51 54 50 48 48 49 43 44 46 46 46 39 34 31 29 41 55 75 85 63 46 32 24 32 45 49 44 40 36 35 29 22 30 40 46 62 67 54 40 43 46 49 88 108 69 27 35 41 46 47 56 89 
243 244 244 243 243 244 244 243 243 243 242 242 241 241 241 241 240 240 241 242 242 242 241 240 242 241 241 242 242 242 242 243 242 242 242 243 244 244 244 244 245 244 244 244 244 245 245 245 246 246 245 244 244 244 245 245 245 245 245 244 244 244 245 245 244 243 243 243 243 243 243 243 244 244 245 245 245 244 244 244 240 241 242 243 243 242 241 240 240 240 240 242 197 104 102 142 170 168 160 165 178 150 139 180 193 189 177 166 170 163 146 124 129 126 118 105 102 91 59 43 29 21 15 15 11 9 10 35 88 196 146 103 106 120 121 115 50 33 24 21 28 44 67 87 128 133 124 87 77 101 111 164 167 80 46 80 82 102 140 158 190 201 139 137 177 146 123 116 119 134 171 184 167 128 108 142 164 163 140 118 138 145 116 133 141 138 141 148 150 149 149 148 149 149 148 147 147 147 145 144 144 145 147 146 143 143 144 142 143 143 143 142 142 142 143 143 142 141 140 141 140 138 138 138 135 136 137 137 136 135 135 135 133 133 132 132 132 132 132 131 131 131 131 129 128 128 129 128 128 126 125 125 126 124 121 118 121 122 120 119 121 121 118 118 112 116 115 113 114 109 92 77 58 37 18 10 7 5 6 7 6 6 7 6 6 5 5 6 5 6 11 13 15 17 19 29 33 40 44 51 49 51 51 53 50 49 45 37 28 16 10 15 15 15 18 23 33 38 35 38 33 35 35 35 33 29 27 29 27 23 18 17 23 28 33 38 44 45 50 55 54 50 48 47 45 39 42 39 46 51 50 48 48 53 47 45 47 45 40 32 36 39 39 45 47 55 69 62 44 30 20 26 49 71 73 60 49 37 33 31 28 28 45 77 75 45 36 45 49 68 112 121 78 34 25 35 46 47 46 60 
242 243 243 242 242 242 242 242 242 241 240 240 241 241 241 240 239 240 242 242 242 241 240 239 241 241 241 242 242 242 242 243 243 243 243 244 245 245 245 244 246 246 245 245 245 245 245 245 246 245 244 243 243 244 244 245 245 244 244 244 244 244 244 245 244 244 244 244 244 244 243 243 243 244 245 246 244 243 243 243 240 241 242 243 243 242 240 239 240 241 244 241 181 102 101 143 159 152 153 166 182 155 121 167 184 189 184 190 201 183 150 142 140 145 138 130 142 135 102 88 57 35 11 14 10 11 17 50 118 191 114 108 103 97 115 73 32 32 29 25 35 55 61 62 76 110 112 85 80 108 164 160 165 169 104 67 82 103 133 157 189 202 195 172 144 128 124 122 127 153 183 178 161 125 100 132 139 142 149 135 132 134 116 130 142 141 144 147 147 147 149 150 147 147 147 148 147 146 145 144 143 143 145 145 142 142 144 143 143 142 141 141 141 142 142 142 139 139 140 141 140 139 138 137 134 136 137 136 135 134 134 134 135 134 134 132 131 130 131 131 131 130 130 130 129 127 127 128 125 125 125 125 125 124 122 121 124 124 120 119 121 120 117 115 114 119 115 113 118 113 95 83 61 42 23 12 7 6 7 7 4 5 6 5 4 4 4 6 5 5 9 11 14 17 19 27 34 38 39 44 47 54 58 66 76 80 81 73 55 32 16 12 15 12 12 13 20 25 28 36 36 37 37 36 32 25 24 31 29 25 18 16 18 22 27 33 39 42 45 49 52 51 46 44 41 34 38 39 45 50 55 53 50 54 48 47 49 42 35 32 39 46 44 44 44 48 57 53 47 31 22 23 35 57 72 72 62 41 31 30 32 43 63 84 68 44 36 41 47 53 77 96 82 46 24 30 39 50 57 64 
240 241 242 241 240 240 241 241 240 240 239 239 240 241 242 242 241 241 242 242 241 240 240 241 241 240 241 243 243 243 243 243 244 244 244 245 245 246 245 245 244 244 245 245 245 245 244 244 244 244 244 244 244 244 244 243 244 243 243 243 243 243 244 244 244 245 245 245 245 244 244 243 243 244 244 244 243 242 242 242 239 240 242 243 242 241 240 239 241 240 242 241 170 98 105 141 143 135 150 167 179 161 99 142 182 184 163 188 223 195 150 141 155 168 144 129 141 137 117 104 72 38 13 11 8 12 29 81 148 172 110 107 105 105 85 34 33 28 24 35 46 52 54 58 53 82 94 84 78 119 160 159 174 209 173 82 74 101 131 153 178 193 200 185 132 128 132 135 168 193 183 165 158 124 111 132 120 133 138 117 140 157 140 145 146 146 148 147 145 146 149 149 146 147 148 148 147 146 145 145 144 143 143 142 140 142 145 144 143 141 140 139 140 141 141 141 138 138 139 139 139 138 137 136 134 135 135 134 133 133 133 133 136 135 134 133 131 130 130 130 131 129 128 130 128 125 124 126 125 124 123 123 124 125 125 125 126 125 120 118 120 119 117 117 113 115 114 113 115 111 98 86 66 49 31 17 9 6 7 6 5 5 5 4 3 3 4 5 7 6 7 8 12 15 18 26 35 34 33 40 47 56 63 78 101 109 113 108 92 65 36 15 11 10 10 7 8 13 16 21 28 31 33 35 34 30 29 33 35 32 25 21 20 20 21 25 31 37 40 46 53 52 48 49 43 34 41 47 49 49 57 58 51 53 46 45 47 37 31 37 49 57 49 41 47 57 63 59 58 44 37 31 23 34 60 75 60 36 24 29 46 75 99 105 70 56 44 39 49 46 36 47 55 47 41 40 33 44 62 82 
238 240 241 240 239 240 241 240 238 239 239 240 240 240 241 242 242 242 242 242 241 241 243 244 243 242 243 245 245 245 244 245 245 245 245 245 246 246 245 245 242 242 243 243 244 243 243 243 243 243 244 244 244 244 243 243 243 243 243 242 242 243 243 243 244 245 245 245 244 244 243 243 243 243 242 241 242 242 241 241 239 240 242 242 243 242 241 240 240 239 239 237 157 90 115 146 139 129 150 166 172 168 83 105 154 152 134 147 189 187 162 152 161 173 152 135 136 126 110 100 68 25 16 13 10 10 37 115 181 132 100 97 121 161 139 58 26 28 31 46 49 43 46 40 41 44 73 99 76 71 110 130 164 179 186 105 70 100 130 150 154 165 184 185 136 130 140 155 170 183 170 163 162 135 130 132 132 130 139 128 147 138 131 148 147 148 150 150 147 147 147 145 146 147 148 148 146 143 144 146 145 143 142 141 140 143 145 143 142 140 138 138 139 140 140 139 138 137 137 137 137 136 135 134 135 135 133 132 132 133 133 132 133 132 132 132 132 132 131 129 131 128 127 129 128 125 124 126 127 125 123 123 123 124 124 123 123 123 120 118 119 119 118 119 114 111 115 116 112 110 103 89 74 58 39 24 12 7 7 6 7 6 5 5 5 6 5 5 8 6 8 8 12 15 17 24 33 32 34 42 47 55 66 92 116 129 133 131 120 100 68 34 14 10 12 11 9 10 9 11 17 21 25 30 36 38 36 36 38 37 32 29 27 22 19 19 26 29 33 43 53 51 47 49 49 40 47 54 52 44 51 55 55 58 53 47 48 43 38 45 54 60 48 35 41 51 59 64 67 63 64 55 36 34 49 57 54 31 21 30 41 65 98 118 91 60 46 43 56 75 60 41 36 40 54 60 45 42 53 83 
239 240 240 240 240 241 241 240 238 239 240 240 240 240 241 242 241 242 243 243 244 244 245 245 244 244 245 246 246 245 245 245 245 245 245 245 245 245 245 244 244 243 243 242 243 243 244 245 244 243 243 242 242 243 244 244 243 243 243 242 242 242 243 243 244 244 244 243 243 242 242 242 243 242 240 240 241 241 241 241 240 240 241 242 242 242 241 240 240 240 238 233 141 86 126 155 142 131 151 168 172 176 89 72 120 121 135 137 151 162 153 153 164 155 146 137 136 127 106 100 71 18 14 12 12 13 43 135 180 116 98 114 165 184 193 164 62 23 46 52 44 40 38 65 83 43 38 69 55 58 88 113 144 176 190 116 65 92 109 130 145 158 152 136 137 144 148 159 115 148 167 156 157 148 138 128 113 134 155 126 123 131 147 146 150 148 148 148 146 146 147 144 147 147 147 147 144 141 142 145 144 142 142 142 141 143 143 140 141 139 138 138 139 139 139 138 137 137 136 135 135 135 134 133 135 135 133 131 132 134 134 132 131 130 130 130 131 130 129 127 130 127 127 128 128 125 125 127 125 124 123 123 124 123 122 120 120 121 120 119 119 116 114 116 117 112 117 119 111 111 110 97 80 64 46 30 15 7 7 8 9 7 6 6 7 7 5 4 5 6 8 9 12 14 14 20 28 31 38 45 48 54 68 104 126 145 152 150 142 129 105 69 29 13 9 12 12 9 6 10 9 13 16 21 30 36 36 36 40 40 38 37 35 30 24 23 25 24 28 41 52 53 48 46 51 45 48 55 52 41 47 50 50 58 56 46 48 52 46 46 46 47 36 29 33 34 36 46 60 66 86 94 73 47 40 42 46 34 24 25 25 38 72 100 92 48 36 42 52 80 85 81 60 36 32 47 51 48 56 85 
240 240 240 240 240 241 241 240 239 240 241 242 242 242 242 242 242 242 243 244 245 246 245 245 245 244 244 245 245 244 243 244 245 244 244 244 244 244 244 243 245 244 243 243 243 244 244 245 244 243 242 242 242 243 243 244 244 243 243 242 242 242 242 242 244 243 243 242 242 241 241 241 242 241 241 241 241 241 242 242 241 241 241 242 242 241 241 240 241 241 239 229 126 87 125 149 143 132 146 164 173 181 120 67 114 122 145 145 141 151 151 172 174 151 145 141 131 120 102 91 62 18 13 13 13 26 59 149 191 117 81 138 187 190 197 212 143 36 46 51 42 36 59 134 171 159 57 24 26 66 85 116 152 179 189 121 63 95 120 138 159 157 135 136 146 158 184 168 121 121 153 160 151 128 127 147 134 151 140 117 134 145 150 148 152 148 147 146 145 145 146 145 146 145 145 145 144 141 141 143 143 142 143 142 140 141 141 139 140 139 139 139 139 139 138 138 137 137 135 134 134 135 134 132 133 133 133 131 131 133 133 131 131 130 129 129 129 128 127 126 130 128 127 127 127 126 125 126 123 124 124 124 123 123 122 121 121 122 122 121 121 118 116 117 118 113 115 116 111 111 111 104 93 77 59 43 25 11 8 9 8 7 7 6 6 5 4 3 4 5 8 8 11 14 13 19 26 31 38 43 48 57 69 103 133 156 169 172 165 156 140 107 64 32 12 8 7 6 4 6 7 10 11 14 20 23 25 28 35 37 38 37 36 32 28 29 28 26 29 40 50 56 56 53 50 48 48 51 53 46 51 51 44 47 47 39 42 47 39 34 36 36 29 27 31 27 22 29 27 38 67 91 77 43 27 30 34 34 27 29 36 46 66 81 69 40 30 38 46 59 69 98 101 58 26 36 55 61 85 112 
240 240 240 239 240 241 240 238 240 240 241 243 245 246 245 244 245 244 243 244 244 245 245 244 246 245 245 245 245 243 243 243 244 244 244 244 244 244 243 243 243 243 243 243 243 243 242 242 242 242 243 243 243 243 243 243 244 244 243 242 242 242 242 242 244 244 243 242 241 241 241 241 240 241 242 242 242 241 242 242 241 241 241 241 241 240 240 240 240 239 239 226 116 89 116 134 142 131 137 153 168 180 151 82 108 134 143 148 146 150 145 167 161 147 146 147 124 106 103 84 34 16 18 18 13 37 78 162 179 97 83 132 174 182 209 220 189 81 55 50 40 40 93 145 174 200 158 31 40 79 89 120 152 183 190 110 61 93 121 146 144 136 132 143 164 185 180 172 136 116 149 153 131 127 145 141 147 144 136 143 148 146 149 148 149 147 148 150 148 145 143 141 145 143 142 144 145 143 142 143 143 142 143 141 137 138 141 140 139 139 139 139 139 139 138 138 136 136 135 135 135 136 134 132 130 132 132 131 130 132 131 129 129 129 129 128 128 128 129 129 130 128 127 126 125 125 124 124 125 125 125 124 122 121 122 123 124 124 124 124 126 124 123 126 121 119 117 116 116 116 115 113 110 94 77 60 37 17 9 8 8 8 8 7 6 5 4 3 5 6 8 8 11 14 15 21 28 31 35 38 48 61 69 96 132 159 177 188 185 177 163 132 107 66 31 12 8 10 8 5 9 10 11 13 14 12 14 21 26 29 30 30 29 26 25 28 24 23 28 34 40 52 60 59 50 52 49 48 54 51 56 54 50 44 43 39 40 41 30 26 28 31 28 23 26 24 21 27 24 33 52 68 62 40 26 25 26 31 28 40 59 62 65 69 56 44 36 41 48 55 56 78 98 70 36 36 48 52 92 120 
240 239 239 239 239 240 242 243 243 243 244 245 245 244 243 243 245 244 244 244 244 244 244 243 243 242 242 244 244 243 243 244 243 244 245 245 244 243 243 243 244 243 243 242 242 242 242 242 244 244 243 242 242 242 243 243 243 243 243 243 243 243 243 243 241 242 243 243 242 242 242 242 241 241 241 241 241 241 241 241 240 240 243 238 243 239 238 243 239 241 239 149 93 88 110 133 140 137 132 156 170 179 166 118 112 138 169 155 148 149 146 157 149 147 147 147 125 98 104 70 15 20 15 7 17 57 94 157 145 92 82 115 143 170 195 210 198 119 78 53 37 54 93 133 174 201 182 71 53 79 89 114 145 172 191 112 80 96 122 126 113 127 140 163 182 176 173 167 143 122 149 125 124 133 138 131 141 142 142 145 149 148 148 151 148 149 148 145 143 143 143 143 146 144 143 145 146 144 143 143 143 143 142 141 139 138 137 137 138 139 140 139 138 137 137 138 135 135 135 135 134 133 132 131 133 131 130 130 132 133 132 130 129 127 127 129 130 129 127 126 126 126 126 126 125 124 124 123 124 124 122 121 122 124 125 124 125 125 126 128 129 128 129 131 130 131 130 129 129 127 127 130 125 114 102 83 54 29 16 8 8 8 8 7 5 4 4 4 3 6 8 8 8 11 15 18 29 30 31 39 45 57 70 88 124 154 175 190 196 191 181 164 139 109 78 34 6 10 11 8 12 14 16 16 15 13 13 14 18 18 18 18 18 16 16 17 14 18 20 22 31 45 56 60 53 44 44 48 55 56 51 58 56 52 43 41 42 43 29 24 31 23 37 40 33 35 36 43 42 49 64 65 57 41 33 28 31 32 34 55 67 55 35 35 40 43 46 43 41 55 60 72 108 88 39 30 41 63 105 111 
240 240 240 240 241 242 243 243 244 244 245 245 245 244 244 243 244 244 243 243 244 244 243 242 244 243 243 243 242 241 242 243 243 244 244 244 243 242 242 243 244 243 242 242 242 242 242 242 242 242 242 242 242 241 241 240 242 242 242 242 241 241 241 241 242 243 243 243 242 242 242 242 242 242 242 241 241 241 241 242 241 239 239 241 240 237 242 241 236 237 182 110 101 99 103 124 143 141 141 157 169 175 174 146 127 156 193 166 156 150 148 154 154 147 153 148 113 108 104 58 23 20 13 15 26 84 122 149 125 94 87 110 133 163 189 200 196 140 90 59 43 67 89 118 160 182 186 96 56 84 97 115 147 174 190 115 88 112 107 89 119 134 165 176 175 170 169 166 139 131 135 124 126 113 108 115 130 138 144 146 147 147 146 147 146 146 145 143 143 144 144 143 143 141 142 144 144 143 143 145 140 142 143 141 138 137 138 140 140 138 136 136 136 136 134 132 134 134 134 134 133 133 132 132 132 131 131 131 131 132 131 131 130 128 126 127 128 127 126 126 126 126 125 125 124 123 122 122 123 123 122 122 123 125 126 125 127 128 130 132 133 133 136 140 141 143 144 144 145 145 145 148 145 134 121 100 69 41 21 9 12 10 7 5 4 4 5 5 4 5 7 8 9 11 14 17 27 31 32 38 44 56 67 79 111 145 170 189 200 203 198 183 165 139 113 76 36 14 8 14 14 17 20 19 17 16 15 14 13 12 12 12 11 10 10 10 9 11 12 13 21 36 50 56 46 43 48 54 59 58 51 54 55 58 56 50 42 43 34 30 33 33 38 47 45 43 59 72 70 60 65 64 53 50 39 28 29 40 55 65 62 39 25 30 31 45 50 55 48 45 50 65 97 78 47 45 64 111 123 87 
241 242 242 243 243 243 244 244 244 244 244 244 244 243 243 243 244 244 243 243 243 243 242 242 244 243 243 243 242 242 243 245 243 243 243 243 242 242 242 243 243 242 242 242 242 242 242 242 242 242 242 242 242 241 240 240 241 241 241 241 241 241 241 241 242 242 243 242 242 241 241 241 242 242 241 241 241 241 241 242 241 241 240 240 240 241 239 233 227 177 160 171 145 94 108 130 152 159 164 162 172 177 173 150 136 157 186 159 152 149 149 154 152 153 143 128 108 107 102 65 31 19 13 23 74 136 150 125 111 94 95 119 135 166 193 200 197 159 97 63 49 76 88 113 157 177 196 122 56 87 106 129 150 183 191 133 103 136 93 93 127 166 191 176 169 168 161 157 148 138 137 136 136 125 132 111 124 139 148 147 146 146 145 144 143 143 142 142 143 144 143 142 143 142 142 142 141 139 140 142 139 139 140 139 137 137 138 139 138 136 134 134 135 135 134 132 133 133 132 132 132 132 132 132 129 130 130 130 129 129 129 130 130 128 126 126 125 125 126 126 126 126 125 124 123 122 122 121 121 122 121 121 122 124 125 126 128 129 132 134 136 139 144 148 147 151 153 155 158 159 161 164 166 155 139 116 85 53 27 11 12 9 5 3 4 4 5 4 5 4 6 9 10 11 13 16 20 28 31 38 46 62 73 83 99 135 163 183 200 210 212 201 185 163 139 114 77 37 17 18 17 21 22 20 18 17 16 15 14 12 11 11 11 10 9 8 7 8 7 6 13 28 45 56 49 44 46 50 56 58 52 49 54 61 64 53 39 44 45 42 35 38 39 44 41 38 66 105 98 77 61 61 59 58 47 48 48 55 66 62 51 30 28 33 37 38 41 54 55 62 68 53 53 39 30 38 58 104 98 61 
242 243 244 244 245 244 244 243 244 244 243 243 242 242 242 242 244 244 244 243 243 243 242 242 242 243 243 243 242 242 244 245 242 243 243 242 242 242 242 243 243 242 242 242 242 243 242 242 243 243 242 241 241 241 241 241 241 241 241 241 241 241 241 241 242 242 242 241 241 240 240 240 241 241 240 240 240 240 241 241 241 240 244 238 242 240 232 236 171 138 154 177 177 111 95 126 149 162 170 167 177 178 161 137 134 144 157 157 153 151 146 147 141 148 132 118 116 102 100 65 21 14 20 45 136 180 131 107 96 99 100 117 134 163 188 201 203 173 106 77 65 81 92 122 154 180 199 131 54 90 109 136 164 186 207 157 127 125 103 131 164 163 139 150 167 163 156 160 146 135 122 121 155 147 147 113 132 143 149 146 144 145 144 143 142 141 141 141 142 143 143 142 143 142 142 141 139 137 137 139 141 139 137 137 138 138 137 136 133 135 136 135 133 133 133 134 131 131 131 131 131 131 130 130 129 130 131 130 129 128 128 129 130 129 127 126 125 125 126 127 126 125 125 124 123 123 122 122 121 121 120 119 120 122 124 126 127 129 132 136 139 143 149 153 153 159 162 165 169 172 175 178 181 169 151 128 98 65 34 14 9 7 5 4 5 5 4 3 5 4 5 10 11 11 12 16 16 25 32 43 55 74 89 103 114 145 167 185 201 212 219 213 204 186 156 128 98 59 30 17 22 23 22 20 18 16 16 17 13 11 10 10 11 9 8 7 8 10 9 6 8 22 43 58 59 51 46 46 53 58 54 47 47 55 62 48 34 44 49 43 39 34 36 35 33 30 52 108 118 86 53 56 72 88 87 76 69 68 70 60 45 33 35 37 37 38 46 53 49 57 64 48 33 25 23 28 43 63 52 37 
242 243 244 245 245 244 243 243 244 244 243 242 242 242 242 242 243 243 243 243 242 242 242 241 242 242 242 242 241 240 240 240 242 242 242 242 242 242 242 243 243 242 242 242 243 243 242 242 243 242 242 241 241 241 241 241 240 240 240 240 240 240 240 240 242 241 241 241 240 240 240 240 241 240 240 240 240 240 240 240 242 238 243 239 242 237 237 232 140 112 147 169 186 139 91 126 153 160 166 171 174 167 143 135 141 146 145 157 155 147 149 146 142 135 132 122 112 105 100 44 19 25 46 94 187 144 114 97 95 107 101 105 125 151 174 199 205 180 114 90 80 79 94 123 145 174 194 135 56 97 121 142 175 191 207 201 146 123 140 173 188 147 88 138 164 156 160 153 126 124 128 130 147 135 145 139 142 146 145 143 144 144 142 141 142 142 142 142 143 143 143 143 141 140 139 139 139 138 138 139 140 139 138 138 139 139 138 137 132 134 135 135 132 131 131 131 131 131 131 131 131 130 129 128 130 131 131 130 129 128 128 128 128 128 127 126 125 126 126 126 124 124 124 124 123 123 122 122 121 121 121 121 121 121 123 125 127 129 132 136 141 147 151 153 159 165 170 173 178 182 185 188 193 183 164 140 112 76 39 16 9 8 7 7 7 6 4 3 4 4 6 10 11 10 12 16 16 25 35 53 67 87 105 124 139 162 176 191 203 211 220 218 211 196 161 126 95 62 36 23 25 23 22 21 18 15 15 18 13 11 9 10 11 10 8 8 8 10 11 7 5 15 35 53 62 58 54 53 55 59 58 49 41 49 61 50 36 41 45 36 41 31 31 36 43 35 42 87 101 76 50 44 53 91 121 84 62 67 71 67 50 45 45 44 42 37 41 49 58 50 36 36 35 37 35 31 48 59 51 30 
242 243 243 244 244 243 242 242 244 243 243 242 242 242 242 242 242 242 242 242 241 241 241 241 241 241 242 241 241 241 241 240 242 242 242 242 242 242 242 242 242 242 242 242 243 242 242 241 240 241 242 242 242 241 240 239 240 240 240 240 240 240 240 240 242 241 241 240 240 240 240 240 240 240 240 240 240 240 240 240 240 240 239 238 239 242 236 191 112 117 154 163 178 164 93 109 152 162 162 159 152 147 134 136 143 149 148 151 148 137 152 150 144 130 136 122 105 112 78 23 27 35 71 166 159 110 112 107 114 89 90 106 120 144 174 195 205 188 114 83 82 80 99 123 140 166 190 141 64 106 142 159 171 204 203 202 187 136 167 190 176 155 92 136 161 156 160 138 132 141 141 141 143 139 139 152 147 147 143 142 145 145 142 141 144 143 143 143 143 142 142 143 139 139 138 139 139 139 139 139 136 137 139 138 137 136 138 139 133 132 132 133 134 134 132 131 131 131 131 131 131 130 128 127 129 129 129 129 128 127 126 125 126 126 126 125 125 125 125 123 122 123 123 123 123 122 121 121 120 121 123 123 123 122 122 123 126 128 131 134 139 144 148 149 159 166 171 175 181 186 190 193 199 191 173 149 121 83 40 12 11 10 8 7 5 4 3 3 4 4 7 9 10 10 11 15 16 22 33 58 78 99 119 141 157 174 184 197 207 211 217 214 200 184 154 121 93 63 37 28 23 22 22 21 18 14 13 14 13 11 10 11 11 11 10 10 7 9 10 8 5 9 25 41 56 59 61 59 53 54 61 58 45 51 65 56 42 42 46 42 38 37 33 43 49 38 46 72 74 67 51 38 38 67 104 74 42 50 57 60 51 59 65 70 59 43 47 58 71 60 36 26 30 37 42 40 53 61 66 42 
242 242 242 242 242 242 242 242 243 243 242 242 242 242 242 242 241 241 242 241 241 241 241 241 241 241 241 240 241 243 243 241 241 241 241 242 242 242 241 241 242 242 241 242 242 242 241 240 239 240 241 242 242 241 240 239 240 240 240 240 240 240 240 240 241 241 240 240 240 240 240 240 240 240 240 241 241 240 240 239 239 240 238 237 234 236 197 152 135 143 161 170 174 179 123 95 124 140 142 135 135 138 137 136 135 141 147 148 143 137 147 147 138 132 134 122 119 101 42 19 35 44 133 167 116 102 107 117 106 60 77 104 120 144 176 190 207 197 103 63 78 85 106 127 140 165 186 159 109 136 157 165 182 195 195 200 171 159 176 166 166 151 100 126 150 144 144 130 139 144 147 140 118 134 144 142 147 148 145 144 145 145 143 143 144 142 141 141 141 141 140 141 139 139 140 139 138 137 137 137 134 135 136 136 136 135 135 136 133 132 132 133 134 134 134 133 132 131 130 129 129 129 128 127 127 127 127 127 127 126 125 124 126 125 124 124 124 125 123 121 121 122 122 122 122 121 120 119 119 120 121 122 121 120 121 123 123 125 127 128 132 137 141 142 154 162 168 172 179 186 191 195 199 193 175 152 126 87 42 13 11 10 8 6 4 3 3 3 4 5 6 7 8 9 11 12 13 16 26 55 83 109 130 151 171 187 195 204 210 208 205 195 179 161 139 111 84 57 32 26 22 24 23 19 16 15 14 11 11 10 9 10 9 8 8 9 9 8 9 9 7 7 16 26 45 54 61 60 48 47 60 61 50 50 61 56 48 43 46 46 36 42 41 42 39 35 44 60 66 60 46 45 57 73 79 59 33 40 45 43 41 54 72 84 62 52 73 88 78 60 52 40 35 36 41 47 60 58 55 45 
243 242 242 242 242 242 242 242 242 242 242 242 242 242 242 242 241 241 242 242 241 241 241 242 243 242 240 239 240 242 241 239 240 240 241 241 241 241 241 240 241 241 241 241 241 241 240 239 240 240 240 240 240 241 241 241 239 239 239 239 239 239 239 239 240 240 239 239 239 240 240 239 239 239 240 240 240 240 239 238 239 234 238 237 229 214 148 151 173 171 172 181 175 187 160 93 104 116 122 127 140 141 142 138 143 139 141 144 137 143 143 149 146 135 127 119 128 75 22 33 45 105 190 142 108 90 97 107 71 54 79 93 123 149 172 190 201 196 87 44 71 85 101 121 143 169 188 187 177 185 168 158 183 194 193 173 168 183 164 165 160 143 121 130 132 121 125 115 125 132 122 111 119 142 149 148 145 148 147 143 143 144 143 144 143 140 138 139 140 139 139 139 137 139 140 139 137 136 136 137 137 135 133 134 137 138 135 131 133 134 134 133 130 129 131 133 132 130 128 127 127 128 128 127 127 127 128 128 127 126 126 126 126 126 124 123 124 124 123 120 121 121 122 122 122 120 119 118 119 118 118 118 117 117 119 123 121 123 124 125 127 131 136 138 144 153 160 165 173 181 187 191 197 192 174 152 129 92 47 19 11 10 9 8 6 5 4 4 5 5 6 6 7 9 10 9 14 13 20 49 82 114 135 154 179 196 202 206 205 197 184 166 148 131 116 87 60 42 26 28 23 28 26 18 15 18 17 12 12 11 11 11 10 9 9 10 10 7 7 10 9 7 10 15 35 47 58 61 49 46 57 57 48 43 53 53 50 40 38 36 38 41 48 35 29 35 35 43 47 39 40 51 64 85 71 46 34 44 50 38 30 33 55 72 53 43 64 99 102 73 63 53 44 40 33 47 76 67 38 33 
242 242 242 242 243 243 242 241 241 243 242 239 239 242 242 237 240 240 240 241 241 240 240 240 242 241 241 240 240 241 241 242 241 240 240 242 242 241 241 243 242 242 241 241 241 240 240 240 241 239 239 241 241 240 239 240 239 239 239 239 240 240 240 239 241 241 240 238 238 239 240 240 239 239 240 241 241 239 239 240 239 237 240 236 237 166 115 149 171 191 183 178 187 184 177 137 113 122 133 136 137 132 138 143 144 147 142 142 145 145 143 138 140 129 114 116 113 43 27 41 80 159 165 115 96 69 74 65 41 58 80 95 116 144 178 190 202 191 89 44 67 87 94 119 150 170 191 186 174 174 161 164 168 164 167 173 157 155 163 162 156 140 137 153 130 116 133 112 113 127 126 138 144 145 143 147 143 144 145 145 144 143 143 143 142 138 142 139 137 140 138 139 139 138 138 139 138 137 137 138 137 135 135 136 136 135 133 132 136 133 132 132 131 129 129 131 132 131 130 129 128 127 127 127 126 126 127 126 123 124 126 125 125 123 123 124 124 122 121 122 120 121 122 121 120 123 123 120 116 118 120 118 115 116 118 116 120 120 121 123 123 125 128 132 139 141 148 157 164 168 175 182 190 187 168 148 127 91 50 19 14 12 9 6 6 7 6 4 3 3 4 6 7 8 10 11 13 8 19 22 69 110 135 161 180 198 207 204 192 175 156 137 120 99 74 52 35 27 27 28 22 26 27 21 18 18 16 11 10 10 10 11 11 10 11 12 11 10 9 9 8 8 9 11 26 41 45 48 56 53 52 64 55 48 49 54 52 43 39 39 38 44 50 47 37 32 35 38 37 27 27 35 51 54 50 41 33 35 40 42 38 38 44 49 37 33 40 70 106 82 62 63 58 56 64 80 88 72 46 35 
241 242 242 242 242 242 242 241 242 242 241 240 241 242 241 239 240 240 240 240 241 240 240 240 240 240 240 239 239 239 240 240 241 240 240 241 241 241 241 242 240 240 240 240 240 240 240 239 239 238 238 239 240 240 240 240 240 240 239 240 240 240 240 239 240 240 240 239 239 240 240 239 239 238 239 240 239 238 238 240 235 240 239 238 203 117 106 147 156 172 179 181 184 185 195 184 134 139 143 147 153 145 144 147 144 142 150 147 145 139 121 120 119 113 103 92 60 37 37 78 127 175 127 93 68 45 41 32 40 64 85 92 116 144 173 190 198 197 90 34 61 85 103 126 151 165 188 184 157 148 137 136 138 142 176 184 124 114 155 162 150 135 143 151 127 128 145 142 138 148 152 149 143 145 147 142 143 144 144 144 144 143 142 142 141 138 141 139 138 140 139 139 139 138 138 138 136 134 134 135 136 135 135 134 135 134 134 133 134 133 132 131 130 128 129 130 130 129 129 129 128 127 127 126 127 125 125 124 124 126 126 123 126 123 122 123 124 122 122 123 120 119 120 121 119 120 120 117 119 117 118 119 116 117 119 119 119 118 118 119 119 120 123 126 132 134 140 148 155 162 170 177 183 183 164 141 118 85 47 19 15 13 10 7 6 7 5 3 4 4 5 6 7 7 8 10 11 12 13 16 41 96 126 153 179 197 204 195 177 155 131 108 81 63 44 33 27 27 27 25 20 23 23 20 17 17 15 11 11 10 10 11 10 10 9 10 10 10 9 9 8 7 7 9 18 36 40 39 49 54 51 53 56 50 49 52 51 47 43 41 48 52 54 53 51 48 49 55 52 44 39 36 40 37 40 43 42 35 50 69 56 48 45 38 36 34 33 43 65 51 45 48 61 64 89 117 108 76 62 66 
240 241 242 242 242 241 241 242 242 241 240 241 241 241 240 239 239 240 240 240 240 241 240 240 240 240 240 239 239 239 239 239 240 241 241 240 240 240 240 240 239 239 240 240 240 240 239 239 239 239 239 238 239 240 240 239 240 240 240 240 240 240 239 239 239 240 240 240 240 240 239 238 239 238 238 238 238 238 238 239 242 237 234 222 137 98 116 130 144 157 174 181 183 191 202 197 152 148 151 162 178 170 155 147 148 141 142 133 129 126 116 121 120 104 85 69 41 40 68 106 149 184 140 107 89 84 40 28 51 81 94 94 117 140 163 187 204 200 112 46 45 77 125 139 159 187 191 163 141 144 142 144 159 172 173 160 111 104 147 160 150 130 142 139 127 144 145 145 151 138 144 148 145 145 147 143 145 145 144 144 143 142 141 140 140 137 140 140 138 140 139 139 138 137 137 137 136 135 134 135 134 135 134 133 132 134 134 132 132 133 133 131 129 129 130 130 129 129 128 127 127 127 127 127 126 124 124 124 123 125 126 123 126 122 120 121 122 122 122 122 122 119 119 120 119 119 119 117 119 115 116 119 117 116 118 119 116 115 115 116 117 117 118 119 123 127 132 138 145 153 162 168 174 176 160 135 111 79 45 20 14 12 10 8 8 8 7 5 5 4 5 6 6 6 7 9 8 12 9 11 19 69 111 144 172 187 190 177 154 128 100 74 47 35 25 22 23 24 23 20 19 19 19 18 17 16 14 12 12 11 10 10 10 9 8 8 9 8 9 9 8 7 7 8 14 39 47 40 43 47 44 43 53 49 47 50 55 56 53 50 49 52 50 48 51 55 54 53 47 54 62 66 68 54 51 59 56 48 50 63 60 52 41 34 33 38 44 46 46 25 24 31 39 46 71 93 75 55 75 98 
240 241 242 242 242 241 241 241 240 240 239 240 240 240 239 238 239 240 240 240 240 241 241 240 241 241 241 240 240 240 240 239 239 241 240 239 239 240 240 239 239 240 240 241 241 240 240 239 240 241 240 238 238 240 240 239 241 241 240 240 240 240 239 239 238 239 240 240 240 240 239 238 239 238 238 238 238 238 238 239 234 237 236 173 108 116 106 112 141 168 193 196 187 192 200 189 158 144 143 147 157 156 152 148 146 132 116 116 120 116 116 118 113 91 68 51 39 55 94 123 146 148 131 125 159 182 113 46 71 100 97 99 117 137 161 191 207 203 149 81 52 79 139 154 166 183 169 141 134 146 152 166 181 165 162 146 108 104 130 162 150 132 144 128 127 149 148 152 157 130 135 145 150 144 144 144 145 145 144 144 144 143 141 140 140 137 139 140 138 138 139 138 136 136 136 136 136 135 135 135 132 135 134 132 131 133 133 130 130 132 132 129 128 130 130 129 130 129 127 126 126 126 127 127 123 125 127 125 122 122 125 126 124 121 119 120 121 120 120 121 122 118 117 119 118 118 119 118 116 113 115 117 117 116 116 115 113 113 113 115 116 116 115 115 117 122 126 130 136 145 153 157 164 166 151 130 106 74 42 20 13 12 10 9 9 9 8 7 5 4 4 6 7 8 8 9 8 8 9 10 16 37 88 132 158 167 165 152 129 101 72 47 30 26 24 24 22 20 19 16 17 17 17 18 17 15 14 14 13 11 10 11 11 10 8 8 8 7 8 9 9 8 8 9 16 43 54 48 46 46 43 43 50 47 46 51 58 60 57 55 48 49 45 37 42 61 65 51 45 48 60 86 114 101 77 69 53 43 39 45 54 50 46 46 34 35 42 45 41 26 30 36 43 49 52 55 42 40 67 80 
240 240 240 241 242 241 240 239 239 240 239 238 239 240 240 237 238 239 239 239 239 240 240 240 240 240 240 240 240 240 239 239 238 240 240 238 238 240 240 239 240 240 241 241 241 240 239 239 239 240 240 238 238 240 241 239 240 240 240 240 239 239 238 238 239 239 239 239 239 239 239 239 238 238 238 238 238 238 238 237 238 236 232 115 95 115 98 116 162 190 207 211 197 192 198 189 164 147 149 146 140 140 145 142 134 116 98 104 118 122 122 121 97 75 66 56 53 79 79 96 132 127 117 134 165 186 191 124 93 109 98 110 122 138 166 200 209 203 164 116 120 129 133 135 146 147 142 132 136 156 152 144 156 155 145 140 114 106 135 164 141 127 136 121 134 150 152 163 149 140 146 144 147 145 144 144 143 143 143 143 143 143 142 140 140 138 138 139 137 136 138 138 136 136 136 135 134 134 133 133 131 134 134 132 131 133 131 128 130 130 130 128 128 130 129 127 129 128 127 126 126 126 126 126 124 125 127 125 122 122 125 125 121 121 120 121 120 119 119 119 120 116 117 119 118 116 117 116 115 114 115 115 115 116 116 112 113 112 112 113 114 115 114 113 115 118 121 123 127 137 145 149 157 154 138 121 100 67 36 17 14 13 11 10 9 8 7 6 7 5 4 6 8 9 9 9 9 8 9 10 16 15 63 116 139 140 134 126 105 75 47 26 21 20 21 22 20 18 18 17 16 16 17 17 16 14 14 15 13 11 11 12 12 11 10 9 8 8 8 8 8 7 8 10 13 40 53 50 51 54 51 47 48 45 44 50 56 53 49 50 46 47 44 31 34 67 79 55 41 36 42 74 116 112 91 84 70 49 46 52 69 72 75 63 48 44 41 38 32 27 38 44 68 73 59 44 31 33 59 73 
239 239 240 241 242 241 240 239 239 240 239 237 238 241 240 238 238 239 239 237 238 239 239 238 239 239 239 238 238 238 238 238 239 239 239 238 239 239 240 239 240 240 240 240 240 239 239 239 238 239 239 238 238 239 240 240 239 239 239 239 239 238 238 238 239 238 238 238 239 238 238 239 237 238 238 238 238 238 237 236 234 233 199 90 92 114 99 115 181 196 196 204 195 178 179 183 175 150 145 138 137 143 139 122 115 115 111 94 101 122 117 111 102 71 61 58 65 66 62 73 90 111 113 144 172 182 207 167 82 81 89 114 127 140 169 198 200 200 179 143 148 141 120 126 120 127 136 140 158 175 144 117 151 151 146 139 112 116 139 138 117 114 126 124 140 141 132 141 142 145 149 144 146 145 144 144 143 143 143 142 141 140 139 138 141 138 136 138 136 134 137 136 135 135 135 134 135 135 134 133 132 133 132 131 131 132 130 128 131 130 129 128 129 130 129 127 126 127 127 127 127 125 124 123 126 124 123 123 123 125 125 122 120 121 122 121 120 119 119 119 118 117 119 120 118 116 116 114 116 116 116 114 113 116 116 112 114 113 111 110 110 112 113 112 115 117 118 118 121 130 138 143 151 145 127 112 93 60 31 16 13 12 10 10 9 8 7 7 8 6 5 7 8 8 8 8 9 11 7 10 12 12 46 97 110 108 103 99 82 54 32 18 20 17 17 17 17 17 17 15 15 16 16 16 14 13 13 15 13 12 11 13 13 12 11 10 9 9 8 8 7 6 7 8 9 40 56 49 46 53 54 49 43 40 37 42 48 45 42 47 42 44 47 37 33 59 71 50 36 32 35 56 85 80 72 77 86 90 81 61 73 85 99 101 93 72 55 50 42 36 46 52 67 68 55 45 37 33 48 63 
238 239 240 241 241 241 240 239 239 239 238 237 238 239 239 239 238 240 239 237 237 239 239 238 239 238 238 238 238 238 239 239 240 239 239 239 239 238 238 239 239 239 239 239 239 239 239 239 239 238 239 239 239 238 238 239 238 238 239 238 238 237 237 237 238 237 237 238 238 238 237 238 237 238 238 237 237 238 237 236 233 232 128 61 86 112 95 118 168 184 186 192 185 164 150 162 153 143 146 140 141 137 111 82 80 97 108 94 101 122 112 97 75 58 62 72 76 53 58 60 52 74 97 130 172 194 200 185 72 46 84 108 124 137 166 191 203 194 185 156 138 131 124 125 120 125 147 163 177 171 124 111 149 142 151 130 123 123 96 125 107 124 138 132 136 134 117 129 149 149 146 149 147 145 143 143 143 143 143 142 140 138 137 137 140 138 135 138 136 133 136 135 134 135 135 134 135 136 136 134 134 132 130 130 131 131 130 129 131 129 129 129 130 129 128 128 126 126 127 126 126 125 125 124 126 123 122 122 122 124 124 120 120 120 121 121 120 119 119 119 117 117 120 120 116 116 117 115 117 116 116 116 114 115 116 114 113 113 111 109 109 110 111 110 112 114 114 115 117 122 128 133 141 137 121 106 86 55 29 15 12 10 9 9 9 8 7 8 7 6 6 7 7 7 8 9 9 9 7 11 11 15 36 71 76 76 73 69 55 36 25 19 21 18 17 17 15 16 16 13 15 15 15 14 13 14 14 14 12 12 12 13 13 12 11 11 10 9 9 9 8 7 7 8 11 42 59 50 42 46 51 52 46 43 35 34 41 42 42 48 46 45 51 49 41 46 56 56 51 43 40 53 72 60 46 45 68 111 106 68 54 60 81 117 126 101 70 57 56 64 71 68 59 49 44 53 65 67 59 49 
237 239 240 241 241 240 239 239 240 237 235 237 238 237 238 240 239 241 240 238 238 240 240 238 239 239 239 238 238 239 240 240 241 239 239 240 239 238 238 239 239 239 239 239 239 239 240 240 241 240 240 241 240 237 237 238 237 238 238 238 237 237 237 237 237 236 237 239 239 237 237 237 239 239 238 237 237 239 238 237 237 204 78 53 81 98 94 104 152 172 178 184 192 178 140 136 147 162 177 158 142 124 98 84 95 98 98 108 118 113 96 79 58 51 65 77 75 78 61 48 42 43 86 123 154 182 199 193 105 55 105 112 122 133 162 184 194 196 205 187 150 137 135 126 131 137 173 180 168 159 118 103 141 144 136 128 129 126 113 124 130 149 148 131 135 154 133 143 148 149 144 150 144 145 147 143 140 141 142 142 141 140 139 140 138 137 135 139 137 132 136 134 135 135 134 133 133 134 133 131 135 131 128 129 131 131 131 130 129 127 127 128 128 126 125 127 128 127 126 125 125 125 126 127 124 123 123 122 120 121 122 120 119 119 119 119 119 120 119 118 115 117 118 116 113 115 118 117 115 113 115 118 116 113 113 113 110 111 112 111 110 110 110 109 108 109 111 113 114 115 118 121 130 130 117 102 82 53 28 14 14 11 10 9 8 6 5 6 4 5 7 7 7 6 8 11 11 3 8 13 12 13 26 47 52 55 52 47 34 21 19 19 16 16 18 18 15 15 15 14 15 16 15 13 14 15 15 13 12 12 12 13 13 12 11 12 9 9 10 11 10 9 8 9 19 40 54 51 45 47 52 57 57 54 40 32 37 40 41 46 51 46 48 52 45 37 51 75 65 57 54 65 81 67 52 49 67 101 103 86 54 39 43 77 110 118 98 64 52 73 86 74 56 41 37 47 72 105 114 102 
239 239 240 239 239 239 238 238 238 239 238 236 237 239 238 236 240 239 239 238 238 238 238 238 239 238 239 239 239 238 239 239 239 239 239 240 239 239 239 239 237 237 238 238 238 238 238 239 237 238 238 238 238 238 238 237 238 238 238 237 236 236 236 237 238 238 238 238 238 238 238 238 238 237 237 238 239 238 237 236 237 179 69 59 59 88 95 110 132 153 170 178 188 184 147 130 160 190 201 189 148 119 104 119 162 175 129 113 111 99 88 80 65 66 84 73 102 108 56 35 27 37 90 119 148 174 191 194 143 70 102 120 136 143 158 180 197 205 210 190 152 137 140 134 140 162 176 170 157 148 112 85 128 145 116 105 124 117 138 127 141 154 149 131 148 158 144 149 150 148 147 147 147 145 144 144 142 142 140 139 138 139 138 137 134 135 136 135 134 134 135 136 133 134 136 136 133 134 134 132 136 131 130 128 128 129 128 130 129 130 128 126 125 126 126 124 125 128 125 123 127 125 122 126 124 125 125 122 122 123 121 119 121 119 118 118 117 116 115 115 118 117 119 118 114 114 116 114 116 115 113 112 112 112 112 111 108 108 111 110 109 110 108 109 109 107 106 108 109 110 113 117 123 125 112 91 73 48 24 13 12 11 9 8 9 9 8 7 6 6 7 8 8 8 8 10 8 8 8 8 10 15 23 31 38 37 35 31 26 22 20 19 16 15 15 16 17 16 15 13 12 15 16 15 13 13 14 13 14 12 14 16 13 13 13 10 10 10 9 9 10 11 9 7 20 38 58 53 43 44 61 57 60 51 44 38 35 35 34 38 41 40 39 43 34 22 52 101 100 67 54 68 86 98 73 50 45 54 87 106 99 76 41 48 70 86 108 103 80 70 70 65 49 38 35 47 59 79 91 101 
239 239 239 239 239 239 238 238 238 238 238 237 238 238 238 237 238 238 238 238 238 238 238 238 239 237 237 238 239 238 238 238 240 239 238 238 239 239 238 237 237 238 238 238 238 238 238 239 237 237 237 238 238 238 238 238 238 238 238 237 236 236 237 237 239 238 237 237 238 238 238 238 237 236 236 238 238 237 236 236 238 150 73 76 61 80 100 114 128 146 168 169 151 140 130 140 173 192 208 182 144 122 105 142 182 223 183 109 87 87 83 77 72 87 89 97 135 136 73 31 27 46 94 118 140 165 187 198 159 107 115 138 143 148 162 189 202 204 196 164 143 142 142 148 170 171 174 158 144 143 105 86 121 132 111 108 121 119 143 139 139 147 141 156 150 149 155 153 151 149 147 147 147 145 144 143 143 142 140 137 137 138 138 137 135 136 137 137 135 135 136 137 134 134 135 134 132 132 133 131 131 128 129 128 129 130 127 129 129 129 128 126 126 127 127 126 124 126 124 123 125 124 122 125 123 125 124 122 120 121 120 119 121 120 119 119 118 117 117 117 116 116 117 118 117 117 116 114 115 114 113 112 112 112 111 110 112 110 111 109 110 111 109 110 111 108 107 107 108 108 110 113 115 116 104 86 70 48 26 16 12 10 8 8 10 10 9 7 6 6 7 8 7 6 6 7 6 6 7 9 12 16 22 27 27 27 26 25 23 20 18 17 17 17 16 16 15 15 14 13 13 14 14 13 13 13 13 12 12 12 13 14 13 12 13 12 9 9 8 7 8 9 8 7 16 37 55 55 45 45 57 55 53 51 47 38 37 42 41 40 36 33 40 41 32 23 42 87 111 72 46 53 74 97 78 53 34 34 46 76 113 105 54 43 48 53 72 105 103 90 72 51 46 42 33 42 54 50 39 50 
238 238 238 238 238 238 238 238 238 237 238 238 238 238 238 239 237 237 237 238 238 238 237 237 240 238 237 238 239 239 238 238 240 239 238 238 238 238 238 237 238 238 238 238 238 238 238 238 237 237 237 237 238 238 238 238 238 238 237 237 237 237 237 238 239 238 236 236 238 238 238 237 236 236 236 237 237 236 236 237 223 130 76 74 73 89 100 114 138 153 152 117 79 83 112 153 179 192 192 129 99 106 101 152 197 224 199 129 78 72 70 82 93 91 102 138 164 182 147 45 40 67 103 116 129 154 178 192 186 171 147 147 154 159 167 183 193 183 169 142 140 153 142 133 152 169 161 143 138 135 105 114 137 134 116 118 127 132 148 145 127 130 145 153 141 158 159 154 154 151 148 148 148 146 143 142 143 142 140 138 138 138 138 137 136 137 137 137 135 133 133 134 133 133 134 132 130 130 132 130 130 127 128 128 130 131 128 129 128 126 126 126 126 126 125 126 123 124 124 123 124 123 123 123 121 123 124 121 118 118 119 120 121 119 119 119 119 118 118 118 115 116 115 115 117 118 115 113 114 113 113 113 113 113 111 110 112 109 109 107 108 110 107 108 109 107 106 107 108 107 109 110 111 109 96 80 65 46 26 17 11 9 8 8 9 10 8 7 6 6 7 8 8 7 6 7 7 6 6 9 13 17 21 24 23 23 22 22 21 20 17 15 17 17 16 15 14 14 13 13 13 13 12 12 13 13 12 10 11 13 13 12 13 12 11 13 11 11 10 9 9 9 8 6 17 40 55 57 48 48 53 55 49 50 51 46 45 49 45 42 43 34 49 47 37 29 39 87 105 69 45 54 60 79 71 58 42 41 40 60 102 106 77 64 61 50 54 100 104 89 70 52 46 51 51 61 65 51 31 34 
237 237 237 237 237 237 237 237 237 237 237 239 238 236 237 239 238 238 238 238 237 237 236 236 239 238 238 238 239 238 238 238 240 239 238 238 238 238 238 237 237 238 238 238 238 238 238 239 238 238 238 238 238 238 238 238 238 238 237 237 237 237 238 238 238 237 237 237 238 238 237 237 236 236 237 237 236 235 236 237 213 102 47 42 58 73 76 104 135 143 115 69 47 60 96 147 176 185 156 74 58 84 97 147 199 213 201 156 60 56 65 83 82 101 123 151 181 204 198 95 54 80 105 117 129 156 179 190 198 212 182 152 157 145 150 159 159 147 146 147 159 173 144 97 111 148 144 147 150 135 110 117 145 138 119 118 133 153 154 143 137 132 148 133 139 168 161 159 157 154 150 149 148 145 142 140 140 141 140 139 139 138 137 135 134 134 135 135 135 133 133 133 132 131 131 131 129 130 132 132 132 128 128 128 129 130 128 129 127 125 124 126 126 124 124 125 124 123 124 124 123 124 124 123 120 122 122 120 117 118 119 120 120 119 118 119 119 118 118 118 117 118 113 111 115 115 112 113 112 111 111 112 112 112 111 110 110 106 106 105 106 108 104 105 104 104 105 106 106 105 106 107 107 102 89 74 60 41 23 14 11 10 9 9 8 8 6 5 5 5 6 8 8 7 7 8 9 7 7 9 13 17 21 24 24 24 23 22 20 19 16 15 16 15 15 14 15 15 14 13 13 12 11 12 13 13 12 11 12 15 13 11 14 12 10 12 11 12 12 12 11 11 9 7 22 45 54 56 48 47 50 55 51 46 48 51 52 50 47 49 51 37 48 53 46 35 38 77 83 63 72 102 84 71 64 59 55 46 48 65 95 113 115 93 80 66 71 112 117 99 72 54 42 46 68 93 78 55 42 36 
237 237 237 237 237 237 237 237 237 236 237 239 238 236 236 238 238 238 238 238 237 237 236 236 237 237 237 238 237 236 236 238 238 238 238 238 237 237 237 238 237 237 238 238 238 238 238 239 238 238 238 237 237 238 238 238 237 237 237 237 237 237 238 238 235 237 238 238 238 237 236 236 236 237 237 238 236 234 235 237 212 71 31 42 46 56 65 102 118 104 75 57 54 62 89 139 167 166 115 56 55 70 93 138 185 200 196 173 62 43 56 62 71 102 126 148 192 215 210 127 49 63 90 115 133 158 183 196 198 204 190 153 128 99 113 130 137 150 162 170 170 167 143 95 96 125 140 154 145 134 122 118 140 137 122 122 138 158 149 144 158 146 139 151 166 169 167 160 160 155 151 149 148 145 142 140 138 139 139 138 137 137 136 134 133 132 133 135 136 136 135 136 132 130 131 130 129 130 132 132 131 128 128 127 127 128 126 127 128 126 125 126 126 124 124 125 124 123 124 124 123 123 124 123 121 121 121 119 118 119 120 120 120 118 118 118 118 117 116 116 116 118 114 111 113 113 111 113 111 110 109 110 110 110 110 109 108 105 106 107 108 108 104 104 103 103 104 104 102 101 101 103 101 92 79 67 53 36 20 13 11 11 11 10 8 7 7 7 4 4 4 5 5 5 6 7 9 8 8 10 13 17 20 24 23 23 21 19 17 16 15 16 16 15 14 15 16 16 14 12 13 12 12 12 12 12 12 12 12 13 11 11 15 14 10 11 9 10 11 10 10 10 10 10 22 44 51 52 45 44 44 49 49 40 41 47 49 46 43 49 50 40 45 56 54 42 39 56 52 45 83 142 127 98 80 63 53 39 39 51 69 99 125 105 66 53 67 105 132 122 78 47 44 38 66 98 72 46 45 45 
238 238 237 237 237 237 237 237 236 236 237 238 237 236 236 236 237 237 237 237 237 237 237 237 237 237 238 238 237 236 236 238 237 237 238 237 236 235 236 238 236 237 237 237 237 237 238 238 237 237 237 237 237 237 237 237 237 237 236 237 237 237 237 237 235 236 238 238 237 236 235 236 237 237 237 237 236 234 235 236 193 66 45 49 38 52 63 84 96 73 57 56 46 55 93 139 165 154 91 54 57 64 90 131 168 187 189 181 93 35 42 43 55 85 126 156 179 204 208 148 45 39 73 114 137 157 182 198 199 179 169 142 101 98 129 144 172 189 182 170 158 146 134 108 99 117 143 144 135 135 124 128 133 125 123 137 145 142 135 154 163 144 137 177 181 175 172 162 161 157 152 150 148 146 144 143 142 141 139 137 136 137 137 137 135 133 134 135 136 134 134 134 133 131 131 131 129 129 131 131 129 127 129 129 129 129 126 128 128 126 126 126 125 124 123 123 123 123 123 122 122 122 122 123 122 121 120 119 119 120 120 120 119 118 117 117 117 116 115 115 114 116 115 113 113 113 112 113 112 111 110 110 110 110 109 108 107 105 107 108 107 106 103 105 104 104 103 101 100 100 101 102 95 84 70 59 46 30 18 13 11 12 12 11 9 8 8 9 6 5 5 6 5 5 5 7 7 8 9 12 14 16 20 23 25 24 22 19 16 15 15 16 16 15 15 15 16 16 14 12 12 12 12 12 11 11 11 12 11 11 9 10 14 14 11 10 12 12 11 9 8 9 10 11 17 40 50 51 47 45 45 46 42 39 42 45 45 42 35 34 40 44 48 55 50 41 47 53 46 34 59 118 133 121 103 71 52 45 38 36 39 64 100 100 56 39 46 77 121 123 77 47 41 58 92 121 99 70 61 54 
238 238 237 237 236 236 237 237 235 236 237 237 237 238 237 236 237 237 237 236 236 236 236 237 238 238 238 238 238 236 237 238 237 237 237 237 236 235 236 236 237 237 237 237 237 236 236 237 235 235 236 236 237 237 237 237 236 236 236 237 237 237 237 236 236 236 237 237 236 236 235 236 236 236 236 236 235 234 235 236 184 80 59 47 39 53 60 69 72 61 52 47 33 49 96 138 167 149 90 58 56 64 85 125 162 193 202 190 121 38 44 46 46 74 105 129 167 197 200 159 57 32 67 108 135 160 184 191 182 158 144 135 127 162 188 179 200 191 162 144 144 144 132 108 109 121 142 133 136 137 120 120 123 119 130 147 147 139 136 154 159 143 156 181 176 181 175 173 164 160 155 152 149 147 145 145 145 143 140 137 137 138 138 138 136 135 135 135 134 131 130 132 133 130 131 131 130 129 130 130 129 128 131 130 129 129 127 129 126 126 126 125 124 124 123 122 123 125 122 120 122 121 120 123 121 120 119 119 119 120 120 120 119 118 117 117 117 116 115 115 115 114 114 113 112 113 114 112 111 110 110 110 111 111 110 109 107 105 107 106 104 103 102 106 104 103 101 99 99 99 99 98 88 74 60 50 36 23 15 13 13 12 11 10 10 9 9 8 7 7 7 8 7 6 6 7 7 7 9 11 14 17 21 25 28 26 23 19 17 15 15 15 15 15 16 16 15 15 14 14 13 12 12 12 12 11 12 13 13 10 10 11 12 12 12 9 13 14 13 11 9 9 10 11 12 35 51 53 54 52 54 50 44 45 49 47 45 41 33 29 32 41 47 50 41 34 47 56 59 47 41 75 113 117 107 78 54 54 52 60 63 77 92 87 56 44 41 68 102 95 53 38 53 81 106 120 98 80 84 86 
238 237 236 236 235 235 235 236 235 236 237 236 237 239 238 236 238 237 237 236 235 235 235 235 238 237 236 237 237 236 236 236 238 238 238 237 237 236 236 235 237 238 237 237 236 235 235 236 234 235 236 237 237 238 238 238 236 236 236 237 237 237 236 235 237 236 236 236 236 236 236 236 236 235 235 235 235 234 235 236 174 61 47 54 56 54 58 68 64 56 38 31 31 54 98 140 161 138 93 68 59 64 73 116 162 183 199 205 150 53 49 48 48 73 101 107 150 183 205 171 62 27 59 93 124 160 185 178 157 144 132 140 171 207 208 178 169 152 140 133 134 146 139 114 116 125 142 129 122 125 131 128 126 140 154 149 145 154 150 136 152 153 181 191 186 183 174 172 169 164 159 154 150 147 146 146 144 143 141 138 137 137 137 136 134 134 135 136 133 130 131 135 131 129 130 132 130 130 131 130 130 129 131 128 126 126 126 130 126 128 127 125 125 126 125 122 123 126 122 119 122 121 119 123 121 120 119 119 119 119 120 120 119 118 117 118 117 116 116 116 117 113 113 112 109 112 115 112 107 107 108 109 110 110 109 108 108 106 107 105 101 100 101 108 103 101 99 98 98 96 92 89 80 65 51 41 29 18 13 13 15 12 10 9 9 9 7 6 5 5 7 8 8 7 7 8 9 8 8 10 14 18 24 28 26 23 20 18 16 15 15 14 13 15 16 16 14 14 16 17 14 13 12 13 13 12 12 14 16 12 12 12 10 11 12 8 8 11 12 12 11 11 12 12 9 33 53 55 59 58 63 56 53 51 52 48 44 42 39 41 36 35 42 50 44 35 41 52 49 52 38 57 102 107 104 86 57 55 65 91 97 105 101 81 78 74 64 93 111 89 47 43 47 60 78 91 65 56 89 117 
235 236 236 237 236 235 235 235 235 235 236 236 236 236 237 238 238 236 235 236 237 236 237 238 238 237 236 237 237 236 236 237 236 236 236 237 238 238 237 236 236 236 235 236 238 238 237 235 236 236 236 237 237 237 237 238 236 236 236 236 236 236 236 236 238 234 235 236 235 235 236 234 234 237 236 234 235 236 235 233 189 63 59 73 73 69 62 63 67 51 37 36 30 53 92 130 140 127 94 76 61 65 60 87 136 176 194 201 174 73 51 60 58 84 91 104 133 171 206 177 63 28 58 67 82 124 144 152 148 155 151 152 177 182 166 145 137 134 126 124 136 145 134 118 128 123 131 126 126 127 136 146 149 141 152 151 149 165 146 128 143 173 195 191 182 180 178 172 169 165 161 159 155 150 147 147 144 142 141 140 138 139 137 133 134 134 134 132 133 135 135 134 127 132 131 127 129 130 131 134 132 129 127 129 129 126 126 127 123 126 124 125 125 123 124 121 119 125 125 119 119 123 123 118 121 120 119 119 120 120 119 118 117 117 118 120 118 115 114 115 113 115 115 113 112 112 112 112 108 111 111 108 108 109 108 106 105 105 101 102 102 101 104 103 104 101 97 95 96 95 87 78 69 57 45 34 24 18 14 11 10 10 11 11 9 8 6 5 11 10 8 6 6 6 7 8 8 8 9 10 13 17 21 23 26 27 22 16 15 15 12 11 14 16 18 19 18 16 15 15 12 11 12 14 14 11 10 10 12 11 10 10 11 11 12 12 8 10 11 10 9 10 10 8 13 34 55 67 62 60 57 58 53 52 49 47 45 45 50 53 48 37 34 40 40 38 41 35 39 34 32 51 68 76 78 63 44 40 54 63 83 96 69 51 68 87 103 129 133 105 67 44 46 50 78 84 49 44 69 99 
235 236 236 236 236 235 235 235 236 236 236 236 235 236 236 237 237 236 235 236 236 236 236 237 238 236 236 236 237 236 236 237 237 237 236 236 236 236 236 236 236 235 236 236 236 236 236 235 236 236 236 237 237 236 236 237 237 237 236 236 236 236 236 236 235 233 234 236 234 234 236 236 236 234 235 237 237 235 233 233 183 71 67 71 78 90 83 75 76 58 43 30 27 49 83 112 124 126 93 78 68 65 63 72 118 162 194 199 187 109 45 51 55 64 70 100 129 161 189 179 81 32 64 77 64 93 135 153 171 194 168 130 148 161 144 126 123 129 129 131 150 147 130 115 131 119 134 137 125 127 150 158 150 141 153 136 145 159 146 133 170 183 191 188 183 182 179 173 169 165 162 160 156 151 148 147 145 142 141 140 138 138 138 134 134 134 133 132 132 133 133 132 130 132 129 127 130 130 128 128 128 127 128 129 129 126 125 126 124 127 125 126 125 124 126 123 121 123 123 121 120 121 119 117 119 119 119 119 119 118 118 117 118 116 116 117 117 115 115 116 110 112 113 113 112 113 113 112 110 109 107 107 108 107 106 105 103 104 102 103 102 100 102 101 98 97 95 95 94 90 81 74 60 48 35 25 17 14 14 12 12 12 12 12 11 10 9 9 10 9 8 7 7 7 7 7 9 9 9 10 13 17 21 24 22 23 19 15 15 15 13 12 16 16 17 18 19 18 17 16 14 13 13 13 13 11 11 12 12 11 10 10 10 11 11 11 10 11 11 11 11 11 10 9 8 29 52 64 57 59 58 54 50 38 35 43 45 40 43 48 50 37 29 32 34 35 38 30 25 29 28 34 37 41 45 32 25 34 48 53 62 47 22 37 50 62 77 116 135 103 57 47 57 89 124 109 62 37 45 64 
236 236 236 236 236 235 236 236 236 236 236 236 235 235 235 236 237 236 235 236 236 235 235 236 237 236 235 236 236 236 237 238 238 237 235 234 234 235 236 236 235 235 236 236 235 235 235 235 236 235 235 236 236 235 235 236 237 237 236 235 235 235 236 236 234 233 235 236 233 233 236 237 236 233 235 237 236 235 233 226 143 69 66 54 63 84 98 113 105 84 73 44 36 46 74 99 118 122 95 74 73 66 63 65 108 162 192 202 182 142 90 41 46 49 65 109 132 150 164 165 126 86 91 103 111 140 173 189 191 180 139 108 129 142 135 131 129 133 138 138 153 144 136 128 121 123 138 142 132 134 154 157 142 147 142 123 140 154 140 161 193 190 187 185 183 180 177 174 170 166 163 161 158 153 149 148 146 143 142 140 138 139 139 135 135 135 134 132 132 131 131 129 129 129 128 128 131 129 127 127 125 125 126 128 127 124 124 126 124 126 124 124 124 123 125 123 124 122 123 125 125 123 121 121 117 118 119 120 119 119 119 120 118 116 115 117 117 115 115 115 110 112 113 113 113 112 111 109 111 106 104 106 108 106 105 105 104 106 105 105 104 101 103 102 96 96 95 93 89 80 70 62 51 39 27 19 12 11 12 11 12 12 11 10 10 9 9 8 8 8 8 8 8 7 7 7 9 9 9 10 13 17 21 24 21 23 21 18 18 17 14 13 15 14 14 15 17 17 16 14 14 13 13 13 12 12 12 12 13 12 11 10 10 11 11 11 12 11 11 12 12 11 10 9 10 17 40 61 54 53 58 62 47 30 26 37 42 42 44 48 42 40 39 38 33 31 32 26 21 26 29 36 39 40 39 24 28 46 58 63 82 74 41 41 53 49 49 78 99 75 40 48 56 94 136 128 97 75 78 84 
236 236 236 236 235 235 236 237 236 236 236 236 235 235 235 235 236 236 235 236 236 236 236 236 236 235 235 235 236 236 237 238 236 236 235 234 234 235 236 237 235 235 235 235 235 234 235 235 234 234 234 235 235 234 235 235 236 236 235 235 234 234 235 235 235 234 236 236 233 233 236 237 235 234 236 234 232 236 233 218 89 65 70 50 54 66 87 110 96 84 98 84 86 81 93 110 122 128 108 60 50 52 55 64 93 156 189 202 163 150 136 58 43 51 77 110 124 135 143 148 143 129 121 139 168 174 171 174 165 154 127 105 122 131 127 128 137 135 144 149 155 145 140 131 127 136 148 153 141 133 138 129 128 146 139 128 136 144 143 182 194 189 186 185 182 177 174 174 170 167 164 162 158 154 150 148 147 144 143 142 139 139 139 136 136 135 134 133 132 131 130 130 125 127 129 131 130 127 126 129 126 126 126 126 126 125 125 127 123 125 122 122 122 122 124 122 122 119 119 122 123 121 119 120 118 119 119 120 120 120 119 119 118 116 116 118 117 115 113 113 112 113 114 113 112 111 110 108 109 105 104 107 109 108 106 106 104 104 101 102 101 99 101 100 97 96 93 86 79 70 58 48 41 31 22 16 11 10 10 9 12 12 11 10 9 8 6 5 7 7 8 8 8 7 7 7 9 9 9 11 14 17 21 23 23 26 24 21 19 17 13 12 14 13 12 13 14 16 15 14 12 12 12 13 13 12 11 11 13 12 11 11 11 11 12 12 12 10 10 12 12 10 9 10 12 10 32 59 54 53 59 62 49 38 37 40 41 43 42 41 34 44 52 53 44 37 32 21 15 23 36 49 46 37 34 25 24 41 56 59 79 98 82 56 45 48 64 86 88 69 41 43 45 53 72 80 86 100 125 139 
236 236 236 235 235 235 236 237 235 235 236 235 235 235 235 235 235 235 235 235 235 236 236 235 235 235 235 235 235 236 237 237 236 236 235 235 235 235 236 236 236 235 235 235 235 235 235 235 234 233 233 235 235 235 235 236 235 235 235 235 235 234 234 234 236 234 235 236 234 234 236 236 235 233 235 233 231 236 232 217 88 63 66 56 62 72 89 85 57 57 89 96 117 117 119 127 136 144 125 71 60 66 60 51 85 131 168 169 140 136 134 106 91 98 118 127 137 151 164 171 180 148 119 145 171 164 159 158 163 152 117 93 123 141 133 134 141 140 142 148 153 145 136 133 146 143 157 165 141 134 139 120 143 149 147 122 119 137 175 194 189 187 185 183 179 175 172 172 169 167 163 161 157 153 149 147 147 144 143 143 140 139 139 136 136 135 135 134 133 132 131 131 127 127 130 132 129 126 127 128 128 127 126 126 127 126 126 126 125 126 123 123 123 122 124 122 123 121 120 120 120 120 119 118 120 119 118 119 119 118 116 115 116 115 116 117 116 113 112 113 112 112 112 112 111 111 110 109 106 107 107 108 108 108 107 105 104 103 100 101 102 100 101 98 96 94 87 76 69 62 50 39 28 21 16 13 11 11 12 11 13 13 12 11 11 9 7 5 7 7 6 6 6 7 7 7 7 8 10 12 15 18 20 22 22 26 25 21 19 16 12 11 13 14 14 13 14 15 15 15 10 11 11 12 12 12 11 11 12 12 11 11 11 12 12 13 12 10 10 11 11 9 9 11 9 12 33 56 55 60 59 49 48 46 52 52 47 46 42 41 40 46 48 50 50 45 33 15 12 18 32 44 42 35 31 24 28 32 41 45 57 84 93 78 56 67 99 108 79 65 55 50 55 61 49 39 46 80 124 163 
235 235 235 235 235 235 236 237 234 235 235 235 235 235 235 235 234 234 234 233 234 235 235 235 235 235 236 235 235 235 235 235 236 236 236 236 235 235 234 234 235 235 234 234 235 235 235 235 234 234 234 235 235 235 235 236 234 234 235 235 235 235 234 234 235 233 233 235 234 234 236 235 235 231 232 235 234 235 232 225 168 80 61 62 60 67 82 61 42 49 72 77 99 114 123 132 149 148 127 109 101 92 83 68 103 123 143 142 137 134 130 136 134 135 146 144 153 165 176 180 184 140 97 127 161 159 156 152 154 134 112 97 119 140 142 143 140 149 142 136 137 130 126 141 149 154 159 152 135 147 154 137 143 157 154 132 132 165 194 188 192 189 184 180 178 176 173 170 167 165 162 159 155 152 148 146 147 144 143 142 139 138 138 136 135 135 134 134 132 131 131 131 129 127 128 130 129 129 129 127 126 125 125 126 126 126 124 123 124 126 124 123 123 122 124 121 123 123 122 120 120 122 122 120 119 118 117 118 119 119 118 116 116 115 115 115 114 112 113 115 113 113 112 110 110 110 109 108 106 108 110 109 107 106 105 104 105 104 101 103 105 103 102 98 95 91 80 68 60 53 41 30 21 16 12 11 9 10 13 14 13 13 12 12 12 10 8 6 7 7 6 6 6 6 7 7 7 8 10 13 15 18 19 20 20 24 23 19 18 16 14 13 12 14 15 13 13 14 14 14 11 11 11 11 11 12 12 12 11 11 11 11 11 11 12 12 13 12 12 11 10 9 10 12 10 12 26 49 57 62 58 51 48 47 54 52 45 40 35 43 50 48 37 32 35 38 32 18 16 19 27 32 34 37 36 27 29 33 34 36 39 49 58 54 51 65 99 102 62 54 64 64 64 94 73 44 45 63 81 109 
235 235 235 235 235 235 236 236 234 234 235 235 235 234 234 235 234 234 234 233 233 235 235 234 234 236 236 235 234 235 234 234 236 236 236 235 234 234 234 234 233 234 234 235 234 234 234 235 235 234 234 235 235 234 234 235 234 234 234 234 234 235 235 235 235 233 234 235 234 234 235 234 234 232 233 235 235 234 233 234 204 77 58 65 59 62 70 59 43 53 64 68 80 98 111 126 143 129 111 117 101 91 95 106 119 131 137 147 155 146 129 129 142 141 144 143 149 158 160 161 157 134 87 107 148 155 154 157 152 128 116 98 105 132 133 108 84 100 113 113 115 117 132 149 146 155 149 133 129 152 153 142 147 156 146 139 156 195 196 193 192 189 184 180 178 176 173 169 165 163 160 157 155 152 150 148 149 145 143 142 139 138 138 138 136 135 134 134 132 130 130 131 130 128 128 129 127 129 131 127 124 125 125 125 125 124 123 122 122 125 123 123 123 121 123 120 119 120 120 119 119 121 121 120 117 117 117 118 119 120 120 119 118 116 115 115 114 112 112 114 114 114 113 111 110 109 108 107 109 109 109 110 108 105 104 105 103 103 99 101 102 100 100 96 95 86 74 63 54 43 31 23 16 13 11 10 7 9 13 14 13 13 12 11 11 9 7 6 7 7 7 7 7 7 7 7 6 8 10 12 15 17 19 20 20 23 22 18 16 15 14 14 10 13 14 12 11 12 12 11 11 12 12 11 11 12 12 11 11 11 11 11 11 11 11 11 15 14 12 10 9 10 11 11 13 9 15 41 58 61 57 62 55 52 53 46 40 30 21 32 49 47 32 20 22 30 37 35 27 32 41 38 28 26 28 27 29 47 53 48 38 31 31 22 33 48 65 64 40 45 70 83 73 92 63 27 29 48 68 87 
234 234 235 235 235 235 235 236 234 234 235 235 235 234 234 234 235 235 234 233 233 235 235 234 234 236 237 235 234 234 234 232 235 235 235 234 234 233 234 235 231 233 234 235 234 233 234 235 235 234 234 234 234 233 233 233 233 233 233 233 233 234 235 235 236 234 235 236 234 233 234 234 231 236 236 233 232 234 235 236 193 73 63 60 57 64 59 57 48 53 52 61 68 84 96 113 132 106 90 98 87 94 90 104 117 128 133 143 155 141 107 120 139 139 133 131 132 145 149 151 141 124 79 100 143 154 154 158 140 141 150 131 118 116 98 73 89 89 114 118 114 123 150 148 143 131 129 129 126 147 148 139 151 134 142 147 179 202 193 193 188 187 184 182 179 175 171 168 165 163 160 157 155 154 152 150 151 146 143 142 138 138 140 140 138 136 135 134 132 129 129 131 131 131 132 130 124 125 129 126 126 127 127 126 125 125 125 126 122 124 123 124 124 122 123 120 121 121 122 122 121 120 120 120 118 118 118 118 117 117 117 117 120 118 117 117 116 113 111 111 113 113 112 111 111 111 110 108 111 108 108 111 109 104 104 107 105 105 101 101 101 99 100 98 93 81 69 62 52 37 25 20 11 9 9 9 7 7 11 13 15 14 12 11 10 9 7 5 7 7 8 8 8 7 7 7 7 8 9 11 14 17 19 20 20 23 21 16 14 13 12 12 9 12 14 12 11 12 12 10 10 12 13 12 12 12 10 8 11 12 12 12 11 11 11 11 16 15 12 9 8 10 11 9 10 12 14 35 58 64 57 62 56 57 59 53 51 42 26 34 44 44 30 20 23 36 49 53 47 46 54 54 41 32 28 28 36 50 59 62 54 51 49 29 35 52 49 40 26 31 49 62 58 77 78 52 33 42 92 125 
232 233 233 233 233 234 234 233 233 234 234 234 233 233 233 234 234 234 233 233 233 234 235 236 235 235 235 234 234 234 234 234 232 234 233 234 234 232 234 233 234 234 234 234 234 233 233 233 235 234 234 233 233 234 234 235 232 234 234 233 233 234 234 233 233 234 234 234 234 233 233 233 233 234 235 235 234 233 232 232 221 123 57 58 65 59 66 56 49 55 56 56 60 68 86 106 116 87 72 80 81 86 88 96 101 108 123 137 143 136 98 109 134 133 125 123 126 133 143 148 141 117 93 110 147 157 158 148 131 152 169 158 138 114 101 112 127 124 124 131 133 144 154 143 119 133 144 145 122 127 128 122 122 134 141 168 198 202 197 193 191 188 184 180 176 173 171 169 164 162 160 158 156 154 151 149 146 144 142 141 140 140 139 138 138 135 132 132 131 130 130 131 131 130 130 129 127 128 129 127 126 124 126 128 126 126 126 123 121 124 126 124 122 122 123 124 120 121 121 122 121 120 117 116 120 119 118 117 116 116 116 116 114 116 117 116 115 116 115 113 110 112 113 111 111 112 110 108 109 107 109 110 107 104 104 105 106 105 102 99 99 100 99 96 83 74 66 52 45 30 22 16 12 8 6 6 5 8 11 12 16 13 12 13 11 6 5 8 8 8 8 8 8 7 7 8 8 8 10 13 15 15 19 23 19 18 17 16 14 11 10 10 11 11 11 11 10 9 12 15 14 14 12 12 13 12 10 10 11 9 11 13 11 12 13 10 10 10 11 12 11 8 7 8 9 11 12 32 53 58 63 65 62 60 68 60 52 49 37 32 39 50 42 38 40 41 52 59 55 56 50 49 52 39 27 32 33 52 60 54 62 81 80 65 62 67 57 62 44 38 47 54 57 106 129 92 42 51 80 101 
232 233 233 233 233 234 234 233 235 235 235 235 234 234 234 234 234 234 234 234 234 235 235 235 235 234 234 234 234 235 234 234 232 234 232 234 233 232 234 232 234 234 234 234 234 234 234 234 234 234 233 233 233 234 234 234 234 235 235 234 233 234 235 235 233 233 234 234 233 233 233 233 233 234 235 235 234 233 233 232 232 204 94 55 60 48 58 52 47 52 58 61 63 64 79 104 106 78 65 69 73 79 80 81 94 102 114 128 141 138 101 110 125 118 118 121 119 131 149 149 146 113 87 106 147 154 146 130 122 139 153 139 123 119 128 135 128 119 112 135 152 151 152 138 130 146 156 152 130 125 121 124 138 125 160 197 201 199 197 194 191 188 184 180 177 174 171 169 163 161 158 155 153 151 149 147 146 145 144 141 139 137 136 136 136 134 132 133 135 134 133 133 131 129 128 127 126 127 128 125 126 125 126 127 126 126 125 123 121 123 124 122 120 121 123 124 121 122 122 121 120 119 119 119 118 117 117 116 116 116 117 117 114 117 120 119 118 117 114 111 111 113 112 110 109 110 109 107 108 106 107 108 105 103 104 103 104 103 100 98 99 99 96 92 78 68 58 45 38 27 21 15 11 7 6 7 8 11 15 15 14 13 12 11 9 7 6 6 9 8 8 8 8 7 6 7 6 6 9 13 15 17 20 24 18 17 15 13 12 10 9 8 9 9 9 10 11 11 11 13 10 11 11 10 12 11 10 11 8 8 10 12 10 10 10 9 9 10 11 11 10 10 11 12 14 13 11 23 43 59 66 65 62 56 57 54 52 44 28 27 40 49 44 37 34 34 42 52 57 47 39 35 32 33 38 41 38 46 36 32 48 73 90 84 90 74 61 68 47 39 53 59 72 118 140 102 55 47 51 55 
233 233 233 233 233 234 235 234 234 234 234 234 233 233 233 233 232 232 233 233 233 233 233 232 234 233 232 233 234 235 234 233 233 234 233 234 233 232 234 232 234 234 234 234 234 234 234 234 233 233 233 233 233 233 234 234 233 234 233 232 232 233 234 234 233 233 234 234 233 233 233 233 233 233 234 234 233 233 233 233 227 237 143 55 50 46 62 60 48 57 65 63 60 62 76 105 102 73 62 62 68 76 78 71 86 96 105 118 133 129 94 102 119 120 120 123 127 133 142 144 143 121 100 99 122 132 129 119 121 135 139 127 120 116 127 131 141 134 112 127 148 150 150 129 135 151 157 148 145 145 138 146 141 152 191 210 201 196 194 195 190 187 183 180 177 174 170 168 164 161 158 155 153 151 149 147 145 145 143 141 138 136 135 135 138 135 133 134 135 135 133 132 133 129 127 126 126 128 127 123 126 126 126 126 127 126 124 124 123 123 123 121 120 121 123 124 121 121 122 121 120 119 119 120 119 118 118 117 116 116 116 116 116 118 118 116 114 114 114 113 115 115 114 112 111 112 112 111 109 107 108 107 105 106 106 103 102 101 100 100 101 100 93 85 75 65 53 41 35 26 21 16 12 7 6 8 9 11 14 14 13 14 13 9 7 8 7 6 10 9 8 8 8 6 5 5 7 7 10 13 15 16 18 21 20 18 14 12 11 10 9 7 7 5 5 7 10 10 10 10 7 9 9 9 10 9 9 12 11 13 12 12 12 11 10 11 10 12 12 11 10 12 15 16 15 14 14 15 29 52 61 58 56 51 46 40 42 37 25 29 39 44 41 28 23 26 36 53 60 53 46 38 31 30 33 32 37 35 16 20 36 49 66 67 75 62 45 46 44 39 47 57 64 81 106 90 52 38 45 45 
233 233 233 233 233 234 235 235 234 234 233 233 233 232 232 232 231 232 232 232 232 232 231 231 233 233 232 233 233 234 233 233 233 235 233 235 234 232 234 233 233 233 233 233 233 233 233 233 232 232 233 233 233 233 233 233 232 233 233 232 232 232 233 233 233 233 233 233 232 232 233 233 232 233 233 232 232 232 232 233 232 230 179 64 56 55 63 60 53 58 67 66 62 60 73 106 103 74 64 61 67 74 78 71 78 90 98 112 127 118 86 93 113 120 119 121 129 135 139 139 122 126 130 120 118 119 124 126 120 131 125 122 133 120 124 141 153 148 122 113 118 129 141 129 147 158 154 140 151 150 135 141 153 194 208 203 200 196 194 191 189 186 182 179 176 173 169 165 164 161 158 156 154 152 149 147 143 142 142 141 140 139 138 138 139 136 133 132 132 132 131 131 134 130 129 128 128 129 128 123 125 127 125 124 127 126 123 125 125 124 123 122 121 122 123 123 119 120 121 121 120 120 119 118 121 120 119 118 118 117 116 115 116 117 116 114 113 115 116 116 113 113 112 111 110 111 111 111 110 110 110 108 106 108 108 104 102 101 101 102 103 100 90 79 70 60 48 38 30 23 18 14 12 8 6 8 9 11 12 11 14 14 12 10 9 9 9 8 11 9 8 8 8 6 5 4 8 8 10 12 14 15 16 18 21 19 16 12 10 9 8 7 6 4 3 5 8 9 8 8 7 9 9 8 9 8 8 10 10 12 9 8 10 9 9 12 12 11 11 11 12 13 16 19 19 19 22 17 24 48 59 60 58 58 52 39 36 43 43 45 50 50 50 34 25 26 29 45 54 59 57 56 58 51 42 43 43 39 29 33 38 35 45 59 73 67 56 56 59 45 41 50 70 57 62 57 44 38 59 81 
233 233 233 233 234 234 234 234 234 234 234 234 234 234 233 233 234 233 233 233 233 233 233 233 233 233 234 233 233 233 233 233 233 235 233 234 234 232 234 233 232 232 233 233 233 233 233 233 232 232 232 233 233 233 233 233 232 233 233 234 234 233 233 233 232 232 232 232 231 231 232 232 232 233 233 232 232 232 233 233 232 235 210 86 65 59 57 67 60 53 59 66 66 62 72 98 96 72 65 60 64 67 72 69 76 85 93 110 129 117 88 92 108 112 120 127 126 131 132 118 106 123 151 156 145 127 125 131 147 146 126 117 121 106 116 143 143 138 134 124 110 118 140 152 150 155 149 142 149 135 123 145 188 206 206 202 201 198 196 188 189 186 181 178 176 172 167 164 161 159 156 155 154 152 148 145 143 142 140 140 140 140 139 138 135 134 132 132 131 130 131 133 132 130 131 130 128 129 128 124 124 127 125 124 127 126 123 125 126 125 124 123 123 122 122 122 120 120 119 120 121 121 119 118 121 120 119 119 119 118 118 117 115 116 116 116 117 118 117 115 112 112 112 111 111 111 111 110 108 109 110 107 104 106 107 103 103 102 100 100 102 98 87 76 67 58 44 34 26 21 17 15 10 7 7 9 10 13 15 14 14 12 11 11 10 9 9 10 10 8 7 8 8 6 5 5 6 6 8 11 13 15 17 18 18 18 15 11 8 8 8 7 7 5 4 5 6 7 7 8 8 9 8 7 9 8 7 9 9 11 8 7 10 11 10 13 14 11 11 13 15 15 18 22 17 15 20 17 23 44 57 62 65 63 60 45 37 49 57 51 48 51 63 57 50 47 38 45 48 47 46 53 64 63 56 56 53 51 51 45 42 46 60 86 83 66 72 89 86 64 47 44 57 76 71 42 38 41 70 118 
233 233 233 234 234 233 233 234 234 234 234 234 234 234 233 233 234 234 233 233 233 233 234 234 233 234 234 234 233 232 233 234 232 234 232 233 233 231 233 232 232 232 232 232 233 233 233 233 233 233 232 232 232 232 232 233 231 231 233 234 233 232 232 232 232 233 233 232 232 232 233 233 233 233 233 233 232 232 233 234 230 232 230 118 60 68 52 72 63 57 54 57 61 71 83 87 86 72 68 62 61 62 66 68 81 86 90 109 130 120 97 94 103 108 114 120 120 119 115 103 112 128 148 149 138 122 121 119 140 144 141 133 120 109 114 126 133 136 151 145 123 124 139 150 149 148 140 144 140 122 132 175 209 202 204 202 199 199 190 189 188 185 181 178 175 172 167 164 160 158 155 154 153 151 147 144 145 143 140 139 139 139 137 136 133 133 133 133 131 130 131 132 129 129 130 130 127 127 127 124 125 126 125 125 126 126 124 124 125 124 124 124 123 121 120 120 123 121 119 119 120 121 120 120 121 120 119 118 118 118 117 116 118 116 115 115 116 117 116 114 114 114 114 113 113 112 111 110 108 109 109 107 104 105 105 102 105 103 101 99 99 96 86 77 64 54 37 28 21 20 17 17 10 7 8 10 10 13 15 15 14 11 10 11 10 8 8 9 9 8 7 7 7 6 6 6 5 5 7 10 13 15 17 18 15 15 14 10 8 9 9 8 7 5 4 4 4 4 5 6 6 7 6 5 7 8 7 9 10 11 10 10 11 11 11 12 13 11 12 15 18 19 23 28 29 29 35 41 45 51 56 59 66 58 56 50 41 48 52 41 32 39 60 69 71 69 59 60 50 33 29 39 46 53 54 46 50 44 47 37 37 54 64 79 71 56 63 89 109 105 72 50 64 121 131 79 53 67 92 116 
233 232 233 234 234 233 232 232 233 233 232 232 232 232 232 231 233 232 232 232 232 232 233 233 232 233 233 233 233 233 233 234 231 233 232 233 233 231 233 232 232 233 233 233 233 233 234 234 234 233 233 232 232 232 232 232 231 231 231 233 232 231 231 232 233 233 233 233 233 233 234 234 233 233 233 233 232 232 232 232 237 226 231 161 69 76 51 53 57 60 57 55 56 74 92 80 78 77 73 65 60 65 67 74 83 88 90 106 126 123 110 103 102 104 101 106 111 107 107 110 111 121 124 117 113 114 120 108 133 142 142 131 114 120 123 130 142 151 156 144 132 134 136 126 132 132 121 131 136 149 179 211 208 204 206 201 196 195 189 189 186 184 181 177 174 171 167 165 162 159 155 153 153 151 148 145 145 143 140 138 138 137 136 136 134 133 133 133 131 130 130 131 128 128 129 128 126 126 127 125 126 125 126 127 125 125 124 122 123 123 123 123 122 120 120 121 123 121 119 119 119 120 120 120 122 120 118 117 117 117 116 116 120 117 114 113 114 115 116 115 112 112 112 112 111 110 109 108 110 109 109 108 105 105 105 101 104 104 102 101 100 96 86 77 61 49 31 24 17 19 15 14 13 10 11 11 10 12 14 14 14 13 12 11 10 9 8 7 8 7 7 7 6 5 6 8 8 8 8 9 12 15 16 16 15 15 14 11 10 11 10 8 7 5 4 4 4 4 4 5 4 6 6 5 6 6 6 9 9 9 11 11 10 12 17 19 21 26 30 34 40 49 58 63 78 85 92 97 90 72 61 58 65 58 55 53 48 50 51 41 32 37 55 65 68 67 61 63 53 38 37 43 45 52 54 45 39 32 37 37 37 46 49 50 43 42 45 59 85 103 69 42 62 103 121 85 60 95 120 109 
233 232 233 234 234 232 231 232 234 233 232 232 232 232 231 230 232 232 232 232 232 232 232 232 231 231 231 232 232 233 233 233 231 233 232 233 233 232 234 233 233 233 233 233 234 234 234 234 234 234 233 232 232 232 232 232 232 231 232 233 232 231 232 233 232 232 232 232 231 232 232 233 232 232 232 232 231 231 231 231 229 233 231 206 93 63 57 48 49 54 59 68 61 68 88 79 73 80 76 66 60 68 72 81 76 86 90 103 121 126 124 118 109 103 109 122 117 107 108 108 92 96 97 106 118 124 129 111 107 127 127 120 116 132 127 135 151 156 142 134 141 152 152 132 135 141 121 126 143 186 213 211 209 205 203 206 196 192 196 183 185 183 180 176 173 170 167 165 163 160 155 153 152 150 148 145 143 142 140 138 137 137 138 138 135 133 132 131 131 130 131 132 129 128 128 127 126 127 128 126 127 125 127 128 125 124 124 120 123 122 123 123 122 120 120 122 121 121 120 120 120 119 119 119 120 118 117 117 118 118 118 118 118 117 116 116 117 116 115 115 113 113 113 113 112 111 111 111 111 108 108 108 106 106 104 100 99 101 103 103 101 95 84 74 65 52 33 28 23 24 18 16 16 13 14 14 12 13 16 17 15 16 15 11 10 12 10 6 8 8 7 7 5 4 6 8 9 8 8 9 12 15 16 16 15 15 14 11 10 11 9 5 8 6 6 6 7 6 5 5 4 7 7 5 5 5 6 9 11 10 14 16 14 21 32 36 43 54 63 69 80 98 114 120 124 136 139 135 113 76 57 53 61 61 57 53 52 54 55 49 41 43 55 62 60 57 55 57 54 56 55 54 56 56 54 52 40 35 44 53 44 38 46 51 33 32 43 48 46 68 52 32 52 67 76 56 38 81 116 115 
232 231 231 233 233 233 232 232 233 232 232 231 232 232 233 234 233 232 232 231 231 231 231 231 231 233 234 233 231 232 232 232 231 231 231 231 230 230 232 233 234 233 232 232 232 231 231 231 232 233 233 232 231 231 231 232 233 234 233 231 230 231 231 231 230 229 230 232 231 229 230 233 230 230 230 231 231 231 231 231 233 232 228 224 127 51 56 61 54 50 54 64 79 82 85 78 76 75 76 74 66 60 74 76 88 91 91 111 131 123 116 120 114 108 111 129 115 90 109 128 111 99 98 116 132 144 129 109 95 104 110 124 150 149 129 133 147 140 123 132 136 152 150 135 140 141 132 135 174 211 215 208 211 207 203 201 199 195 191 190 186 182 178 175 174 171 166 162 162 159 156 153 150 148 146 146 146 142 141 138 137 138 136 136 136 134 133 131 131 131 130 130 129 129 128 128 128 128 128 128 123 125 126 127 125 124 123 123 122 122 122 122 122 121 121 121 121 121 121 121 121 121 121 120 119 117 116 116 116 116 116 116 115 114 115 117 117 116 114 114 111 113 115 114 112 110 110 111 111 110 109 109 107 105 104 105 106 104 104 105 101 96 88 81 71 58 48 40 34 31 23 17 17 11 11 12 13 14 16 23 21 19 18 15 14 14 11 10 8 6 5 5 5 4 6 8 7 8 9 11 13 15 15 15 16 13 11 11 10 8 7 7 8 8 8 7 7 6 6 6 5 8 8 7 7 9 10 8 12 16 18 18 23 35 47 55 66 74 85 94 106 121 134 141 154 153 149 131 105 81 57 47 53 59 58 53 56 57 57 59 56 42 49 56 62 54 50 47 52 48 52 52 45 47 54 51 44 42 51 59 47 40 52 59 47 55 54 45 34 47 39 33 57 85 100 78 56 61 89 119 
231 230 231 233 233 232 231 231 233 232 232 231 231 232 232 232 232 231 231 231 231 231 231 231 230 232 232 231 230 231 231 231 233 233 232 232 232 232 232 231 234 233 233 232 233 233 232 232 233 233 233 233 232 232 232 232 232 233 232 231 230 231 231 231 231 230 231 233 232 230 231 234 231 231 231 231 231 231 231 231 230 233 228 228 192 72 53 69 65 52 48 40 63 78 78 72 75 78 77 77 77 58 57 68 72 71 71 88 102 102 105 110 100 81 95 93 81 75 115 136 136 106 103 135 139 133 125 129 110 97 119 146 157 151 132 130 136 144 144 138 120 128 129 128 139 126 130 171 212 215 208 216 212 209 205 203 200 196 193 191 186 183 180 177 175 172 167 163 161 160 157 154 150 148 147 146 143 142 142 139 136 136 134 136 135 134 132 130 129 127 126 126 128 128 128 128 128 128 127 126 122 123 125 125 124 122 122 122 124 123 123 122 121 121 121 121 122 120 119 120 120 119 118 119 119 119 118 117 116 116 116 117 115 114 115 116 116 114 113 113 116 114 112 113 113 111 110 109 110 109 109 110 109 107 105 104 103 104 105 104 101 99 92 83 75 65 58 49 39 33 25 20 15 11 11 11 13 17 21 27 27 24 20 19 19 18 16 12 11 9 7 6 5 4 6 9 11 11 12 14 16 17 16 15 16 13 10 9 9 8 8 8 8 8 9 8 7 6 7 8 6 6 6 6 8 12 14 14 17 20 22 25 32 44 58 67 80 92 106 114 121 132 146 155 156 152 144 122 96 72 53 47 53 59 60 55 52 49 52 60 53 35 36 45 57 51 44 40 40 39 42 39 30 32 44 48 42 35 36 44 40 34 42 49 52 70 63 40 30 42 48 65 103 119 141 142 114 95 102 127 
229 229 231 233 233 232 230 230 232 232 232 232 232 232 232 232 231 231 231 231 231 231 232 232 231 232 232 231 231 232 232 231 232 231 232 233 234 234 233 232 233 232 232 233 233 233 233 232 231 231 232 232 232 232 231 231 232 232 232 230 230 230 231 231 230 230 231 233 232 231 231 233 231 231 231 231 231 230 230 229 232 229 229 229 230 141 56 72 67 47 38 40 57 69 70 67 68 66 72 73 71 56 53 63 64 64 51 51 65 72 85 105 91 71 89 71 57 79 122 132 132 97 88 118 123 124 133 150 127 106 133 155 155 156 148 144 151 147 154 150 126 129 126 124 127 131 173 217 216 215 226 211 214 211 208 206 202 198 195 193 187 184 181 179 176 172 168 165 161 160 158 155 151 148 147 146 144 142 143 140 138 137 134 135 135 134 133 132 130 130 129 129 127 127 127 128 128 127 126 125 126 127 127 126 125 123 123 123 125 124 122 121 121 121 121 122 122 120 118 119 118 117 117 118 119 119 119 118 116 116 116 117 116 115 115 115 115 114 113 113 118 113 110 112 112 110 109 109 110 109 108 109 109 107 105 104 102 104 105 103 101 102 96 86 83 72 64 53 42 33 23 18 13 10 10 9 13 20 25 31 33 32 25 25 24 20 22 19 16 14 11 8 7 6 8 11 11 12 14 17 18 18 17 15 15 12 10 9 9 9 9 9 11 12 12 10 8 7 8 9 9 8 7 9 10 12 15 18 19 21 25 32 41 55 69 80 91 100 112 121 130 139 147 151 149 140 129 110 88 66 49 43 45 50 53 56 56 51 49 51 56 38 31 34 45 44 41 46 47 51 55 52 43 44 54 62 56 51 45 47 45 39 44 51 48 72 71 47 39 50 59 73 91 88 111 154 154 116 90 110 
229 229 230 232 232 231 230 230 231 231 231 232 232 232 232 232 231 231 231 231 231 232 232 233 232 232 231 231 232 232 232 232 231 231 231 232 233 233 233 232 231 231 231 232 232 232 232 231 231 231 231 231 232 232 231 230 231 232 231 231 230 230 231 231 229 229 230 231 231 230 230 231 230 230 231 231 231 230 229 229 233 227 230 229 227 212 93 63 69 56 37 49 65 71 66 75 76 72 76 68 66 65 68 75 60 59 58 66 76 77 73 70 71 87 109 88 55 87 119 129 121 111 101 106 118 135 148 149 132 106 126 157 157 146 144 153 156 153 149 144 137 143 134 126 134 193 217 217 220 217 218 217 216 214 211 208 205 201 197 196 189 187 184 181 178 173 169 167 162 161 158 155 152 149 147 145 145 141 140 138 139 140 135 134 134 135 134 133 132 132 132 133 128 128 127 127 127 127 126 126 125 125 125 124 123 122 122 121 123 123 122 122 122 122 122 123 122 122 121 119 119 119 118 118 119 120 119 118 117 117 117 117 117 116 116 116 115 115 115 114 116 113 112 114 112 109 109 112 112 110 107 107 107 106 105 105 104 104 105 103 101 102 98 90 90 75 63 51 39 31 19 13 12 10 10 8 12 22 27 31 33 36 28 28 24 18 26 26 20 18 15 12 11 11 12 12 13 14 16 19 20 19 16 15 13 12 11 11 11 10 9 8 12 12 12 10 9 8 9 10 10 8 9 12 12 12 15 19 22 22 27 37 49 60 73 84 94 100 107 115 123 128 130 129 127 110 93 76 62 52 42 42 38 40 46 55 64 64 57 52 53 41 34 35 44 43 38 43 58 61 64 65 62 60 62 65 68 72 63 57 57 57 61 64 60 61 62 53 44 44 54 63 57 46 46 92 118 93 53 68 
230 229 230 231 231 230 230 231 231 231 231 232 231 231 231 230 231 231 231 231 231 231 231 232 231 230 230 230 231 232 231 231 232 232 232 231 231 230 231 231 231 231 231 231 231 231 230 230 232 231 232 232 233 233 232 231 231 231 231 231 230 230 230 231 229 229 229 230 230 230 230 230 229 230 230 231 231 230 230 229 230 230 232 229 227 231 163 83 67 60 47 53 76 75 56 70 73 76 70 56 69 77 81 97 79 53 64 86 90 101 94 57 72 104 111 98 73 94 102 104 127 143 133 110 113 124 135 130 122 106 111 133 130 125 143 153 153 144 123 126 137 136 136 149 195 221 223 219 219 216 219 216 218 216 213 209 206 203 200 197 192 189 186 183 180 175 171 169 164 162 158 155 153 150 147 144 144 140 139 136 137 138 135 134 135 135 134 132 130 129 129 129 130 129 128 127 127 127 127 127 124 124 124 124 124 123 123 123 123 122 122 122 123 123 122 122 122 125 124 121 120 122 122 118 120 120 119 118 118 120 119 117 116 116 116 116 116 116 116 116 115 113 114 115 114 112 111 114 112 110 109 108 108 107 107 108 106 103 102 102 101 101 99 95 90 74 61 48 36 27 16 11 10 9 10 9 14 24 28 31 33 32 23 25 22 17 25 26 22 20 17 16 16 16 15 14 16 17 19 22 22 19 16 14 13 12 11 11 11 11 10 9 9 8 8 8 8 9 9 10 8 7 9 12 13 13 18 24 25 25 31 42 54 62 72 80 88 92 97 98 97 96 95 95 86 73 61 51 44 40 36 38 32 34 38 47 58 67 67 61 56 48 40 41 49 54 49 50 60 54 51 53 57 57 52 48 54 67 62 50 51 63 71 67 64 61 58 53 48 45 50 53 48 47 38 54 68 62 35 41 
230 229 229 230 230 229 230 231 231 231 231 230 230 229 228 227 231 231 230 230 230 230 230 230 231 230 230 231 232 231 231 231 232 232 232 231 230 230 231 232 232 231 231 231 231 231 230 230 231 231 231 232 232 232 231 230 231 231 231 231 230 229 229 230 230 229 229 229 230 231 230 230 229 230 230 231 231 231 230 230 229 228 230 230 230 225 214 153 79 43 53 59 66 56 43 58 59 53 48 46 61 70 80 91 94 71 78 91 90 97 87 56 71 75 66 78 100 121 115 99 128 151 148 123 109 104 119 130 134 133 123 114 95 103 141 148 150 136 122 125 124 133 170 197 223 224 219 221 222 219 221 216 218 216 213 209 206 204 201 198 192 188 185 183 180 175 171 169 167 163 158 155 153 151 148 145 143 141 142 138 135 136 135 137 136 135 133 131 130 129 129 128 131 130 128 127 127 127 128 128 127 126 126 125 125 124 123 122 123 123 122 122 123 122 121 120 120 123 124 120 119 121 121 118 119 119 117 116 118 120 118 116 115 116 116 115 115 116 116 116 113 112 111 113 115 114 112 111 110 109 108 108 109 108 108 108 106 102 101 102 102 102 101 98 82 69 58 44 30 20 14 13 9 8 10 10 16 26 31 35 36 30 21 23 24 21 24 24 22 21 20 19 19 19 18 16 16 16 18 22 23 21 18 17 14 13 11 10 10 11 10 9 9 9 8 8 8 9 8 7 8 8 9 11 12 14 20 27 24 25 33 45 57 65 72 78 83 82 79 76 71 66 61 58 50 47 49 46 42 39 35 37 32 31 33 40 52 65 68 62 58 55 51 49 50 57 59 67 56 42 32 33 38 42 39 33 37 56 60 44 36 50 66 60 47 52 50 61 69 59 52 63 64 57 50 57 57 51 37 42 
228 228 229 230 229 229 229 230 230 230 230 229 229 228 227 227 230 230 230 229 229 229 230 230 230 229 230 232 232 231 230 231 230 230 231 231 231 232 232 232 232 232 231 231 231 231 230 230 230 230 230 230 230 229 229 229 231 230 230 230 229 228 228 229 230 229 228 228 229 230 230 229 229 229 229 229 230 230 230 230 231 225 228 229 228 226 227 214 148 78 62 73 62 47 50 63 64 47 43 49 57 61 70 67 61 64 65 61 65 68 68 78 82 65 57 74 104 123 121 97 117 143 149 143 120 113 127 139 151 151 135 127 113 103 120 134 140 142 143 131 131 171 216 226 217 223 224 221 222 222 220 218 219 216 211 208 206 205 202 198 194 189 184 183 180 176 171 170 168 164 159 155 154 152 150 147 145 143 143 140 138 138 136 137 136 133 131 130 130 131 130 130 130 129 128 127 127 127 127 127 126 125 124 124 123 122 121 119 124 123 122 121 122 122 121 120 121 120 120 120 119 118 117 118 118 119 118 116 117 119 118 115 114 116 116 115 115 115 115 115 112 112 112 112 113 113 111 109 110 108 106 107 107 107 106 106 106 103 103 103 102 103 102 97 78 64 52 38 24 16 11 12 8 6 9 11 18 28 33 38 39 32 26 27 28 25 24 25 23 23 23 22 21 21 21 20 17 16 19 23 24 22 19 19 14 13 11 9 9 10 9 8 9 9 9 9 9 8 8 7 11 10 10 12 14 16 22 26 23 26 34 46 59 68 74 78 81 75 67 61 56 51 46 42 40 39 40 38 36 37 36 38 36 33 35 39 46 56 62 59 49 51 57 58 47 46 49 61 53 39 33 33 34 39 43 39 44 56 65 55 39 48 62 52 39 36 46 87 89 55 49 84 99 72 49 57 72 58 34 40 
227 227 228 230 229 228 228 229 229 229 229 229 229 229 229 229 230 230 230 229 229 230 230 230 228 227 229 231 231 229 229 229 231 230 230 231 232 232 231 230 232 231 230 230 230 230 230 230 230 231 231 230 229 229 229 230 231 230 230 230 229 227 227 228 229 228 226 226 227 229 229 228 228 228 228 228 228 228 228 228 230 228 228 229 229 227 225 228 225 156 83 97 90 72 64 68 71 59 47 52 68 66 67 62 57 72 74 63 61 60 67 95 100 78 76 87 96 115 114 88 110 131 133 134 108 117 130 132 137 144 125 125 145 133 118 128 145 138 127 132 181 220 220 219 226 223 223 223 222 221 218 222 219 215 210 207 206 205 202 198 198 192 186 185 183 178 174 172 168 164 159 156 154 152 151 150 148 143 141 139 140 141 135 133 134 131 128 127 128 129 129 128 129 128 127 127 127 126 126 125 125 124 124 125 126 126 124 123 123 122 120 120 121 122 122 122 124 120 119 121 120 116 116 120 119 121 120 118 118 119 119 117 115 117 117 115 114 115 115 114 111 115 116 113 111 111 111 111 114 110 106 106 106 106 106 105 105 106 106 103 102 104 102 94 80 62 46 32 21 15 11 11 9 6 8 11 18 28 33 40 39 33 32 32 29 24 22 27 23 26 26 24 22 22 23 23 22 21 22 25 25 22 19 18 12 12 12 10 10 10 8 5 5 6 8 9 9 9 9 10 10 10 11 13 16 20 23 25 27 30 37 49 61 70 75 77 71 68 62 54 45 41 40 42 40 38 39 37 38 40 36 35 33 33 37 36 31 36 49 58 54 52 56 58 42 37 40 53 62 53 55 58 54 58 65 63 61 58 65 67 56 63 68 47 34 49 79 118 94 56 53 82 117 92 52 57 97 78 29 26 
227 228 228 227 227 229 229 228 228 227 228 230 230 229 228 229 231 230 230 230 230 229 227 226 229 229 230 232 232 230 230 231 230 228 228 229 230 229 229 229 230 228 228 230 231 230 229 229 230 230 230 230 229 228 228 228 231 229 228 229 229 228 227 227 225 227 229 228 227 227 227 227 228 229 228 227 227 229 228 225 227 227 228 228 227 225 224 224 225 212 117 86 92 87 81 76 79 66 56 51 61 79 91 70 53 79 92 95 95 55 63 103 107 79 71 88 86 108 107 85 95 117 110 94 109 128 132 133 136 120 109 136 146 134 127 134 125 137 167 203 223 223 221 224 224 224 224 224 225 223 221 219 217 215 212 210 208 205 202 200 196 193 189 186 183 178 174 173 169 164 162 160 155 151 150 150 147 143 141 142 141 137 134 133 135 133 131 128 126 129 131 129 126 126 126 127 127 126 125 124 127 125 123 124 127 127 123 120 124 122 122 122 122 121 121 122 120 121 118 118 121 118 117 122 120 119 119 120 120 119 117 117 116 115 116 117 115 113 112 114 117 115 112 110 110 112 111 109 111 110 108 107 106 107 107 106 106 106 103 105 106 103 101 97 75 58 41 28 18 14 13 11 7 7 5 10 17 24 34 38 42 35 32 28 29 31 27 28 24 20 22 22 18 21 26 22 25 23 23 27 27 24 21 21 13 14 14 13 12 12 9 7 7 10 9 8 10 10 8 8 9 11 12 13 17 18 21 26 27 31 43 56 64 69 70 69 66 62 55 48 44 43 41 39 42 41 38 39 39 36 36 33 33 32 34 37 36 36 43 51 58 53 46 51 51 45 53 62 64 54 54 59 47 47 61 57 50 47 54 53 62 70 67 50 34 59 93 114 108 78 57 65 88 84 51 45 79 86 51 28 
225 226 226 225 226 227 228 227 228 228 228 229 229 228 228 228 229 229 230 230 230 230 229 229 229 229 230 231 231 230 230 230 228 228 228 230 230 230 229 229 230 228 228 229 229 229 228 227 229 229 228 228 228 228 228 228 228 227 226 227 227 226 226 227 225 226 226 225 225 226 227 226 227 227 227 227 227 228 227 226 227 227 227 227 226 226 226 226 227 218 204 138 100 71 61 64 65 75 72 64 60 65 68 58 56 75 91 104 102 58 59 85 85 71 69 82 81 80 92 102 109 118 102 81 111 127 132 134 118 106 115 128 123 115 119 125 158 194 224 225 220 224 225 220 224 224 223 223 224 223 221 220 216 214 212 211 209 206 202 198 197 194 190 187 184 179 176 175 170 165 163 161 156 152 152 151 147 145 143 143 141 138 136 136 133 132 132 130 127 129 132 131 126 127 127 127 127 127 127 127 127 126 125 125 125 125 123 122 122 122 123 122 122 121 121 120 122 122 120 119 120 118 117 122 121 119 118 119 119 117 117 117 119 118 116 114 114 114 113 113 115 114 112 111 111 112 111 109 110 110 110 108 107 107 106 104 104 105 103 102 102 102 99 91 71 55 36 23 17 15 12 7 7 8 6 11 18 26 37 41 40 37 39 37 37 36 30 30 30 24 23 23 21 23 24 17 22 23 25 27 29 28 24 20 20 20 19 17 15 15 13 11 13 14 12 12 13 12 10 10 10 12 13 16 19 20 21 24 29 35 45 54 57 59 62 64 62 56 50 45 41 38 37 38 44 40 37 41 38 31 33 36 35 33 34 35 34 34 38 45 52 60 53 50 54 46 45 59 60 51 45 39 32 24 37 42 46 36 36 41 43 49 53 58 45 41 53 79 112 99 76 75 68 62 46 36 48 79 85 56 
223 224 225 225 226 227 227 227 228 227 227 228 228 227 226 226 228 229 229 229 227 227 227 228 228 228 229 229 229 229 229 230 227 227 228 229 229 228 228 229 230 229 228 228 228 228 227 227 229 227 226 226 227 228 228 228 227 226 226 226 225 225 226 227 225 225 224 224 224 226 226 226 226 225 225 226 227 226 226 226 226 226 226 226 226 226 226 227 224 223 227 217 207 143 71 72 57 59 61 63 47 52 58 50 50 63 72 82 84 64 66 59 57 74 93 102 101 78 88 109 118 131 110 78 104 124 128 127 111 98 125 136 128 135 168 196 215 221 226 225 224 223 222 222 224 224 223 223 223 222 220 218 217 215 213 212 210 207 203 200 198 195 191 188 184 180 177 176 172 167 165 163 158 154 154 153 148 147 146 145 141 138 137 138 135 133 134 133 130 129 131 131 126 126 127 126 126 126 127 128 126 126 125 124 122 122 122 123 119 122 123 122 121 121 120 119 120 121 119 119 119 117 117 121 121 119 118 117 117 116 116 116 118 117 115 112 114 117 116 113 114 114 114 113 113 113 112 110 108 110 110 108 107 107 105 101 105 107 104 102 102 103 100 87 67 52 31 18 16 16 10 6 8 10 10 15 22 29 38 40 42 40 42 40 38 37 33 34 34 28 26 25 23 25 25 19 24 24 23 23 26 29 28 23 24 24 23 22 21 20 18 16 18 17 15 16 18 16 14 15 13 14 15 17 22 24 24 27 28 33 41 47 50 52 56 60 54 49 45 44 41 36 35 37 39 38 37 41 37 31 35 41 35 34 35 37 36 34 34 36 47 50 57 55 47 47 50 50 61 61 56 45 48 38 48 56 49 46 38 32 30 39 39 43 53 45 42 58 105 108 85 72 70 61 49 36 34 80 118 90 
222 223 224 225 225 226 226 226 226 225 226 226 226 226 225 225 228 228 227 227 225 225 225 225 228 228 228 228 228 228 228 228 228 227 226 226 225 225 227 229 229 227 226 226 226 226 226 226 227 225 223 223 224 225 226 226 225 225 225 224 223 223 224 225 223 223 223 223 223 224 225 225 225 223 222 224 225 224 223 225 224 225 225 225 225 225 225 226 222 220 219 221 222 213 130 78 82 71 57 56 56 57 61 70 62 55 54 71 80 79 98 92 62 78 97 108 110 88 96 107 113 121 105 95 103 116 122 136 125 112 120 135 165 204 226 223 225 225 225 225 226 227 225 223 224 224 224 224 223 221 219 217 219 217 214 211 210 208 205 203 199 197 193 189 186 183 180 179 175 170 168 165 160 156 155 153 151 149 147 145 141 138 137 138 137 134 134 135 132 129 130 130 127 127 127 126 126 126 126 126 125 126 126 124 122 121 122 123 119 122 122 120 120 122 121 118 117 118 118 119 119 118 118 121 120 119 118 118 117 116 116 117 116 115 114 114 116 117 116 112 113 114 114 113 112 112 111 111 107 110 110 108 107 107 105 100 104 105 102 101 100 101 97 82 64 50 28 16 16 14 10 10 16 21 24 29 34 38 42 41 45 44 44 43 40 38 36 36 36 33 32 29 24 25 27 26 26 25 23 22 25 29 28 24 23 24 25 26 26 25 23 21 22 20 19 20 21 18 17 21 20 20 19 20 24 26 28 32 33 37 41 45 50 53 54 57 48 45 44 45 44 39 36 36 33 37 38 39 37 35 39 39 37 36 36 38 38 36 34 34 38 48 55 52 56 58 53 60 66 73 74 64 67 59 59 60 51 63 59 46 48 61 54 46 47 58 52 45 81 101 89 77 80 68 47 38 51 93 133 115 
220 221 222 223 223 223 223 224 224 224 224 225 226 227 226 226 227 227 226 226 226 227 227 227 227 227 226 226 226 226 227 227 227 226 225 224 223 223 224 226 225 224 223 222 222 223 223 223 225 223 221 220 221 222 222 222 221 222 222 221 220 220 220 221 219 220 221 221 221 221 222 223 223 221 221 223 223 222 221 223 222 223 224 224 224 223 223 223 222 223 219 227 223 218 202 134 84 86 88 78 73 77 87 91 95 83 80 93 95 93 108 98 56 61 80 93 80 70 88 100 101 112 118 125 119 120 117 119 109 138 165 198 218 225 224 226 220 229 233 229 225 225 225 224 224 224 224 223 222 221 220 219 219 216 213 211 210 208 206 204 202 200 197 193 190 187 185 182 178 174 171 167 162 158 156 154 152 150 147 145 142 139 138 137 136 132 132 134 133 131 131 130 129 128 127 127 128 128 126 125 125 126 126 125 124 123 123 123 121 123 122 120 120 123 122 119 118 118 119 119 119 119 121 122 118 118 119 119 118 116 116 117 117 115 114 115 116 114 113 112 113 113 112 111 110 109 109 110 109 111 111 108 108 109 107 103 106 104 102 103 101 101 96 81 63 47 26 16 14 11 12 21 31 39 43 48 51 52 53 49 47 47 46 48 47 43 39 37 37 36 35 32 29 28 28 27 27 26 25 28 30 30 26 22 23 23 25 26 27 27 25 24 25 24 23 24 24 20 21 27 28 28 26 25 26 27 30 35 38 42 43 44 48 48 46 48 47 46 45 45 45 43 39 35 36 39 38 39 38 36 38 36 38 36 35 35 36 37 38 39 38 45 51 54 64 66 59 65 58 62 64 61 59 54 47 43 45 56 58 47 54 57 49 41 39 51 38 29 53 85 87 87 85 68 38 33 58 87 114 103 
218 218 219 220 220 220 221 222 222 223 223 224 226 227 227 225 226 225 224 224 225 226 225 225 225 225 225 224 224 225 225 224 225 224 224 224 223 221 221 222 222 222 221 220 220 221 221 221 223 222 220 219 219 220 219 219 217 218 218 218 218 218 219 219 217 218 219 220 219 218 219 221 221 220 220 220 220 220 220 221 220 221 222 222 222 221 221 220 220 220 225 217 220 225 224 208 158 131 108 90 89 80 82 93 83 79 78 86 92 98 100 83 56 67 92 99 75 80 101 107 94 104 115 110 106 118 135 134 168 210 221 224 224 224 222 223 231 227 224 225 225 223 223 225 225 224 223 221 221 222 223 223 218 217 215 214 213 211 208 206 204 202 199 196 193 191 188 185 182 177 174 170 165 161 159 155 153 150 147 145 143 141 139 138 136 133 133 133 132 131 131 128 129 127 126 127 128 128 127 125 124 124 124 124 124 123 122 121 123 124 123 121 121 123 123 121 122 119 118 118 116 118 121 121 117 118 119 120 118 116 116 117 118 115 114 115 115 113 113 115 115 114 112 111 110 110 110 111 110 110 109 108 108 108 107 106 108 105 105 107 104 103 99 83 62 43 23 15 12 11 20 36 47 56 60 63 64 63 63 58 52 49 45 47 47 44 43 40 36 36 35 34 35 34 31 27 31 29 28 29 31 30 26 24 24 24 23 24 25 25 25 25 25 27 27 26 26 24 27 33 31 32 31 31 31 31 32 37 36 43 44 44 45 43 42 45 48 47 44 43 44 44 40 36 40 38 35 39 39 34 36 37 33 35 37 38 39 39 39 39 43 39 46 54 57 59 54 49 47 41 43 44 42 40 36 36 42 44 43 35 50 55 49 41 42 39 28 32 41 59 59 67 82 60 36 30 44 59 81 73 
215 215 216 217 217 217 218 220 220 221 221 221 223 224 223 222 223 223 222 222 222 222 222 222 223 224 223 222 222 223 223 221 222 221 220 221 220 219 218 218 220 220 219 218 217 218 218 217 219 219 218 217 217 216 216 216 214 215 215 215 216 217 217 215 216 216 216 216 216 215 216 218 217 217 217 216 216 217 218 218 217 218 219 219 218 218 218 218 219 218 219 226 217 213 218 220 216 218 170 103 85 81 72 82 76 69 65 73 83 88 88 88 96 102 114 105 93 112 122 120 106 96 94 100 113 142 180 204 222 225 221 222 225 226 226 229 226 227 227 226 226 227 226 224 225 224 223 222 222 222 223 224 220 218 217 216 215 214 211 209 206 205 203 199 197 195 191 188 185 181 178 174 168 165 162 158 155 153 149 146 145 142 140 137 138 136 135 134 131 132 131 128 129 128 126 126 127 127 126 125 124 123 123 123 124 123 122 121 122 123 123 123 122 121 122 122 123 119 118 118 116 118 120 118 117 118 120 120 118 116 115 116 117 116 115 114 115 115 115 116 115 114 112 112 112 111 111 112 110 109 108 108 108 107 106 106 104 103 105 105 101 103 99 80 62 41 22 14 11 17 34 51 62 71 75 76 74 72 70 63 59 55 47 47 48 46 47 43 36 37 36 36 38 37 34 31 36 34 32 30 30 32 31 29 28 26 26 26 27 26 26 27 26 29 28 26 26 26 28 33 32 34 34 35 37 37 37 40 39 46 47 46 49 47 44 47 45 43 41 42 42 41 39 37 37 36 34 38 38 34 36 38 31 36 41 43 43 42 40 38 38 45 38 41 55 52 41 42 47 43 43 36 35 35 33 34 31 36 36 33 46 59 57 53 51 39 38 48 43 43 41 48 63 42 35 34 37 41 70 77 
212 212 213 214 214 214 215 218 218 218 218 218 219 220 219 217 218 219 220 221 221 222 223 224 222 222 222 221 221 222 221 219 221 219 217 217 217 217 217 217 217 217 217 215 214 214 214 213 214 214 214 214 212 212 211 211 212 213 213 212 213 214 213 211 214 212 211 211 212 212 213 214 213 215 214 213 213 215 216 215 215 215 216 215 215 215 216 216 217 217 216 215 220 221 217 220 219 215 220 199 157 149 127 90 79 93 99 94 95 100 94 96 109 111 114 94 83 94 100 112 126 125 130 161 183 211 217 224 225 216 226 223 221 224 227 225 225 224 226 228 227 224 223 225 225 225 225 225 224 223 222 221 221 219 216 215 215 214 213 212 209 208 206 203 201 199 195 191 187 184 180 176 171 168 165 161 158 156 152 148 145 142 139 136 137 137 137 135 132 133 134 131 132 130 129 127 126 126 126 126 125 125 124 124 125 125 124 124 119 121 123 124 121 119 120 122 122 118 119 121 119 121 121 116 118 119 120 119 117 115 115 116 117 118 117 115 115 116 115 112 114 112 111 112 112 111 111 111 111 109 108 110 110 107 106 107 102 104 106 105 100 105 102 79 63 41 23 14 12 24 46 62 74 83 87 87 84 80 76 68 64 62 54 56 56 51 50 43 39 41 40 38 37 35 34 35 36 39 38 35 35 38 36 31 32 31 31 32 32 31 30 30 30 32 30 25 24 24 24 27 36 37 36 37 40 40 39 42 45 49 45 44 49 46 39 39 41 38 38 42 43 40 38 38 31 36 37 37 36 35 37 35 37 41 44 43 41 42 43 43 39 41 36 42 50 52 53 46 49 54 56 37 42 42 41 38 43 52 56 54 45 45 44 53 54 41 46 52 45 49 55 58 48 29 34 39 41 38 70 96 
207 207 208 209 211 213 213 210 213 214 214 213 214 215 217 217 217 219 220 219 219 220 221 220 218 219 217 217 218 217 215 216 215 215 215 215 214 213 212 211 215 213 211 210 210 210 210 209 211 211 210 209 207 207 208 209 207 208 209 208 206 205 206 208 207 207 208 208 207 206 207 209 210 210 210 210 209 208 210 211 209 212 215 214 213 212 212 212 216 216 217 217 217 218 218 219 215 218 216 216 219 219 205 180 148 145 139 134 132 128 122 117 118 126 136 136 127 124 138 155 199 205 214 221 224 224 223 223 222 224 225 223 223 225 225 224 225 225 224 224 224 224 225 225 225 223 224 224 223 223 224 222 223 221 220 218 217 217 216 216 213 211 208 207 203 199 196 196 187 187 184 180 176 173 169 165 161 156 152 150 147 143 141 141 137 138 139 136 132 133 136 135 127 129 130 130 127 124 125 127 125 123 123 124 124 122 123 125 121 122 122 121 121 122 122 121 120 122 120 117 119 121 121 122 121 120 119 119 118 118 117 116 120 117 114 115 116 115 113 111 110 111 111 111 113 114 113 110 110 107 107 106 104 107 109 106 103 106 106 105 103 102 97 85 68 46 21 11 13 32 48 66 83 88 88 86 86 84 79 76 70 68 63 63 63 55 48 49 44 44 42 40 41 39 37 38 37 35 34 36 40 40 39 37 37 36 36 38 37 34 33 34 31 28 33 28 19 25 32 32 36 43 43 40 42 43 41 41 45 43 43 49 44 44 40 40 40 40 41 41 42 44 44 40 36 39 39 36 37 41 39 34 41 43 39 39 42 43 45 44 45 40 40 41 42 50 59 61 61 55 59 54 45 52 56 49 54 58 55 48 45 43 41 41 48 54 43 34 34 45 56 51 30 24 28 31 37 37 58 85 
199 201 203 204 206 208 208 207 209 210 211 211 211 212 212 211 214 215 215 215 214 215 215 215 216 217 215 214 215 214 212 214 212 212 211 211 211 210 208 207 208 207 206 205 206 206 205 205 205 205 204 203 203 202 203 204 202 203 204 204 203 202 202 202 201 201 202 204 203 202 203 205 206 205 204 205 205 205 205 206 204 207 209 209 208 209 209 210 212 213 213 213 214 214 215 215 217 215 211 214 215 216 218 214 214 212 209 206 204 201 196 191 194 199 204 207 205 206 213 222 222 222 223 223 223 223 224 225 224 226 226 224 224 225 226 225 225 225 224 224 224 224 224 224 224 223 224 224 222 222 223 222 222 221 220 219 218 217 216 216 213 212 210 209 207 203 199 198 192 191 188 184 180 177 172 168 165 160 156 154 151 147 145 145 140 139 139 137 133 133 135 133 130 131 131 130 128 126 126 127 124 124 125 126 125 124 123 123 125 124 122 120 120 121 120 118 119 122 120 118 119 121 120 120 119 119 118 118 118 118 117 116 114 115 116 116 115 113 115 118 113 115 115 113 111 111 111 111 112 111 110 109 108 109 110 108 104 106 105 104 102 101 98 88 68 46 25 11 17 35 55 71 88 90 89 88 90 88 80 74 77 74 68 66 66 59 51 50 45 45 43 41 42 40 39 40 36 36 38 40 41 40 39 39 38 39 39 38 38 40 40 39 36 33 36 32 26 31 35 37 39 43 42 39 41 42 42 44 44 42 45 46 44 41 41 39 41 40 41 42 42 44 45 43 36 40 42 40 40 41 39 35 38 42 41 40 42 42 46 48 42 42 46 46 41 44 55 63 60 53 59 62 54 52 53 53 49 50 44 39 41 41 39 40 36 49 53 40 35 44 48 44 33 23 19 24 33 33 37 45 
192 194 197 198 200 201 202 202 202 203 205 207 208 210 209 207 210 210 210 210 211 212 212 211 211 213 212 211 211 210 208 208 209 209 208 207 207 206 205 204 203 202 202 202 201 201 200 200 202 201 200 199 199 198 198 198 198 198 198 199 200 199 197 196 195 196 197 199 199 199 200 201 200 199 198 200 201 201 201 202 202 204 204 203 203 205 205 205 208 207 207 208 209 210 210 210 212 212 214 217 214 209 211 211 212 213 215 216 218 219 218 215 217 218 218 218 218 218 219 219 222 222 221 221 221 221 222 222 223 225 225 223 223 225 226 226 223 223 224 224 224 224 224 224 224 223 224 224 221 221 223 222 221 221 220 219 219 218 217 216 213 212 211 211 210 206 202 199 196 194 191 186 183 180 175 170 167 163 159 157 154 151 148 147 142 139 139 138 136 134 135 133 132 132 131 129 127 127 127 125 124 125 126 126 125 125 124 122 124 122 120 119 120 122 121 120 119 122 120 118 120 120 119 119 118 118 117 118 118 117 117 116 116 115 114 115 115 114 114 115 113 115 114 112 110 110 111 113 110 111 110 108 109 109 107 107 105 107 105 104 103 102 101 92 72 51 31 12 19 36 60 75 87 91 92 90 90 87 83 82 82 80 74 70 68 62 54 51 49 51 49 45 44 41 39 40 35 36 39 41 39 37 37 39 35 39 40 38 40 43 43 40 42 38 39 36 34 35 35 38 45 46 45 43 44 44 44 47 46 45 48 43 44 42 46 43 41 40 42 43 42 45 48 47 44 42 39 37 38 41 43 43 42 47 45 44 45 44 48 50 47 44 44 45 43 45 50 53 57 56 60 53 42 40 42 46 49 49 40 35 40 41 40 46 36 40 50 44 39 41 43 53 42 37 33 42 48 46 39 39 
187 189 191 192 193 194 195 195 196 197 198 201 203 205 204 201 205 205 205 206 207 209 209 208 206 207 207 207 208 206 203 202 206 205 204 203 203 202 202 201 199 199 199 198 197 196 196 196 197 196 194 194 195 195 194 192 195 194 193 193 194 194 193 192 190 191 193 194 195 196 196 197 195 194 194 195 197 197 198 198 200 200 199 199 199 201 202 202 203 202 202 203 205 206 206 205 207 210 211 211 209 210 212 207 208 210 212 213 214 216 215 214 216 219 220 218 218 219 219 218 216 217 219 221 222 223 223 222 220 222 222 222 222 224 225 224 224 224 224 224 224 224 224 224 224 224 225 224 221 221 223 222 221 221 220 220 219 218 217 217 215 213 212 212 211 208 204 201 199 196 192 188 185 182 176 172 168 165 162 159 156 152 149 148 144 140 139 140 138 135 134 133 132 133 132 128 126 127 127 125 125 127 126 124 124 125 124 122 122 121 119 120 121 123 123 123 120 122 120 118 120 120 119 118 117 117 117 118 118 118 117 117 120 116 114 114 115 115 113 113 115 113 111 110 111 112 112 112 107 110 107 105 109 108 105 105 104 105 104 105 104 103 103 95 80 62 40 17 17 34 57 73 86 91 93 90 87 85 86 88 83 83 80 73 67 61 54 49 51 54 53 50 48 45 42 42 37 36 36 37 36 34 34 36 32 36 39 39 41 43 42 38 43 40 38 37 40 39 36 41 44 44 44 45 45 43 43 45 50 48 48 43 43 45 49 47 43 42 43 43 43 46 49 49 46 41 38 40 44 45 43 41 48 51 47 47 49 47 48 48 49 44 41 42 45 49 49 46 56 62 64 51 40 38 42 49 53 53 44 37 38 37 39 48 41 37 44 50 50 46 45 55 54 50 43 51 52 52 55 65 
181 182 183 185 187 188 188 188 192 192 193 193 195 197 195 193 199 198 199 200 202 202 202 202 202 203 201 201 203 202 199 199 200 199 198 198 198 198 198 197 195 194 193 192 191 191 192 193 190 189 188 189 190 190 189 188 190 189 188 188 188 188 187 187 186 187 189 190 190 191 191 191 190 189 190 191 192 192 193 194 193 193 192 192 194 197 199 199 199 198 198 199 201 202 202 201 202 205 204 203 203 208 213 207 211 212 212 212 212 213 214 213 210 213 215 214 214 216 218 217 220 219 219 220 221 221 222 222 220 221 222 222 223 224 223 223 226 225 224 223 223 223 223 223 224 223 224 224 221 221 223 222 220 221 221 220 220 219 218 217 217 216 214 212 212 210 207 204 200 198 194 190 187 184 179 175 170 168 166 162 158 154 151 151 148 143 141 142 139 136 133 131 131 133 132 128 126 127 127 126 126 127 126 124 124 125 124 122 122 122 122 122 122 122 122 123 122 123 120 118 120 121 119 119 116 117 118 118 118 118 118 118 117 117 117 116 115 114 115 117 116 114 112 111 111 112 112 112 109 111 107 106 110 109 104 104 103 103 103 104 103 102 103 98 86 71 48 26 19 36 54 71 90 91 89 87 88 87 85 86 82 84 83 76 65 57 50 45 45 50 52 51 51 50 47 47 43 37 33 33 34 34 33 34 33 35 38 41 43 44 42 40 40 37 36 38 44 44 41 48 44 42 44 47 47 46 46 47 50 49 46 44 41 46 46 43 45 43 44 45 44 46 50 50 47 42 39 42 45 44 42 42 46 50 48 48 48 45 46 47 43 46 46 43 44 48 50 49 52 55 61 62 59 54 51 58 56 55 47 41 42 39 39 45 48 45 40 43 44 42 46 47 35 34 33 51 52 44 41 48 
177 177 178 181 183 183 183 183 186 187 187 187 189 190 190 189 193 193 193 194 195 195 194 195 198 198 195 194 196 196 196 197 195 194 193 193 193 194 194 193 190 189 188 187 187 188 189 190 189 188 187 187 187 186 185 183 184 185 185 185 184 184 183 182 183 185 185 186 186 187 187 186 186 186 186 187 188 188 188 189 188 188 188 188 189 191 193 193 193 193 193 195 196 198 198 198 198 200 201 203 201 199 203 202 204 205 206 206 208 211 213 213 214 214 214 212 213 215 216 215 218 218 218 218 218 218 219 219 221 222 222 223 223 223 223 222 224 223 222 222 222 223 225 226 224 222 223 223 221 221 222 221 221 221 221 221 220 219 218 217 218 217 214 212 211 210 208 205 201 199 195 191 189 186 182 178 174 172 170 166 161 157 154 153 149 145 144 143 141 139 137 134 132 134 132 129 128 128 128 127 126 126 126 126 126 126 124 121 122 123 123 123 122 121 122 123 123 122 119 118 121 121 119 119 117 118 118 119 118 118 118 117 117 115 114 115 115 115 115 115 112 113 113 113 110 110 112 115 112 112 109 108 110 109 106 103 105 105 103 104 102 102 105 102 90 79 59 41 31 45 59 74 86 90 90 89 89 87 85 86 82 83 82 74 61 51 44 38 39 45 48 50 52 52 50 49 47 39 32 32 34 34 34 34 36 36 38 41 44 46 45 43 38 36 36 38 44 45 43 49 49 46 48 50 48 48 49 49 49 49 46 47 42 47 43 39 47 45 45 46 46 47 50 50 46 43 41 42 42 42 46 50 45 51 51 50 46 41 43 47 42 49 49 45 44 46 47 49 49 52 59 63 68 69 60 55 52 49 44 43 46 46 42 39 46 42 31 31 30 27 36 39 33 36 37 52 54 43 39 41 
173 174 175 177 178 178 178 179 179 180 181 181 183 185 186 185 187 187 187 188 188 187 188 189 189 191 189 188 189 189 190 193 190 190 189 189 189 189 189 188 188 187 185 185 185 185 185 185 186 186 185 185 184 183 181 180 180 180 181 181 181 180 180 180 181 182 182 181 181 182 182 181 182 181 181 182 184 183 183 183 185 186 185 184 184 185 186 186 188 188 189 190 191 192 193 193 198 196 195 199 197 196 202 205 202 203 203 203 204 207 208 208 208 208 208 209 210 212 214 214 213 215 217 218 218 218 219 219 221 220 220 220 221 222 222 222 221 221 221 221 222 224 225 226 224 222 222 222 221 222 223 221 221 221 222 221 220 218 218 218 217 216 215 212 211 210 208 206 202 200 197 194 192 189 186 183 179 177 173 169 166 162 157 154 151 148 147 145 142 141 140 136 135 134 132 131 130 129 129 128 126 125 125 126 126 125 123 122 123 122 122 122 122 121 122 123 122 122 119 119 121 121 119 118 117 118 119 119 118 118 117 117 119 115 113 114 116 116 114 112 110 112 113 114 111 110 111 114 112 111 110 109 107 108 108 105 107 106 104 105 103 102 105 102 97 87 74 60 54 61 69 79 84 89 92 91 88 85 84 88 84 80 78 71 59 50 42 35 37 43 46 47 51 52 50 49 48 42 37 37 37 35 36 37 38 40 41 42 45 48 47 43 39 37 38 38 42 43 42 46 48 45 47 48 46 47 50 48 49 49 48 48 46 47 45 41 49 46 46 48 48 49 50 50 42 42 44 46 46 46 47 49 48 53 52 52 49 43 44 46 47 50 49 48 50 48 45 46 54 60 64 61 66 74 66 54 53 48 45 45 45 46 42 33 36 34 33 36 34 27 29 33 44 53 54 59 63 55 52 42 
171 171 173 175 174 172 172 174 174 176 177 177 177 178 179 179 181 181 182 183 183 182 183 185 181 184 186 185 185 184 185 188 186 186 185 185 185 185 184 184 187 185 183 183 183 182 181 179 178 178 179 179 180 179 178 178 178 177 175 175 176 177 178 178 177 178 178 177 177 178 178 177 179 176 176 177 179 179 178 177 180 181 182 181 181 182 183 183 183 184 185 186 187 188 189 190 191 190 190 194 193 192 196 194 195 195 196 197 199 202 203 203 205 206 208 208 207 207 209 212 214 215 215 214 213 214 216 218 217 216 216 217 218 220 221 222 222 222 221 221 222 222 222 223 224 222 222 222 222 223 223 221 222 222 222 221 219 218 218 218 217 217 216 214 212 211 209 207 204 203 201 198 195 193 191 189 184 181 176 173 170 167 161 157 155 153 151 147 142 141 139 134 136 134 131 131 131 130 128 128 128 125 123 124 125 123 123 124 126 123 122 121 121 120 120 121 121 121 119 119 122 121 118 117 117 118 119 119 118 117 116 116 115 116 117 117 116 114 115 117 115 114 114 115 114 112 110 110 110 109 110 110 106 107 110 107 106 105 103 105 103 100 102 99 103 93 87 74 73 73 78 83 90 91 89 88 88 86 83 84 87 80 76 71 61 53 45 36 37 42 44 46 50 52 51 50 49 46 44 44 41 38 39 42 40 44 46 45 47 51 48 41 39 38 40 40 41 44 43 46 45 44 47 49 48 52 55 52 50 47 50 47 48 46 48 45 50 46 47 49 50 50 51 50 52 47 43 42 45 47 48 48 50 51 48 51 53 49 48 47 49 50 50 54 57 51 47 52 58 61 67 66 66 70 67 61 67 61 58 53 47 47 45 34 38 40 45 39 37 42 38 37 51 56 44 35 44 48 52 36 
167 169 169 166 166 168 169 169 169 172 173 174 174 173 173 177 176 178 174 177 178 176 180 178 178 178 179 181 181 181 180 179 178 180 182 182 181 181 182 183 179 180 181 181 181 180 180 180 178 177 176 175 176 176 176 176 174 175 175 173 174 176 178 179 174 173 176 174 173 174 172 175 172 174 175 175 174 174 174 175 178 177 176 175 176 178 179 180 180 180 181 181 182 182 183 183 186 185 186 188 188 187 189 192 192 193 194 195 196 197 197 197 201 201 202 205 205 203 204 207 209 210 210 210 211 212 213 214 215 215 215 217 219 220 218 217 218 220 221 221 221 220 220 221 220 221 222 222 222 222 221 220 220 221 222 222 221 220 220 220 219 218 217 216 214 212 211 210 208 206 203 200 198 196 193 192 189 186 182 179 175 171 166 163 158 157 153 148 144 142 141 140 139 135 132 131 132 131 129 128 130 126 124 126 128 126 125 126 124 123 120 120 119 121 125 122 123 120 118 118 118 118 118 119 120 118 118 119 118 119 119 118 114 116 116 119 118 114 115 115 116 112 111 114 115 112 110 110 111 109 108 109 108 106 106 107 104 106 105 102 102 102 101 99 99 99 91 86 81 79 85 85 89 89 89 90 88 86 85 86 89 81 75 61 60 55 46 42 42 41 42 45 49 50 52 53 54 54 47 42 45 45 43 44 40 41 41 43 50 51 47 44 45 43 45 45 43 42 44 44 47 48 48 52 57 52 46 46 48 52 51 45 45 50 50 45 43 45 50 53 53 51 51 53 50 50 51 49 44 43 46 46 54 53 50 48 47 45 44 47 49 56 55 53 57 58 57 61 59 62 67 68 63 60 62 64 67 63 58 56 57 53 48 46 39 44 55 55 50 39 37 35 35 37 32 26 21 27 40 38 
164 165 166 166 166 167 168 168 168 168 167 167 170 170 169 171 168 172 171 175 176 173 174 171 175 175 175 176 177 177 176 176 176 176 177 176 176 176 177 178 176 176 177 177 177 176 176 176 179 177 175 173 173 173 173 173 171 172 173 172 172 173 173 172 172 171 173 170 170 172 171 173 173 173 173 173 173 173 173 173 175 173 172 172 173 175 176 177 176 176 176 176 176 177 179 180 180 180 181 184 185 184 184 186 189 189 189 190 191 193 194 194 196 197 199 200 201 201 202 203 204 204 205 206 207 208 210 210 212 212 213 214 216 217 216 215 215 216 217 218 218 218 220 221 220 220 220 220 220 220 220 220 221 221 221 221 221 220 220 219 218 217 217 216 214 213 212 211 210 208 206 204 202 200 197 195 194 192 188 185 181 177 172 169 164 162 158 153 149 147 146 144 144 140 136 134 132 130 129 128 129 128 126 125 125 125 123 121 123 123 121 121 120 120 124 121 121 120 119 120 121 120 119 119 118 116 118 119 118 118 118 116 114 116 115 118 118 114 116 115 116 114 112 113 113 111 110 111 113 110 109 110 110 107 105 105 103 105 105 103 103 103 101 98 101 101 95 92 89 87 92 91 93 92 91 91 90 87 86 87 84 76 69 57 56 50 46 43 43 42 42 45 47 49 52 55 52 51 51 50 50 50 49 46 45 44 41 43 48 49 46 45 46 43 42 41 38 38 40 41 45 46 46 49 54 54 51 52 49 54 55 50 47 48 50 49 47 46 48 52 56 57 56 55 49 49 50 51 49 50 52 51 48 52 53 50 48 47 47 50 53 58 58 58 59 54 54 62 64 63 63 62 60 62 64 62 59 61 60 59 61 60 54 51 42 45 51 53 49 41 35 29 28 37 41 37 28 32 50 56 
161 161 163 164 164 164 164 165 165 164 162 163 166 166 166 168 170 170 167 168 168 168 171 170 170 170 170 171 172 172 171 171 173 172 171 170 170 171 173 174 173 173 174 173 173 173 173 173 174 173 171 170 169 170 171 171 169 171 171 171 170 170 170 169 169 168 170 167 168 170 168 168 170 169 169 169 170 171 171 171 169 169 168 168 169 170 172 172 171 171 172 173 173 174 175 176 176 175 177 180 181 180 180 180 183 183 184 185 186 187 188 189 190 192 194 194 195 197 199 199 198 199 200 202 203 205 206 206 208 209 210 211 212 213 213 214 214 214 215 215 215 217 219 220 219 219 219 219 219 219 220 220 221 220 219 219 220 220 219 218 218 218 217 216 215 213 212 211 211 210 209 208 206 204 202 200 199 197 194 191 188 184 179 176 171 169 164 158 154 152 150 148 144 142 138 136 134 132 131 131 130 131 129 125 124 125 124 121 122 123 123 123 121 120 124 121 119 119 119 120 120 119 118 118 117 117 119 120 118 117 117 115 115 116 115 117 118 115 116 114 115 115 114 113 111 111 111 112 112 110 109 111 112 109 106 105 104 105 104 103 104 104 103 100 99 100 96 95 93 92 94 92 94 92 91 90 88 86 85 85 81 73 63 55 53 45 47 45 44 44 45 46 47 49 52 55 54 52 56 59 55 55 56 49 49 46 41 42 45 44 43 44 50 46 44 44 42 43 45 45 48 49 49 50 55 57 56 56 54 54 53 52 52 52 51 48 52 49 49 53 58 60 58 56 56 54 56 56 55 55 56 54 54 55 51 47 49 53 55 57 57 59 59 62 66 63 58 60 60 62 63 62 61 63 60 53 53 58 57 54 57 60 61 62 49 47 44 45 45 45 40 36 34 41 43 37 26 28 42 50 
160 159 160 162 162 160 161 163 160 162 163 162 163 162 164 169 165 166 166 167 168 167 167 165 164 165 166 168 169 169 168 167 168 168 167 167 167 168 170 171 170 171 170 169 169 170 170 170 169 168 167 166 166 167 168 168 169 169 168 167 166 167 168 169 166 167 169 166 166 168 165 164 164 165 165 166 167 168 168 169 165 165 165 165 166 167 168 168 167 168 171 172 172 172 171 171 173 172 173 176 177 177 176 176 177 178 179 181 182 182 183 184 185 188 189 188 189 193 195 195 193 195 197 198 199 200 202 203 203 205 207 208 208 208 209 210 212 212 213 213 213 214 216 217 217 217 217 218 218 218 218 219 220 219 218 218 218 218 218 217 218 218 218 217 216 214 213 212 212 211 210 209 208 207 205 203 202 200 198 196 194 190 185 181 178 175 169 163 159 157 153 150 146 143 140 139 138 136 134 134 130 131 131 127 126 127 126 125 123 124 123 124 122 121 124 121 121 120 119 118 118 118 118 119 118 118 120 119 117 117 117 114 115 117 115 117 117 115 116 115 114 115 115 113 111 112 112 112 109 108 108 110 111 109 107 106 105 104 102 100 101 103 103 101 101 101 99 98 97 96 94 92 93 92 89 88 86 85 85 84 82 72 60 54 50 42 48 47 46 46 47 48 48 50 52 54 58 56 58 58 55 54 55 52 54 51 48 47 48 45 44 47 48 46 46 45 44 45 47 47 46 49 49 50 53 56 56 54 59 55 52 53 55 55 53 50 54 54 54 55 56 57 57 57 59 57 58 58 55 55 55 54 56 57 54 53 55 56 56 58 63 75 81 77 72 66 62 61 62 62 62 60 58 59 59 56 52 55 52 47 47 49 54 58 52 51 44 45 46 53 50 49 46 45 39 31 28 28 27 22 
159 158 158 160 160 159 160 162 159 161 162 162 162 161 162 166 161 161 163 164 165 165 164 164 162 162 163 164 165 166 165 165 165 165 166 165 164 164 166 168 165 166 166 165 164 166 166 166 166 166 166 165 165 165 164 164 168 167 165 164 163 163 164 166 164 165 167 164 162 164 163 163 160 162 163 164 164 164 165 165 163 163 163 163 164 164 165 166 165 166 168 169 169 168 167 167 168 167 168 170 172 173 173 173 174 175 176 176 177 178 180 181 180 183 184 183 184 187 190 190 188 190 193 194 194 195 196 198 199 201 203 204 203 204 205 207 208 209 210 210 211 211 212 212 213 214 215 216 216 215 215 217 218 218 218 218 217 217 217 218 217 217 217 217 217 216 214 214 214 213 211 210 210 209 208 207 205 204 202 201 199 195 190 187 184 181 175 169 165 161 157 153 151 148 145 143 142 139 135 133 131 130 130 129 127 126 126 127 125 124 122 124 122 121 124 121 123 122 121 119 118 119 120 121 118 117 118 117 115 116 117 115 115 117 116 117 116 114 116 115 113 114 114 113 113 113 112 111 108 108 108 109 108 106 105 105 104 103 101 99 100 102 102 101 102 101 100 97 97 96 93 91 93 91 89 87 86 86 86 86 82 69 56 50 47 40 49 48 48 49 49 49 50 51 53 55 59 59 55 51 51 49 48 51 51 52 52 53 51 46 45 49 48 47 48 47 44 45 47 47 47 48 50 50 53 57 59 57 59 57 56 56 55 54 55 57 56 57 58 57 57 56 56 57 59 59 60 59 56 56 59 59 55 57 58 58 56 57 66 80 101 111 115 107 96 86 75 67 61 57 57 58 57 56 57 57 53 54 51 46 41 34 32 37 47 55 53 53 52 56 50 50 60 58 52 46 48 49 36 22 
157 157 157 158 159 159 160 161 159 159 158 159 162 160 158 159 163 161 161 159 159 161 160 162 160 160 159 160 160 161 162 162 161 162 163 162 161 160 161 163 161 163 163 161 161 163 164 163 162 163 164 164 164 164 163 163 165 165 164 164 162 161 161 162 163 162 163 160 159 160 160 164 159 161 163 163 162 161 161 161 161 161 162 162 162 162 163 164 165 165 165 165 165 165 165 166 164 164 164 166 167 169 171 171 173 172 172 171 172 174 176 179 176 178 179 178 179 181 183 184 184 186 189 190 190 191 192 194 196 197 199 200 200 201 203 204 204 205 207 208 209 210 210 210 211 211 213 215 215 213 213 215 215 216 217 217 216 216 216 217 215 215 216 217 217 217 216 216 216 214 213 212 212 211 211 210 207 206 205 203 202 199 194 191 188 185 180 174 170 166 161 156 155 151 147 146 144 141 136 134 133 132 131 131 129 127 127 127 127 125 122 124 122 121 124 121 121 122 122 121 119 119 120 120 117 117 118 117 116 118 119 117 114 117 116 116 114 112 115 114 113 113 113 114 115 114 112 110 109 109 110 109 108 107 107 107 104 104 104 103 103 103 102 101 100 98 99 96 95 96 92 92 91 91 89 87 86 86 87 87 81 65 54 46 41 38 47 47 49 50 50 50 51 54 56 58 59 59 51 45 45 42 40 46 45 49 53 55 54 49 48 52 52 52 53 51 49 51 54 54 52 51 52 53 54 58 61 61 59 56 54 54 55 54 55 56 59 59 58 58 58 59 58 57 62 61 60 59 56 56 59 60 60 59 60 65 73 83 103 125 142 141 139 136 130 118 100 87 67 59 57 59 57 54 52 50 54 53 49 45 37 25 19 21 38 52 56 54 50 49 43 43 59 61 59 51 50 50 40 34 
153 155 156 156 156 157 157 157 156 157 156 157 159 158 156 157 159 158 162 161 160 160 155 155 158 158 158 158 158 158 158 157 158 159 159 159 158 158 159 160 159 161 161 160 160 162 163 162 159 160 161 162 162 162 162 162 161 161 161 162 161 160 159 160 160 157 159 158 158 159 158 162 158 159 160 160 159 158 158 158 159 160 160 160 160 160 161 161 163 163 163 162 162 162 164 165 162 163 163 163 164 165 166 167 168 169 169 168 168 170 172 174 174 174 174 175 175 175 177 179 181 182 183 185 186 187 188 189 190 192 194 195 196 197 199 201 200 201 202 204 206 207 207 207 208 208 209 212 212 210 211 213 212 213 214 214 214 214 214 214 214 214 215 216 217 216 216 215 215 214 213 213 213 213 212 211 208 207 206 205 203 201 197 194 191 189 185 180 175 171 166 162 157 153 150 148 146 143 140 138 136 136 134 132 130 130 129 127 127 126 124 125 123 121 124 122 120 122 123 121 119 118 118 117 118 118 118 118 118 121 121 116 116 118 116 115 114 113 115 113 113 112 112 115 115 113 111 110 109 110 110 110 109 109 108 108 106 106 106 106 105 103 103 102 100 99 101 97 96 98 94 95 90 91 90 87 85 85 86 86 82 64 55 41 33 31 38 39 45 49 53 54 55 58 61 62 60 55 46 39 35 33 33 36 40 47 52 55 56 55 54 56 53 53 54 54 52 54 57 56 55 52 53 55 53 54 58 57 60 56 53 53 55 56 55 53 60 59 58 56 57 59 59 58 62 59 58 58 59 62 64 62 68 70 77 92 109 122 137 152 156 159 161 157 147 137 127 119 100 88 76 66 57 53 52 51 52 51 47 43 36 26 18 17 24 43 52 47 47 43 42 44 44 47 48 40 35 30 25 30 
151 154 155 154 154 155 154 152 152 155 156 156 157 155 156 160 157 154 157 155 156 159 156 158 155 156 158 159 159 157 155 153 157 157 157 157 158 159 160 161 157 159 159 158 158 161 162 161 160 160 160 159 159 158 158 159 156 155 157 158 159 158 158 160 156 153 156 159 160 159 157 160 157 157 157 157 157 157 157 156 158 159 159 159 159 159 159 159 159 160 160 160 160 160 161 162 162 162 163 162 161 161 161 162 164 165 167 168 168 167 168 168 172 172 172 174 173 172 173 176 177 177 178 180 182 184 184 184 184 185 187 189 190 192 194 196 196 197 198 200 201 202 202 203 205 204 205 207 207 206 207 210 210 210 210 211 213 213 212 211 214 215 215 216 216 215 214 213 213 212 212 213 213 213 211 210 210 208 207 206 205 203 199 196 194 193 190 185 181 176 171 167 161 158 154 151 148 145 143 142 136 138 136 131 130 132 131 126 128 127 126 128 125 122 125 123 123 125 125 122 119 117 116 116 119 118 119 118 118 120 119 114 118 119 116 116 115 114 115 112 114 112 112 115 115 111 110 111 110 110 109 109 108 107 105 103 106 106 106 104 102 101 101 103 97 96 99 95 94 96 92 93 91 92 92 88 85 85 86 86 83 64 55 37 24 23 27 29 41 48 56 59 60 62 63 64 60 49 41 34 25 24 27 26 32 40 46 49 53 54 54 55 55 55 57 57 56 57 56 53 57 53 56 59 56 55 58 57 58 59 59 57 55 55 55 56 58 59 58 55 53 55 58 59 63 59 59 64 71 78 80 78 84 90 99 112 125 136 148 159 171 176 177 169 161 158 151 139 131 122 108 88 69 59 55 53 49 51 49 44 40 30 19 13 10 33 48 45 49 46 47 49 43 46 51 48 43 34 25 33 
150 152 153 154 153 153 153 153 154 154 154 154 155 155 155 155 154 154 153 154 155 156 157 157 159 155 156 156 153 154 156 154 155 153 152 155 156 155 154 154 156 156 155 157 162 159 154 155 157 157 157 158 157 156 156 157 155 155 156 157 157 157 157 157 157 158 158 158 158 158 157 157 158 157 156 156 157 157 157 157 156 154 155 157 157 155 155 158 155 157 158 158 158 157 157 158 160 159 159 160 159 158 159 161 160 161 163 165 165 164 165 167 166 168 170 169 170 171 170 169 171 173 175 176 178 181 180 178 181 181 183 185 186 186 188 191 190 192 193 192 193 196 197 197 199 200 201 201 202 203 204 206 207 208 208 207 207 209 211 213 213 213 213 213 213 214 213 212 212 214 214 213 213 214 213 210 210 209 209 208 206 203 200 198 195 193 189 185 183 181 177 171 168 162 159 156 152 151 150 145 139 140 138 133 130 130 130 129 124 126 127 126 125 124 121 119 123 123 123 120 118 119 119 119 119 118 118 118 117 117 116 115 114 116 115 113 113 116 116 114 112 115 112 115 112 107 112 114 113 109 108 109 110 108 106 106 109 106 105 104 102 101 102 105 101 99 98 99 99 96 93 90 92 90 89 89 88 85 85 87 80 62 54 31 17 17 16 33 47 54 56 63 67 66 64 55 51 46 39 30 22 17 18 22 30 36 40 45 52 55 57 58 57 56 57 58 57 60 62 60 67 58 59 60 60 61 61 61 59 60 60 59 56 54 55 57 59 58 56 57 62 68 68 65 66 69 74 76 80 89 94 99 100 108 118 126 134 146 156 162 172 178 183 181 178 173 164 155 151 143 133 124 109 88 68 57 49 49 45 36 29 28 23 13 10 16 40 43 44 46 38 53 54 51 50 46 49 47 36 39 
151 151 152 152 151 151 151 151 153 152 152 152 152 152 152 152 153 153 154 153 153 154 155 156 157 154 155 155 153 154 155 152 156 153 152 154 155 154 153 154 154 154 153 155 158 155 152 155 154 155 156 156 155 154 155 156 153 154 155 155 154 154 154 155 154 154 155 156 156 156 156 156 155 156 156 156 156 156 155 155 154 153 153 154 154 153 154 155 154 155 156 156 156 155 155 155 157 157 158 159 158 157 158 160 158 159 161 163 163 161 160 161 166 167 167 165 165 167 168 168 166 170 173 173 173 173 175 176 176 176 178 180 181 182 183 184 185 187 188 188 189 191 193 193 196 197 197 198 198 199 200 201 202 203 204 203 203 205 207 208 209 209 210 210 211 211 212 212 212 213 213 211 210 212 211 209 208 208 207 207 206 205 203 202 199 197 192 188 186 183 180 176 173 167 164 162 158 156 154 148 144 143 140 137 135 134 132 130 129 129 128 126 125 125 125 124 122 123 124 122 121 121 121 120 122 120 118 117 116 116 115 115 117 118 116 114 114 115 114 112 111 114 112 113 112 111 114 112 111 108 107 109 109 107 105 105 108 107 104 101 102 104 102 98 101 102 101 99 98 98 95 92 91 89 88 89 88 86 86 87 84 67 56 35 17 12 13 30 44 56 63 67 65 60 59 54 45 40 33 26 19 15 15 19 29 39 47 49 50 52 54 58 53 52 54 56 55 58 60 60 61 55 56 58 60 63 62 63 63 63 62 61 60 58 58 58 62 62 62 63 68 72 74 74 77 81 89 90 91 97 103 112 111 116 122 128 135 144 151 156 164 170 177 180 182 181 178 174 168 163 153 141 132 120 102 86 65 52 44 43 35 23 17 17 10 10 30 45 42 34 36 48 58 46 37 34 36 41 42 42 
152 152 151 151 151 151 152 152 152 152 151 151 151 151 151 151 151 152 153 153 152 151 152 153 153 152 153 154 153 153 154 151 155 152 151 152 153 153 152 153 152 153 153 154 155 153 152 156 152 153 154 154 153 152 153 155 152 153 154 154 154 153 154 155 152 152 153 153 154 154 154 154 154 155 155 156 155 154 153 153 154 153 153 153 153 153 154 155 153 154 155 156 155 154 153 153 152 154 156 157 157 156 157 159 157 157 159 160 161 160 158 158 164 165 164 163 163 164 165 165 164 166 168 168 168 168 170 171 172 172 173 175 177 177 177 178 179 180 181 182 183 185 186 186 190 191 191 192 192 193 194 195 196 198 199 199 199 201 202 203 203 203 204 206 207 206 207 209 209 210 209 208 207 209 209 208 208 208 207 206 205 204 203 203 203 199 196 192 189 186 183 182 177 173 170 168 164 161 157 152 150 146 143 142 141 138 133 131 132 131 129 127 126 126 127 126 122 123 123 123 122 122 121 121 121 120 118 117 117 117 117 116 121 119 117 116 116 115 114 113 113 116 114 113 113 114 115 111 111 109 108 109 109 107 106 107 105 107 107 104 103 103 101 98 100 102 102 98 96 97 96 92 92 90 90 90 89 87 86 87 84 70 57 39 20 8 13 29 44 58 67 69 63 55 53 48 38 32 25 22 18 15 17 22 27 40 49 50 51 53 56 58 48 44 44 46 46 47 52 54 54 53 53 53 57 61 59 62 65 67 68 65 64 64 64 63 67 67 69 73 76 79 82 85 87 87 93 97 100 103 106 113 114 115 119 124 130 136 141 145 154 158 166 173 179 182 183 184 180 178 171 160 152 145 130 115 97 71 51 46 39 26 18 15 6 9 24 47 48 42 48 44 49 46 43 40 38 45 51 44 
151 150 150 150 151 152 152 152 151 151 150 149 150 151 151 150 150 150 151 151 151 150 150 150 150 151 152 152 151 152 152 151 152 150 150 152 153 152 152 152 152 152 153 153 153 152 153 156 152 152 152 153 152 152 152 154 152 154 155 154 153 153 153 154 153 153 153 153 153 153 152 152 154 154 154 154 154 153 152 151 153 153 152 151 152 154 154 154 152 153 154 155 154 153 153 152 151 153 155 156 155 154 156 158 157 156 156 156 157 158 158 157 160 161 161 162 162 162 161 160 164 163 163 164 166 168 167 166 169 169 170 172 173 173 173 173 173 175 176 177 178 179 180 180 182 182 183 184 186 187 189 190 190 192 193 193 194 195 197 197 198 198 199 202 201 200 202 205 203 204 205 204 205 206 207 206 207 207 206 205 203 203 202 201 202 200 198 195 192 188 187 187 181 179 177 174 170 166 163 159 157 152 148 147 145 140 136 134 132 132 130 128 127 127 126 125 125 125 123 122 121 121 121 120 119 119 118 119 120 119 118 117 121 118 116 117 117 116 115 115 116 117 115 114 113 113 113 112 112 111 109 109 108 107 108 109 106 105 106 108 106 101 101 104 100 101 100 98 96 96 95 93 94 91 90 91 90 88 87 88 83 72 59 45 26 10 17 32 47 58 65 65 59 51 45 39 34 27 20 19 18 16 19 25 27 38 46 49 54 58 56 53 47 39 35 36 35 36 41 45 44 46 47 45 51 55 54 59 62 68 71 69 66 67 69 70 72 72 75 80 82 83 85 89 92 89 94 99 103 105 105 111 111 110 113 118 123 127 130 134 143 146 152 161 168 172 176 180 184 186 184 178 170 160 148 139 121 100 72 49 35 29 22 13 8 12 24 47 56 55 58 51 50 49 45 46 42 40 46 42 
148 147 148 148 150 150 149 148 149 148 147 148 149 150 149 149 149 149 149 150 150 150 150 149 148 151 151 150 149 150 151 152 149 148 149 151 152 152 151 151 150 150 151 152 151 151 151 152 153 151 151 151 152 151 151 151 152 153 154 152 151 151 150 150 153 153 153 152 152 152 152 152 153 151 150 151 152 153 152 151 151 151 150 150 150 152 152 151 150 151 152 153 153 152 152 151 153 154 155 154 153 153 155 156 155 154 153 153 154 155 155 154 156 156 156 158 160 160 158 156 162 160 160 161 163 165 164 164 164 165 166 168 168 167 168 169 170 171 172 173 173 173 174 175 175 175 176 177 179 181 182 183 184 185 186 186 187 189 189 189 193 193 194 196 196 195 197 200 197 199 200 201 201 202 203 203 203 204 204 204 203 202 202 201 200 199 199 198 195 192 191 191 186 187 185 181 178 174 171 170 164 160 157 154 150 144 142 142 135 135 133 131 130 129 127 125 128 126 124 123 122 121 121 120 120 120 120 120 120 119 117 116 119 117 116 116 117 116 116 116 118 115 114 114 113 111 111 114 112 111 110 110 109 107 107 107 109 104 103 106 108 105 102 102 103 100 99 99 98 96 95 96 93 91 89 90 89 88 87 88 86 78 64 52 34 19 26 38 50 56 61 57 51 45 38 33 30 23 18 18 17 15 16 19 28 36 41 44 51 55 51 44 43 33 27 26 25 25 28 31 30 33 36 35 41 48 49 56 58 64 69 68 68 70 72 72 74 74 77 82 84 82 83 86 88 88 95 99 99 98 99 108 108 108 111 116 118 120 122 125 133 135 141 150 156 161 166 171 180 184 188 187 184 177 166 156 139 128 105 72 44 31 25 19 15 12 22 41 55 55 50 53 56 50 43 52 53 37 31 34 
146 147 147 148 149 148 147 145 148 147 147 147 149 149 149 148 148 147 147 148 150 150 149 148 147 151 149 147 148 149 150 152 147 147 148 150 151 151 150 149 149 148 150 151 150 150 151 149 152 150 148 149 150 150 149 149 149 151 151 150 150 152 151 149 151 151 151 151 151 151 152 152 149 148 148 148 150 151 151 151 150 149 149 150 151 151 150 150 150 150 151 152 152 152 152 151 153 154 154 153 152 152 154 154 153 153 153 153 153 153 152 151 155 154 154 156 157 158 157 157 157 157 158 159 159 158 160 162 160 161 162 163 164 163 163 165 166 166 167 168 168 168 169 170 171 171 172 173 174 175 176 177 178 179 180 180 181 182 183 182 185 186 187 188 189 190 192 193 191 193 195 196 196 196 197 197 199 200 201 201 201 200 199 198 197 198 199 198 197 196 195 194 190 192 190 187 185 181 178 179 172 169 165 160 155 150 149 149 143 142 139 136 133 132 130 128 127 125 124 124 124 123 121 120 120 120 120 119 119 118 119 119 118 117 116 116 116 116 115 115 118 114 115 116 114 112 111 118 110 110 110 110 110 108 106 104 107 106 105 104 104 104 103 101 103 99 98 99 99 96 95 97 95 92 91 91 89 86 84 84 86 80 69 57 43 33 38 45 49 53 55 47 39 36 31 29 22 19 17 17 17 15 14 14 23 30 34 37 42 44 41 37 35 26 22 23 21 20 22 23 24 25 29 29 33 38 42 49 57 60 64 67 71 74 74 71 74 74 77 80 81 79 79 81 85 84 90 94 95 94 94 99 103 104 107 110 112 114 116 119 125 127 132 139 144 149 154 159 166 174 179 180 185 189 180 167 159 145 128 105 73 44 27 21 16 11 16 27 49 60 45 39 40 49 52 57 58 45 35 35 
146 147 148 149 148 147 146 146 147 146 146 147 148 148 147 146 146 146 146 147 148 148 148 147 146 150 147 144 147 149 148 150 148 148 148 148 148 148 147 147 150 148 150 151 148 149 151 148 150 148 147 147 148 148 148 148 148 149 149 148 150 153 152 149 149 149 149 149 149 150 150 150 147 147 148 148 148 148 149 150 149 148 149 151 152 151 149 149 150 150 150 151 151 151 151 151 151 152 152 151 151 152 153 152 153 154 154 153 152 153 153 152 154 154 154 155 156 156 157 159 155 155 156 157 156 155 156 158 158 157 157 159 160 160 160 161 161 161 161 162 163 162 163 165 168 167 167 168 169 170 170 170 173 174 174 174 174 176 176 176 177 179 179 178 179 182 184 183 184 185 187 188 189 189 190 191 193 194 195 195 195 194 194 193 194 197 198 196 196 198 197 195 193 195 192 190 190 187 183 184 179 176 171 165 162 159 156 154 151 149 145 140 138 136 133 131 127 125 124 124 125 123 121 120 119 120 120 120 118 118 119 120 118 119 118 116 115 116 116 115 117 114 117 116 115 114 112 117 112 111 110 110 110 110 108 106 104 106 107 105 103 102 103 104 102 100 99 99 99 96 96 97 97 95 94 94 93 88 84 83 84 82 76 64 54 50 48 49 47 46 46 36 29 28 24 23 17 17 16 16 16 16 15 14 16 21 24 25 30 32 32 32 29 24 24 25 24 24 26 28 27 26 31 31 30 31 35 40 50 54 60 66 71 73 73 73 75 75 77 79 79 78 79 81 86 83 87 91 94 96 93 95 97 99 101 103 105 109 113 114 118 120 124 127 131 136 142 146 156 162 166 170 177 185 184 178 172 156 141 128 103 70 41 25 19 14 14 16 37 62 53 36 34 46 54 46 41 44 46 49 
145 146 147 148 147 147 147 147 145 144 144 145 146 146 144 143 145 146 146 146 147 147 147 147 146 149 145 143 147 149 147 147 149 149 147 146 145 145 145 145 149 147 149 150 146 147 150 147 148 147 146 147 147 147 147 148 149 150 148 147 149 151 149 145 149 149 149 148 148 148 148 148 147 149 151 150 148 146 147 148 149 147 148 152 153 150 148 148 149 149 149 148 149 149 149 149 149 150 150 150 151 152 152 150 152 153 153 151 151 152 154 154 152 153 154 155 154 154 155 158 156 154 153 155 157 156 155 154 155 153 153 155 157 157 157 157 157 156 157 158 159 158 160 162 162 162 162 162 163 164 165 165 168 169 169 169 169 171 171 171 172 174 174 171 172 176 177 174 178 179 181 182 183 184 186 188 184 186 187 189 189 190 191 192 191 195 195 192 193 197 197 194 195 197 194 193 195 192 186 186 185 182 176 170 168 167 163 157 154 152 148 144 141 138 134 131 131 128 125 125 125 124 122 122 119 121 123 122 119 117 116 117 118 120 120 117 116 117 118 116 115 114 118 115 113 114 110 113 115 113 110 109 110 111 111 109 108 103 102 107 108 105 104 106 102 103 102 100 99 98 98 98 96 95 96 98 97 93 88 87 86 86 85 73 65 61 53 48 46 41 37 27 23 25 19 17 17 17 16 14 13 14 14 13 15 16 15 16 21 25 25 26 21 19 21 22 21 23 28 31 32 29 35 36 31 30 33 37 40 47 57 65 67 67 70 74 75 77 78 78 78 79 81 83 80 81 87 89 90 91 90 94 96 98 99 99 102 107 110 111 112 115 117 119 123 129 135 139 149 152 156 160 165 171 177 181 179 169 158 144 125 99 69 44 28 19 15 13 24 49 61 54 49 43 48 42 32 37 47 57 
141 144 147 147 146 144 145 147 144 145 145 144 143 143 145 147 148 148 146 142 142 144 145 144 143 147 148 145 143 145 147 146 146 145 145 146 146 146 147 149 149 144 144 146 146 147 147 144 151 147 144 144 146 147 146 144 148 149 146 148 149 147 147 144 145 147 149 149 149 149 149 149 149 146 145 146 147 147 147 148 145 147 147 145 144 145 147 147 147 148 150 150 149 148 149 150 150 150 150 149 149 151 150 149 150 148 147 150 151 151 151 152 150 151 152 152 152 152 152 151 153 153 152 152 153 155 155 153 156 154 154 155 154 153 154 156 153 155 156 157 156 156 157 158 157 160 160 160 161 161 158 157 159 162 164 165 165 164 164 164 166 168 169 169 169 170 171 172 174 174 176 177 175 176 179 180 179 180 182 183 182 182 183 186 189 188 188 190 191 192 193 195 195 195 194 193 194 194 193 190 191 187 182 179 177 175 170 167 160 156 152 149 145 141 138 137 138 135 131 128 126 125 123 122 122 124 124 122 118 116 116 117 115 117 118 118 119 119 118 116 116 117 116 114 113 114 114 113 112 111 113 109 111 108 110 109 108 107 107 106 105 105 104 105 104 99 100 103 101 99 99 97 102 103 102 100 98 97 94 91 80 83 86 84 75 63 54 50 42 34 27 23 20 21 21 18 16 18 18 15 13 13 14 13 14 11 12 15 14 16 22 25 22 22 22 23 27 28 28 30 31 35 37 40 42 37 35 41 41 49 58 64 70 72 72 73 79 76 75 80 79 80 85 82 81 83 81 82 84 86 90 88 90 96 95 97 99 100 104 105 109 107 110 116 120 123 127 133 133 135 142 152 158 162 168 175 176 174 165 153 137 122 100 71 38 26 18 17 23 41 53 50 50 44 49 42 39 45 42 48 
142 142 143 144 145 145 143 142 141 142 144 145 145 145 144 144 143 144 144 144 144 145 145 144 144 147 148 145 144 145 145 145 144 144 145 146 146 145 146 147 148 146 146 147 147 147 146 145 148 146 144 145 147 147 147 147 146 146 144 146 147 146 147 145 145 146 147 147 147 146 146 146 146 145 145 146 146 145 145 145 146 147 147 145 145 146 147 147 146 146 146 146 146 147 147 147 150 149 148 148 149 150 149 147 147 147 147 149 150 150 150 151 147 149 150 151 151 151 151 150 152 152 151 150 151 152 152 150 151 153 154 154 153 153 153 153 153 153 154 154 154 154 154 155 154 157 157 157 158 158 157 157 158 159 160 161 162 162 163 163 162 164 165 165 165 166 167 167 168 167 169 170 168 170 173 173 174 175 175 175 175 177 179 180 181 182 183 185 187 189 191 191 192 192 192 192 193 193 192 191 192 189 185 182 180 178 174 171 165 162 157 152 149 147 143 139 138 135 132 129 128 126 124 122 123 124 124 122 120 118 118 119 117 117 117 117 118 120 119 118 115 114 114 115 113 112 113 115 112 112 111 112 112 113 111 110 109 106 106 108 108 105 104 106 106 102 102 103 102 101 101 100 105 106 105 105 107 109 105 98 95 88 83 85 84 74 58 47 40 29 22 22 21 20 19 18 16 15 14 15 13 12 13 15 12 11 12 13 14 18 21 21 24 25 25 28 32 33 32 33 30 38 41 39 42 43 42 44 49 52 53 57 66 72 74 75 77 74 74 78 77 78 82 80 80 83 82 84 85 86 89 88 85 92 90 89 92 94 99 100 105 104 106 111 114 115 120 125 125 127 132 140 146 150 156 162 168 171 170 165 151 137 121 100 68 38 25 22 16 31 52 53 49 38 44 45 39 41 37 34 
141 142 143 145 146 145 143 141 143 142 142 142 143 144 144 144 142 143 145 147 146 144 143 143 144 145 145 145 144 144 143 144 143 143 143 144 144 144 144 146 142 143 142 143 145 143 142 143 145 143 143 145 145 144 144 146 145 146 143 144 145 143 144 142 144 144 145 145 144 144 144 144 144 145 147 147 146 144 144 145 145 146 146 145 144 145 146 147 147 145 144 144 145 146 146 145 149 148 146 146 147 149 148 146 146 148 148 148 148 148 147 146 148 150 151 152 152 152 152 151 149 150 150 150 150 151 151 151 149 153 154 152 150 151 152 151 152 152 151 152 152 152 151 151 151 154 154 153 154 155 155 156 156 156 155 155 156 157 158 158 158 159 160 159 159 160 160 160 163 161 162 163 162 164 166 165 168 169 169 168 169 172 174 174 174 176 178 179 181 184 185 184 187 188 189 189 190 191 191 191 192 190 187 185 183 181 177 175 169 168 163 156 153 152 148 141 140 138 135 133 131 128 125 123 124 124 123 122 121 120 120 120 121 119 117 117 118 119 118 116 116 115 115 117 115 111 112 116 112 112 108 113 111 115 110 108 108 104 103 106 107 103 102 104 106 104 101 101 103 101 101 103 107 110 111 112 116 118 112 105 101 92 85 85 84 76 61 50 43 27 17 20 21 18 17 18 18 13 12 15 14 11 11 16 11 11 12 13 15 21 23 20 23 24 24 27 32 32 32 33 37 41 39 37 42 48 47 45 46 51 55 59 65 71 74 77 76 77 77 81 81 80 83 80 81 84 83 85 86 86 88 86 85 91 89 88 90 92 97 98 97 98 101 105 106 107 110 114 115 119 123 128 133 139 145 149 156 162 167 168 160 146 134 120 99 67 41 29 22 26 40 50 46 44 46 47 43 35 32 34 
139 142 145 146 145 143 143 143 144 143 142 142 142 143 143 142 141 142 144 147 145 142 142 143 143 141 142 144 144 143 142 143 143 142 142 142 142 142 144 145 141 144 143 143 146 144 142 146 145 143 143 145 144 141 141 143 144 145 143 144 144 142 143 140 144 144 144 144 143 142 143 144 142 143 145 146 145 144 144 144 142 144 144 143 142 142 144 146 145 145 144 144 144 145 144 144 146 145 145 145 145 146 146 145 145 147 148 146 145 145 145 144 148 148 148 148 148 149 149 147 148 149 150 150 149 150 150 151 151 152 152 149 147 148 149 149 151 151 150 150 151 150 150 149 150 153 153 151 152 152 152 153 154 154 153 152 152 153 153 154 154 155 156 155 155 156 156 156 160 158 158 159 158 160 161 160 162 164 164 162 163 167 169 169 168 171 173 173 174 178 179 177 180 181 183 184 185 186 187 188 188 188 186 185 184 182 179 178 171 170 166 159 156 154 150 146 144 142 139 136 133 130 127 124 126 125 123 122 122 121 121 120 122 121 119 118 118 118 117 116 117 116 117 118 116 112 112 114 112 112 110 112 111 112 108 107 112 109 107 108 109 108 106 106 104 105 102 101 104 102 101 105 107 112 117 120 122 121 117 113 105 98 90 84 81 75 64 54 46 28 17 18 19 18 19 21 20 15 13 14 14 11 12 15 13 12 13 15 18 24 27 25 25 25 25 28 33 35 34 36 38 40 43 45 47 46 42 40 43 48 55 61 67 68 71 77 75 78 79 82 82 80 81 79 81 83 82 84 84 83 84 82 84 88 86 88 90 89 93 96 95 97 101 105 106 106 108 110 112 116 119 120 124 131 136 139 149 154 158 163 163 155 144 130 116 96 69 47 31 24 31 46 51 45 51 57 43 39 49 43 
138 141 143 144 142 140 140 140 139 141 143 145 145 143 140 138 140 139 141 143 142 141 142 144 142 140 141 143 144 142 141 142 142 142 143 143 143 143 143 144 143 145 143 142 144 142 142 146 147 144 144 146 145 142 141 142 141 143 142 144 144 143 144 142 143 143 144 144 142 141 142 145 142 142 142 142 143 143 142 142 141 142 143 142 140 140 142 145 141 142 143 143 142 141 142 142 143 143 144 144 143 143 144 145 142 144 145 143 143 145 146 145 148 147 146 145 147 148 148 146 148 148 149 148 147 146 146 147 150 148 147 147 147 146 146 147 149 150 150 150 150 149 149 149 149 152 151 150 151 151 150 151 152 153 153 153 152 151 152 153 152 153 153 153 153 154 154 154 156 154 154 154 154 156 157 155 154 157 159 158 158 160 161 161 161 164 166 166 168 172 174 173 173 175 177 179 179 180 182 183 183 183 183 183 182 181 179 178 172 170 167 163 159 155 152 151 149 146 142 138 135 132 129 127 128 126 124 123 122 122 120 119 119 119 119 119 118 118 118 118 116 117 117 116 115 114 113 112 113 113 114 112 112 109 111 110 111 111 108 107 108 110 110 107 104 106 104 103 106 105 104 108 110 113 119 127 130 128 125 124 116 107 93 83 81 80 69 54 45 31 20 18 18 20 22 22 20 18 15 13 13 14 14 14 14 12 14 18 21 23 27 27 30 31 32 35 41 42 43 45 50 52 53 51 48 47 49 49 49 46 47 56 64 64 67 74 76 81 81 82 82 81 83 81 85 87 86 87 87 84 86 85 88 87 84 89 91 88 91 96 93 95 97 101 103 104 106 107 111 114 116 115 117 123 127 129 138 144 146 152 159 158 151 139 122 107 92 70 36 20 29 41 47 51 46 49 50 47 49 48 
141 140 140 140 141 140 138 136 139 139 141 142 142 142 140 139 141 141 141 141 140 140 142 144 143 142 142 143 143 141 141 142 142 143 144 145 145 143 142 143 142 142 141 139 139 138 138 141 145 144 143 144 144 144 142 142 141 142 141 143 143 142 143 141 143 142 143 143 142 140 141 144 143 142 141 140 141 142 141 140 141 142 143 142 140 139 141 144 138 140 142 142 140 139 140 142 141 141 143 143 142 141 142 144 142 143 143 142 142 143 144 144 148 147 145 145 147 149 149 147 146 146 146 147 146 145 145 146 148 145 145 148 149 146 146 147 148 149 149 149 149 148 148 149 147 149 149 148 150 150 149 150 148 150 151 151 150 150 151 152 150 151 152 151 152 153 153 152 152 150 150 151 151 153 155 153 150 152 154 155 154 154 155 156 156 159 161 160 161 164 166 166 169 170 172 174 175 176 177 178 178 178 178 178 179 178 177 176 171 169 168 165 161 156 155 156 151 148 144 140 138 135 133 131 131 129 127 125 124 123 121 120 120 120 120 120 119 117 117 117 115 116 117 115 115 116 115 113 113 113 116 112 113 109 113 113 107 109 107 104 105 109 109 105 105 106 106 106 107 107 107 109 115 115 120 129 136 137 133 130 121 113 97 84 82 81 71 56 44 34 25 20 18 20 21 18 17 18 16 12 12 15 16 14 14 12 15 20 21 22 25 27 29 32 34 38 43 45 46 49 62 60 56 51 51 56 58 52 48 44 43 51 58 59 64 75 77 83 82 81 82 82 85 85 87 89 88 90 90 88 90 90 92 90 85 89 92 89 91 95 92 93 94 95 97 100 102 103 106 108 110 111 113 118 122 124 126 134 135 140 148 152 152 146 138 125 111 96 71 44 35 41 43 41 42 44 37 35 41 33 
142 140 139 139 141 141 140 138 142 140 138 138 139 140 141 141 142 143 142 141 141 142 142 142 143 143 143 143 142 141 141 142 144 143 144 144 144 142 142 142 143 141 142 142 139 139 140 140 141 141 141 141 142 143 143 141 141 142 140 141 141 140 142 141 144 142 141 142 142 140 140 141 142 141 140 139 140 142 142 141 142 142 142 141 140 139 140 142 138 140 142 142 140 139 141 143 141 141 141 142 141 139 140 142 143 142 142 143 143 142 142 143 143 143 142 142 143 144 144 143 143 143 144 146 146 145 145 146 145 145 145 146 147 147 146 146 147 147 147 147 147 147 146 146 146 148 146 145 147 148 147 147 146 147 147 148 148 148 149 150 148 149 150 149 150 151 151 150 150 149 149 150 149 150 152 151 150 150 151 154 153 151 151 153 153 155 156 157 156 156 157 158 165 165 166 169 170 170 170 171 172 171 171 171 172 172 171 169 167 167 166 163 160 157 156 155 152 149 146 143 141 140 138 136 135 133 130 128 126 125 124 123 123 123 122 122 120 118 117 117 116 116 117 117 116 115 115 116 113 113 114 113 113 112 112 112 110 111 110 108 108 109 109 106 106 106 107 107 105 106 109 109 116 119 124 130 138 142 140 135 125 117 104 90 82 76 67 59 44 34 25 21 19 20 19 16 16 18 16 12 12 16 17 15 15 14 16 18 20 24 29 30 32 34 35 38 42 44 46 51 58 56 57 59 59 61 55 44 46 46 45 48 51 54 62 73 74 83 83 83 84 85 87 87 87 88 88 90 90 87 90 90 91 91 86 88 91 90 89 88 95 96 97 96 96 98 100 101 101 103 105 107 110 113 117 120 120 127 127 132 140 144 147 149 143 136 117 106 100 73 46 44 45 49 41 36 34 26 25 32 
139 140 141 140 139 140 141 143 143 140 138 139 141 141 140 138 139 141 141 140 141 144 143 141 141 142 142 141 141 142 142 143 145 144 142 141 140 140 141 143 142 139 141 143 140 140 142 140 139 141 141 139 140 143 143 141 139 140 137 139 139 139 143 143 145 141 140 142 142 141 139 139 139 139 138 137 139 142 142 141 143 141 140 141 141 140 140 141 138 140 141 140 139 139 141 143 142 141 141 141 140 139 139 141 141 140 140 143 145 143 143 143 141 143 144 143 143 143 142 141 143 142 143 144 145 144 143 144 143 145 144 142 142 144 145 144 146 145 145 145 146 146 145 143 147 147 144 142 145 146 145 145 147 146 146 146 147 148 149 149 147 148 148 148 148 149 149 148 150 148 149 149 147 147 149 148 151 149 149 152 152 149 149 151 149 150 153 155 155 153 154 155 160 159 160 162 163 163 163 164 167 166 165 166 167 167 165 164 163 165 163 159 156 157 155 151 152 150 147 146 145 144 142 140 138 136 133 131 129 127 126 125 125 124 123 123 123 121 120 120 117 115 116 118 116 112 113 116 115 115 113 115 113 115 111 110 112 112 111 110 108 106 104 103 108 107 109 108 105 106 110 109 112 121 128 131 137 146 148 143 135 124 110 97 86 75 64 57 42 31 22 19 19 21 22 20 16 18 17 14 13 16 17 16 18 17 16 16 19 27 35 35 42 43 42 42 44 47 51 58 65 61 65 68 61 57 59 60 56 52 45 42 46 54 61 68 76 88 91 92 95 94 94 93 92 94 93 96 95 92 94 94 91 95 92 92 96 95 91 84 92 95 97 96 94 94 95 95 100 101 103 105 107 108 111 114 116 119 117 124 134 136 140 145 151 143 130 119 111 96 77 64 62 55 43 38 38 34 32 40 
139 138 139 141 140 140 139 136 136 142 142 141 138 138 142 142 141 141 140 140 141 142 142 141 148 144 142 142 140 141 144 144 141 141 140 139 142 142 141 142 139 137 138 141 141 138 138 141 139 138 138 139 140 140 140 140 139 139 140 140 139 138 138 140 139 140 141 143 142 139 138 138 142 139 138 139 140 139 139 141 140 140 139 139 139 139 141 143 140 140 139 139 140 141 140 138 137 137 139 142 141 137 137 140 139 139 139 139 139 139 140 141 139 136 142 141 138 141 139 138 139 140 140 138 139 141 142 140 144 144 144 142 140 139 140 142 139 143 145 142 143 147 146 143 140 142 145 145 144 145 146 145 143 143 144 145 146 147 146 145 146 146 146 146 145 143 144 146 149 144 142 146 149 147 146 147 150 149 149 149 149 148 150 153 148 149 150 151 151 152 152 152 151 154 156 157 157 159 159 159 158 161 161 160 160 161 159 156 157 155 154 155 155 154 152 152 152 151 149 147 145 144 143 143 139 140 139 136 134 133 132 131 129 128 125 121 121 122 121 117 116 117 119 117 114 115 116 113 114 114 115 116 116 115 113 111 111 113 112 110 108 108 109 109 105 111 111 108 108 109 110 111 114 122 129 132 140 152 156 152 142 132 121 104 85 76 66 50 37 30 19 14 18 21 19 18 19 17 15 14 15 16 17 17 16 20 18 18 24 25 28 38 43 43 42 44 47 50 57 66 70 71 73 71 66 63 60 55 52 53 49 44 44 47 59 73 81 93 99 102 103 102 101 98 101 101 100 99 98 97 96 96 93 92 96 97 92 94 96 89 94 97 94 92 96 94 92 98 98 101 102 103 108 107 108 113 111 117 120 121 126 131 134 136 140 142 142 136 125 110 95 84 70 64 46 45 47 38 37 41 
141 140 140 140 137 137 137 136 137 140 138 139 138 138 143 143 143 142 142 142 142 141 140 139 145 142 143 144 142 142 143 142 140 141 140 140 142 140 137 137 140 140 140 140 140 139 140 141 138 138 138 138 139 139 139 139 139 139 140 140 139 138 138 140 140 140 139 139 139 139 139 139 140 139 138 139 139 139 139 140 140 138 137 137 138 138 139 140 138 138 138 138 139 141 140 139 138 138 140 141 139 136 136 138 140 140 138 136 137 139 139 138 139 137 141 139 138 139 137 137 135 136 137 137 138 139 140 140 138 140 142 143 142 141 142 142 140 140 141 142 142 142 142 143 142 143 143 142 142 142 141 141 141 141 142 143 143 144 144 144 144 143 144 145 145 145 145 146 147 145 144 145 146 147 146 145 146 147 148 150 149 148 149 152 150 150 150 149 148 148 148 148 149 150 152 154 153 152 152 155 154 155 155 154 154 155 154 152 152 153 153 152 152 153 152 151 151 150 149 148 147 147 147 147 145 143 140 137 135 136 136 136 135 131 129 128 126 122 120 121 120 118 119 119 117 116 117 116 115 115 115 116 116 116 115 114 114 115 115 113 112 112 112 112 110 111 110 108 108 108 109 114 118 124 131 137 144 152 155 155 151 142 132 115 91 75 62 50 35 27 18 15 18 19 18 17 17 15 13 13 14 15 16 16 16 21 22 23 29 32 32 35 37 36 38 39 41 44 52 58 64 65 66 65 65 66 65 60 55 44 50 54 42 44 64 76 87 98 105 110 112 109 111 112 109 109 108 106 104 103 102 102 106 103 103 100 97 98 98 92 96 99 95 94 97 95 93 98 97 100 100 101 104 104 103 108 111 114 115 117 120 123 126 130 135 139 142 141 136 126 112 102 91 68 55 54 49 40 34 34 
139 138 140 140 136 136 138 138 138 139 136 139 139 139 142 142 143 142 142 142 141 140 139 139 141 139 140 142 141 140 140 138 140 141 140 140 141 140 137 137 138 139 139 138 138 140 142 142 138 139 140 139 139 138 139 139 138 138 139 139 139 138 138 139 141 140 139 137 137 140 140 139 136 138 138 138 138 139 139 138 140 137 135 136 138 139 138 137 137 138 138 137 137 138 138 137 137 139 139 138 136 135 136 137 139 139 137 136 137 140 139 136 138 138 138 136 137 137 134 135 133 133 134 136 137 137 138 139 135 137 140 142 141 140 140 140 140 139 139 139 139 139 140 141 142 144 141 139 141 140 138 139 138 139 141 142 142 141 141 141 142 141 140 142 144 144 144 143 141 143 143 142 144 146 147 145 143 144 146 147 147 146 147 148 148 148 148 147 146 146 147 148 149 148 150 152 150 146 147 151 150 151 150 148 147 149 149 148 146 150 150 148 148 151 151 149 148 148 148 148 148 148 148 148 148 146 143 139 138 140 140 140 137 135 133 133 129 124 122 123 124 120 120 122 120 118 118 118 116 116 116 116 117 117 117 117 117 118 117 116 116 116 115 114 116 114 111 113 114 111 113 120 121 124 132 141 147 151 155 159 155 147 140 126 104 82 65 51 41 30 19 15 15 14 12 12 14 12 11 11 13 15 17 17 17 21 25 28 34 40 39 36 42 38 37 35 32 38 50 55 57 62 64 61 59 62 62 58 53 52 53 53 50 57 72 82 92 102 111 122 127 124 125 126 124 123 121 118 115 113 112 112 111 109 106 105 106 108 105 101 101 103 100 98 100 97 95 99 100 102 102 103 104 104 103 106 108 109 110 114 117 117 120 126 128 132 137 141 141 136 127 120 108 98 80 56 52 53 35 24 
136 137 140 141 138 137 139 138 140 139 137 141 142 139 139 138 141 141 140 140 140 140 140 140 143 140 140 142 141 141 142 140 142 141 139 137 139 140 139 140 137 137 137 138 139 140 141 141 138 139 140 140 138 137 138 139 137 138 138 138 138 138 138 138 138 140 139 137 137 140 139 137 135 137 138 137 136 137 138 137 140 137 136 137 139 139 138 137 136 136 137 137 136 136 136 136 137 137 137 136 135 137 137 137 135 137 137 135 137 140 139 135 136 138 136 135 137 135 131 132 132 129 128 132 135 135 136 137 137 138 139 138 137 136 136 136 137 140 140 136 136 140 140 136 139 143 139 137 140 139 135 139 136 138 141 142 142 141 139 138 141 139 137 138 140 141 140 138 137 139 140 140 141 144 145 145 144 143 143 143 143 143 144 144 144 144 145 145 146 147 147 148 148 147 148 149 147 145 145 148 146 148 148 145 143 144 145 146 142 145 147 146 146 147 148 147 147 147 147 148 148 148 147 146 148 147 144 142 142 143 142 140 136 138 138 134 131 130 128 124 127 122 122 123 121 120 120 119 120 119 119 120 121 122 122 122 123 123 123 122 122 123 121 120 122 120 118 120 122 119 120 125 123 126 134 143 149 153 159 165 165 157 150 139 122 101 77 57 40 27 17 15 15 14 13 13 11 10 10 10 13 16 19 21 22 25 29 34 38 43 45 41 47 42 40 36 29 36 48 52 56 68 72 66 60 59 59 57 53 58 52 49 61 72 78 88 99 108 116 128 138 140 142 142 141 140 137 133 129 126 125 124 121 121 117 115 117 115 110 105 109 109 106 104 105 102 99 101 102 103 102 102 103 103 104 105 106 107 109 112 115 116 118 123 125 127 131 135 137 137 134 131 122 121 110 80 58 48 39 37 
138 137 139 140 137 137 138 137 141 140 138 141 142 138 138 136 139 139 140 140 140 140 140 140 143 139 140 141 141 141 142 141 141 140 137 136 138 139 139 140 141 138 137 140 141 139 138 139 137 139 140 139 138 137 137 138 138 138 138 138 138 138 138 138 135 138 139 137 136 138 137 135 135 138 138 136 135 136 137 136 137 136 135 137 138 138 137 137 134 134 135 136 137 137 138 138 137 136 135 134 136 138 138 136 134 136 136 134 134 137 137 135 135 138 136 135 138 135 130 130 130 124 121 125 130 133 134 134 138 138 137 136 134 134 134 134 134 138 139 135 135 139 138 134 135 140 138 136 139 137 134 139 137 138 138 140 141 140 138 137 140 137 135 134 136 137 137 135 138 138 139 140 140 138 139 141 143 142 141 141 142 143 142 141 143 143 144 145 146 146 145 144 146 146 145 145 145 145 145 145 142 145 146 144 141 140 142 143 140 140 142 144 143 142 142 144 146 146 146 147 147 147 146 145 146 146 144 143 144 144 143 140 139 140 140 137 135 135 132 128 128 125 125 124 122 123 123 121 123 123 125 127 129 130 131 131 133 133 133 133 133 133 132 130 129 129 127 126 128 128 128 130 130 134 140 146 151 156 163 169 170 167 161 153 143 129 106 86 55 39 26 21 16 14 13 12 9 9 9 10 13 18 21 23 29 30 36 41 43 45 47 46 45 40 41 38 31 34 42 43 49 64 71 66 62 60 57 56 55 50 45 51 65 74 82 93 106 117 123 132 143 151 159 161 157 156 153 149 145 142 141 140 134 134 132 130 130 127 121 118 117 115 113 111 111 108 106 106 107 106 105 104 104 105 107 108 107 110 110 109 112 113 115 119 123 125 128 131 134 136 138 139 137 129 128 111 67 46 51 43 
139 137 137 138 136 137 139 138 140 140 137 139 140 137 139 138 138 139 141 142 141 140 139 138 139 137 138 140 140 140 140 138 140 141 139 138 140 140 138 139 140 137 136 140 141 138 137 138 138 139 140 140 139 139 139 139 138 139 139 138 138 138 138 138 136 138 139 137 135 136 137 136 137 137 137 136 136 136 137 137 135 134 134 135 136 135 135 136 135 135 135 136 137 137 137 138 137 136 134 135 136 137 136 135 136 137 137 135 133 135 136 137 135 138 135 137 139 135 132 128 126 121 118 122 128 132 133 133 135 135 136 135 135 134 134 134 134 134 135 136 136 135 135 135 136 139 139 138 139 136 135 139 139 137 135 135 137 138 138 137 137 136 134 133 134 136 136 135 137 137 138 139 138 136 136 139 139 139 140 140 142 143 142 140 141 142 143 144 145 145 144 143 144 144 144 143 144 146 145 143 141 143 144 143 140 139 140 141 139 137 138 141 141 138 138 140 142 142 142 143 144 145 144 143 145 144 143 142 142 143 142 141 142 139 138 139 138 134 131 132 129 128 127 126 124 126 127 125 125 126 128 131 134 137 138 138 140 140 140 140 141 142 141 139 137 139 136 132 133 135 135 136 140 143 147 150 153 158 165 169 172 174 171 164 158 150 136 122 100 77 54 34 18 13 14 13 12 11 11 11 14 17 21 23 28 31 36 43 47 48 49 51 50 44 41 37 29 29 34 37 41 53 58 58 61 61 55 52 50 51 44 47 64 73 81 97 104 121 132 141 151 160 171 176 172 170 168 165 163 161 159 158 149 148 147 145 142 140 138 136 128 125 122 121 120 118 117 116 116 114 113 111 109 110 113 112 110 112 111 108 110 112 115 119 120 121 125 129 133 136 140 143 144 141 140 132 92 57 52 44 
139 137 138 138 137 139 140 140 136 139 138 139 139 138 140 139 140 141 141 141 140 139 138 138 140 138 140 142 143 143 142 140 139 140 139 139 141 141 138 138 138 137 137 138 138 138 138 139 138 138 139 140 140 140 140 140 138 139 139 138 137 138 137 136 137 137 137 136 136 135 135 135 136 136 136 137 137 136 136 136 136 135 134 135 136 135 135 136 137 135 135 136 136 135 135 135 136 134 134 136 136 134 134 135 137 137 137 137 135 134 136 138 136 136 135 138 138 135 134 128 124 123 122 123 127 131 133 133 134 134 135 135 134 134 134 134 133 133 133 134 135 135 135 135 138 138 137 138 137 136 136 138 138 136 134 134 135 136 136 136 135 136 136 134 134 134 135 134 132 134 136 136 135 135 136 137 135 137 138 138 139 141 141 141 138 140 142 142 142 142 142 143 144 143 143 144 144 144 143 143 142 142 141 141 140 140 139 139 138 137 137 139 139 138 136 137 139 139 139 140 141 142 141 141 142 142 141 140 140 141 140 140 140 138 138 138 136 133 131 133 131 128 128 129 127 127 129 130 129 130 132 134 137 140 141 142 143 144 145 146 147 148 148 147 145 148 146 143 143 145 145 145 147 149 152 156 158 162 167 172 180 182 180 175 171 164 154 146 137 115 89 62 37 27 28 26 18 17 16 15 15 18 20 22 23 29 33 40 50 54 54 56 57 48 39 32 25 22 26 32 40 49 51 53 60 62 57 57 48 53 44 43 62 74 82 98 100 116 129 144 158 169 180 186 188 185 182 181 180 179 176 174 172 169 168 164 157 154 154 151 149 145 142 140 137 135 134 132 130 127 126 123 119 119 121 118 118 119 117 116 117 117 118 123 121 121 123 127 131 135 139 142 143 147 150 152 129 77 48 56 
141 140 141 141 139 139 139 138 134 139 140 141 140 139 141 138 142 141 140 138 137 137 138 139 140 137 138 141 141 142 142 140 138 139 138 138 140 140 138 138 139 140 141 139 137 137 139 140 136 136 137 138 139 139 139 138 138 138 138 137 136 137 136 135 136 134 134 135 135 134 132 132 135 133 134 136 137 136 135 135 139 137 136 137 137 137 137 137 135 133 132 134 135 135 134 134 134 133 134 136 136 133 133 136 133 133 136 138 137 134 134 137 136 135 133 138 136 134 135 128 123 125 127 125 126 129 132 132 135 135 134 133 133 132 133 133 131 134 134 131 132 136 137 134 137 134 134 135 134 134 135 136 135 135 135 135 135 135 134 134 134 136 137 135 134 133 133 132 129 133 135 132 132 135 136 134 134 136 137 135 135 137 140 141 137 140 142 141 139 138 140 142 144 142 142 144 144 141 140 142 143 140 138 138 139 139 138 137 137 138 138 138 139 139 137 135 140 139 139 140 141 141 140 139 138 140 140 140 139 139 138 137 137 139 139 136 134 134 134 133 133 128 128 131 129 126 129 133 134 134 136 137 140 142 143 144 147 149 150 151 152 154 155 155 150 153 154 153 153 153 152 153 151 151 155 161 164 166 172 178 180 181 182 183 185 180 172 167 153 138 118 92 62 44 37 30 25 23 21 18 18 18 20 21 23 31 33 38 52 60 59 59 54 46 35 29 24 18 19 26 37 46 47 48 55 58 57 61 57 42 40 51 57 69 86 96 102 109 118 138 159 174 187 194 199 196 193 192 192 190 187 184 185 180 182 181 173 171 174 170 170 165 161 158 155 152 150 147 147 144 143 140 134 133 134 129 128 127 126 128 127 121 120 125 128 126 126 128 131 134 138 141 145 145 150 154 151 119 68 48 
140 140 141 141 140 138 138 139 139 141 142 140 140 140 140 139 141 141 139 138 139 141 139 136 140 140 142 142 139 139 141 140 141 139 138 139 140 139 138 137 139 138 139 140 139 139 139 136 138 136 136 138 138 137 136 136 139 137 136 136 135 134 134 135 138 138 133 132 136 135 132 134 136 133 133 136 135 133 134 137 139 134 133 135 137 135 133 134 135 134 134 135 135 135 135 136 137 134 134 134 132 131 132 131 133 134 135 136 135 133 134 136 137 135 134 134 136 137 134 130 128 130 129 127 128 133 134 132 134 134 134 134 132 130 131 133 133 134 136 134 131 134 136 134 135 132 134 134 135 136 132 133 134 134 135 136 134 133 132 133 131 132 133 133 132 131 131 131 127 130 132 132 132 134 135 135 135 136 136 135 135 136 137 136 139 138 136 136 138 137 136 138 139 137 140 137 138 142 140 142 140 142 141 139 139 140 139 136 140 138 137 137 136 134 135 138 139 138 139 139 137 136 137 140 138 138 137 136 137 139 137 134 135 137 136 135 134 135 132 128 128 129 130 131 130 130 132 134 135 135 136 138 140 142 145 146 145 148 150 150 149 151 154 156 155 155 156 157 157 156 154 153 157 156 158 162 167 170 174 178 176 178 183 186 185 185 183 178 168 154 135 119 94 63 49 46 40 33 28 25 22 21 23 24 24 30 38 40 51 55 62 63 56 44 32 25 21 20 20 19 26 34 40 45 51 56 58 60 56 45 36 42 50 66 81 92 104 105 115 137 162 181 192 197 202 204 204 202 201 200 199 197 195 196 194 190 188 188 188 186 180 179 178 175 171 167 166 168 162 161 159 156 153 153 150 144 143 144 140 136 138 138 136 137 139 136 134 136 140 142 143 143 148 146 151 159 161 148 104 47 
139 139 140 142 141 140 139 139 141 142 143 142 141 140 140 141 141 142 142 139 137 137 139 140 140 140 141 142 140 140 141 140 142 139 138 139 141 141 140 139 142 140 140 139 138 139 140 137 138 137 137 138 138 137 137 137 138 137 136 137 136 135 135 136 136 136 132 132 136 136 135 136 136 134 133 134 133 132 132 135 136 136 134 132 133 136 136 134 133 132 133 135 136 135 133 132 135 133 134 135 133 133 134 133 132 133 134 135 134 133 134 137 134 135 136 135 134 133 132 130 131 132 131 130 131 134 134 131 137 136 135 135 133 131 131 132 133 132 133 133 131 132 133 132 135 132 133 133 133 134 131 133 133 133 133 133 133 132 132 133 132 132 133 133 132 131 130 130 128 129 130 130 130 131 131 131 133 133 133 134 134 135 136 137 135 136 135 135 138 137 137 139 137 136 139 137 137 141 139 140 140 142 142 140 139 140 139 137 137 135 135 135 135 133 134 136 140 137 135 137 139 139 137 136 137 137 136 135 136 139 138 135 136 136 134 132 132 133 132 131 130 132 133 133 132 132 134 135 135 136 138 140 141 142 144 145 144 146 147 148 149 151 153 154 155 156 157 157 157 157 157 158 161 161 163 166 169 171 173 176 175 178 183 186 186 187 188 185 182 169 150 133 111 83 66 58 52 42 35 32 26 22 24 28 29 32 39 45 55 61 59 52 47 38 30 23 16 14 17 19 23 32 39 42 47 52 54 56 55 44 40 53 57 59 65 77 88 99 121 147 168 183 195 203 207 208 208 207 206 206 206 204 203 204 202 198 196 196 196 194 191 190 189 188 186 183 182 182 179 177 176 173 171 171 169 163 160 163 160 155 153 151 150 153 148 147 148 149 149 149 152 155 151 157 157 163 167 165 139 87 
140 139 140 141 142 141 141 141 142 141 142 143 142 140 140 142 144 142 140 140 140 140 140 140 140 139 140 141 140 141 142 141 143 140 139 140 141 141 140 140 141 139 139 139 138 139 139 138 138 138 138 138 138 137 137 138 138 137 137 137 136 135 135 135 137 137 135 134 137 138 136 137 137 137 135 134 133 133 133 134 136 136 134 132 133 134 135 134 133 132 133 135 137 135 132 130 134 132 133 135 133 133 134 134 132 133 134 134 133 133 134 136 132 134 135 134 133 133 132 130 133 132 132 133 134 134 132 131 133 133 133 133 133 132 133 133 134 132 133 134 132 133 134 132 134 131 132 131 131 132 130 133 133 132 131 131 132 131 131 132 131 131 132 132 132 131 130 129 131 130 129 129 129 129 129 129 131 130 131 132 133 132 134 136 134 135 134 134 136 135 133 134 134 134 137 136 136 138 137 139 136 139 139 137 136 136 136 136 137 136 136 137 137 136 136 138 138 135 133 135 138 138 136 134 137 137 136 135 135 136 135 132 135 133 131 131 131 131 131 132 131 132 133 132 132 132 133 134 133 135 138 139 139 140 140 141 141 142 143 144 146 148 149 149 151 152 154 154 154 155 157 159 159 161 164 167 168 169 172 174 175 177 181 183 182 184 186 185 188 178 161 146 127 104 84 68 59 51 44 38 31 28 31 34 33 36 45 52 50 52 56 57 42 33 25 19 12 10 14 17 19 27 33 36 44 54 62 68 61 58 64 81 84 81 82 92 99 115 141 165 181 191 201 209 211 211 211 210 210 211 210 210 208 210 209 206 204 204 203 202 202 201 200 200 198 195 193 193 191 189 189 187 185 185 183 179 177 178 174 171 171 170 167 167 163 164 164 164 162 161 163 165 165 173 167 171 176 180 175 138 
142 141 140 141 142 143 143 143 142 140 140 143 143 141 141 143 144 141 139 142 144 143 141 140 140 139 140 141 141 142 143 142 143 141 140 140 140 140 139 139 139 136 138 140 139 139 139 137 138 139 139 139 138 137 137 138 138 138 138 137 136 134 134 134 137 138 137 136 138 138 137 136 137 138 138 135 134 135 135 134 138 135 134 137 136 132 131 134 135 134 133 134 135 134 133 132 133 131 132 133 132 133 134 134 133 133 133 132 132 132 132 133 133 132 131 132 134 135 133 130 131 130 131 133 133 132 131 132 131 130 131 132 134 134 134 134 133 133 133 132 131 134 136 133 132 130 132 131 131 131 130 133 132 131 130 131 132 132 131 132 129 129 130 131 132 132 131 129 133 129 128 129 130 129 129 130 131 129 130 132 132 129 130 133 133 133 133 133 134 131 129 129 132 133 135 135 134 135 136 137 137 138 138 137 136 136 136 136 135 134 134 135 135 135 135 136 137 136 136 136 135 135 136 137 136 137 137 136 136 135 133 131 133 131 130 132 132 130 129 131 129 130 131 131 130 130 131 132 133 134 136 136 136 136 136 136 137 138 139 140 141 143 144 143 145 147 148 149 150 152 155 157 155 157 160 162 163 164 167 170 172 172 175 177 176 177 180 180 181 178 165 153 138 118 97 76 63 58 52 44 36 35 39 40 40 37 45 63 62 61 55 51 44 32 22 16 11 11 13 14 16 24 30 35 47 61 73 81 79 91 103 118 122 125 126 132 138 148 164 181 194 202 208 213 214 214 213 213 212 212 211 210 211 212 211 210 209 209 208 207 208 207 207 206 204 202 200 200 201 200 199 198 196 197 196 192 190 188 184 183 186 186 183 179 180 179 178 177 178 177 177 176 183 183 179 183 185 188 192 177 
143 143 142 142 143 144 144 143 144 140 140 143 145 144 143 145 142 142 143 145 143 140 141 143 142 140 141 141 140 141 142 141 142 142 142 141 140 139 139 140 140 137 138 141 140 139 139 138 138 139 139 138 137 137 137 137 138 139 139 137 136 135 135 135 134 135 136 136 137 138 137 134 133 136 137 135 135 136 135 133 138 134 134 137 136 131 131 134 135 134 133 133 133 132 132 134 135 132 132 133 131 132 134 134 133 132 131 131 131 132 132 131 134 132 131 130 132 134 133 131 131 130 131 133 132 129 130 132 134 132 132 133 134 133 132 132 130 133 133 128 127 133 135 131 130 129 132 132 132 132 130 132 132 130 130 131 132 132 131 131 129 129 129 130 131 131 130 129 130 127 126 128 129 129 128 129 130 129 130 133 131 128 128 130 129 130 130 131 133 131 129 129 131 132 132 133 132 132 135 136 136 135 136 136 136 135 135 135 134 134 134 135 135 134 134 134 136 137 138 138 136 135 137 138 136 136 136 136 136 136 136 135 134 132 132 134 134 130 129 131 130 131 132 132 131 130 131 131 136 135 134 134 135 135 134 134 134 136 137 137 137 138 139 139 141 142 144 145 147 149 150 151 151 153 155 155 155 157 160 163 165 165 167 170 171 173 175 175 176 177 169 158 145 129 111 92 73 65 58 52 43 38 40 42 48 47 54 69 70 72 61 48 44 31 20 14 9 9 12 14 16 24 32 41 54 66 76 83 102 123 139 150 153 159 160 165 171 174 182 192 202 209 213 216 216 216 216 216 216 215 213 212 214 214 213 213 214 215 213 211 212 212 212 211 210 208 208 210 209 207 207 207 205 205 204 201 200 201 201 199 197 196 196 195 193 192 192 192 192 193 192 192 195 190 193 195 195 197 199 201 
143 144 145 146 146 146 145 143 145 142 141 143 145 145 144 145 146 144 143 143 142 141 142 143 144 142 142 142 140 140 141 140 142 142 142 143 142 140 140 141 143 139 139 140 138 137 138 137 137 138 139 138 137 137 137 136 136 137 137 136 135 135 135 135 135 135 137 137 135 137 137 133 132 134 136 136 136 136 135 133 135 135 134 133 133 133 133 134 135 135 135 136 134 133 133 134 136 133 133 133 131 132 134 134 131 131 130 130 132 133 133 132 132 133 133 131 130 130 131 131 132 132 132 133 132 130 130 132 133 132 132 132 132 131 131 131 132 134 133 128 126 131 134 129 130 129 132 132 132 133 130 132 131 130 130 131 132 131 131 131 129 129 129 129 129 129 128 128 128 126 126 128 129 129 128 128 128 128 130 132 131 128 128 129 128 129 129 130 132 131 129 130 130 131 129 131 131 130 133 134 133 131 132 134 134 133 132 132 134 134 134 134 134 134 134 134 134 134 135 136 136 136 135 133 136 136 135 134 133 134 135 136 135 132 131 132 132 129 129 131 130 131 132 132 131 131 131 131 136 135 133 132 133 134 133 133 132 135 136 136 135 135 136 136 138 139 140 141 142 143 144 145 147 148 149 149 150 153 156 158 158 157 159 162 163 165 167 167 171 173 168 160 149 136 122 107 86 70 60 58 49 37 37 43 46 61 72 71 64 69 65 53 41 30 20 14 8 6 11 15 19 25 32 43 56 67 79 90 118 141 160 174 179 183 183 189 191 194 199 205 210 214 217 219 217 216 217 218 219 217 216 215 217 216 216 216 217 217 216 215 216 215 215 215 213 212 213 214 212 210 211 211 209 209 208 206 207 206 207 207 205 206 207 205 203 205 205 204 201 201 202 203 204 201 207 205 204 209 207 211 
146 148 149 148 148 148 148 147 147 147 146 146 146 145 145 145 149 146 143 142 144 146 145 143 145 144 145 144 142 142 143 143 143 142 142 143 143 142 141 140 144 140 139 140 138 137 137 136 136 137 138 138 138 138 137 136 135 137 137 135 134 135 136 136 137 136 138 137 134 136 137 133 133 135 136 137 137 136 135 134 135 134 133 133 133 133 133 134 135 134 135 136 135 134 133 134 134 132 132 134 132 132 133 133 130 131 132 131 132 133 134 133 131 133 133 132 130 130 130 130 132 132 131 132 132 132 132 131 130 130 130 131 130 130 131 133 134 133 133 131 129 131 132 130 132 129 131 131 132 132 130 131 131 130 130 130 130 129 129 131 129 129 129 129 128 128 128 128 127 128 128 128 129 129 128 126 127 129 130 130 129 128 128 129 130 130 129 130 131 129 127 128 129 130 127 130 130 128 131 130 132 131 132 135 135 132 132 133 131 130 130 130 130 131 130 130 131 131 131 131 132 134 133 131 134 134 134 133 132 132 133 134 134 132 131 130 130 129 129 130 130 130 131 132 131 131 131 131 134 133 132 132 132 133 133 133 131 133 135 134 133 134 134 135 136 137 138 137 137 137 138 139 142 143 143 143 144 148 151 152 152 151 153 155 155 155 158 158 162 164 160 157 150 139 127 115 98 80 66 59 49 39 38 42 41 60 73 69 69 71 65 49 44 32 22 17 12 10 13 17 21 24 30 41 53 64 81 98 125 150 171 190 200 204 202 208 208 211 214 216 217 218 220 221 218 217 217 219 220 219 218 217 218 218 218 218 217 217 217 217 217 216 216 217 216 215 214 215 216 214 215 216 214 214 214 212 213 209 209 210 211 214 214 210 212 213 213 210 208 208 209 209 211 212 215 213 212 216 216 216 
150 151 151 149 148 150 152 152 152 153 152 150 148 147 148 148 145 147 148 146 145 147 148 147 145 145 146 146 144 144 147 147 145 143 142 143 144 142 140 138 144 140 141 143 141 139 138 137 135 137 137 138 139 140 138 136 138 139 139 137 135 136 137 137 136 135 136 135 132 135 139 135 134 135 136 136 136 134 133 134 137 132 132 137 137 132 130 134 133 132 132 132 133 132 132 132 131 130 132 134 133 132 133 132 130 132 134 133 132 132 133 134 131 131 131 132 133 134 132 129 130 130 130 131 133 135 133 130 130 130 131 131 130 130 132 134 135 131 130 133 132 131 131 130 134 130 131 130 131 132 129 131 130 129 129 128 127 127 128 131 128 128 129 128 127 127 128 129 127 129 129 128 127 128 126 123 128 130 130 128 127 127 128 129 130 130 129 129 130 128 127 128 128 129 126 129 130 127 129 128 128 128 130 133 132 129 129 131 130 130 130 129 130 131 131 130 130 131 130 128 128 131 134 135 131 132 134 136 136 135 135 135 134 133 133 132 131 131 131 131 130 130 131 132 132 131 131 131 133 133 133 133 133 133 134 135 130 132 134 133 133 133 134 133 136 137 138 136 134 133 135 137 140 140 140 139 140 143 144 144 148 146 149 151 149 150 153 155 154 156 154 156 153 141 130 119 108 93 75 59 48 44 42 40 43 56 66 63 69 69 66 56 51 36 25 21 18 16 17 17 21 24 31 42 51 59 75 94 127 155 177 195 208 217 213 215 219 219 220 219 220 221 221 221 221 219 218 220 221 220 219 219 219 220 220 220 217 216 217 218 217 216 217 219 220 220 219 219 217 216 217 218 216 216 217 215 217 217 219 218 214 215 218 216 216 215 213 213 215 217 216 214 215 217 215 218 218 217 221 221 
159 158 157 156 155 156 158 159 154 154 154 154 154 154 152 149 150 148 149 149 148 150 151 148 148 148 149 148 146 144 146 149 146 144 145 146 143 142 144 144 143 142 141 140 140 140 138 137 140 138 139 139 135 135 137 135 137 137 137 137 137 136 136 136 135 136 137 136 136 136 136 135 134 135 136 137 137 135 134 135 136 136 134 132 131 131 132 132 132 133 133 132 132 133 133 132 134 135 134 132 132 133 134 134 134 132 133 132 132 131 128 129 129 132 131 128 129 133 133 129 128 131 132 130 130 132 132 129 130 129 131 132 130 131 132 131 134 130 129 130 130 128 128 130 127 126 127 130 131 130 129 129 129 129 129 128 128 128 129 130 129 128 131 130 130 132 130 131 129 128 127 126 126 126 127 127 127 128 129 129 128 127 127 128 125 127 129 130 129 127 126 125 126 128 131 125 125 131 126 123 130 128 127 128 129 129 129 129 129 129 128 127 126 127 127 128 129 128 127 128 129 130 130 130 132 134 134 132 131 133 133 131 133 136 132 133 129 134 131 130 129 130 131 131 132 132 132 132 129 129 130 131 132 131 131 132 130 133 132 130 133 134 133 132 135 133 133 133 132 133 135 134 135 136 135 134 135 137 139 139 143 146 144 141 143 147 148 148 147 148 149 149 148 147 136 122 116 105 84 70 53 47 38 36 41 52 61 65 69 76 80 79 82 71 54 38 27 23 22 22 26 24 30 36 48 58 70 95 126 158 181 195 206 217 217 219 218 220 221 220 220 222 222 220 221 219 219 221 222 221 220 220 219 217 217 219 221 220 220 221 219 221 221 219 217 218 219 219 219 218 218 219 220 220 219 217 220 220 218 218 220 218 217 218 219 219 217 218 220 218 218 222 224 221 220 222 221 219 221 224 
165 164 164 163 162 162 163 164 163 163 162 160 159 158 156 155 157 157 158 155 150 150 152 152 151 151 151 150 148 146 147 149 148 145 146 148 147 146 146 145 144 144 143 142 142 141 139 138 140 139 139 139 137 138 139 138 138 138 138 138 137 136 136 135 135 136 136 136 136 137 136 134 135 135 135 136 136 134 133 133 132 132 132 132 132 132 132 132 135 134 133 133 134 135 133 130 132 133 134 133 133 134 133 132 134 131 133 132 131 132 129 131 131 132 130 129 130 132 132 131 131 129 129 132 132 130 129 131 129 129 131 131 130 130 132 131 133 132 131 131 130 129 128 128 131 130 131 132 132 131 129 129 129 130 130 130 129 129 129 130 128 127 129 129 129 131 128 129 128 128 128 128 128 127 127 126 127 127 127 127 128 128 128 127 126 129 131 130 126 124 125 126 124 122 126 127 127 127 123 126 126 128 128 127 127 128 128 126 127 128 129 127 125 124 125 127 126 126 126 128 129 130 131 131 130 132 132 130 130 132 132 130 129 134 132 131 127 132 131 130 130 129 128 129 131 132 131 130 131 130 130 132 132 132 133 134 134 135 133 131 131 131 130 131 133 132 134 135 133 133 134 133 132 134 135 134 134 135 136 136 136 141 141 138 137 138 139 142 144 145 147 148 145 143 138 131 121 111 93 77 61 51 42 39 39 45 54 63 77 92 102 104 107 99 85 69 51 37 30 29 24 26 32 39 42 48 68 87 113 147 174 194 210 219 216 221 220 220 221 221 221 220 220 221 222 222 222 222 222 221 221 221 219 219 219 219 220 221 221 220 219 220 221 220 220 221 221 221 219 219 218 219 220 220 219 219 220 221 219 220 221 221 220 222 224 223 221 219 220 220 220 224 225 221 221 225 226 224 223 225 
171 171 171 170 169 169 169 169 169 169 168 166 164 164 164 164 163 164 165 161 156 155 158 159 154 153 153 153 152 150 150 151 150 147 146 148 148 148 148 145 145 144 143 143 143 142 140 139 140 141 138 137 138 137 136 137 139 139 139 138 137 137 136 135 134 134 134 134 135 136 134 132 136 134 134 135 135 134 134 134 134 134 133 134 133 133 133 133 133 134 134 134 135 135 134 133 132 133 134 135 135 135 134 132 132 130 133 132 132 133 130 132 134 132 131 131 131 131 133 134 132 129 129 131 132 129 129 130 131 130 131 131 129 129 130 129 131 132 131 130 129 130 129 126 130 130 130 132 132 131 130 129 128 129 130 130 129 128 128 129 127 126 128 128 129 130 127 127 130 129 128 128 127 127 126 125 129 127 125 126 127 128 127 125 125 127 129 128 125 124 125 127 124 121 124 127 127 125 123 127 124 127 128 125 124 126 127 125 126 128 129 128 126 125 125 126 121 122 124 124 125 125 126 126 128 130 130 130 130 132 132 131 127 131 131 130 127 131 131 130 132 131 130 130 130 131 131 131 130 129 129 131 132 132 131 132 128 129 129 130 131 130 130 133 129 129 132 132 130 130 131 131 129 131 134 133 133 134 135 135 135 138 138 136 136 135 136 140 138 137 140 142 140 138 137 135 127 120 109 93 80 66 57 52 47 50 58 71 88 105 117 123 124 120 114 103 84 61 45 38 37 30 25 34 37 46 72 82 104 140 168 190 208 217 215 223 219 219 221 223 223 221 220 221 221 222 223 223 222 222 222 222 220 222 222 222 222 223 223 222 221 221 221 222 222 222 222 222 222 221 222 223 223 221 221 221 221 222 222 222 223 222 221 223 223 224 223 221 222 223 224 226 226 223 224 227 227 225 224 226 
176 176 177 177 176 175 175 175 173 173 173 171 170 169 170 171 169 168 168 166 163 164 165 163 160 158 158 158 157 155 154 154 155 150 149 150 149 149 149 147 147 146 145 145 145 143 141 140 141 143 140 138 139 137 136 139 140 140 139 137 137 137 136 136 134 134 134 134 135 135 134 133 134 133 133 134 134 134 135 136 137 135 133 133 133 133 133 134 130 133 136 136 134 133 134 134 133 134 134 134 134 134 133 132 130 129 133 133 132 133 130 132 134 132 130 130 131 132 133 133 131 131 130 129 130 131 131 129 132 130 131 131 130 131 131 129 130 130 130 129 129 129 129 128 128 128 129 131 131 130 130 129 127 128 128 128 127 126 127 127 127 126 129 128 128 129 126 127 131 129 127 125 125 125 125 124 129 127 125 125 126 127 125 124 126 125 124 124 126 126 126 125 125 125 126 126 125 125 125 126 126 127 125 123 122 124 126 126 126 125 125 126 128 128 126 124 122 124 125 124 124 124 125 125 126 128 129 129 129 131 131 130 129 130 130 130 129 130 130 131 130 132 134 132 130 128 130 132 127 127 128 130 131 131 129 129 130 131 132 133 134 130 128 129 131 130 131 131 129 131 132 132 128 130 132 132 131 131 133 133 134 134 132 133 135 135 135 138 137 135 136 138 138 138 138 134 130 125 122 110 103 88 80 72 67 72 81 92 103 114 125 133 133 129 125 119 107 88 67 54 44 38 33 36 34 39 64 81 99 140 168 187 205 216 215 222 214 216 218 220 221 220 219 218 219 221 223 223 222 222 222 221 220 221 222 223 223 222 222 223 223 222 222 223 222 220 220 222 221 221 221 223 223 222 221 222 221 222 222 223 225 223 221 222 220 223 223 222 224 226 225 225 222 224 225 226 225 225 228 230 
182 183 183 184 183 183 183 183 181 181 180 179 177 175 174 174 175 174 174 173 169 169 169 166 168 166 165 164 163 160 158 157 159 156 156 156 154 152 151 149 150 148 147 147 147 145 143 142 142 145 143 141 142 141 140 144 140 140 138 136 135 137 138 137 136 138 138 137 136 136 136 136 133 133 133 133 133 132 134 136 134 132 130 131 132 132 133 134 132 135 136 135 133 132 131 131 132 132 132 132 132 131 130 130 130 130 133 132 131 132 130 132 131 131 130 129 130 133 132 129 131 131 130 129 130 131 131 130 131 129 129 130 131 132 132 129 132 130 129 130 130 128 128 131 129 130 130 130 130 130 129 129 128 128 128 127 126 126 127 129 127 127 130 129 128 129 126 128 129 128 126 125 125 125 125 125 128 126 124 124 125 126 125 125 126 125 124 125 126 126 124 122 127 127 125 125 124 123 125 126 127 124 123 123 124 123 124 126 122 122 123 124 125 125 123 122 121 123 123 122 122 124 125 126 125 126 127 127 128 129 129 128 132 129 129 131 131 128 129 131 128 130 131 131 130 129 129 130 128 127 128 129 131 130 130 129 129 129 128 130 132 129 126 126 129 127 127 128 128 129 130 128 128 130 130 130 129 129 130 130 130 131 130 130 132 131 130 133 135 134 134 134 134 137 138 134 128 125 125 118 115 104 98 91 89 92 99 107 114 120 129 138 143 140 134 126 118 108 92 78 55 47 42 39 38 38 48 71 92 136 166 184 201 214 213 216 218 219 220 220 222 223 222 218 221 222 223 223 223 223 222 221 221 220 222 224 223 221 221 222 224 224 224 224 222 221 222 223 223 222 222 223 224 224 224 225 225 225 224 225 227 227 225 227 223 225 225 223 226 227 226 225 225 228 229 226 225 226 227 226 
188 189 189 190 189 189 190 190 188 187 187 186 184 182 180 180 179 180 183 181 176 175 176 175 171 170 169 169 168 166 164 164 162 161 163 164 160 156 153 151 153 150 149 149 148 145 143 143 143 145 144 143 142 141 141 142 140 140 138 135 135 137 138 138 137 139 139 138 136 136 136 136 134 134 134 133 132 131 132 135 133 131 131 132 132 131 131 131 135 134 132 132 134 135 132 129 132 131 132 133 133 132 130 129 131 131 133 130 128 130 130 133 130 132 131 130 131 134 132 128 132 129 128 131 131 128 129 132 132 129 129 130 130 131 130 127 133 129 128 129 128 125 125 129 128 129 129 129 129 129 129 129 130 130 129 128 127 128 130 131 128 127 130 128 127 128 126 128 126 126 125 126 127 128 126 125 125 124 124 124 125 126 126 127 123 125 127 127 125 124 125 125 128 124 120 124 124 120 123 127 125 122 122 125 126 123 122 123 120 123 125 124 122 120 121 122 121 122 122 120 120 122 123 123 124 125 126 127 128 128 128 128 132 128 129 129 131 127 128 129 128 127 127 129 132 133 130 127 129 128 127 128 128 128 129 130 125 125 123 125 129 129 127 128 126 124 125 127 128 128 127 124 127 127 128 129 130 130 128 125 119 121 119 117 116 114 114 117 124 127 130 129 128 132 136 135 132 130 127 124 123 118 115 112 111 110 111 116 122 126 133 139 144 147 144 136 129 123 111 99 84 67 53 44 47 51 56 79 111 142 166 184 198 212 212 214 216 217 217 218 220 222 221 220 221 221 222 223 223 222 221 221 222 222 223 225 225 224 223 223 225 226 227 226 225 226 226 225 224 225 225 223 222 223 225 225 226 226 224 224 225 224 224 226 226 227 226 225 227 228 228 229 226 228 229 229 229 228 226 223 
194 195 195 194 194 194 195 196 194 193 192 193 192 190 189 189 186 187 189 187 184 184 186 185 177 176 176 175 174 172 172 172 167 166 168 168 164 160 158 156 156 153 151 150 149 146 145 145 146 144 144 144 142 142 141 139 140 141 139 136 136 138 139 138 137 138 138 136 135 135 135 134 135 135 134 134 133 132 133 135 136 133 132 133 134 132 131 131 134 132 130 130 133 135 134 131 133 132 132 133 134 133 132 132 130 131 134 130 129 130 130 132 131 132 133 133 132 132 132 131 131 128 129 132 131 127 127 132 132 130 130 131 129 129 129 127 131 129 129 129 127 125 125 127 127 128 128 127 127 128 129 129 129 129 129 128 128 128 130 131 130 127 128 127 128 129 126 127 127 126 126 127 128 128 126 125 124 124 124 124 125 126 126 126 123 125 127 127 125 124 125 127 127 124 120 124 124 120 123 124 123 123 124 126 126 124 122 122 123 124 125 124 122 121 121 122 123 124 124 122 122 124 123 122 123 124 125 127 128 128 128 128 129 128 130 127 129 127 129 128 128 126 126 128 131 131 129 126 127 127 127 128 127 126 127 129 130 131 128 127 129 129 128 128 128 126 127 129 129 130 129 125 125 125 126 127 129 126 119 112 103 99 90 84 85 88 87 86 98 102 109 114 116 120 124 125 127 125 121 120 119 121 121 123 122 121 122 126 130 133 136 138 138 143 144 141 137 132 123 114 107 96 82 73 70 75 88 104 120 128 141 162 174 181 182 187 193 193 198 206 210 208 209 211 214 214 216 219 216 208 204 203 211 215 217 217 219 223 223 219 218 221 222 222 223 225 222 218 216 223 226 224 222 224 226 225 224 227 228 229 230 227 226 229 226 227 226 226 227 227 228 231 229 228 230 232 227 218 216 220 
200 199 199 198 198 198 199 200 200 198 197 198 198 196 195 195 195 192 191 191 191 193 192 188 186 185 184 183 180 177 176 177 173 170 171 170 166 164 164 162 160 157 154 154 152 149 147 148 148 144 145 147 146 147 146 142 140 141 140 138 137 139 139 137 139 139 138 136 135 135 135 133 136 135 135 135 135 134 135 136 136 133 131 132 133 133 133 135 133 133 133 131 130 131 132 132 134 132 130 131 133 133 133 134 128 131 135 133 131 132 130 131 130 130 131 133 131 128 129 132 129 130 131 130 128 127 128 129 129 128 130 131 130 130 132 131 130 131 131 130 128 128 128 127 129 130 129 127 126 127 128 128 127 127 128 127 127 127 128 129 132 128 128 127 129 131 127 126 130 128 127 127 127 127 125 124 126 125 124 124 125 125 125 125 127 126 126 125 125 124 124 123 125 127 122 122 123 123 125 120 123 125 126 126 125 124 124 123 125 123 121 122 124 125 123 121 119 120 120 120 121 123 123 120 121 121 123 125 126 126 126 126 126 128 132 125 127 127 130 127 126 127 127 127 126 125 125 125 125 127 129 130 128 126 126 127 124 127 127 125 128 130 129 128 127 125 125 126 125 126 126 124 126 125 125 125 124 118 105 95 94 83 65 56 64 71 69 64 64 66 76 89 96 99 100 99 102 103 99 101 99 105 107 111 112 116 122 127 129 131 133 134 137 138 137 137 137 136 130 124 120 114 105 107 106 108 114 107 86 77 84 112 122 122 119 126 136 138 149 164 170 165 165 172 173 173 177 179 171 156 146 143 161 169 172 170 175 184 184 177 175 179 180 179 182 185 180 172 177 189 199 199 198 201 203 201 197 204 211 215 216 213 212 215 225 227 228 227 226 222 223 228 213 209 208 203 183 160 156 167 
203 204 204 201 202 204 201 202 205 204 203 204 204 204 202 200 199 198 199 198 196 197 197 195 192 192 192 191 189 186 183 181 178 175 173 173 173 172 168 164 166 163 160 158 156 153 150 149 147 146 147 149 147 142 140 141 140 142 143 140 138 137 138 139 138 138 137 136 137 137 134 132 134 135 135 134 135 136 137 136 133 133 135 130 128 131 132 134 135 133 133 134 134 132 131 131 133 133 132 130 130 131 131 131 132 133 132 130 130 133 133 132 134 131 130 127 128 131 130 130 129 131 133 131 127 129 131 130 129 125 130 136 131 129 131 130 128 130 131 130 128 126 126 127 128 130 129 128 127 129 128 126 128 128 131 132 130 126 125 127 129 129 130 131 130 128 127 128 126 129 130 127 125 125 125 124 122 126 127 124 123 126 126 123 126 123 125 127 124 126 128 125 123 124 123 121 122 124 123 120 122 122 124 125 126 125 124 123 122 121 123 123 121 122 124 124 118 120 120 124 124 121 122 121 123 123 124 125 125 124 126 128 126 126 126 127 127 126 126 126 126 126 128 129 126 126 127 126 128 126 126 126 126 125 125 126 125 123 124 124 122 122 126 128 130 125 124 126 125 124 123 121 120 118 119 118 111 105 99 95 93 69 51 45 65 80 75 58 44 37 57 76 97 87 72 55 74 86 87 78 66 61 74 92 98 103 110 123 128 123 122 126 130 135 135 131 135 133 134 133 126 124 122 120 111 92 71 59 58 40 45 59 61 48 51 58 73 67 65 87 100 96 103 107 106 109 108 107 109 99 87 93 99 94 89 91 93 100 106 96 86 94 95 96 92 97 104 85 83 110 123 129 122 118 125 114 115 129 146 152 150 140 143 169 183 189 190 185 173 179 181 177 143 120 117 114 99 70 64 69 
206 207 208 205 206 207 204 206 206 206 206 207 207 207 206 205 203 202 203 203 201 202 203 200 200 198 196 194 192 190 188 187 188 185 181 179 178 177 174 171 169 165 161 160 159 156 152 151 151 149 149 149 148 144 142 142 141 142 142 140 139 139 138 137 138 138 136 135 134 135 135 134 134 134 134 133 134 135 136 136 131 132 135 132 131 132 131 133 135 133 132 132 131 131 132 133 130 132 132 132 132 132 131 129 133 132 131 131 131 132 133 134 131 130 131 128 128 131 129 130 131 131 132 131 128 129 131 129 130 127 131 132 128 130 133 129 130 131 131 131 130 129 130 131 126 127 128 128 128 129 129 129 128 127 128 130 130 127 126 127 128 128 128 130 130 129 129 129 128 129 128 127 125 125 125 124 125 127 127 125 124 125 126 126 127 126 125 124 126 125 124 123 125 126 124 122 121 123 123 121 119 122 124 124 122 121 122 123 121 121 123 123 120 120 120 119 122 122 120 123 123 121 122 120 122 122 123 124 125 124 124 125 128 127 127 126 125 124 126 128 127 126 128 128 126 126 126 124 123 123 125 127 128 126 123 122 121 122 125 128 128 125 124 125 124 124 123 120 116 107 95 85 81 80 84 87 84 83 88 91 79 60 41 55 83 93 89 63 42 31 48 78 95 81 54 44 68 78 86 78 48 39 70 96 103 94 85 93 100 99 104 112 108 105 105 106 115 119 127 130 122 111 105 102 83 54 40 44 44 35 36 37 35 24 25 42 53 39 22 31 46 54 65 65 67 72 79 80 84 97 102 97 80 66 55 59 60 56 57 51 44 43 43 49 46 41 45 43 36 41 50 54 53 51 48 48 46 50 54 57 62 58 54 67 83 93 99 88 79 82 84 75 61 45 38 34 37 32 27 20 
207 209 210 208 208 209 207 209 207 207 209 209 209 209 209 209 208 207 208 207 206 207 208 206 205 204 201 199 197 196 195 193 191 188 184 182 181 180 177 175 172 167 164 164 164 160 157 155 155 153 152 151 150 148 146 144 143 142 141 141 142 142 140 138 138 139 138 136 135 136 137 137 136 136 136 134 134 135 136 135 132 132 135 135 135 135 132 134 136 136 135 132 131 132 133 134 132 132 132 131 131 132 132 132 131 129 128 129 129 128 129 132 131 132 134 131 129 130 128 129 133 130 130 130 129 129 130 129 129 129 131 129 126 131 134 127 130 129 128 128 127 127 127 128 127 128 129 130 129 128 129 131 131 128 128 130 131 130 129 129 127 126 127 128 129 129 130 130 129 127 126 126 125 124 124 124 126 127 127 127 126 126 127 128 125 128 124 122 127 126 121 123 124 125 125 123 122 123 123 122 123 124 125 125 124 123 124 125 124 124 126 126 123 121 121 119 125 124 120 121 123 121 123 121 122 121 122 123 124 125 125 125 127 127 127 126 124 123 124 127 127 125 126 127 125 125 125 123 126 124 122 122 123 124 125 125 124 123 123 124 125 123 122 125 126 126 117 102 89 76 60 50 48 47 51 55 56 61 74 86 76 53 33 53 87 97 94 69 42 33 47 82 89 70 38 44 78 97 97 81 50 39 74 107 115 97 69 60 70 80 82 77 78 72 77 81 83 81 89 93 87 73 70 75 61 34 26 37 48 43 38 39 39 28 16 29 43 39 28 34 48 61 72 68 60 65 70 85 109 123 118 110 98 80 73 88 91 72 58 53 51 48 47 49 49 45 44 45 48 40 39 41 43 42 40 43 39 36 30 28 36 37 30 34 36 40 42 30 28 30 34 26 24 35 41 31 25 21 22 21 
209 210 212 210 211 211 209 212 209 210 210 211 211 211 211 211 210 209 210 209 208 209 210 208 206 206 205 203 202 202 200 198 194 192 190 189 187 185 182 179 176 170 167 169 168 164 161 160 158 157 155 152 151 151 150 148 144 142 141 141 142 143 141 139 138 139 139 139 138 137 136 135 135 135 134 134 133 132 132 132 134 132 135 136 136 135 133 135 134 135 135 132 132 134 135 134 133 133 132 131 131 133 134 134 132 130 130 131 131 130 131 133 130 131 134 131 130 131 129 130 133 129 129 130 129 128 129 130 128 129 130 129 128 132 132 127 133 131 130 129 129 130 129 128 130 129 129 130 130 128 129 131 132 129 128 129 131 131 130 130 127 126 126 127 128 129 129 130 128 126 125 127 126 124 124 126 125 124 125 127 128 126 125 126 124 125 123 123 126 125 123 124 122 124 125 124 124 125 124 122 125 123 122 122 124 124 124 122 123 123 125 125 122 121 120 118 124 123 119 121 122 122 124 123 123 122 122 122 123 124 125 125 125 125 126 126 124 123 123 124 124 123 125 126 124 124 125 123 124 123 124 124 125 125 124 124 126 124 119 119 122 123 123 126 121 116 99 76 57 42 33 31 26 27 31 37 43 57 76 89 74 47 39 56 91 103 89 69 39 37 58 90 90 65 29 37 69 101 101 77 47 39 74 104 108 87 55 49 72 90 84 63 44 44 63 69 55 42 51 62 49 37 37 51 54 41 33 35 38 36 32 42 41 30 20 27 32 34 31 37 51 66 77 74 66 57 58 93 130 131 119 121 119 101 97 116 122 99 75 69 64 52 46 42 41 45 45 42 40 43 40 44 44 41 44 38 40 39 32 29 33 34 32 36 36 31 30 29 34 32 29 21 24 29 27 26 30 28 25 22 
211 212 214 212 213 213 211 214 213 213 212 213 214 214 213 212 212 211 211 211 210 211 211 208 207 207 206 205 205 205 203 201 199 197 195 192 190 188 185 182 180 175 172 172 170 166 163 162 158 158 156 154 152 152 152 151 146 143 141 140 140 140 139 138 137 138 139 138 138 137 135 133 135 135 136 136 136 135 134 133 135 132 134 133 133 134 132 134 130 131 130 130 132 135 135 134 130 132 133 134 134 134 133 131 130 131 132 131 131 132 132 130 127 127 130 128 129 132 131 132 131 127 128 130 128 127 129 130 129 128 128 129 129 130 131 129 131 131 130 130 131 131 131 130 130 127 127 129 130 129 130 131 130 128 127 127 128 128 128 128 128 127 126 126 127 128 128 128 127 126 126 129 128 125 125 128 123 121 122 125 127 125 124 124 123 122 124 125 123 124 127 125 124 124 124 124 125 125 124 123 124 123 123 123 123 123 123 123 123 123 125 125 123 122 123 122 122 123 120 121 122 122 125 123 122 123 123 123 122 121 122 122 124 123 124 124 124 123 123 124 123 123 125 125 123 123 124 123 123 124 125 124 123 123 124 125 122 122 120 120 124 126 124 121 102 88 69 50 33 20 15 18 16 18 22 27 37 57 75 83 68 42 36 54 91 107 96 77 44 41 63 94 103 79 36 22 63 99 117 97 55 47 83 106 107 77 45 50 81 97 85 61 45 51 79 77 47 24 33 51 47 32 26 36 46 42 33 27 33 29 29 53 47 35 37 38 38 31 25 34 51 65 69 65 70 55 63 107 138 136 134 137 134 115 106 115 121 106 88 84 79 62 61 62 54 50 48 44 40 42 42 44 40 41 46 39 37 37 34 34 36 34 33 36 37 32 25 28 32 34 26 20 18 25 24 29 31 25 22 23 
214 213 214 212 214 215 212 216 215 214 213 213 214 215 213 212 214 213 213 213 212 213 213 210 211 210 208 205 205 207 206 204 201 199 196 193 191 189 188 187 185 181 177 174 172 168 165 163 160 159 157 155 154 152 152 152 149 146 144 142 141 140 138 138 139 139 139 138 137 137 136 134 136 137 138 139 139 138 137 137 136 134 134 131 132 134 133 133 133 131 130 129 131 133 133 132 131 132 132 132 132 133 132 131 128 130 131 129 129 130 130 127 128 127 129 128 129 132 130 131 129 127 128 130 128 128 130 130 131 128 127 128 129 128 129 132 129 129 129 128 128 127 127 127 130 128 127 128 129 129 128 128 128 127 127 127 127 127 127 127 129 128 127 125 126 127 127 127 125 124 126 128 127 124 124 127 125 123 122 124 126 126 126 126 125 122 125 126 121 123 128 125 127 126 124 123 124 125 124 123 122 124 126 125 122 121 123 126 124 124 126 126 124 124 125 124 121 123 121 122 122 122 124 123 118 121 124 125 124 123 123 122 124 123 122 122 123 123 124 125 123 123 125 125 122 121 122 121 124 125 124 121 119 120 124 127 123 121 121 120 121 124 120 110 86 62 41 30 20 11 8 10 11 13 15 18 30 50 64 65 55 34 19 42 81 96 101 82 62 44 54 81 104 97 65 31 46 79 108 103 73 60 85 113 111 84 48 45 75 102 99 79 44 50 80 79 51 28 33 49 57 41 27 28 32 31 28 27 26 34 58 84 60 32 41 45 44 30 21 30 47 58 62 62 76 75 71 98 130 134 130 133 130 116 109 110 113 111 100 94 89 81 84 87 72 59 58 56 59 45 51 47 40 44 41 37 40 41 38 40 42 38 35 32 33 36 28 24 23 30 28 27 27 34 32 37 35 28 22 14 
216 214 214 213 215 216 213 217 215 215 214 214 215 215 214 214 215 214 215 215 214 215 215 211 212 212 210 207 208 209 209 206 205 203 200 198 196 194 194 193 189 186 180 176 175 173 170 166 164 161 159 158 156 153 151 151 151 148 146 146 145 143 140 139 140 141 140 138 137 138 138 138 136 135 135 136 136 135 135 135 136 135 135 131 132 136 134 132 135 133 132 132 133 132 131 131 132 132 131 130 130 131 132 132 132 132 132 131 131 131 131 130 131 130 131 129 129 131 128 128 129 128 129 129 129 130 131 128 131 130 128 129 129 127 128 132 131 132 132 130 127 125 126 128 131 130 129 128 128 129 128 127 128 128 127 127 128 128 128 127 129 128 127 125 126 127 127 126 124 124 124 125 124 123 123 125 126 125 125 125 126 126 127 127 127 125 125 124 123 124 126 126 126 125 124 124 124 123 123 122 120 122 122 121 119 119 122 124 122 122 123 123 121 120 121 121 121 123 121 122 123 123 125 123 119 122 124 124 125 125 125 124 123 122 122 122 122 122 123 125 123 122 124 124 122 121 122 120 117 121 124 124 123 122 121 120 124 121 122 119 116 121 117 100 75 46 28 23 15 10 11 10 6 7 9 12 22 40 52 52 36 25 24 55 87 89 87 68 51 30 34 58 75 81 74 45 31 54 78 85 78 66 75 106 116 103 69 49 67 97 103 85 63 59 79 80 66 50 42 44 48 41 32 25 24 26 30 33 21 48 102 115 67 27 40 64 54 33 17 18 28 41 56 72 96 106 81 82 117 125 124 133 122 116 115 111 111 117 111 101 103 102 97 99 89 72 77 89 85 66 76 74 61 62 53 42 45 50 47 43 38 34 34 30 24 33 32 25 23 26 26 26 32 39 32 34 25 25 27 21 
220 217 216 215 218 219 216 219 216 216 216 216 216 216 217 217 214 214 215 216 215 216 215 212 210 211 211 209 210 212 210 207 207 206 204 201 198 195 193 192 191 188 182 178 178 179 175 170 168 163 160 160 159 154 151 150 150 147 146 147 147 145 142 140 138 140 140 139 137 137 138 138 141 139 138 138 137 136 135 136 133 134 135 131 132 137 133 129 132 131 132 135 135 133 132 132 130 131 133 133 132 132 131 129 133 131 129 130 130 128 128 130 130 129 132 129 129 130 126 126 130 129 129 129 129 132 131 126 130 131 130 130 130 128 127 130 129 131 131 129 125 124 127 130 129 130 130 128 128 130 131 130 128 127 127 127 128 129 128 126 128 128 127 125 126 128 128 126 126 125 125 124 124 124 124 125 123 125 126 125 125 125 125 125 127 129 124 122 125 125 124 127 122 122 124 125 124 123 121 120 125 123 120 120 122 124 125 124 123 123 124 124 121 120 121 119 122 123 120 122 124 125 127 124 124 124 123 122 122 123 123 122 120 121 122 123 122 121 121 124 122 121 122 123 122 122 123 121 118 120 122 121 121 122 122 121 120 118 123 121 117 123 117 94 62 37 26 25 16 13 16 14 12 10 9 10 16 29 38 38 30 24 47 78 101 93 74 62 46 36 50 75 75 78 88 68 42 45 68 75 62 52 57 76 89 88 69 55 67 90 97 86 66 51 60 65 71 66 53 46 32 37 36 27 23 29 34 34 27 46 102 104 61 30 42 73 67 42 20 13 18 30 50 71 107 118 100 99 120 126 135 146 126 120 118 106 102 114 115 106 107 104 97 115 114 82 83 110 108 91 91 88 72 74 79 61 58 70 67 54 40 36 43 43 37 40 38 27 28 25 30 35 35 38 31 36 29 29 31 23 
